riccardo-csl/Motion-Planning-for-TIAGo-Manipulator/T3_G_7/head_scan/head_scan/tiago_traiettorie_SG/2a-3b/pick_2a_rep2.txt
time arm_1_joint arm_2_joint arm_3_joint arm_4_joint arm_5_joint arm_6_joint arm_7_joint
1.06443500519 0.0725479942935158 0.0914216258511405 -3.0999420058855023 1.363793073800948 2.050055466436567 -0.5200274433105061 1.1400123400116875
1.07462692261 0.0725479942935158 0.0914216258511405 -3.0999420058855023 1.363793073800948 2.050055466436567 -0.5200046160127103 1.1399895127138917
1.07462692261 0.0725479942935158 0.0914216258511405 -3.0999420058855023 1.363793073800948 2.050055466436567 -0.5200046160127103 1.1399895127138917
1.08460497856 0.0725479942935158 0.0914216258511405 -3.0999420058855023 1.363793073800948 2.050055466436567 -0.5200502706083019 1.1400351673094833
1.08460497856 0.0725479942935158 0.0914216258511405 -3.0999420058855023 1.363793073800948 2.050055466436567 -0.5200502706083019 1.1400351673094833
1.0944378376 0.0725479942935158 0.0914216258511405 -3.0999420058855023 1.363793073800948 2.050055466436567 -0.5200228778509468 1.1400077745521284
1.0944378376 0.0725479942935158 0.0914216258511405 -3.0999420058855023 1.363793073800948 2.050055466436567 -0.5200228778509468 1.1400077745521284
1.10487890244 0.0725479942935158 0.0914216258511405 -3.0999420058855023 1.363793073800948 2.050055466436567 -0.5200046160127103 1.1399895127138917
1.10487890244 0.0725479942935158 0.0914216258511405 -3.0999420058855023 1.363793073800948 2.050055466436567 -0.5200046160127103 1.1399895127138917
1.11468982697 0.0725479942935158 0.0914216258511405 -3.0999420058855023 1.363793073800948 2.050055466436567 -0.5200046160127103 1.1399895127138917
1.11468982697 0.0725479942935158 0.0914216258511405 -3.0999420058855023 1.363793073800948 2.050055466436567 -0.5200046160127103 1.1399895127138917
1.12451100349 0.0725479942935158 0.0914216258511405 -3.0999420058855023 1.363793073800948 2.050055466436567 -0.5200046160127103 1.1399895127138917
1.12451100349 0.0725479942935158 0.0914216258511405 -3.0999420058855023 1.363793073800948 2.050055466436567 -0.5200046160127103 1.1399895127138917
1.13466286659 0.0725479942935158 0.0914216258511405 -3.0999420058855023 1.363793073800948 2.050055466436567 -0.5200502706083019 1.1400351673094833
1.13466286659 0.0725479942935158 0.0914216258511405 -3.0999420058855023 1.363793073800948 2.050055466436567 -0.5200502706083019 1.1400351673094833
1.14468288422 0.0725479942935158 0.0914216258511405 -3.0999420058855023 1.363793073800948 2.050055466436567 -0.5200502706083019 1.1400351673094833
1.14468288422 0.0725479942935158 0.0914216258511405 -3.0999420058855023 1.363793073800948 2.050055466436567 -0.5200502706083019 1.1400351673094833
1.15449690819 0.0725479942935158 0.0914216258511405 -3.0999420058855023 1.363793073800948 2.050055466436567 -0.5200502706083019 1.1400351673094833
1.15449690819 0.0725479942935158 0.0914216258511405 -3.0999420058855023 1.363793073800948 2.050055466436567 -0.5200502706083019 1.1400351673094833
1.16467189789 0.0725479942935158 0.0914216258511405 -3.0999420058855023 1.363793073800948 2.050055466436567 -0.5200502706083019 1.1400351673094833
1.16467189789 0.0725479942935158 0.0914216258511405 -3.0999420058855023 1.363793073800948 2.050055466436567 -0.5200502706083019 1.1400351673094833
1.17568397522 0.0725479942935158 0.0914216258511405 -3.0999420058855023 1.363793073800948 2.050055466436567 -0.5200502706083019 1.1400351673094833
1.17568397522 0.0725479942935158 0.0914216258511405 -3.0999420058855023 1.363793073800948 2.050055466436567 -0.5200502706083019 1.1400351673094833
1.18434381485 0.0725479942935158 0.0914216258511405 -3.0999420058855023 1.363793073800948 2.050055466436567 -0.5200502706083019 1.1400351673094833
1.18434381485 0.0725479942935158 0.0914216258511405 -3.0999420058855023 1.363793073800948 2.050055466436567 -0.5200502706083019 1.1400351673094833
1.19458389282 0.0725479942935158 0.0914216258511405 -3.0999420058855023 1.363793073800948 2.050055466436567 -0.5200502706083019 1.1400351673094833
1.19458389282 0.0725479942935158 0.0914216258511405 -3.0999420058855023 1.363793073800948 2.050055466436567 -0.5200502706083019 1.1400351673094833
1.20466899872 0.0725479942935158 0.0914216258511405 -3.0999420058855023 1.363793073800948 2.050055466436567 -0.5200502706083019 1.1400351673094833
1.20466899872 0.0725479942935158 0.0914216258511405 -3.0999420058855023 1.363793073800948 2.050055466436567 -0.5200502706083019 1.1400351673094833
1.21451497078 0.0725633343048674 0.0914216258511405 -3.0999420058855023 1.363793073800948 2.050055466436567 -0.5200046160127103 1.1399895127138917
1.21451497078 0.0725633343048674 0.0914216258511405 -3.0999420058855023 1.363793073800948 2.050055466436567 -0.5200046160127103 1.1399895127138917
1.22465586662 0.0725633343048674 0.0914216258511405 -3.0999420058855023 1.363793073800948 2.050055466436567 -0.5200046160127103 1.1399895127138917
1.22465586662 0.0725633343048674 0.0914216258511405 -3.0999420058855023 1.363793073800948 2.050055466436567 -0.5200046160127103 1.1399895127138917
1.23468089104 0.0725633343048674 0.0914216258511405 -3.0999420058855023 1.363793073800948 2.050055466436567 -0.5200046160127103 1.1399895127138917
1.23468089104 0.0725633343048674 0.0914216258511405 -3.0999420058855023 1.363793073800948 2.050055466436567 -0.5200046160127103 1.1399895127138917
1.24480295181 0.0725633343048674 0.0914216258511405 -3.0999420058855023 1.363793073800948 2.050055466436567 -0.5200046160127103 1.1399895127138917
1.24480295181 0.0725633343048674 0.0914216258511405 -3.0999420058855023 1.363793073800948 2.050055466436567 -0.5200046160127103 1.1399895127138917
1.25467181206 0.0725633343048674 0.0914216258511405 -3.0999420058855023 1.363793073800948 2.050055466436567 -0.5200502706083019 1.1400351673094833
1.25467181206 0.0725633343048674 0.0914216258511405 -3.0999420058855023 1.363793073800948 2.050055466436567 -0.5200502706083019 1.1400351673094833
1.26428198814 0.0725633343048674 0.0914216258511405 -3.0999420058855023 1.363793073800948 2.050055466436567 -0.5200046160127103 1.1399895127138917
1.26428198814 0.0725633343048674 0.0914216258511405 -3.0999420058855023 1.363793073800948 2.050055466436567 -0.5200046160127103 1.1399895127138917
1.27444195747 0.0725633343048674 0.0914216258511405 -3.0999420058855023 1.363793073800948 2.050055466436567 -0.5200046160127103 1.1399895127138917
1.27444195747 0.0725633343048674 0.0914216258511405 -3.0999420058855023 1.363793073800948 2.050055466436567 -0.5200046160127103 1.1399895127138917
1.28451085091 0.0725633343048674 0.0914216258511405 -3.0999420058855023 1.363793073800948 2.050055466436567 -0.5200046160127103 1.1399895127138917
1.28451085091 0.0725633343048674 0.0914216258511405 -3.0999420058855023 1.363793073800948 2.050055466436567 -0.5200046160127103 1.1399895127138917
1.29446482658 0.0725633343048674 0.0914216258511405 -3.0999420058855023 1.363793073800948 2.050055466436567 -0.5200046160127103 1.1399895127138917
1.29446482658 0.0725633343048674 0.0914216258511405 -3.0999420058855023 1.363793073800948 2.050055466436567 -0.5200046160127103 1.1399895127138917
1.30536794662 0.0725633343048674 0.0914216258511405 -3.0999420058855023 1.363793073800948 2.050055466436567 -0.5200502706083019 1.1400351673094833
1.30536794662 0.0725633343048674 0.0914216258511405 -3.0999420058855023 1.363793073800948 2.050055466436567 -0.5200502706083019 1.1400351673094833
1.31457591057 0.0725633343048674 0.0914216258511405 -3.0999420058855023 1.363793073800948 2.050055466436567 -0.5200502706083019 1.1400351673094833
1.31457591057 0.0725633343048674 0.0914216258511405 -3.0999420058855023 1.363793073800948 2.050055466436567 -0.5200502706083019 1.1400351673094833
1.32433700562 0.0725633343048674 0.0914216258511405 -3.0999420058855023 1.363793073800948 2.050055466436567 -0.5200502706083019 1.1400351673094833
1.32433700562 0.0725633343048674 0.0914216258511405 -3.0999420058855023 1.363793073800948 2.050055466436567 -0.5200502706083019 1.1400351673094833
1.33465981483 0.0725633343048674 0.0914216258511405 -3.0999420058855023 1.363793073800948 2.050055466436567 -0.5200502706083019 1.1400351673094833
1.33465981483 0.0725633343048674 0.0914216258511405 -3.0999420058855023 1.363793073800948 2.050055466436567 -0.5200502706083019 1.1400351673094833
1.34466791153 0.0725633343048674 0.0914216258511405 -3.0999420058855023 1.363793073800948 2.050055466436567 -0.5200502706083019 1.1400351673094833
1.34466791153 0.0725633343048674 0.0914216258511405 -3.0999420058855023 1.363793073800948 2.050055466436567 -0.5200502706083019 1.1400351673094833
1.35470485687 0.0725633343048674 0.0914216258511405 -3.0999420058855023 1.363793073800948 2.050055466436567 -0.5200502706083019 1.1400351673094833
1.35470485687 0.0725633343048674 0.0914216258511405 -3.0999420058855023 1.363793073800948 2.050055466436567 -0.5200502706083019 1.1400351673094833
1.36454892159 0.0725633343048674 0.0914216258511405 -3.0999420058855023 1.363793073800948 2.050055466436567 -0.5200046160127103 1.1399895127138917
1.36454892159 0.0725633343048674 0.0914216258511405 -3.0999420058855023 1.363793073800948 2.050055466436567 -0.5200046160127103 1.1399895127138917
1.37443780899 0.0725633343048674 0.0914216258511405 -3.0999420058855023 1.363793073800948 2.050055466436567 -0.5200502706083019 1.1400351673094833
1.37443780899 0.0725633343048674 0.0914216258511405 -3.0999420058855023 1.363793073800948 2.050055466436567 -0.5200502706083019 1.1400351673094833
1.38463282585 0.0725633343048674 0.0914216258511405 -3.0999420058855023 1.363793073800948 2.050055466436567 -0.5200502706083019 1.1400351673094833
1.38463282585 0.0725633343048674 0.0914216258511405 -3.0999420058855023 1.363793073800948 2.050055466436567 -0.5200502706083019 1.1400351673094833
1.39443302155 0.0725633343048674 0.0914216258511405 -3.0999420058855023 1.363793073800948 2.050055466436567 -0.5200502706083019 1.1400351673094833
1.39443302155 0.0725633343048674 0.0914216258511405 -3.0999420058855023 1.363793073800948 2.050055466436567 -0.5200502706083019 1.1400351673094833
1.40445399284 0.0725633343048674 0.0914216258511405 -3.0999420058855023 1.363793073800948 2.050055466436567 -0.5200502706083019 1.1400351673094833
1.40445399284 0.0725633343048674 0.0914216258511405 -3.0999420058855023 1.363793073800948 2.050055466436567 -0.5200502706083019 1.1400351673094833
1.41454386711 0.0725633343048674 0.0914216258511405 -3.0999420058855023 1.363793073800948 2.050055466436567 -0.5200502706083019 1.1400351673094833
1.41454386711 0.0725633343048674 0.0914216258511405 -3.0999420058855023 1.363793073800948 2.050055466436567 -0.5200502706083019 1.1400351673094833
1.42454791069 0.0725633343048674 0.0914216258511405 -3.0999420058855023 1.363793073800948 2.050055466436567 -0.5200502706083019 1.1400351673094833
1.42454791069 0.0725633343048674 0.0914216258511405 -3.0999420058855023 1.363793073800948 2.050055466436567 -0.5200502706083019 1.1400351673094833
1.43462586403 0.0725633343048674 0.0914216258511405 -3.0999420058855023 1.363793073800948 2.050055466436567 -0.5200502706083019 1.1400351673094833
1.43462586403 0.0725633343048674 0.0914216258511405 -3.0999420058855023 1.363793073800948 2.050055466436567 -0.5200502706083019 1.1400351673094833
1.4446709156 0.0725633343048674 0.0914216258511405 -3.0999420058855023 1.363793073800948 2.050055466436567 -0.5200502706083019 1.1400351673094833
1.4446709156 0.0725633343048674 0.0914216258511405 -3.0999420058855023 1.363793073800948 2.050055466436567 -0.5200502706083019 1.1400351673094833
1.45468497276 0.0725633343048674 0.0914216258511405 -3.0999420058855023 1.363793073800948 2.050055466436567 -0.5200502706083019 1.1400351673094833
1.45468497276 0.0725633343048674 0.0914216258511405 -3.0999420058855023 1.363793073800948 2.050055466436567 -0.5200502706083019 1.1400351673094833
1.46464896202 0.0725633343048674 0.0914216258511405 -3.0999420058855023 1.363793073800948 2.050055466436567 -0.5200502706083019 1.1400351673094833
1.46464896202 0.0725633343048674 0.0914216258511405 -3.0999420058855023 1.363793073800948 2.050055466436567 -0.5200502706083019 1.1400351673094833
1.47464394569 0.0725633343048674 0.0914216258511405 -3.0999420058855023 1.363793073800948 2.050055466436567 -0.5200502706083019 1.1400351673094833
1.47464394569 0.0725633343048674 0.0914216258511405 -3.0999420058855023 1.363793073800948 2.050055466436567 -0.5200502706083019 1.1400351673094833
1.48467588425 0.0725633343048674 0.0914216258511405 -3.0999420058855023 1.363793073800948 2.050055466436567 -0.5200502706083019 1.1400351673094833
1.48467588425 0.0725633343048674 0.0914216258511405 -3.0999420058855023 1.363793073800948 2.050055466436567 -0.5200502706083019 1.1400351673094833
1.4944858551 0.0725633343048674 0.0914216258511405 -3.0999420058855023 1.363793073800948 2.050055466436567 -0.5200502706083019 1.1400351673094833
1.4944858551 0.0725633343048674 0.0914216258511405 -3.0999420058855023 1.363793073800948 2.050055466436567 -0.5200502706083019 1.1400351673094833
1.50461387634 0.0725633343048674 0.0914216258511405 -3.0999420058855023 1.363793073800948 2.050055466436567 -0.5200502706083019 1.1400351673094833
1.50461387634 0.0725633343048674 0.0914216258511405 -3.0999420058855023 1.363793073800948 2.050055466436567 -0.5200502706083019 1.1400351673094833
1.51449394226 0.0725633343048674 0.0914216258511405 -3.0999420058855023 1.363793073800948 2.050055466436567 -0.5200502706083019 1.1400351673094833
1.51449394226 0.0725633343048674 0.0914216258511405 -3.0999420058855023 1.363793073800948 2.050055466436567 -0.5200502706083019 1.1400351673094833
1.52447390556 0.0725633343048674 0.0914216258511405 -3.0999420058855023 1.363793073800948 2.050055466436567 -0.5200502706083019 1.1400351673094833
1.52447390556 0.0725633343048674 0.0914216258511405 -3.0999420058855023 1.363793073800948 2.050055466436567 -0.5200502706083019 1.1400351673094833
1.53444290161 0.0725633343048674 0.0914216258511405 -3.0999420058855023 1.363793073800948 2.050055466436567 -0.5200502706083019 1.1400351673094833
1.53444290161 0.0725633343048674 0.0914216258511405 -3.0999420058855023 1.363793073800948 2.050055466436567 -0.5200502706083019 1.1400351673094833
1.54459500313 0.0725633343048674 0.0914216258511405 -3.0999420058855023 1.363793073800948 2.050055466436567 -0.5200502706083019 1.1400351673094833
1.54459500313 0.0725633343048674 0.0914216258511405 -3.0999420058855023 1.363793073800948 2.050055466436567 -0.5200502706083019 1.1400351673094833
1.55433988571 0.0725633343048674 0.0914216258511405 -3.0999420058855023 1.363793073800948 2.050055466436567 -0.5200502706083019 1.1400351673094833
1.55433988571 0.0725633343048674 0.0914216258511405 -3.0999420058855023 1.363793073800948 2.050055466436567 -0.5200502706083019 1.1400351673094833
1.56441998482 0.0725633343048674 0.0914216258511405 -3.0999420058855023 1.363793073800948 2.050055466436567 -0.5200502706083019 1.1400351673094833
1.56441998482 0.0725633343048674 0.0914216258511405 -3.0999420058855023 1.363793073800948 2.050055466436567 -0.5200502706083019 1.1400351673094833
1.5746409893 0.0725633343048674 0.0914216258511405 -3.0999420058855023 1.363793073800948 2.050055466436567 -0.5200502706083019 1.1400351673094833
1.5746409893 0.0725633343048674 0.0914216258511405 -3.0999420058855023 1.363793073800948 2.050055466436567 -0.5200502706083019 1.1400351673094833
1.58450484276 0.0725633343048674 0.0914216258511405 -3.0999420058855023 1.363793073800948 2.050055466436567 -0.5200502706083019 1.1400351673094833
1.58450484276 0.0725633343048674 0.0914216258511405 -3.0999420058855023 1.363793073800948 2.050055466436567 -0.5200502706083019 1.1400351673094833
1.59447193146 0.0725633343048674 0.0914216258511405 -3.0999420058855023 1.363793073800948 2.050055466436567 -0.5200502706083019 1.1400351673094833
1.59447193146 0.0725633343048674 0.0914216258511405 -3.0999420058855023 1.363793073800948 2.050055466436567 -0.5200502706083019 1.1400351673094833
1.60471200943 0.0725633343048674 0.0914216258511405 -3.0999420058855023 1.363793073800948 2.050055466436567 -0.5200502706083019 1.1400351673094833
1.60471200943 0.0725633343048674 0.0914216258511405 -3.0999420058855023 1.363793073800948 2.050055466436567 -0.5200502706083019 1.1400351673094833
1.61451601982 0.0725633343048674 0.0914216258511405 -3.0999420058855023 1.363793073800948 2.050055466436567 -0.5200502706083019 1.1400351673094833
1.61451601982 0.0725633343048674 0.0914216258511405 -3.0999420058855023 1.363793073800948 2.050055466436567 -0.5200502706083019 1.1400351673094833
1.62454891205 0.0725633343048674 0.0914216258511405 -3.0999420058855023 1.363793073800948 2.050055466436567 -0.5200502706083019 1.1400351673094833
1.62454891205 0.0725633343048674 0.0914216258511405 -3.0999420058855023 1.363793073800948 2.050055466436567 -0.5200502706083019 1.1400351673094833
1.63444781303 0.0725633343048674 0.0914216258511405 -3.0999420058855023 1.363793073800948 2.050055466436567 -0.5200502706083019 1.1400351673094833
1.63444781303 0.0725633343048674 0.0914216258511405 -3.0999420058855023 1.363793073800948 2.050055466436567 -0.5200502706083019 1.1400351673094833
1.64444494247 0.0725633343048674 0.0914216258511405 -3.0999420058855023 1.363793073800948 2.050055466436567 -0.5200502706083019 1.1400351673094833
1.64444494247 0.0725633343048674 0.0914216258511405 -3.0999420058855023 1.363793073800948 2.050055466436567 -0.5200502706083019 1.1400351673094833
1.6545779705 0.0725633343048674 0.0914216258511405 -3.0999420058855023 1.363793073800948 2.050055466436567 -0.5200502706083019 1.1400351673094833
1.6545779705 0.0725633343048674 0.0914216258511405 -3.0999420058855023 1.363793073800948 2.050055466436567 -0.5200502706083019 1.1400351673094833
1.66463899612 0.0725633343048674 0.0914216258511405 -3.0999420058855023 1.363793073800948 2.050055466436567 -0.5200502706083019 1.1400351673094833
1.66463899612 0.0725633343048674 0.0914216258511405 -3.0999420058855023 1.363793073800948 2.050055466436567 -0.5200502706083019 1.1400351673094833
1.67442393303 0.0725633343048674 0.0914216258511405 -3.0999420058855023 1.363793073800948 2.050055466436567 -0.5200502706083019 1.1400351673094833
1.67442393303 0.0725633343048674 0.0914216258511405 -3.0999420058855023 1.363793073800948 2.050055466436567 -0.5200502706083019 1.1400351673094833
1.68511486053 0.0725633343048674 0.0914216258511405 -3.0999420058855023 1.363793073800948 2.050046335517449 -0.5200502706083019 1.1400351673094833
1.68511486053 0.0725633343048674 0.0914216258511405 -3.0999420058855023 1.363793073800948 2.050046335517449 -0.5200502706083019 1.1400351673094833
1.69425392151 0.0725633343048674 0.0914216258511405 -3.0999420058855023 1.363793073800948 2.050046335517449 -0.5200502706083019 1.1400351673094833
1.69425392151 0.0725633343048674 0.0914216258511405 -3.0999420058855023 1.363793073800948 2.050046335517449 -0.5200502706083019 1.1400351673094833
1.70455098152 0.0725633343048674 0.0914216258511405 -3.0999420058855023 1.363793073800948 2.050046335517449 -0.5200502706083019 1.1400351673094833
1.70455098152 0.0725633343048674 0.0914216258511405 -3.0999420058855023 1.363793073800948 2.050046335517449 -0.5200502706083019 1.1400351673094833
1.71422290802 0.0725633343048674 0.0914216258511405 -3.0999420058855023 1.363793073800948 2.050055466436567 -0.5200091814722694 1.1399940781734508
1.71422290802 0.0725633343048674 0.0914216258511405 -3.0999420058855023 1.363793073800948 2.050055466436567 -0.5200091814722694 1.1399940781734508
1.72423100471 0.0725633343048674 0.0914216258511405 -3.0999420058855023 1.363793073800948 2.050055466436567 -0.5200091814722694 1.1399940781734508
1.72423100471 0.0725633343048674 0.0914216258511405 -3.0999420058855023 1.363793073800948 2.050055466436567 -0.5200091814722694 1.1399940781734508
1.7343018055 0.0725633343048674 0.0914216258511405 -3.0999420058855023 1.363793073800948 2.050055466436567 -0.5200091814722694 1.1399940781734508
1.7343018055 0.0725633343048674 0.0914216258511405 -3.0999420058855023 1.363793073800948 2.050055466436567 -0.5200091814722694 1.1399940781734508
1.74423289299 0.0725633343048674 0.0914216258511405 -3.0999420058855023 1.363793073800948 2.050055466436567 -0.5200091814722694 1.1399940781734508
1.74423289299 0.0725633343048674 0.0914216258511405 -3.0999420058855023 1.363793073800948 2.050055466436567 -0.5200091814722694 1.1399940781734508
1.75423693657 0.0725633343048674 0.0914216258511405 -3.0999420058855023 1.363793073800948 2.050055466436567 -0.5200091814722694 1.1399940781734508
1.75423693657 0.0725633343048674 0.0914216258511405 -3.0999420058855023 1.363793073800948 2.050055466436567 -0.5200091814722694 1.1399940781734508
1.76420688629 0.0725633343048674 0.0914216258511405 -3.0999420058855023 1.363793073800948 2.050055466436567 -0.5200091814722694 1.1399940781734508
1.76420688629 0.0725633343048674 0.0914216258511405 -3.0999420058855023 1.363793073800948 2.050055466436567 -0.5200091814722694 1.1399940781734508
1.77421998978 0.0725633343048674 0.0914216258511405 -3.0999420058855023 1.363793073800948 2.050055466436567 -0.5200091814722694 1.1399940781734508
1.77421998978 0.0725633343048674 0.0914216258511405 -3.0999420058855023 1.363793073800948 2.050055466436567 -0.5200091814722694 1.1399940781734508
1.78421282768 0.0725633343048674 0.0914216258511405 -3.0999420058855023 1.363793073800948 2.050055466436567 -0.5200091814722694 1.1399940781734508
1.78421282768 0.0725633343048674 0.0914216258511405 -3.0999420058855023 1.363793073800948 2.050055466436567 -0.5200091814722694 1.1399940781734508
1.79426598549 0.0725633343048674 0.0914216258511405 -3.0999420058855023 1.363793073800948 2.050055466436567 -0.5200091814722694 1.1399940781734508
1.79426598549 0.0725633343048674 0.0914216258511405 -3.0999420058855023 1.363793073800948 2.050055466436567 -0.5200091814722694 1.1399940781734508
1.80427193642 0.0725633343048674 0.0914216258511405 -3.0999420058855023 1.363793073800948 2.050055466436567 -0.5200091814722694 1.1399940781734508
1.80427193642 0.0725633343048674 0.0914216258511405 -3.0999420058855023 1.363793073800948 2.050055466436567 -0.5200091814722694 1.1399940781734508
1.81421589851 0.0725633343048674 0.0914216258511405 -3.0999420058855023 1.363793073800948 2.050055466436567 -0.5200091814722694 1.1399940781734508
1.81421589851 0.0725633343048674 0.0914216258511405 -3.0999420058855023 1.363793073800948 2.050055466436567 -0.5200091814722694 1.1399940781734508
1.82428002357 0.0725633343048674 0.0914216258511405 -3.0999420058855023 1.363793073800948 2.050055466436567 -0.5200091814722694 1.1399940781734508
1.82428002357 0.0725633343048674 0.0914216258511405 -3.0999420058855023 1.363793073800948 2.050055466436567 -0.5200091814722694 1.1399940781734508
1.83422589302 0.0725633343048674 0.0914216258511405 -3.0999420058855023 1.363793073800948 2.050055466436567 -0.5200091814722694 1.1399940781734508
1.83422589302 0.0725633343048674 0.0914216258511405 -3.0999420058855023 1.363793073800948 2.050055466436567 -0.5200091814722694 1.1399940781734508
1.84418487549 0.0725633343048674 0.0914216258511405 -3.0999420058855023 1.363793073800948 2.050055466436567 -0.5200091814722694 1.1399940781734508
1.84418487549 0.0725633343048674 0.0914216258511405 -3.0999420058855023 1.363793073800948 2.050055466436567 -0.5200091814722694 1.1399940781734508
1.85420703888 0.0725633343048674 0.0914216258511405 -3.0999420058855023 1.363793073800948 2.050055466436567 -0.5200091814722694 1.1399940781734508
1.85420703888 0.0725633343048674 0.0914216258511405 -3.0999420058855023 1.363793073800948 2.050055466436567 -0.5200091814722694 1.1399940781734508
1.86418485641 0.0725633343048674 0.0914216258511405 -3.0999420058855023 1.363793073800948 2.050055466436567 -0.5200091814722694 1.1399940781734508
1.86418485641 0.0725633343048674 0.0914216258511405 -3.0999420058855023 1.363793073800948 2.050055466436567 -0.5200091814722694 1.1399940781734508
1.87415003777 0.0725633343048674 0.0914216258511405 -3.0999420058855023 1.363793073800948 2.050055466436567 -0.5200091814722694 1.1399940781734508
1.87415003777 0.0725633343048674 0.0914216258511405 -3.0999420058855023 1.363793073800948 2.050055466436567 -0.5200091814722694 1.1399940781734508
1.88421201706 0.0725633343048674 0.0914216258511405 -3.0999420058855023 1.363793073800948 2.050055466436567 -0.5200091814722694 1.1399940781734508
1.88421201706 0.0725633343048674 0.0914216258511405 -3.0999420058855023 1.363793073800948 2.050055466436567 -0.5200091814722694 1.1399940781734508
1.89422082901 0.0725633343048674 0.0914216258511405 -3.0999420058855023 1.363793073800948 2.050055466436567 -0.5200091814722694 1.1399940781734508
1.89422082901 0.0725633343048674 0.0914216258511405 -3.0999420058855023 1.363793073800948 2.050055466436567 -0.5200091814722694 1.1399940781734508
1.90422081947 0.0725633343048674 0.0914216258511405 -3.0999420058855023 1.363793073800948 2.050055466436567 -0.5200091814722694 1.1399940781734508
1.90422081947 0.0725633343048674 0.0914216258511405 -3.0999420058855023 1.363793073800948 2.050055466436567 -0.5200091814722694 1.1399940781734508
1.91426992416 0.0725633343048674 0.0914216258511405 -3.0999420058855023 1.363793073800948 2.050055466436567 -0.5200091814722694 1.1399940781734508
1.91426992416 0.0725633343048674 0.0914216258511405 -3.0999420058855023 1.363793073800948 2.050055466436567 -0.5200091814722694 1.1399940781734508
1.92415094376 0.0725633343048674 0.0914216258511405 -3.0999420058855023 1.363793073800948 2.050055466436567 -0.5200091814722694 1.1399940781734508
1.92415094376 0.0725633343048674 0.0914216258511405 -3.0999420058855023 1.363793073800948 2.050055466436567 -0.5200091814722694 1.1399940781734508
1.93421888351 0.0725633343048674 0.0914216258511405 -3.0999420058855023 1.363793073800948 2.050055466436567 -0.5200091814722694 1.1399940781734508
1.93421888351 0.0725633343048674 0.0914216258511405 -3.0999420058855023 1.363793073800948 2.050055466436567 -0.5200091814722694 1.1399940781734508
1.94423389435 0.0725633343048674 0.0914216258511405 -3.0999420058855023 1.363793073800948 2.050055466436567 -0.5200091814722694 1.1399940781734508
1.94423389435 0.0725633343048674 0.0914216258511405 -3.0999420058855023 1.363793073800948 2.050055466436567 -0.5200091814722694 1.1399940781734508
1.95425987244 0.0725633343048674 0.0914216258511405 -3.0999420058855023 1.363793073800948 2.050055466436567 -0.5200091814722694 1.1399940781734508
1.95425987244 0.0725633343048674 0.0914216258511405 -3.0999420058855023 1.363793073800948 2.050055466436567 -0.5200091814722694 1.1399940781734508
1.96425485611 0.0725633343048674 0.0914216258511405 -3.0999420058855023 1.363793073800948 2.050055466436567 -0.5200091814722694 1.1399940781734508
1.96425485611 0.0725633343048674 0.0914216258511405 -3.0999420058855023 1.363793073800948 2.050055466436567 -0.5200091814722694 1.1399940781734508
1.97421002388 0.0725633343048674 0.0914216258511405 -3.0999420058855023 1.363793073800948 2.050055466436567 -0.5200091814722694 1.1399940781734508
1.97421002388 0.0725633343048674 0.0914216258511405 -3.0999420058855023 1.363793073800948 2.050055466436567 -0.5200091814722694 1.1399940781734508
1.98423194885 0.0725633343048674 0.0914216258511405 -3.0999420058855023 1.363793073800948 2.050055466436567 -0.5200091814722694 1.1399940781734508
1.98423194885 0.0725633343048674 0.0914216258511405 -3.0999420058855023 1.363793073800948 2.050055466436567 -0.5200091814722694 1.1399940781734508
1.9941868782 0.0725633343048674 0.0914216258511405 -3.0999420058855023 1.363793073800948 2.050055466436567 -0.5200091814722694 1.1399940781734508
1.9941868782 0.0725633343048674 0.0914216258511405 -3.0999420058855023 1.363793073800948 2.050055466436567 -0.5200091814722694 1.1399940781734508
2.00419402122 0.0725633343048674 0.0914216258511405 -3.0999420058855023 1.363793073800948 2.050055466436567 -0.5200091814722694 1.1399940781734508
2.00419402122 0.0725633343048674 0.0914216258511405 -3.0999420058855023 1.363793073800948 2.050055466436567 -0.5200091814722694 1.1399940781734508
2.01423382759 0.0725633343048674 0.0914216258511405 -3.0999420058855023 1.363793073800948 2.050055466436567 -0.5200091814722694 1.1399940781734508
2.01423382759 0.0725633343048674 0.0914216258511405 -3.0999420058855023 1.363793073800948 2.050055466436567 -0.5200091814722694 1.1399940781734508
2.02418494225 0.0725633343048674 0.0914216258511405 -3.0999420058855023 1.363793073800948 2.050055466436567 -0.5200091814722694 1.1399940781734508
2.02418494225 0.0725633343048674 0.0914216258511405 -3.0999420058855023 1.363793073800948 2.050055466436567 -0.5200091814722694 1.1399940781734508
2.03462791443 0.0725633343048674 0.0914216258511405 -3.0999420058855023 1.363793073800948 2.050055466436567 -0.5200091814722694 1.1399940781734508
2.03462791443 0.0725633343048674 0.0914216258511405 -3.0999420058855023 1.363793073800948 2.050055466436567 -0.5200091814722694 1.1399940781734508
2.04455089569 0.0725633343048674 0.0914216258511405 -3.0999420058855023 1.363793073800948 2.050055466436567 -0.5200091814722694 1.1399940781734508
2.04455089569 0.0725633343048674 0.0914216258511405 -3.0999420058855023 1.363793073800948 2.050055466436567 -0.5200091814722694 1.1399940781734508
2.05465102196 0.0725633343048674 0.0914216258511405 -3.0999420058855023 1.363793073800948 2.050055466436567 -0.5200091814722694 1.1399940781734508
2.05465102196 0.0725633343048674 0.0914216258511405 -3.0999420058855023 1.363793073800948 2.050055466436567 -0.5200091814722694 1.1399940781734508
2.06454396248 0.0725633343048674 0.0914216258511405 -3.0999420058855023 1.363793073800948 2.050055466436567 -0.5200091814722694 1.1399940781734508
2.06454396248 0.0725633343048674 0.0914216258511405 -3.0999420058855023 1.363793073800948 2.050055466436567 -0.5200091814722694 1.1399940781734508
2.07464599609 0.0725633343048674 0.0914216258511405 -3.0999420058855023 1.363793073800948 2.050055466436567 -0.5200091814722694 1.1399940781734508
2.07464599609 0.0725633343048674 0.0914216258511405 -3.0999420058855023 1.363793073800948 2.050055466436567 -0.5200091814722694 1.1399940781734508
2.08466982841 0.0725633343048674 0.0914216258511405 -3.0999420058855023 1.363793073800948 2.050055466436567 -0.5200091814722694 1.1399940781734508
2.08466982841 0.0725633343048674 0.0914216258511405 -3.0999420058855023 1.363793073800948 2.050055466436567 -0.5200091814722694 1.1399940781734508
2.09468483925 0.0725633343048674 0.0914216258511405 -3.0999420058855023 1.363793073800948 2.050055466436567 -0.5200091814722694 1.1399940781734508
2.09468483925 0.0725633343048674 0.0914216258511405 -3.0999420058855023 1.363793073800948 2.050055466436567 -0.5200091814722694 1.1399940781734508
2.10471892357 0.0725633343048674 0.0914216258511405 -3.0999420058855023 1.363793073800948 2.050055466436567 -0.5200091814722694 1.1399940781734508
2.10471892357 0.0725633343048674 0.0914216258511405 -3.0999420058855023 1.363793073800948 2.050055466436567 -0.5200091814722694 1.1399940781734508
2.11452484131 0.0725633343048674 0.0914216258511405 -3.0999420058855023 1.363793073800948 2.050055466436567 -0.5200091814722694 1.1399940781734508
2.11452484131 0.0725633343048674 0.0914216258511405 -3.0999420058855023 1.363793073800948 2.050055466436567 -0.5200091814722694 1.1399940781734508
2.12467193604 0.0725633343048674 0.0914216258511405 -3.0999420058855023 1.363793073800948 2.050055466436567 -0.5200091814722694 1.1399940781734508
2.12467193604 0.0725633343048674 0.0914216258511405 -3.0999420058855023 1.363793073800948 2.050055466436567 -0.5200091814722694 1.1399940781734508
2.1346719265 0.0725633343048674 0.0914216258511405 -3.0999420058855023 1.363793073800948 2.050055466436567 -0.5200091814722694 1.1399940781734508
2.1346719265 0.0725633343048674 0.0914216258511405 -3.0999420058855023 1.363793073800948 2.050055466436567 -0.5200091814722694 1.1399940781734508
2.14468693733 0.0725633343048674 0.0914216258511405 -3.0999420058855023 1.363793073800948 2.050055466436567 -0.5200091814722694 1.1399940781734508
2.14468693733 0.0725633343048674 0.0914216258511405 -3.0999420058855023 1.363793073800948 2.050055466436567 -0.5200091814722694 1.1399940781734508
2.15455293655 0.0725633343048674 0.0914216258511405 -3.0999420058855023 1.363793073800948 2.050055466436567 -0.5200091814722694 1.1399940781734508
2.15455293655 0.0725633343048674 0.0914216258511405 -3.0999420058855023 1.363793073800948 2.050055466436567 -0.5200091814722694 1.1399940781734508
2.16465902328 0.0725633343048674 0.0914216258511405 -3.0999420058855023 1.363793073800948 2.050055466436567 -0.5200091814722694 1.1399940781734508
2.16465902328 0.0725633343048674 0.0914216258511405 -3.0999420058855023 1.363793073800948 2.050055466436567 -0.5200091814722694 1.1399940781734508
2.17447400093 0.0725633343048674 0.0914216258511405 -3.0999420058855023 1.363793073800948 2.050055466436567 -0.5200091814722694 1.1399940781734508
2.17447400093 0.0725633343048674 0.0914216258511405 -3.0999420058855023 1.363793073800948 2.050055466436567 -0.5200091814722694 1.1399940781734508
2.18467497826 0.0725633343048674 0.0914216258511405 -3.0999420058855023 1.363793073800948 2.050055466436567 -0.5200091814722694 1.1399940781734508
2.18467497826 0.0725633343048674 0.0914216258511405 -3.0999420058855023 1.363793073800948 2.050055466436567 -0.5200091814722694 1.1399940781734508
2.19466686249 0.0725633343048674 0.0914216258511405 -3.0999420058855023 1.363793073800948 2.050055466436567 -0.5200091814722694 1.1399940781734508
2.19466686249 0.0725633343048674 0.0914216258511405 -3.0999420058855023 1.363793073800948 2.050055466436567 -0.5200091814722694 1.1399940781734508
2.2051949501 0.0725633343048674 0.0914216258511405 -3.0999420058855023 1.363793073800948 2.050055466436567 -0.5200091814722694 1.1399940781734508
2.2051949501 0.0725633343048674 0.0914216258511405 -3.0999420058855023 1.363793073800948 2.050055466436567 -0.5200091814722694 1.1399940781734508
2.21468782425 0.0725633343048674 0.0914216258511405 -3.0999420058855023 1.363793073800948 2.050055466436567 -0.5200091814722694 1.1399940781734508
2.21468782425 0.0725633343048674 0.0914216258511405 -3.0999420058855023 1.363793073800948 2.050055466436567 -0.5200091814722694 1.1399940781734508
2.2246928215 0.0725633343048674 0.0914216258511405 -3.0999420058855023 1.363793073800948 2.050055466436567 -0.5200091814722694 1.1399940781734508
2.2246928215 0.0725633343048674 0.0914216258511405 -3.0999420058855023 1.363793073800948 2.050055466436567 -0.5200091814722694 1.1399940781734508
2.23459792137 0.0725633343048674 0.0914216258511405 -3.0999420058855023 1.363793073800948 2.050055466436567 -0.5200091814722694 1.1399940781734508
2.23459792137 0.0725633343048674 0.0914216258511405 -3.0999420058855023 1.363793073800948 2.050055466436567 -0.5200091814722694 1.1399940781734508
2.24470090866 0.0725633343048674 0.0914216258511405 -3.0999420058855023 1.363793073800948 2.050055466436567 -0.5200091814722694 1.1399940781734508
2.24470090866 0.0725633343048674 0.0914216258511405 -3.0999420058855023 1.363793073800948 2.050055466436567 -0.5200091814722694 1.1399940781734508
2.25472402573 0.0725633343048674 0.0914216258511405 -3.0999420058855023 1.363793073800948 2.050055466436567 -0.5200091814722694 1.1399940781734508
2.25472402573 0.0725633343048674 0.0914216258511405 -3.0999420058855023 1.363793073800948 2.050055466436567 -0.5200091814722694 1.1399940781734508
2.2646689415 0.0725633343048674 0.0914216258511405 -3.0999420058855023 1.363793073800948 2.050055466436567 -0.5200091814722694 1.1399940781734508
2.2646689415 0.0725633343048674 0.0914216258511405 -3.0999420058855023 1.363793073800948 2.050055466436567 -0.5200091814722694 1.1399940781734508
2.27464699745 0.0725633343048674 0.0914216258511405 -3.0999420058855023 1.363793073800948 2.050055466436567 -0.5200091814722694 1.1399940781734508
2.27464699745 0.0725633343048674 0.0914216258511405 -3.0999420058855023 1.363793073800948 2.050055466436567 -0.5200091814722694 1.1399940781734508
2.28469800949 0.0725633343048674 0.0914216258511405 -3.0999420058855023 1.363793073800948 2.050055466436567 -0.5200091814722694 1.1399940781734508
2.28469800949 0.0725633343048674 0.0914216258511405 -3.0999420058855023 1.363793073800948 2.050055466436567 -0.5200091814722694 1.1399940781734508
2.29473781586 0.0725633343048674 0.0914216258511405 -3.0999420058855023 1.363793073800948 2.050055466436567 -0.5200091814722694 1.1399940781734508
2.29473781586 0.0725633343048674 0.0914216258511405 -3.0999420058855023 1.363793073800948 2.050055466436567 -0.5200091814722694 1.1399940781734508
2.30470085144 0.0725633343048674 0.0914216258511405 -3.0999420058855023 1.363793073800948 2.050055466436567 -0.5200091814722694 1.1399940781734508
2.30470085144 0.0725633343048674 0.0914216258511405 -3.0999420058855023 1.363793073800948 2.050055466436567 -0.5200091814722694 1.1399940781734508
2.31462287903 0.0725633343048674 0.0914216258511405 -3.0999420058855023 1.363793073800948 2.050055466436567 -0.5200091814722694 1.1399940781734508
2.31462287903 0.0725633343048674 0.0914216258511405 -3.0999420058855023 1.363793073800948 2.050055466436567 -0.5200091814722694 1.1399940781734508
2.32466387749 0.0725633343048674 0.0914216258511405 -3.0999420058855023 1.363793073800948 2.050055466436567 -0.5200091814722694 1.1399940781734508
2.32466387749 0.0725633343048674 0.0914216258511405 -3.0999420058855023 1.363793073800948 2.050055466436567 -0.5200091814722694 1.1399940781734508
2.33462095261 0.0725633343048674 0.0914216258511405 -3.0999420058855023 1.363793073800948 2.050055466436567 -0.5200091814722694 1.1399940781734508
2.33462095261 0.0725633343048674 0.0914216258511405 -3.0999420058855023 1.363793073800948 2.050055466436567 -0.5200091814722694 1.1399940781734508
2.34466290474 0.0725633343048674 0.0914216258511405 -3.0999420058855023 1.363793073800948 2.050055466436567 -0.5200091814722694 1.1399940781734508
2.34466290474 0.0725633343048674 0.0914216258511405 -3.0999420058855023 1.363793073800948 2.050055466436567 -0.5200091814722694 1.1399940781734508
2.35471796989 0.0725633343048674 0.0914216258511405 -3.0999420058855023 1.363793073800948 2.050055466436567 -0.5200091814722694 1.1399940781734508
2.35471796989 0.0725633343048674 0.0914216258511405 -3.0999420058855023 1.363793073800948 2.050055466436567 -0.5200091814722694 1.1399940781734508
2.36470603943 0.0725633343048674 0.0914216258511405 -3.0999420058855023 1.363793073800948 2.050055466436567 -0.5200091814722694 1.1399940781734508
2.36470603943 0.0725633343048674 0.0914216258511405 -3.0999420058855023 1.363793073800948 2.050055466436567 -0.5200091814722694 1.1399940781734508
2.37465190887 0.0725633343048674 0.0914216258511405 -3.0999420058855023 1.363793073800948 2.050055466436567 -0.5200091814722694 1.1399940781734508
2.37465190887 0.0725633343048674 0.0914216258511405 -3.0999420058855023 1.363793073800948 2.050055466436567 -0.5200091814722694 1.1399940781734508
2.38468980789 0.0725633343048674 0.0914216258511405 -3.0999420058855023 1.363793073800948 2.050055466436567 -0.5200091814722694 1.1399940781734508
2.38468980789 0.0725633343048674 0.0914216258511405 -3.0999420058855023 1.363793073800948 2.050055466436567 -0.5200091814722694 1.1399940781734508
2.39464902878 0.0725633343048674 0.0914216258511405 -3.0999420058855023 1.363793073800948 2.050055466436567 -0.5200091814722694 1.1399940781734508
2.39464902878 0.0725633343048674 0.0914216258511405 -3.0999420058855023 1.363793073800948 2.050055466436567 -0.5200091814722694 1.1399940781734508
2.40469098091 0.0725633343048674 0.0914216258511405 -3.0999420058855023 1.363793073800948 2.050055466436567 -0.5200091814722694 1.1399940781734508
2.40469098091 0.0725633343048674 0.0914216258511405 -3.0999420058855023 1.363793073800948 2.050055466436567 -0.5200091814722694 1.1399940781734508
2.414675951 0.0725633343048674 0.0914216258511405 -3.0999420058855023 1.363793073800948 2.050055466436567 -0.5200091814722694 1.1399940781734508
2.414675951 0.0725633343048674 0.0914216258511405 -3.0999420058855023 1.363793073800948 2.050055466436567 -0.5200091814722694 1.1399940781734508
2.42468881607 0.0725633343048674 0.0914216258511405 -3.0999420058855023 1.363793073800948 2.050055466436567 -0.5200091814722694 1.1399940781734508
2.42468881607 0.0725633343048674 0.0914216258511405 -3.0999420058855023 1.363793073800948 2.050055466436567 -0.5200091814722694 1.1399940781734508
2.43468785286 0.0725633343048674 0.0914216258511405 -3.0999420058855023 1.363793073800948 2.050055466436567 -0.5200091814722694 1.1399940781734508
2.43468785286 0.0725633343048674 0.0914216258511405 -3.0999420058855023 1.363793073800948 2.050055466436567 -0.5200091814722694 1.1399940781734508
2.44476795197 0.0725633343048674 0.0914216258511405 -3.0999420058855023 1.363793073800948 2.050055466436567 -0.5200091814722694 1.1399940781734508
2.44476795197 0.0725633343048674 0.0914216258511405 -3.0999420058855023 1.363793073800948 2.050055466436567 -0.5200091814722694 1.1399940781734508
2.45469784737 0.0725633343048674 0.0914216258511405 -3.0999420058855023 1.363793073800948 2.050055466436567 -0.5200091814722694 1.1399940781734508
2.45469784737 0.0725633343048674 0.0914216258511405 -3.0999420058855023 1.363793073800948 2.050055466436567 -0.5200091814722694 1.1399940781734508
2.4646859169 0.0725633343048674 0.0914216258511405 -3.0999420058855023 1.363793073800948 2.050055466436567 -0.5200091814722694 1.1399940781734508
2.4646859169 0.0725633343048674 0.0914216258511405 -3.0999420058855023 1.363793073800948 2.050055466436567 -0.5200091814722694 1.1399940781734508
2.47468400002 0.0725633343048674 0.0914216258511405 -3.0999420058855023 1.363793073800948 2.050055466436567 -0.5200091814722694 1.1399940781734508
2.47468400002 0.0725633343048674 0.0914216258511405 -3.0999420058855023 1.363793073800948 2.050055466436567 -0.5200091814722694 1.1399940781734508
2.48448300362 0.0725633343048674 0.0914216258511405 -3.0999420058855023 1.363793073800948 2.050055466436567 -0.5200091814722694 1.1399940781734508
2.48448300362 0.0725633343048674 0.0914216258511405 -3.0999420058855023 1.363793073800948 2.050055466436567 -0.5200091814722694 1.1399940781734508
2.49448299408 0.0725633343048674 0.0914216258511405 -3.0999420058855023 1.363793073800948 2.050055466436567 -0.5200091814722694 1.1399940781734508
2.49448299408 0.0725633343048674 0.0914216258511405 -3.0999420058855023 1.363793073800948 2.050055466436567 -0.5200091814722694 1.1399940781734508
2.50469183922 0.0725633343048674 0.0914216258511405 -3.0999420058855023 1.363793073800948 2.050055466436567 -0.5200091814722694 1.1399940781734508
2.50469183922 0.0725633343048674 0.0914216258511405 -3.0999420058855023 1.363793073800948 2.050055466436567 -0.5200091814722694 1.1399940781734508
2.51453304291 0.0725633343048674 0.0914216258511405 -3.0999420058855023 1.363793073800948 2.050055466436567 -0.5200091814722694 1.1399940781734508
2.51453304291 0.0725633343048674 0.0914216258511405 -3.0999420058855023 1.363793073800948 2.050055466436567 -0.5200091814722694 1.1399940781734508
2.52464795113 0.0725633343048674 0.0914216258511405 -3.0999420058855023 1.363793073800948 2.050055466436567 -0.5200091814722694 1.1399940781734508
2.52464795113 0.0725633343048674 0.0914216258511405 -3.0999420058855023 1.363793073800948 2.050055466436567 -0.5200091814722694 1.1399940781734508
2.53469085693 0.0725633343048674 0.0914216258511405 -3.0999420058855023 1.363793073800948 2.050055466436567 -0.5200091814722694 1.1399940781734508
2.53469085693 0.0725633343048674 0.0914216258511405 -3.0999420058855023 1.363793073800948 2.050055466436567 -0.5200091814722694 1.1399940781734508
2.54478001595 0.0725633343048674 0.0914216258511405 -3.0999420058855023 1.363793073800948 2.050055466436567 -0.5200091814722694 1.1399940781734508
2.54478001595 0.0725633343048674 0.0914216258511405 -3.0999420058855023 1.363793073800948 2.050055466436567 -0.5200091814722694 1.1399940781734508
2.55470180511 0.0725633343048674 0.0914216258511405 -3.0999420058855023 1.363793073800948 2.050055466436567 -0.5200091814722694 1.1399940781734508
2.55470180511 0.0725633343048674 0.0914216258511405 -3.0999420058855023 1.363793073800948 2.050055466436567 -0.5200091814722694 1.1399940781734508
2.56469082832 0.0725633343048674 0.0914216258511405 -3.0999420058855023 1.363793073800948 2.050055466436567 -0.5200091814722694 1.1399940781734508
2.56469082832 0.0725633343048674 0.0914216258511405 -3.0999420058855023 1.363793073800948 2.050055466436567 -0.5200091814722694 1.1399940781734508
2.57463002205 0.0725633343048674 0.0914216258511405 -3.0999420058855023 1.363793073800948 2.050055466436567 -0.5200091814722694 1.1399940781734508
2.57463002205 0.0725633343048674 0.0914216258511405 -3.0999420058855023 1.363793073800948 2.050055466436567 -0.5200091814722694 1.1399940781734508
2.58465790749 0.0725633343048674 0.0914216258511405 -3.0999420058855023 1.363793073800948 2.050055466436567 -0.5200091814722694 1.1399940781734508
2.58465790749 0.0725633343048674 0.0914216258511405 -3.0999420058855023 1.363793073800948 2.050055466436567 -0.5200091814722694 1.1399940781734508
2.59467697144 0.0725633343048674 0.0914216258511405 -3.0999420058855023 1.363793073800948 2.050055466436567 -0.5200091814722694 1.1399940781734508
2.59467697144 0.0725633343048674 0.0914216258511405 -3.0999420058855023 1.363793073800948 2.050055466436567 -0.5200091814722694 1.1399940781734508
2.60462284088 0.0725633343048674 0.0914216258511405 -3.099650545669822 1.363793073800948 2.050055466436567 -0.5200320087700652 1.1400169054712466
2.60462284088 0.0725633343048674 0.0914216258511405 -3.099650545669822 1.363793073800948 2.050055466436567 -0.5200320087700652 1.1400169054712466
2.61429190636 0.0725633343048674 0.0914216258511405 -3.099650545669822 1.363793073800948 2.050055466436567 -0.5200320087700652 1.1400169054712466
2.61429190636 0.0725633343048674 0.0914216258511405 -3.099650545669822 1.363793073800948 2.050055466436567 -0.5200320087700652 1.1400169054712466
2.62422680855 0.072578674316219 0.0914216258511405 -3.0993590854541413 1.363793073800948 2.050055466436567 -0.5200137469318284 1.13999864363301
2.62422680855 0.072578674316219 0.0914216258511405 -3.0993590854541413 1.363793073800948 2.050055466436567 -0.5200137469318284 1.13999864363301
2.63429188728 0.072578674316219 0.0914216258511405 -3.0993590854541413 1.363793073800948 2.050055466436567 -0.5200137469318284 1.13999864363301
2.63429188728 0.072578674316219 0.0914216258511405 -3.0993590854541413 1.363793073800948 2.050055466436567 -0.5200137469318284 1.13999864363301
2.64423084259 0.072609354338922 0.0914216258511405 -3.098285284659529 1.363793073800948 2.050055466436567 -0.5200183123913877 1.1400032090925691
2.64423084259 0.072609354338922 0.0914216258511405 -3.098285284659529 1.363793073800948 2.050055466436567 -0.5200183123913877 1.1400032090925691
2.654515028 0.072609354338922 0.0914216258511405 -3.098285284659529 1.363793073800948 2.050055466436567 -0.5200183123913877 1.1400032090925691
2.654515028 0.072609354338922 0.0914216258511405 -3.098285284659529 1.363793073800948 2.050055466436567 -0.5200183123913877 1.1400032090925691
2.66426086426 0.0726553743729769 0.0914216258511405 -3.096735943513016 1.363793073800948 2.050055466436567 -0.5200502706083019 1.1400351673094833
2.66426086426 0.0726553743729769 0.0914216258511405 -3.096735943513016 1.363793073800948 2.050055466436567 -0.5200502706083019 1.1400351673094833
2.67459392548 0.0726553743729769 0.0914216258511405 -3.096735943513016 1.363793073800948 2.050055466436567 -0.5200502706083019 1.1400351673094833
2.67459392548 0.0726553743729769 0.0914216258511405 -3.096735943513016 1.363793073800948 2.050055466436567 -0.5200502706083019 1.1400351673094833
2.68469190598 0.0726553743729769 0.0914216258511405 -3.096735943513016 1.363793073800948 2.050055466436567 -0.5200502706083019 1.1400351673094833
2.68469190598 0.0726553743729769 0.0914216258511405 -3.096735943513016 1.363793073800948 2.050055466436567 -0.5200502706083019 1.1400351673094833
2.6947259903 0.0726553743729769 0.0914216258511405 -3.096735943513016 1.363793073800948 2.050055466436567 -0.5200502706083019 1.1400351673094833
2.6947259903 0.0726553743729769 0.0914216258511405 -3.096735943513016 1.363793073800948 2.050055466436567 -0.5200502706083019 1.1400351673094833
2.70471191406 0.0726553743729769 0.0914216258511405 -3.096735943513016 1.363793073800948 2.050055466436567 -0.5200502706083019 1.1400351673094833
2.70471191406 0.0726553743729769 0.0914216258511405 -3.096735943513016 1.363793073800948 2.050055466436567 -0.5200502706083019 1.1400351673094833
2.7144639492 0.0726553743729769 0.0914216258511405 -3.096735943513016 1.363793073800948 2.050055466436567 -0.5200502706083019 1.1400351673094833
2.7144639492 0.0726553743729769 0.0914216258511405 -3.096735943513016 1.363793073800948 2.050055466436567 -0.5200502706083019 1.1400351673094833
2.72469496727 0.0726553743729769 0.0914216258511405 -3.096735943513016 1.363793073800948 2.050055466436567 -0.5200502706083019 1.1400351673094833
2.72469496727 0.0726553743729769 0.0914216258511405 -3.096735943513016 1.363793073800948 2.050055466436567 -0.5200502706083019 1.1400351673094833
2.73457503319 0.0726553743729769 0.0914216258511405 -3.096735943513016 1.363793073800948 2.050055466436567 -0.5200502706083019 1.1400351673094833
2.73457503319 0.0726553743729769 0.0914216258511405 -3.096735943513016 1.363793073800948 2.050055466436567 -0.5200502706083019 1.1400351673094833
2.74469900131 0.0726553743729769 0.0914216258511405 -3.096735943513016 1.363793073800948 2.050055466436567 -0.5200502706083019 1.1400351673094833
2.74469900131 0.0726553743729769 0.0914216258511405 -3.096735943513016 1.363793073800948 2.050055466436567 -0.5200502706083019 1.1400351673094833
2.75467395782 0.0726553743729769 0.0914216258511405 -3.096735943513016 1.363793073800948 2.050055466436567 -0.5200502706083019 1.1400351673094833
2.75467395782 0.0726553743729769 0.0914216258511405 -3.096735943513016 1.363793073800948 2.050055466436567 -0.5200502706083019 1.1400351673094833
2.76475787163 0.0726553743729769 0.0914216258511405 -3.096735943513016 1.363793073800948 2.050055466436567 -0.5200502706083019 1.1400351673094833
2.76475787163 0.0726553743729769 0.0914216258511405 -3.096735943513016 1.363793073800948 2.050055466436567 -0.5200502706083019 1.1400351673094833
2.77470397949 0.0726553743729769 0.0914216258511405 -3.096735943513016 1.363793073800948 2.050055466436567 -0.5200502706083019 1.1400351673094833
2.77470397949 0.0726553743729769 0.0914216258511405 -3.096735943513016 1.363793073800948 2.050055466436567 -0.5200502706083019 1.1400351673094833
2.78472280502 0.0726553743729769 0.0914216258511405 -3.096735943513016 1.363793073800948 2.050055466436567 -0.5200502706083019 1.1400351673094833
2.78472280502 0.0726553743729769 0.0914216258511405 -3.096735943513016 1.363793073800948 2.050055466436567 -0.5200502706083019 1.1400351673094833
2.79470300674 0.0726553743729769 0.0914216258511405 -3.096735943513016 1.363793073800948 2.050055466436567 -0.5200502706083019 1.1400351673094833
2.79470300674 0.0726553743729769 0.0914216258511405 -3.096735943513016 1.363793073800948 2.050055466436567 -0.5200502706083019 1.1400351673094833
2.80471801758 0.0726553743729769 0.0914216258511405 -3.096735943513016 1.363793073800948 2.050055466436567 -0.5200502706083019 1.1400351673094833
2.80471801758 0.0726553743729769 0.0914216258511405 -3.096735943513016 1.363793073800948 2.050055466436567 -0.5200502706083019 1.1400351673094833
2.81470584869 0.0726553743729769 0.0914216258511405 -3.096735943513016 1.363793073800948 2.050055466436567 -0.5200502706083019 1.1400351673094833
2.81470584869 0.0726553743729769 0.0914216258511405 -3.096735943513016 1.363793073800948 2.050055466436567 -0.5200502706083019 1.1400351673094833
2.82457685471 0.0726553743729769 0.0914216258511405 -3.096735943513016 1.363793073800948 2.050055466436567 -0.5200502706083019 1.1400351673094833
2.82457685471 0.0726553743729769 0.0914216258511405 -3.096735943513016 1.363793073800948 2.050055466436567 -0.5200502706083019 1.1400351673094833
2.83466386795 0.0726553743729769 0.0914216258511405 -3.096735943513016 1.363793073800948 2.050055466436567 -0.5200502706083019 1.1400351673094833
2.83466386795 0.0726553743729769 0.0914216258511405 -3.096735943513016 1.363793073800948 2.050055466436567 -0.5200502706083019 1.1400351673094833
2.84469294548 0.0726553743729769 0.0914216258511405 -3.096735943513016 1.363793073800948 2.050055466436567 -0.5200502706083019 1.1400351673094833
2.84469294548 0.0726553743729769 0.0914216258511405 -3.096735943513016 1.363793073800948 2.050055466436567 -0.5200502706083019 1.1400351673094833
2.85449099541 0.0726553743729769 0.0914216258511405 -3.096735943513016 1.363793073800948 2.050055466436567 -0.5200502706083019 1.1400351673094833
2.85449099541 0.0726553743729769 0.0914216258511405 -3.096735943513016 1.363793073800948 2.050055466436567 -0.5200502706083019 1.1400351673094833
2.8646569252 0.0726553743729769 0.0914216258511405 -3.096735943513016 1.363793073800948 2.050055466436567 -0.5200502706083019 1.1400351673094833
2.8646569252 0.0726553743729769 0.0914216258511405 -3.096735943513016 1.363793073800948 2.050055466436567 -0.5200502706083019 1.1400351673094833
2.87467503548 0.0726553743729769 0.0914216258511405 -3.096735943513016 1.363793073800948 2.050055466436567 -0.5200502706083019 1.1400351673094833
2.87467503548 0.0726553743729769 0.0914216258511405 -3.096735943513016 1.363793073800948 2.050055466436567 -0.5200502706083019 1.1400351673094833
2.88461899757 0.0726553743729769 0.0914216258511405 -3.096735943513016 1.363793073800948 2.050055466436567 -0.5200502706083019 1.1400351673094833
2.88461899757 0.0726553743729769 0.0914216258511405 -3.096735943513016 1.363793073800948 2.050055466436567 -0.5200502706083019 1.1400351673094833
2.89468383789 0.0726553743729769 0.0914216258511405 -3.096735943513016 1.363793073800948 2.050055466436567 -0.5200502706083019 1.1400351673094833
2.89468383789 0.0726553743729769 0.0914216258511405 -3.096735943513016 1.363793073800948 2.050055466436567 -0.5200502706083019 1.1400351673094833
2.904722929 0.0726553743729769 0.0914216258511405 -3.096735943513016 1.363793073800948 2.050055466436567 -0.5200502706083019 1.1400351673094833
2.904722929 0.0726553743729769 0.0914216258511405 -3.096735943513016 1.363793073800948 2.050055466436567 -0.5200502706083019 1.1400351673094833
2.91457700729 0.0726553743729769 0.0914216258511405 -3.096735943513016 1.363793073800948 2.050055466436567 -0.5200502706083019 1.1400351673094833
2.91457700729 0.0726553743729769 0.0914216258511405 -3.096735943513016 1.363793073800948 2.050055466436567 -0.5200502706083019 1.1400351673094833
2.92470502853 0.0726553743729769 0.0914216258511405 -3.096735943513016 1.363793073800948 2.050055466436567 -0.5200502706083019 1.1400351673094833
2.92470502853 0.0726553743729769 0.0914216258511405 -3.096735943513016 1.363793073800948 2.050055466436567 -0.5200502706083019 1.1400351673094833
2.93454384804 0.0726553743729769 0.0914216258511405 -3.096735943513016 1.363793073800948 2.050055466436567 -0.5200502706083019 1.1400351673094833
2.93454384804 0.0726553743729769 0.0914216258511405 -3.096735943513016 1.363793073800948 2.050055466436567 -0.5200502706083019 1.1400351673094833
2.94470381737 0.0726553743729769 0.0914216258511405 -3.096735943513016 1.363793073800948 2.050055466436567 -0.5200502706083019 1.1400351673094833
2.94470381737 0.0726553743729769 0.0914216258511405 -3.096735943513016 1.363793073800948 2.050055466436567 -0.5200502706083019 1.1400351673094833
2.95452189445 0.0726553743729769 0.0914216258511405 -3.096735943513016 1.363793073800948 2.050055466436567 -0.5200502706083019 1.1400351673094833
2.95452189445 0.0726553743729769 0.0914216258511405 -3.096735943513016 1.363793073800948 2.050055466436567 -0.5200502706083019 1.1400351673094833
2.96472787857 0.0726553743729769 0.0914216258511405 -3.096735943513016 1.363793073800948 2.050055466436567 -0.5200502706083019 1.1400351673094833
2.96472787857 0.0726553743729769 0.0914216258511405 -3.096735943513016 1.363793073800948 2.050055466436567 -0.5200502706083019 1.1400351673094833
2.9746928215 0.0726553743729769 0.0914216258511405 -3.096735943513016 1.363793073800948 2.050055466436567 -0.5200502706083019 1.1400351673094833
2.9746928215 0.0726553743729769 0.0914216258511405 -3.096735943513016 1.363793073800948 2.050055466436567 -0.5200502706083019 1.1400351673094833
2.98477101326 0.0726553743729769 0.0914216258511405 -3.096735943513016 1.363793073800948 2.050055466436567 -0.5200502706083019 1.1400351673094833
2.98477101326 0.0726553743729769 0.0914216258511405 -3.096735943513016 1.363793073800948 2.050055466436567 -0.5200502706083019 1.1400351673094833
2.9946808815 0.0726553743729769 0.0914216258511405 -3.096735943513016 1.363793073800948 2.050055466436567 -0.5200502706083019 1.1400351673094833
2.9946808815 0.0726553743729769 0.0914216258511405 -3.096735943513016 1.363793073800948 2.050055466436567 -0.5200502706083019 1.1400351673094833
3.00469493866 0.0726553743729769 0.0914216258511405 -3.096735943513016 1.363793073800948 2.050055466436567 -0.5200502706083019 1.1400351673094833
3.00469493866 0.0726553743729769 0.0914216258511405 -3.096735943513016 1.363793073800948 2.050055466436567 -0.5200502706083019 1.1400351673094833
3.01469898224 0.0726553743729769 0.0914216258511405 -3.096735943513016 1.363793073800948 2.050055466436567 -0.5200502706083019 1.1400351673094833
3.01469898224 0.0726553743729769 0.0914216258511405 -3.096735943513016 1.363793073800948 2.050055466436567 -0.5200502706083019 1.1400351673094833
3.024725914 0.0726553743729769 0.0914216258511405 -3.096735943513016 1.363793073800948 2.050055466436567 -0.5200502706083019 1.1400351673094833
3.024725914 0.0726553743729769 0.0914216258511405 -3.096735943513016 1.363793073800948 2.050055466436567 -0.5200502706083019 1.1400351673094833
3.03468990326 0.0726553743729769 0.0914216258511405 -3.096735943513016 1.363793073800948 2.050055466436567 -0.5200502706083019 1.1400351673094833
3.03468990326 0.0726553743729769 0.0914216258511405 -3.096735943513016 1.363793073800948 2.050055466436567 -0.5200502706083019 1.1400351673094833
3.04458403587 0.0726553743729769 0.0914216258511405 -3.096735943513016 1.363793073800948 2.050055466436567 -0.5200502706083019 1.1400351673094833
3.04458403587 0.0726553743729769 0.0914216258511405 -3.096735943513016 1.363793073800948 2.050055466436567 -0.5200502706083019 1.1400351673094833
3.05466198921 0.0726553743729769 0.0914216258511405 -3.096735943513016 1.363793073800948 2.050055466436567 -0.5200502706083019 1.1400351673094833
3.05466198921 0.0726553743729769 0.0914216258511405 -3.096735943513016 1.363793073800948 2.050055466436567 -0.5200502706083019 1.1400351673094833
3.06467294693 0.0726553743729769 0.0914216258511405 -3.096735943513016 1.363793073800948 2.050055466436567 -0.5200502706083019 1.1400351673094833
3.06467294693 0.0726553743729769 0.0914216258511405 -3.096735943513016 1.363793073800948 2.050055466436567 -0.5200502706083019 1.1400351673094833
3.07450985909 0.0726553743729769 0.0914216258511405 -3.096735943513016 1.363793073800948 2.050055466436567 -0.5200502706083019 1.1400351673094833
3.07450985909 0.0726553743729769 0.0914216258511405 -3.096735943513016 1.363793073800948 2.050055466436567 -0.5200502706083019 1.1400351673094833
3.08468484879 0.0726553743729769 0.0914216258511405 -3.096735943513016 1.363793073800948 2.050055466436567 -0.5200502706083019 1.1400351673094833
3.08468484879 0.0726553743729769 0.0914216258511405 -3.096735943513016 1.363793073800948 2.050055466436567 -0.5200502706083019 1.1400351673094833
3.0946688652 0.0726553743729769 0.0914216258511405 -3.096735943513016 1.363793073800948 2.050055466436567 -0.5200502706083019 1.1400351673094833
3.0946688652 0.0726553743729769 0.0914216258511405 -3.096735943513016 1.363793073800948 2.050055466436567 -0.5200502706083019 1.1400351673094833
3.1044948101 0.0726553743729769 0.0914216258511405 -3.096735943513016 1.363793073800948 2.050055466436567 -0.5200502706083019 1.1400351673094833
3.1044948101 0.0726553743729769 0.0914216258511405 -3.096735943513016 1.363793073800948 2.050055466436567 -0.5200502706083019 1.1400351673094833
3.11468195915 0.0726553743729769 0.0914216258511405 -3.096735943513016 1.363793073800948 2.050055466436567 -0.5200502706083019 1.1400351673094833
3.11468195915 0.0726553743729769 0.0914216258511405 -3.096735943513016 1.363793073800948 2.050055466436567 -0.5200502706083019 1.1400351673094833
3.12469887733 0.0726553743729769 0.0914216258511405 -3.096735943513016 1.363793073800948 2.050055466436567 -0.5200502706083019 1.1400351673094833
3.12469887733 0.0726553743729769 0.0914216258511405 -3.096735943513016 1.363793073800948 2.050055466436567 -0.5200502706083019 1.1400351673094833
3.13468790054 0.0726553743729769 0.0914216258511405 -3.096735943513016 1.363793073800948 2.050055466436567 -0.5200502706083019 1.1400351673094833
3.13468790054 0.0726553743729769 0.0914216258511405 -3.096735943513016 1.363793073800948 2.050055466436567 -0.5200502706083019 1.1400351673094833
3.14471697807 0.0726553743729769 0.0914216258511405 -3.096735943513016 1.363793073800948 2.050055466436567 -0.5200502706083019 1.1400351673094833
3.14471697807 0.0726553743729769 0.0914216258511405 -3.096735943513016 1.363793073800948 2.050055466436567 -0.5200502706083019 1.1400351673094833
3.15469694138 0.0726553743729769 0.0914216258511405 -3.096735943513016 1.363793073800948 2.050055466436567 -0.5200502706083019 1.1400351673094833
3.15469694138 0.0726553743729769 0.0914216258511405 -3.096735943513016 1.363793073800948 2.050055466436567 -0.5200502706083019 1.1400351673094833
3.16469287872 0.0726553743729769 0.0914216258511405 -3.096735943513016 1.363793073800948 2.050055466436567 -0.5200502706083019 1.1400351673094833
3.16469287872 0.0726553743729769 0.0914216258511405 -3.096735943513016 1.363793073800948 2.050055466436567 -0.5200502706083019 1.1400351673094833
3.17461490631 0.0726553743729769 0.0914216258511405 -3.096735943513016 1.363793073800948 2.050055466436567 -0.5200502706083019 1.1400351673094833
3.17461490631 0.0726553743729769 0.0914216258511405 -3.096735943513016 1.363793073800948 2.050055466436567 -0.5200502706083019 1.1400351673094833
3.18468284607 0.0726553743729769 0.0914216258511405 -3.096735943513016 1.363793073800948 2.050055466436567 -0.5200502706083019 1.1400351673094833
3.18468284607 0.0726553743729769 0.0914216258511405 -3.096735943513016 1.363793073800948 2.050055466436567 -0.5200502706083019 1.1400351673094833
3.19468593597 0.0726553743729769 0.0914216258511405 -3.096735943513016 1.363793073800948 2.050055466436567 -0.5200502706083019 1.1400351673094833
3.19468593597 0.0726553743729769 0.0914216258511405 -3.096735943513016 1.363793073800948 2.050055466436567 -0.5200502706083019 1.1400351673094833
3.2048728466 0.0726553743729769 0.0914216258511405 -3.096735943513016 1.363793073800948 2.050055466436567 -0.5200502706083019 1.1400351673094833
3.2048728466 0.0726553743729769 0.0914216258511405 -3.096735943513016 1.363793073800948 2.050055466436567 -0.5200502706083019 1.1400351673094833
3.21470284462 0.0726553743729769 0.0914216258511405 -3.096735943513016 1.363793073800948 2.050055466436567 -0.5200502706083019 1.1400351673094833
3.21470284462 0.0726553743729769 0.0914216258511405 -3.096735943513016 1.363793073800948 2.050055466436567 -0.5200502706083019 1.1400351673094833
3.22475600243 0.0726553743729769 0.0914216258511405 -3.096735943513016 1.363793073800948 2.050055466436567 -0.5200502706083019 1.1400351673094833
3.22475600243 0.0726553743729769 0.0914216258511405 -3.096735943513016 1.363793073800948 2.050055466436567 -0.5200502706083019 1.1400351673094833
3.23469996452 0.0726553743729769 0.0914216258511405 -3.096735943513016 1.363793073800948 2.050055466436567 -0.5200502706083019 1.1400351673094833
3.23469996452 0.0726553743729769 0.0914216258511405 -3.096735943513016 1.363793073800948 2.050055466436567 -0.5200502706083019 1.1400351673094833
3.24468684196 0.0726553743729769 0.0914216258511405 -3.096735943513016 1.363793073800948 2.050055466436567 -0.5200502706083019 1.1400351673094833
3.24468684196 0.0726553743729769 0.0914216258511405 -3.096735943513016 1.363793073800948 2.050055466436567 -0.5200502706083019 1.1400351673094833
3.2546980381 0.0726553743729769 0.0914216258511405 -3.096735943513016 1.363793073800948 2.050055466436567 -0.5200502706083019 1.1400351673094833
3.2546980381 0.0726553743729769 0.0914216258511405 -3.096735943513016 1.363793073800948 2.050055466436567 -0.5200502706083019 1.1400351673094833
3.26466989517 0.0726553743729769 0.0914216258511405 -3.096735943513016 1.363793073800948 2.050055466436567 -0.5200502706083019 1.1400351673094833
3.26466989517 0.0726553743729769 0.0914216258511405 -3.096735943513016 1.363793073800948 2.050055466436567 -0.5200502706083019 1.1400351673094833
3.27457594872 0.0726553743729769 0.0914216258511405 -3.096735943513016 1.363793073800948 2.050055466436567 -0.5200502706083019 1.1400351673094833
3.27457594872 0.0726553743729769 0.0914216258511405 -3.096735943513016 1.363793073800948 2.050055466436567 -0.5200502706083019 1.1400351673094833
3.28467082977 0.0726553743729769 0.0914216258511405 -3.096735943513016 1.363793073800948 2.050055466436567 -0.5200502706083019 1.1400351673094833
3.28467082977 0.0726553743729769 0.0914216258511405 -3.096735943513016 1.363793073800948 2.050055466436567 -0.5200502706083019 1.1400351673094833
3.29465293884 0.0726553743729769 0.0914216258511405 -3.096735943513016 1.363793073800948 2.050055466436567 -0.5200502706083019 1.1400351673094833
3.29465293884 0.0726553743729769 0.0914216258511405 -3.096735943513016 1.363793073800948 2.050055466436567 -0.5200502706083019 1.1400351673094833
3.3046579361 0.0726553743729769 0.0914216258511405 -3.096735943513016 1.363793073800948 2.050055466436567 -0.5200502706083019 1.1400351673094833
3.3046579361 0.0726553743729769 0.0914216258511405 -3.096735943513016 1.363793073800948 2.050055466436567 -0.5200502706083019 1.1400351673094833
3.31455183029 0.0726553743729769 0.0914216258511405 -3.096735943513016 1.363793073800948 2.050055466436567 -0.5200502706083019 1.1400351673094833
3.31455183029 0.0726553743729769 0.0914216258511405 -3.096735943513016 1.363793073800948 2.050055466436567 -0.5200502706083019 1.1400351673094833
3.32469892502 0.0726553743729769 0.0914216258511405 -3.096735943513016 1.363793073800948 2.050055466436567 -0.5200502706083019 1.1400351673094833
3.32469892502 0.0726553743729769 0.0914216258511405 -3.096735943513016 1.363793073800948 2.050055466436567 -0.5200502706083019 1.1400351673094833
3.33468794823 0.0726553743729769 0.0914216258511405 -3.096735943513016 1.363793073800948 2.050055466436567 -0.5200502706083019 1.1400351673094833
3.33468794823 0.0726553743729769 0.0914216258511405 -3.096735943513016 1.363793073800948 2.050055466436567 -0.5200502706083019 1.1400351673094833
3.34468483925 0.0726553743729769 0.0914216258511405 -3.096735943513016 1.363793073800948 2.050055466436567 -0.5200502706083019 1.1400351673094833
3.34468483925 0.0726553743729769 0.0914216258511405 -3.096735943513016 1.363793073800948 2.050055466436567 -0.5200502706083019 1.1400351673094833
3.35470795631 0.0726553743729769 0.0914216258511405 -3.096735943513016 1.363793073800948 2.050055466436567 -0.5200502706083019 1.1400351673094833
3.35470795631 0.0726553743729769 0.0914216258511405 -3.096735943513016 1.363793073800948 2.050055466436567 -0.5200502706083019 1.1400351673094833
3.36472201347 0.0726553743729769 0.0914216258511405 -3.096735943513016 1.363793073800948 2.050055466436567 -0.5200502706083019 1.1400351673094833
3.36472201347 0.0726553743729769 0.0914216258511405 -3.096735943513016 1.363793073800948 2.050055466436567 -0.5200502706083019 1.1400351673094833
3.37464189529 0.0726553743729769 0.0914216258511405 -3.096735943513016 1.363793073800948 2.050055466436567 -0.5200502706083019 1.1400351673094833
3.37464189529 0.0726553743729769 0.0914216258511405 -3.096735943513016 1.363793073800948 2.050055466436567 -0.5200502706083019 1.1400351673094833
3.38467001915 0.0726553743729769 0.0914216258511405 -3.096735943513016 1.363793073800948 2.050055466436567 -0.5200502706083019 1.1400351673094833
3.38467001915 0.0726553743729769 0.0914216258511405 -3.096735943513016 1.363793073800948 2.050055466436567 -0.5200502706083019 1.1400351673094833
3.39470100403 0.0726553743729769 0.0914216258511405 -3.096735943513016 1.363793073800948 2.050055466436567 -0.5200502706083019 1.1400351673094833
3.39470100403 0.0726553743729769 0.0914216258511405 -3.096735943513016 1.363793073800948 2.050055466436567 -0.5200502706083019 1.1400351673094833
3.40461802483 0.0726553743729769 0.0914216258511405 -3.096735943513016 1.363793073800948 2.050055466436567 -0.5200502706083019 1.1400351673094833
3.40461802483 0.0726553743729769 0.0914216258511405 -3.096735943513016 1.363793073800948 2.050055466436567 -0.5200502706083019 1.1400351673094833
3.41469502449 0.0726553743729769 0.0914216258511405 -3.096735943513016 1.363793073800948 2.050055466436567 -0.5200502706083019 1.1400351673094833
3.41469502449 0.0726553743729769 0.0914216258511405 -3.096735943513016 1.363793073800948 2.050055466436567 -0.5200502706083019 1.1400351673094833
3.42473101616 0.0726553743729769 0.0914216258511405 -3.096735943513016 1.363793073800948 2.050055466436567 -0.5200502706083019 1.1400351673094833
3.42473101616 0.0726553743729769 0.0914216258511405 -3.096735943513016 1.363793073800948 2.050055466436567 -0.5200502706083019 1.1400351673094833
3.43485593796 0.0726553743729769 0.0914216258511405 -3.096735943513016 1.363793073800948 2.050055466436567 -0.5200502706083019 1.1400351673094833
3.43485593796 0.0726553743729769 0.0914216258511405 -3.096735943513016 1.363793073800948 2.050055466436567 -0.5200502706083019 1.1400351673094833
3.44450187683 0.0726553743729769 0.0914216258511405 -3.096735943513016 1.363793073800948 2.050055466436567 -0.5200502706083019 1.1400351673094833
3.44450187683 0.0726553743729769 0.0914216258511405 -3.096735943513016 1.363793073800948 2.050055466436567 -0.5200502706083019 1.1400351673094833
3.45469093323 0.0726553743729769 0.0914216258511405 -3.096735943513016 1.363793073800948 2.050055466436567 -0.5200502706083019 1.1400351673094833
3.45469093323 0.0726553743729769 0.0914216258511405 -3.096735943513016 1.363793073800948 2.050055466436567 -0.5200502706083019 1.1400351673094833
3.4647269249 0.0726553743729769 0.0914216258511405 -3.096735943513016 1.363793073800948 2.050055466436567 -0.5200502706083019 1.1400351673094833
3.4647269249 0.0726553743729769 0.0914216258511405 -3.096735943513016 1.363793073800948 2.050055466436567 -0.5200502706083019 1.1400351673094833
3.47463202477 0.0726553743729769 0.0914216258511405 -3.096735943513016 1.363793073800948 2.050055466436567 -0.5200502706083019 1.1400351673094833
3.47463202477 0.0726553743729769 0.0914216258511405 -3.096735943513016 1.363793073800948 2.050055466436567 -0.5200502706083019 1.1400351673094833
3.48471903801 0.0726553743729769 0.0914216258511405 -3.096735943513016 1.363793073800948 2.050055466436567 -0.5200502706083019 1.1400351673094833
3.48471903801 0.0726553743729769 0.0914216258511405 -3.096735943513016 1.363793073800948 2.050055466436567 -0.5200502706083019 1.1400351673094833
3.49448680878 0.0726553743729769 0.0914216258511405 -3.096735943513016 1.363793073800948 2.050055466436567 -0.5200502706083019 1.1400351673094833
3.49448680878 0.0726553743729769 0.0914216258511405 -3.096735943513016 1.363793073800948 2.050055466436567 -0.5200502706083019 1.1400351673094833
3.50471591949 0.0726553743729769 0.0914216258511405 -3.096735943513016 1.363793073800948 2.050055466436567 -0.5200502706083019 1.1400351673094833
3.50471591949 0.0726553743729769 0.0914216258511405 -3.096735943513016 1.363793073800948 2.050055466436567 -0.5200502706083019 1.1400351673094833
3.51455998421 0.0726553743729769 0.0914216258511405 -3.096735943513016 1.363793073800948 2.050055466436567 -0.5200502706083019 1.1400351673094833
3.51455998421 0.0726553743729769 0.0914216258511405 -3.096735943513016 1.363793073800948 2.050055466436567 -0.5200502706083019 1.1400351673094833
3.52472901344 0.0726553743729769 0.0914216258511405 -3.096735943513016 1.363793073800948 2.050055466436567 -0.5200502706083019 1.1400351673094833
3.52472901344 0.0726553743729769 0.0914216258511405 -3.096735943513016 1.363793073800948 2.050055466436567 -0.5200502706083019 1.1400351673094833
3.53468799591 0.0726553743729769 0.0914216258511405 -3.096735943513016 1.363793073800948 2.050055466436567 -0.5200502706083019 1.1400351673094833
3.53468799591 0.0726553743729769 0.0914216258511405 -3.096735943513016 1.363793073800948 2.050055466436567 -0.5200502706083019 1.1400351673094833
3.54477882385 0.0726553743729769 0.0914216258511405 -3.096735943513016 1.363793073800948 2.050055466436567 -0.5200502706083019 1.1400351673094833
3.54477882385 0.0726553743729769 0.0914216258511405 -3.096735943513016 1.363793073800948 2.050055466436567 -0.5200502706083019 1.1400351673094833
3.554708004 0.0726553743729769 0.0914216258511405 -3.096735943513016 1.363793073800948 2.050055466436567 -0.5200502706083019 1.1400351673094833
3.554708004 0.0726553743729769 0.0914216258511405 -3.096735943513016 1.363793073800948 2.050055466436567 -0.5200502706083019 1.1400351673094833
3.56455492973 0.0726553743729769 0.0914216258511405 -3.096735943513016 1.363793073800948 2.050055466436567 -0.5200502706083019 1.1400351673094833
3.56455492973 0.0726553743729769 0.0914216258511405 -3.096735943513016 1.363793073800948 2.050055466436567 -0.5200502706083019 1.1400351673094833
3.57467794418 0.0726553743729769 0.0914216258511405 -3.096735943513016 1.363793073800948 2.050055466436567 -0.5200502706083019 1.1400351673094833
3.57467794418 0.0726553743729769 0.0914216258511405 -3.096735943513016 1.363793073800948 2.050055466436567 -0.5200502706083019 1.1400351673094833
3.5847530365 0.0726553743729769 0.0914216258511405 -3.096735943513016 1.363793073800948 2.050055466436567 -0.5200502706083019 1.1400351673094833
3.5847530365 0.0726553743729769 0.0914216258511405 -3.096735943513016 1.363793073800948 2.050055466436567 -0.5200502706083019 1.1400351673094833
3.59469294548 0.0726553743729769 0.0914216258511405 -3.096735943513016 1.363793073800948 2.050055466436567 -0.5200502706083019 1.1400351673094833
3.59469294548 0.0726553743729769 0.0914216258511405 -3.096735943513016 1.363793073800948 2.050055466436567 -0.5200502706083019 1.1400351673094833
3.60458993912 0.0726553743729769 0.0914216258511405 -3.096735943513016 1.363793073800948 2.050055466436567 -0.5200502706083019 1.1400351673094833
3.60458993912 0.0726553743729769 0.0914216258511405 -3.096735943513016 1.363793073800948 2.050055466436567 -0.5200502706083019 1.1400351673094833
3.61465597153 0.0726553743729769 0.0914216258511405 -3.096735943513016 1.363793073800948 2.050055466436567 -0.5200502706083019 1.1400351673094833
3.61465597153 0.0726553743729769 0.0914216258511405 -3.096735943513016 1.363793073800948 2.050055466436567 -0.5200502706083019 1.1400351673094833
3.62471699715 0.0726553743729769 0.0914216258511405 -3.096735943513016 1.363793073800948 2.050055466436567 -0.5200502706083019 1.1400351673094833
3.62471699715 0.0726553743729769 0.0914216258511405 -3.096735943513016 1.363793073800948 2.050055466436567 -0.5200502706083019 1.1400351673094833
3.63463783264 0.0726553743729769 0.0914216258511405 -3.096735943513016 1.363793073800948 2.050055466436567 -0.5200502706083019 1.1400351673094833
3.63463783264 0.0726553743729769 0.0914216258511405 -3.096735943513016 1.363793073800948 2.050055466436567 -0.5200502706083019 1.1400351673094833
3.64468288422 0.0726553743729769 0.0914216258511405 -3.096735943513016 1.363793073800948 2.050055466436567 -0.5200502706083019 1.1400351673094833
3.64468288422 0.0726553743729769 0.0914216258511405 -3.096735943513016 1.363793073800948 2.050055466436567 -0.5200502706083019 1.1400351673094833
3.65466690063 0.0726553743729769 0.0914216258511405 -3.096735943513016 1.363793073800948 2.050055466436567 -0.5200502706083019 1.1400351673094833
3.65466690063 0.0726553743729769 0.0914216258511405 -3.096735943513016 1.363793073800948 2.050055466436567 -0.5200502706083019 1.1400351673094833
3.66459488869 0.0726553743729769 0.0914216258511405 -3.096735943513016 1.363793073800948 2.050055466436567 -0.5200502706083019 1.1400351673094833
3.66459488869 0.0726553743729769 0.0914216258511405 -3.096735943513016 1.363793073800948 2.050055466436567 -0.5200502706083019 1.1400351673094833
3.67469501495 0.0726553743729769 0.0914216258511405 -3.096735943513016 1.363793073800948 2.050055466436567 -0.5200502706083019 1.1400351673094833
3.67469501495 0.0726553743729769 0.0914216258511405 -3.096735943513016 1.363793073800948 2.050055466436567 -0.5200502706083019 1.1400351673094833
3.68466091156 0.0726553743729769 0.0914216258511405 -3.096735943513016 1.363793073800948 2.050055466436567 -0.5200502706083019 1.1400351673094833
3.68466091156 0.0726553743729769 0.0914216258511405 -3.096735943513016 1.363793073800948 2.050055466436567 -0.5200502706083019 1.1400351673094833
3.69468283653 0.0726553743729769 0.0914216258511405 -3.096735943513016 1.363793073800948 2.050055466436567 -0.5200502706083019 1.1400351673094833
3.69468283653 0.0726553743729769 0.0914216258511405 -3.096735943513016 1.363793073800948 2.050055466436567 -0.5200502706083019 1.1400351673094833
3.70467591286 0.0726553743729769 0.0914216258511405 -3.096735943513016 1.363793073800948 2.050055466436567 -0.5200502706083019 1.1400351673094833
3.70467591286 0.0726553743729769 0.0914216258511405 -3.096735943513016 1.363793073800948 2.050055466436567 -0.5200502706083019 1.1400351673094833
3.71468281746 0.0726553743729769 0.0914216258511405 -3.096735943513016 1.363793073800948 2.050055466436567 -0.5200502706083019 1.1400351673094833
3.71468281746 0.0726553743729769 0.0914216258511405 -3.096735943513016 1.363793073800948 2.050055466436567 -0.5200502706083019 1.1400351673094833
3.72456884384 0.0726553743729769 0.0914216258511405 -3.096735943513016 1.363793073800948 2.050055466436567 -0.5200502706083019 1.1400351673094833
3.72456884384 0.0726553743729769 0.0914216258511405 -3.096735943513016 1.363793073800948 2.050055466436567 -0.5200502706083019 1.1400351673094833
3.73464298248 0.0726553743729769 0.0914216258511405 -3.096735943513016 1.363793073800948 2.050055466436567 -0.5200502706083019 1.1400351673094833
3.73464298248 0.0726553743729769 0.0914216258511405 -3.096735943513016 1.363793073800948 2.050055466436567 -0.5200502706083019 1.1400351673094833
3.74465894699 0.0726553743729769 0.0914216258511405 -3.096735943513016 1.363793073800948 2.050055466436567 -0.5200502706083019 1.1400351673094833
3.74465894699 0.0726553743729769 0.0914216258511405 -3.096735943513016 1.363793073800948 2.050055466436567 -0.5200502706083019 1.1400351673094833
3.75447297096 0.0726553743729769 0.0914216258511405 -3.096735943513016 1.363793073800948 2.050055466436567 -0.5200502706083019 1.1400351673094833
3.75447297096 0.0726553743729769 0.0914216258511405 -3.096735943513016 1.363793073800948 2.050055466436567 -0.5200502706083019 1.1400351673094833
3.76466488838 0.0726553743729769 0.0914216258511405 -3.096735943513016 1.363793073800948 2.050055466436567 -0.5200502706083019 1.1400351673094833
3.76466488838 0.0726553743729769 0.0914216258511405 -3.096735943513016 1.363793073800948 2.050055466436567 -0.5200502706083019 1.1400351673094833
3.77471184731 0.0726553743729769 0.0914216258511405 -3.096735943513016 1.363793073800948 2.050055466436567 -0.5200502706083019 1.1400351673094833
3.77471184731 0.0726553743729769 0.0914216258511405 -3.096735943513016 1.363793073800948 2.050055466436567 -0.5200502706083019 1.1400351673094833
3.784719944 0.0726553743729769 0.0914216258511405 -3.096735943513016 1.363793073800948 2.050055466436567 -0.5200502706083019 1.1400351673094833
3.784719944 0.0726553743729769 0.0914216258511405 -3.096735943513016 1.363793073800948 2.050055466436567 -0.5200502706083019 1.1400351673094833
3.7946999073 0.0726553743729769 0.0914216258511405 -3.096735943513016 1.363793073800948 2.050055466436567 -0.5200502706083019 1.1400351673094833
3.7946999073 0.0726553743729769 0.0914216258511405 -3.096735943513016 1.363793073800948 2.050055466436567 -0.5200502706083019 1.1400351673094833
3.80467891693 0.0726553743729769 0.0914216258511405 -3.096735943513016 1.363793073800948 2.050055466436567 -0.5200502706083019 1.1400351673094833
3.80467891693 0.0726553743729769 0.0914216258511405 -3.096735943513016 1.363793073800948 2.050055466436567 -0.5200502706083019 1.1400351673094833
3.81458902359 0.0726553743729769 0.0914216258511405 -3.096735943513016 1.363793073800948 2.050055466436567 -0.5200502706083019 1.1400351673094833
3.81458902359 0.0726553743729769 0.0914216258511405 -3.096735943513016 1.363793073800948 2.050055466436567 -0.5200502706083019 1.1400351673094833
3.82469081879 0.0726553743729769 0.0914216258511405 -3.096735943513016 1.363793073800948 2.050055466436567 -0.5200502706083019 1.1400351673094833
3.82469081879 0.0726553743729769 0.0914216258511405 -3.096735943513016 1.363793073800948 2.050055466436567 -0.5200502706083019 1.1400351673094833
3.83449101448 0.0726553743729769 0.0914216258511405 -3.096735943513016 1.363793073800948 2.050055466436567 -0.5200502706083019 1.1400351673094833
3.83449101448 0.0726553743729769 0.0914216258511405 -3.096735943513016 1.363793073800948 2.050055466436567 -0.5200502706083019 1.1400351673094833
3.84474492073 0.0726553743729769 0.0914216258511405 -3.096735943513016 1.363793073800948 2.050055466436567 -0.5200502706083019 1.1400351673094833
3.84474492073 0.0726553743729769 0.0914216258511405 -3.096735943513016 1.363793073800948 2.050055466436567 -0.5200502706083019 1.1400351673094833
3.85464191437 0.0726553743729769 0.0914216258511405 -3.096735943513016 1.363793073800948 2.050055466436567 -0.5200502706083019 1.1400351673094833
3.85464191437 0.0726553743729769 0.0914216258511405 -3.096735943513016 1.363793073800948 2.050055466436567 -0.5200502706083019 1.1400351673094833
3.8646838665 0.0726553743729769 0.0914216258511405 -3.096735943513016 1.363793073800948 2.050055466436567 -0.5200502706083019 1.1400351673094833
3.8646838665 0.0726553743729769 0.0914216258511405 -3.096735943513016 1.363793073800948 2.050055466436567 -0.5200502706083019 1.1400351673094833
3.87467694283 0.0726553743729769 0.0914216258511405 -3.096735943513016 1.363793073800948 2.050055466436567 -0.5200502706083019 1.1400351673094833
3.87467694283 0.0726553743729769 0.0914216258511405 -3.096735943513016 1.363793073800948 2.050055466436567 -0.5200502706083019 1.1400351673094833
3.88466691971 0.0726553743729769 0.0914216258511405 -3.096735943513016 1.363793073800948 2.050055466436567 -0.5200502706083019 1.1400351673094833
3.88466691971 0.0726553743729769 0.0914216258511405 -3.096735943513016 1.363793073800948 2.050055466436567 -0.5200502706083019 1.1400351673094833
3.89467692375 0.0726553743729769 0.0914216258511405 -3.096735943513016 1.363793073800948 2.050055466436567 -0.5200502706083019 1.1400351673094833
3.89467692375 0.0726553743729769 0.0914216258511405 -3.096735943513016 1.363793073800948 2.050055466436567 -0.5200502706083019 1.1400351673094833
3.90472698212 0.0726553743729769 0.0914216258511405 -3.096735943513016 1.363793073800948 2.050055466436567 -0.5200502706083019 1.1400351673094833
3.90472698212 0.0726553743729769 0.0914216258511405 -3.096735943513016 1.363793073800948 2.050055466436567 -0.5200502706083019 1.1400351673094833
3.9146938324 0.0726553743729769 0.0914216258511405 -3.096735943513016 1.363793073800948 2.050055466436567 -0.5200502706083019 1.1400351673094833
3.9146938324 0.0726553743729769 0.0914216258511405 -3.096735943513016 1.363793073800948 2.050055466436567 -0.5200502706083019 1.1400351673094833
3.92472982407 0.0726553743729769 0.0914216258511405 -3.096735943513016 1.363793073800948 2.050055466436567 -0.5200502706083019 1.1400351673094833
3.92472982407 0.0726553743729769 0.0914216258511405 -3.096735943513016 1.363793073800948 2.050055466436567 -0.5200502706083019 1.1400351673094833
3.93474197388 0.0726553743729769 0.0914216258511405 -3.096735943513016 1.363793073800948 2.050055466436567 -0.5200502706083019 1.1400351673094833
3.93474197388 0.0726553743729769 0.0914216258511405 -3.096735943513016 1.363793073800948 2.050055466436567 -0.5200502706083019 1.1400351673094833
3.94461393356 0.0726553743729769 0.0914216258511405 -3.096735943513016 1.363793073800948 2.050055466436567 -0.5200502706083019 1.1400351673094833
3.94461393356 0.0726553743729769 0.0914216258511405 -3.096735943513016 1.363793073800948 2.050055466436567 -0.5200502706083019 1.1400351673094833
3.95451188087 0.0726553743729769 0.0914216258511405 -3.096735943513016 1.363793073800948 2.050055466436567 -0.5200502706083019 1.1400351673094833
3.95451188087 0.0726553743729769 0.0914216258511405 -3.096735943513016 1.363793073800948 2.050055466436567 -0.5200502706083019 1.1400351673094833
3.96458888054 0.0726553743729769 0.0914216258511405 -3.096735943513016 1.363793073800948 2.050055466436567 -0.5200502706083019 1.1400351673094833
3.96458888054 0.0726553743729769 0.0914216258511405 -3.096735943513016 1.363793073800948 2.050055466436567 -0.5200502706083019 1.1400351673094833
3.9746568203 0.0726553743729769 0.0914216258511405 -3.096735943513016 1.363793073800948 2.050055466436567 -0.5200502706083019 1.1400351673094833
3.9746568203 0.0726553743729769 0.0914216258511405 -3.096735943513016 1.363793073800948 2.050055466436567 -0.5200502706083019 1.1400351673094833
3.98467898369 0.0726553743729769 0.0914216258511405 -3.096735943513016 1.363793073800948 2.050055466436567 -0.5200502706083019 1.1400351673094833
3.98467898369 0.0726553743729769 0.0914216258511405 -3.096735943513016 1.363793073800948 2.050055466436567 -0.5200502706083019 1.1400351673094833
3.99457192421 0.0726553743729769 0.0914216258511405 -3.096735943513016 1.363793073800948 2.050055466436567 -0.5200502706083019 1.1400351673094833
3.99457192421 0.0726553743729769 0.0914216258511405 -3.096735943513016 1.363793073800948 2.050055466436567 -0.5200502706083019 1.1400351673094833
4.00468182564 0.0726553743729769 0.0914216258511405 -3.096735943513016 1.363793073800948 2.050055466436567 -0.5200502706083019 1.1400351673094833
4.00468182564 0.0726553743729769 0.0914216258511405 -3.096735943513016 1.363793073800948 2.050055466436567 -0.5200502706083019 1.1400351673094833
4.01471090317 0.0726553743729769 0.0914216258511405 -3.096735943513016 1.363793073800948 2.050055466436567 -0.5200502706083019 1.1400351673094833
4.01471090317 0.0726553743729769 0.0914216258511405 -3.096735943513016 1.363793073800948 2.050055466436567 -0.5200502706083019 1.1400351673094833
4.02470493317 0.0726553743729769 0.0914216258511405 -3.096735943513016 1.363793073800948 2.050055466436567 -0.5200502706083019 1.1400351673094833
4.02470493317 0.0726553743729769 0.0914216258511405 -3.096735943513016 1.363793073800948 2.050055466436567 -0.5200502706083019 1.1400351673094833
4.0345659256 0.0726553743729769 0.0914216258511405 -3.096735943513016 1.363793073800948 2.050055466436567 -0.5200502706083019 1.1400351673094833
4.0345659256 0.0726553743729769 0.0914216258511405 -3.096735943513016 1.363793073800948 2.050055466436567 -0.5200502706083019 1.1400351673094833
4.044672966 0.0726553743729769 0.0914216258511405 -3.096735943513016 1.363793073800948 2.050055466436567 -0.5200502706083019 1.1400351673094833
4.044672966 0.0726553743729769 0.0914216258511405 -3.096735943513016 1.363793073800948 2.050055466436567 -0.5200502706083019 1.1400351673094833
4.0546579361 0.0726553743729769 0.0914216258511405 -3.096735943513016 1.363793073800948 2.050055466436567 -0.5200502706083019 1.1400351673094833
4.0546579361 0.0726553743729769 0.0914216258511405 -3.096735943513016 1.363793073800948 2.050055466436567 -0.5200502706083019 1.1400351673094833
4.06468391418 0.0726553743729769 0.0914216258511405 -3.096735943513016 1.363793073800948 2.050055466436567 -0.5200502706083019 1.1400351673094833
4.06468391418 0.0726553743729769 0.0914216258511405 -3.096735943513016 1.363793073800948 2.050055466436567 -0.5200502706083019 1.1400351673094833
4.07470488548 0.0726553743729769 0.0914216258511405 -3.096735943513016 1.363793073800948 2.050055466436567 -0.5200502706083019 1.1400351673094833
4.07470488548 0.0726553743729769 0.0914216258511405 -3.096735943513016 1.363793073800948 2.050055466436567 -0.5200502706083019 1.1400351673094833
4.08468604088 0.0726553743729769 0.0914216258511405 -3.096735943513016 1.363793073800948 2.050055466436567 -0.5200502706083019 1.1400351673094833
4.08468604088 0.0726553743729769 0.0914216258511405 -3.096735943513016 1.363793073800948 2.050055466436567 -0.5200502706083019 1.1400351673094833
4.09471988678 0.0726553743729769 0.0914216258511405 -3.096735943513016 1.363793073800948 2.050055466436567 -0.5200502706083019 1.1400351673094833
4.09471988678 0.0726553743729769 0.0914216258511405 -3.096735943513016 1.363793073800948 2.050055466436567 -0.5200502706083019 1.1400351673094833
4.10484194756 0.0726553743729769 0.0914216258511405 -3.096735943513016 1.363793073800948 2.050055466436567 -0.5200502706083019 1.1400351673094833
4.10484194756 0.0726553743729769 0.0914216258511405 -3.096735943513016 1.363793073800948 2.050055466436567 -0.5200502706083019 1.1400351673094833
4.11468291283 0.0726553743729769 0.0914216258511405 -3.096735943513016 1.363793073800948 2.050055466436567 -0.5200502706083019 1.1400351673094833
4.11468291283 0.0726553743729769 0.0914216258511405 -3.096735943513016 1.363793073800948 2.050055466436567 -0.5200502706083019 1.1400351673094833
4.12461280823 0.0726553743729769 0.0914216258511405 -3.096735943513016 1.363793073800948 2.050055466436567 -0.5200502706083019 1.1400351673094833
4.12461280823 0.0726553743729769 0.0914216258511405 -3.096735943513016 1.363793073800948 2.050055466436567 -0.5200502706083019 1.1400351673094833
4.13463997841 0.0726553743729769 0.0914216258511405 -3.096735943513016 1.363793073800948 2.050055466436567 -0.5200502706083019 1.1400351673094833
4.13463997841 0.0726553743729769 0.0914216258511405 -3.096735943513016 1.363793073800948 2.050055466436567 -0.5200502706083019 1.1400351673094833
4.14465904236 0.0726553743729769 0.0914216258511405 -3.096735943513016 1.363793073800948 2.050055466436567 -0.5200502706083019 1.1400351673094833
4.14465904236 0.0726553743729769 0.0914216258511405 -3.096735943513016 1.363793073800948 2.050055466436567 -0.5200502706083019 1.1400351673094833
4.15458202362 0.0726553743729769 0.0914216258511405 -3.096735943513016 1.363793073800948 2.050055466436567 -0.5200502706083019 1.1400351673094833
4.15458202362 0.0726553743729769 0.0914216258511405 -3.096735943513016 1.363793073800948 2.050055466436567 -0.5200502706083019 1.1400351673094833
4.16470980644 0.0726553743729769 0.0914216258511405 -3.096735943513016 1.363793073800948 2.050055466436567 -0.5200502706083019 1.1400351673094833
4.16470980644 0.0726553743729769 0.0914216258511405 -3.096735943513016 1.363793073800948 2.050055466436567 -0.5200502706083019 1.1400351673094833
4.17448687553 0.0726553743729769 0.0914216258511405 -3.096735943513016 1.363793073800948 2.050055466436567 -0.5200502706083019 1.1400351673094833
4.17448687553 0.0726553743729769 0.0914216258511405 -3.096735943513016 1.363793073800948 2.050055466436567 -0.5200502706083019 1.1400351673094833
4.18463683128 0.0726553743729769 0.0914216258511405 -3.096735943513016 1.363793073800948 2.050055466436567 -0.5200502706083019 1.1400351673094833
4.18463683128 0.0726553743729769 0.0914216258511405 -3.096735943513016 1.363793073800948 2.050055466436567 -0.5200502706083019 1.1400351673094833
4.19466090202 0.0726553743729769 0.0914216258511405 -3.096735943513016 1.363793073800948 2.050055466436567 -0.5200502706083019 1.1400351673094833
4.19466090202 0.0726553743729769 0.0914216258511405 -3.096735943513016 1.363793073800948 2.050055466436567 -0.5200502706083019 1.1400351673094833
4.20465898514 0.0726553743729769 0.0914216258511405 -3.096735943513016 1.363793073800948 2.050055466436567 -0.5200502706083019 1.1400351673094833
4.20465898514 0.0726553743729769 0.0914216258511405 -3.096735943513016 1.363793073800948 2.050055466436567 -0.5200502706083019 1.1400351673094833
4.21469497681 0.0726553743729769 0.0914216258511405 -3.096735943513016 1.363793073800948 2.050055466436567 -0.5200502706083019 1.1400351673094833
4.21469497681 0.0726553743729769 0.0914216258511405 -3.096735943513016 1.363793073800948 2.050055466436567 -0.5200502706083019 1.1400351673094833
4.22472691536 0.0726553743729769 0.0914216258511405 -3.096735943513016 1.363793073800948 2.050055466436567 -0.5200502706083019 1.1400351673094833
4.22472691536 0.0726553743729769 0.0914216258511405 -3.096735943513016 1.363793073800948 2.050055466436567 -0.5200502706083019 1.1400351673094833
4.23471188545 0.0726553743729769 0.0914216258511405 -3.096735943513016 1.363793073800948 2.050055466436567 -0.5200502706083019 1.1400351673094833
4.23471188545 0.0726553743729769 0.0914216258511405 -3.096735943513016 1.363793073800948 2.050055466436567 -0.5200502706083019 1.1400351673094833
4.24475598335 0.0726553743729769 0.0914216258511405 -3.096735943513016 1.363793073800948 2.050055466436567 -0.5200502706083019 1.1400351673094833
4.24475598335 0.0726553743729769 0.0914216258511405 -3.096735943513016 1.363793073800948 2.050055466436567 -0.5200502706083019 1.1400351673094833
4.2546980381 0.0726553743729769 0.0914216258511405 -3.096735943513016 1.363793073800948 2.050055466436567 -0.5200502706083019 1.1400351673094833
4.2546980381 0.0726553743729769 0.0914216258511405 -3.096735943513016 1.363793073800948 2.050055466436567 -0.5200502706083019 1.1400351673094833
4.26468992233 0.0726553743729769 0.0914216258511405 -3.096735943513016 1.363793073800948 2.050055466436567 -0.5200502706083019 1.1400351673094833
4.26468992233 0.0726553743729769 0.0914216258511405 -3.096735943513016 1.363793073800948 2.050055466436567 -0.5200502706083019 1.1400351673094833
4.27467393875 0.0726553743729769 0.0914216258511405 -3.096735943513016 1.363793073800948 2.050055466436567 -0.5200502706083019 1.1400351673094833
4.27467393875 0.0726553743729769 0.0914216258511405 -3.096735943513016 1.363793073800948 2.050055466436567 -0.5200502706083019 1.1400351673094833
4.28468894958 0.0726553743729769 0.0914216258511405 -3.096735943513016 1.363793073800948 2.050055466436567 -0.5200502706083019 1.1400351673094833
4.28468894958 0.0726553743729769 0.0914216258511405 -3.096735943513016 1.363793073800948 2.050055466436567 -0.5200502706083019 1.1400351673094833
4.29468297958 0.0726553743729769 0.0914216258511405 -3.096735943513016 1.363793073800948 2.050055466436567 -0.5200502706083019 1.1400351673094833
4.29468297958 0.0726553743729769 0.0914216258511405 -3.096735943513016 1.363793073800948 2.050055466436567 -0.5200502706083019 1.1400351673094833
4.3047118187 0.0726553743729769 0.0914216258511405 -3.096735943513016 1.363793073800948 2.050055466436567 -0.5200502706083019 1.1400351673094833
4.3047118187 0.0726553743729769 0.0914216258511405 -3.096735943513016 1.363793073800948 2.050055466436567 -0.5200502706083019 1.1400351673094833
4.3145468235 0.0726553743729769 0.0914216258511405 -3.096735943513016 1.363793073800948 2.050055466436567 -0.5200502706083019 1.1400351673094833
4.3145468235 0.0726553743729769 0.0914216258511405 -3.096735943513016 1.363793073800948 2.050055466436567 -0.5200502706083019 1.1400351673094833
4.32468485832 0.0726553743729769 0.0914216258511405 -3.096735943513016 1.363793073800948 2.050055466436567 -0.5200502706083019 1.1400351673094833
4.32468485832 0.0726553743729769 0.0914216258511405 -3.096735943513016 1.363793073800948 2.050055466436567 -0.5200502706083019 1.1400351673094833
4.33478999138 0.0726553743729769 0.0914216258511405 -3.096735943513016 1.363793073800948 2.050055466436567 -0.5200502706083019 1.1400351673094833
4.33478999138 0.0726553743729769 0.0914216258511405 -3.096735943513016 1.363793073800948 2.050055466436567 -0.5200502706083019 1.1400351673094833
4.34469199181 0.0726553743729769 0.0914216258511405 -3.096735943513016 1.363793073800948 2.050055466436567 -0.5200502706083019 1.1400351673094833
4.34469199181 0.0726553743729769 0.0914216258511405 -3.096735943513016 1.363793073800948 2.050055466436567 -0.5200502706083019 1.1400351673094833
4.35469698906 0.0726553743729769 0.0914216258511405 -3.096735943513016 1.363793073800948 2.050055466436567 -0.5200502706083019 1.1400351673094833
4.35469698906 0.0726553743729769 0.0914216258511405 -3.096735943513016 1.363793073800948 2.050055466436567 -0.5200502706083019 1.1400351673094833
4.36469984055 0.0726553743729769 0.0914216258511405 -3.096735943513016 1.363793073800948 2.050055466436567 -0.5200502706083019 1.1400351673094833
4.36469984055 0.0726553743729769 0.0914216258511405 -3.096735943513016 1.363793073800948 2.050055466436567 -0.5200502706083019 1.1400351673094833
4.37468385696 0.0726553743729769 0.0914216258511405 -3.096735943513016 1.363793073800948 2.050055466436567 -0.5200502706083019 1.1400351673094833
4.37468385696 0.0726553743729769 0.0914216258511405 -3.096735943513016 1.363793073800948 2.050055466436567 -0.5200502706083019 1.1400351673094833
4.38470888138 0.0726553743729769 0.0914216258511405 -3.096735943513016 1.363793073800948 2.050055466436567 -0.5200502706083019 1.1400351673094833
4.38470888138 0.0726553743729769 0.0914216258511405 -3.096735943513016 1.363793073800948 2.050055466436567 -0.5200502706083019 1.1400351673094833
4.3946018219 0.0726553743729769 0.0914216258511405 -3.096735943513016 1.363793073800948 2.050055466436567 -0.5200502706083019 1.1400351673094833
4.3946018219 0.0726553743729769 0.0914216258511405 -3.096735943513016 1.363793073800948 2.050055466436567 -0.5200502706083019 1.1400351673094833
4.40466499329 0.0726553743729769 0.0914216258511405 -3.096735943513016 1.363793073800948 2.050055466436567 -0.5200502706083019 1.1400351673094833
4.40466499329 0.0726553743729769 0.0914216258511405 -3.096735943513016 1.363793073800948 2.050055466436567 -0.5200502706083019 1.1400351673094833
4.41467881203 0.0726553743729769 0.0914216258511405 -3.096735943513016 1.363793073800948 2.050055466436567 -0.5200502706083019 1.1400351673094833
4.41467881203 0.0726553743729769 0.0914216258511405 -3.096735943513016 1.363793073800948 2.050055466436567 -0.5200502706083019 1.1400351673094833
4.42467904091 0.0726553743729769 0.0914216258511405 -3.096735943513016 1.363793073800948 2.050055466436567 -0.5200502706083019 1.1400351673094833
4.42467904091 0.0726553743729769 0.0914216258511405 -3.096735943513016 1.363793073800948 2.050055466436567 -0.5200502706083019 1.1400351673094833
4.43468999863 0.0726553743729769 0.0914216258511405 -3.096735943513016 1.363793073800948 2.050055466436567 -0.5200502706083019 1.1400351673094833
4.43468999863 0.0726553743729769 0.0914216258511405 -3.096735943513016 1.363793073800948 2.050055466436567 -0.5200502706083019 1.1400351673094833
4.44467496872 0.0726553743729769 0.0914216258511405 -3.096735943513016 1.363793073800948 2.050055466436567 -0.5200502706083019 1.1400351673094833
4.44467496872 0.0726553743729769 0.0914216258511405 -3.096735943513016 1.363793073800948 2.050055466436567 -0.5200502706083019 1.1400351673094833
4.45469498634 0.0726553743729769 0.0914216258511405 -3.096735943513016 1.363793073800948 2.050055466436567 -0.5200502706083019 1.1400351673094833
