riccardo-csl/Motion-Planning-for-TIAGo-Manipulator/T3_G_7/head_scan/head_scan/tiago_traiettorie_SG/2a-3b/place_3b_rep2.txt
time arm_1_joint arm_2_joint arm_3_joint arm_4_joint arm_5_joint arm_6_joint arm_7_joint
0.860885858536 0.287047373023056 -0.2466262043042538 -1.077929089595944 2.091155052048812 2.050037204598331 -0.519995485093592 1.13999864363301
0.861060857773 0.287047373023056 -0.2466262043042538 -1.077929089595944 2.091155052048812 2.050037204598331 -0.519995485093592 1.13999864363301
0.861060857773 0.287047373023056 -0.2466262043042538 -1.077929089595944 2.091155052048812 2.050037204598331 -0.519995485093592 1.13999864363301
0.871311903 0.287047373023056 -0.2466262043042538 -1.077929089595944 2.091155052048812 2.050037204598331 -0.519995485093592 1.13999864363301
0.871311903 0.287047373023056 -0.2466262043042538 -1.077929089595944 2.091155052048812 2.050037204598331 -0.519995485093592 1.13999864363301
0.881162881851 0.2870933930571108 -0.2458285237139701 -1.077775689482428 2.0916152523893605 2.050046335517449 -0.5200046160127103 1.1399895127138917
0.881162881851 0.2870933930571108 -0.2458285237139701 -1.077775689482428 2.0916152523893605 2.050046335517449 -0.5200046160127103 1.1399895127138917
0.89141702652 0.2870933930571108 -0.2458285237139701 -1.077775689482428 2.0916152523893605 2.050046335517449 -0.5200046160127103 1.1399895127138917
0.89141702652 0.2870933930571108 -0.2458285237139701 -1.077775689482428 2.0916152523893605 2.050046335517449 -0.5200046160127103 1.1399895127138917
0.901568889618 0.2870933930571108 -0.2458285237139701 -1.077775689482428 2.0916152523893605 2.050046335517449 -0.5200046160127103 1.1399895127138917
0.901568889618 0.2870933930571108 -0.2458285237139701 -1.077775689482428 2.0916152523893605 2.050046335517449 -0.5200046160127103 1.1399895127138917
0.911656856537 0.2870933930571108 -0.2458285237139701 -1.077775689482428 2.0916152523893605 2.050046335517449 -0.5200046160127103 1.1399895127138917
0.911656856537 0.2870933930571108 -0.2458285237139701 -1.077775689482428 2.0916152523893605 2.050046335517449 -0.5200046160127103 1.1399895127138917
0.921649932861 0.2870933930571108 -0.2458285237139701 -1.077775689482428 2.0916152523893605 2.050046335517449 -0.5200046160127103 1.1399895127138917
0.921649932861 0.2870933930571108 -0.2458285237139701 -1.077775689482428 2.0916152523893605 2.050046335517449 -0.5200046160127103 1.1399895127138917
0.931622028351 0.2870933930571108 -0.2458285237139701 -1.077775689482428 2.0916152523893605 2.050046335517449 -0.5200046160127103 1.1399895127138917
0.931622028351 0.2870933930571108 -0.2458285237139701 -1.077775689482428 2.0916152523893605 2.050046335517449 -0.5200046160127103 1.1399895127138917
0.941473007202 0.2871087330684624 -0.2449848230896317 -1.077499569278099 2.092244192854776 2.050037204598331 -0.519995485093592 1.13999864363301
0.941473007202 0.2871087330684624 -0.2449848230896317 -1.077499569278099 2.092244192854776 2.050037204598331 -0.519995485093592 1.13999864363301
0.951628923416 0.2871087330684624 -0.2449848230896317 -1.077499569278099 2.092244192854776 2.050037204598331 -0.519995485093592 1.13999864363301
0.951628923416 0.2871087330684624 -0.2449848230896317 -1.077499569278099 2.092244192854776 2.050037204598331 -0.519995485093592 1.13999864363301
0.961224079132 0.2871087330684624 -0.2444939427263802 -1.077468889255396 2.0925509930818085 2.050037204598331 -0.519995485093592 1.13999864363301
0.961224079132 0.2871087330684624 -0.2444939427263802 -1.077468889255396 2.0925509930818085 2.050037204598331 -0.519995485093592 1.13999864363301
0.97119307518 0.2871087330684624 -0.2444939427263802 -1.077468889255396 2.0925509930818085 2.050037204598331 -0.519995485093592 1.13999864363301
0.97119307518 0.2871087330684624 -0.2444939427263802 -1.077468889255396 2.0925509930818085 2.050037204598331 -0.519995485093592 1.13999864363301
0.981236934662 0.2871087330684624 -0.2444939427263802 -1.077468889255396 2.0925509930818085 2.050037204598331 -0.519995485093592 1.13999864363301
0.981236934662 0.2871087330684624 -0.2444939427263802 -1.077468889255396 2.0925509930818085 2.050037204598331 -0.519995485093592 1.13999864363301
0.991250991821 0.2871087330684624 -0.2439570423290739 -1.077422869221341 2.0928117732747857 2.050037204598331 -0.5200000505531511 1.139994078173451
0.991250991821 0.2871087330684624 -0.2439570423290739 -1.077422869221341 2.0928117732747857 2.050037204598331 -0.5200000505531511 1.139994078173451
1.00148797035 0.2871087330684624 -0.2434201419317676 -1.0774075292099894 2.093118573501818 2.050037204598331 -0.519995485093592 1.13999864363301
1.00148797035 0.2871087330684624 -0.2434201419317676 -1.0774075292099894 2.093118573501818 2.050037204598331 -0.519995485093592 1.13999864363301
1.01133298874 0.2871087330684624 -0.2430366416479774 -1.0774075292099894 2.0933946937061467 2.050037204598331 -0.519995485093592 1.13999864363301
1.01133298874 0.2871087330684624 -0.2430366416479774 -1.0774075292099894 2.0933946937061467 2.050037204598331 -0.519995485093592 1.13999864363301
1.02152895927 0.2871087330684624 -0.2430366416479774 -1.0774075292099894 2.0933946937061467 2.050037204598331 -0.519995485093592 1.13999864363301
1.02152895927 0.2871087330684624 -0.2430366416479774 -1.0774075292099894 2.0933946937061467 2.050037204598331 -0.519995485093592 1.13999864363301
1.03160095215 0.2871087330684624 -0.2430366416479774 -1.0774075292099894 2.0933946937061467 2.050037204598331 -0.519995485093592 1.13999864363301
1.03160095215 0.2871087330684624 -0.2430366416479774 -1.0774075292099894 2.0933946937061467 2.050037204598331 -0.519995485093592 1.13999864363301
1.04158687592 0.2871087330684624 -0.2430366416479774 -1.0774075292099894 2.0933946937061467 2.050037204598331 -0.519995485093592 1.13999864363301
1.04158687592 0.2871087330684624 -0.2430366416479774 -1.0774075292099894 2.0933946937061467 2.050037204598331 -0.519995485093592 1.13999864363301
1.05145597458 0.2871087330684624 -0.2430366416479774 -1.0774075292099894 2.0933946937061467 2.050037204598331 -0.519995485093592 1.13999864363301
1.05145597458 0.2871087330684624 -0.2430366416479774 -1.0774075292099894 2.0933946937061467 2.050037204598331 -0.519995485093592 1.13999864363301
1.06142187119 0.2871087330684624 -0.2426071213301323 -1.0773921891986378 2.093594113853718 2.050046335517449 -0.519995485093592 1.13999864363301
1.06142187119 0.2871087330684624 -0.2426071213301323 -1.0773921891986378 2.093594113853718 2.050046335517449 -0.519995485093592 1.13999864363301
1.07139587402 0.2871087330684624 -0.2422389610576937 -1.0773921891986378 2.0937321739558823 2.050037204598331 -0.519995485093592 1.13999864363301
1.07139587402 0.2871087330684624 -0.2422389610576937 -1.0773921891986378 2.0937321739558823 2.050037204598331 -0.519995485093592 1.13999864363301
1.08141708374 0.2871087330684624 -0.2422389610576937 -1.0773921891986378 2.0937321739558823 2.050037204598331 -0.519995485093592 1.13999864363301
1.08141708374 0.2871087330684624 -0.2422389610576937 -1.0773921891986378 2.0937321739558823 2.050037204598331 -0.519995485093592 1.13999864363301
1.09160685539 0.2871087330684624 -0.2422389610576937 -1.0773921891986378 2.0937321739558823 2.050037204598331 -0.519995485093592 1.13999864363301
1.09160685539 0.2871087330684624 -0.2422389610576937 -1.0773921891986378 2.0937321739558823 2.050037204598331 -0.519995485093592 1.13999864363301
1.10169100761 0.2871087330684624 -0.2422389610576937 -1.0773921891986378 2.0937321739558823 2.050037204598331 -0.519995485093592 1.13999864363301
1.10169100761 0.2871087330684624 -0.2422389610576937 -1.0773921891986378 2.0937321739558823 2.050037204598331 -0.519995485093592 1.13999864363301
1.11162996292 0.2871087330684624 -0.2422389610576937 -1.0773921891986378 2.0937321739558823 2.050037204598331 -0.519995485093592 1.13999864363301
1.11162996292 0.2871087330684624 -0.2422389610576937 -1.0773921891986378 2.0937321739558823 2.050037204598331 -0.519995485093592 1.13999864363301
1.12157988548 0.2871087330684624 -0.2422389610576937 -1.0773921891986378 2.0937321739558823 2.050037204598331 -0.519995485093592 1.13999864363301
1.12157988548 0.2871087330684624 -0.2422389610576937 -1.0773921891986378 2.0937321739558823 2.050037204598331 -0.519995485093592 1.13999864363301
1.13162589073 0.2871087330684624 -0.2422389610576937 -1.0773921891986378 2.0937321739558823 2.050037204598331 -0.519995485093592 1.13999864363301
1.13162589073 0.2871087330684624 -0.2422389610576937 -1.0773921891986378 2.0937321739558823 2.050037204598331 -0.519995485093592 1.13999864363301
1.14142990112 0.2871087330684624 -0.2422389610576937 -1.0773921891986378 2.0937321739558823 2.050037204598331 -0.519995485093592 1.13999864363301
1.14142990112 0.2871087330684624 -0.2422389610576937 -1.0773921891986378 2.0937321739558823 2.050037204598331 -0.519995485093592 1.13999864363301
1.15139508247 0.2871087330684624 -0.2422389610576937 -1.0773921891986378 2.0937321739558823 2.050037204598331 -0.519995485093592 1.13999864363301
1.15139508247 0.2871087330684624 -0.2422389610576937 -1.0773921891986378 2.0937321739558823 2.050037204598331 -0.519995485093592 1.13999864363301
1.16156005859 0.2871087330684624 -0.2407816599792909 -1.0773768491872862 2.094207714307782 2.050037204598331 -0.519995485093592 1.13999864363301
1.16156005859 0.2871087330684624 -0.2407816599792909 -1.0773768491872862 2.094207714307782 2.050037204598331 -0.519995485093592 1.13999864363301
1.17122197151 0.2871087330684624 -0.2362256766078632 -1.0773615091759343 2.095849095522404 2.050037204598331 -0.5200046160127103 1.1399895127138917
1.17122197151 0.2871087330684624 -0.2362256766078632 -1.0773615091759343 2.095849095522404 2.050037204598331 -0.5200046160127103 1.1399895127138917
1.18142485619 0.2871087330684624 -0.2362256766078632 -1.0773615091759343 2.095849095522404 2.050037204598331 -0.5200046160127103 1.1399895127138917
1.18142485619 0.2871087330684624 -0.2362256766078632 -1.0773615091759343 2.095849095522404 2.050037204598331 -0.5200046160127103 1.1399895127138917
1.19147992134 0.2871087330684624 -0.2345842953932411 -1.077346169164583 2.096201915783491 2.050037204598331 -0.519995485093592 1.13999864363301
1.19147992134 0.2871087330684624 -0.2345842953932411 -1.077346169164583 2.096201915783491 2.050037204598331 -0.519995485093592 1.13999864363301
1.20147705078 0.2871087330684624 -0.2345842953932411 -1.077346169164583 2.096201915783491 2.050037204598331 -0.519995485093592 1.13999864363301
1.20147705078 0.2871087330684624 -0.2345842953932411 -1.077346169164583 2.096201915783491 2.050037204598331 -0.519995485093592 1.13999864363301
1.21131491661 0.2871087330684624 -0.232789514065103 -1.077346169164583 2.0966160960899844 2.050037204598331 -0.519995485093592 1.13999864363301
1.21131491661 0.2871087330684624 -0.232789514065103 -1.077346169164583 2.0966160960899844 2.050037204598331 -0.519995485093592 1.13999864363301
1.2215719223 0.2871087330684624 -0.232789514065103 -1.077346169164583 2.0966160960899844 2.050037204598331 -0.519995485093592 1.13999864363301
1.2215719223 0.2871087330684624 -0.232789514065103 -1.077346169164583 2.0966160960899844 2.050037204598331 -0.519995485093592 1.13999864363301
1.23163700104 0.2871087330684624 -0.232789514065103 -1.077346169164583 2.0966160960899844 2.050037204598331 -0.519995485093592 1.13999864363301
1.23163700104 0.2871087330684624 -0.232789514065103 -1.077346169164583 2.0966160960899844 2.050037204598331 -0.519995485093592 1.13999864363301
1.24151206017 0.2871087330684624 -0.232789514065103 -1.077346169164583 2.0966160960899844 2.050037204598331 -0.519995485093592 1.13999864363301
1.24151206017 0.2871087330684624 -0.232789514065103 -1.077346169164583 2.0966160960899844 2.050037204598331 -0.519995485093592 1.13999864363301
1.25150895119 0.2871087330684624 -0.2305652124191198 -1.077346169164583 2.0972143565326973 2.050037204598331 -0.519995485093592 1.13999864363301
1.25150895119 0.2871087330684624 -0.2305652124191198 -1.077346169164583 2.0972143565326973 2.050037204598331 -0.519995485093592 1.13999864363301
1.2614710331 0.2871087330684624 -0.2305652124191198 -1.077346169164583 2.0972143565326973 2.050037204598331 -0.519995485093592 1.13999864363301
1.2614710331 0.2871087330684624 -0.2305652124191198 -1.077346169164583 2.0972143565326973 2.050037204598331 -0.519995485093592 1.13999864363301
1.27144503593 0.2871547531025173 -0.2252422284801117 -1.077346169164583 2.098748357667858 2.050037204598331 -0.5200046160127103 1.1399895127138917
1.27144503593 0.2871547531025173 -0.2252422284801117 -1.077346169164583 2.098748357667858 2.050037204598331 -0.5200046160127103 1.1399895127138917
1.2815849781 0.2871547531025173 -0.2252422284801117 -1.077346169164583 2.098748357667858 2.050037204598331 -0.5200046160127103 1.1399895127138917
1.2815849781 0.2871547531025173 -0.2252422284801117 -1.077346169164583 2.098748357667858 2.050037204598331 -0.5200046160127103 1.1399895127138917
1.29150700569 0.2871547531025173 -0.2218214059487029 -1.077346169164583 2.099576718280845 2.050037204598331 -0.519995485093592 1.13999864363301
1.29150700569 0.2871547531025173 -0.2218214059487029 -1.077346169164583 2.099576718280845 2.050037204598331 -0.519995485093592 1.13999864363301
1.30140900612 0.2871547531025173 -0.2218214059487029 -1.077346169164583 2.099576718280845 2.050037204598331 -0.519995485093592 1.13999864363301
1.30140900612 0.2871547531025173 -0.2218214059487029 -1.077346169164583 2.099576718280845 2.050037204598331 -0.519995485093592 1.13999864363301
1.31137990952 0.2871547531025173 -0.2218214059487029 -1.077346169164583 2.099576718280845 2.050037204598331 -0.519995485093592 1.13999864363301
1.31137990952 0.2871547531025173 -0.2218214059487029 -1.077346169164583 2.099576718280845 2.050037204598331 -0.519995485093592 1.13999864363301
1.32170200348 0.2871394130911657 -0.2180170831335041 -1.077346169164583 2.100497118961941 2.050037204598331 -0.519995485093592 1.13999864363301
1.32170200348 0.2871394130911657 -0.2180170831335041 -1.077346169164583 2.100497118961941 2.050037204598331 -0.519995485093592 1.13999864363301
1.33143997192 0.2871394130911657 -0.2180170831335041 -1.077346169164583 2.100497118961941 2.050037204598331 -0.519995485093592 1.13999864363301
1.33143997192 0.2871394130911657 -0.2180170831335041 -1.077346169164583 2.100497118961941 2.050037204598331 -0.519995485093592 1.13999864363301
1.34125900269 0.2871394130911657 -0.2139213001026247 -1.077346169164583 2.101601599779257 2.050037204598331 -0.5200000505531511 1.139994078173451
1.34125900269 0.2871394130911657 -0.2139213001026247 -1.077346169164583 2.101601599779257 2.050037204598331 -0.5200000505531511 1.139994078173451
1.351541996 0.2871394130911657 -0.2139213001026247 -1.077346169164583 2.101601599779257 2.050037204598331 -0.5200000505531511 1.139994078173451
1.351541996 0.2871394130911657 -0.2139213001026247 -1.077346169164583 2.101601599779257 2.050037204598331 -0.5200000505531511 1.139994078173451
1.36127090454 0.2871394130911657 -0.2098255170717451 -1.077346169164583 2.102629380539815 2.050037204598331 -0.5200000505531511 1.139994078173451
1.36127090454 0.2871394130911657 -0.2098255170717451 -1.077346169164583 2.102629380539815 2.050037204598331 -0.5200000505531511 1.139994078173451
1.3715569973 0.2871394130911657 -0.2098255170717451 -1.077346169164583 2.102629380539815 2.050037204598331 -0.5200000505531511 1.139994078173451
1.3715569973 0.2871394130911657 -0.2098255170717451 -1.077346169164583 2.102629380539815 2.050037204598331 -0.5200000505531511 1.139994078173451
1.38157105446 0.2871394130911657 -0.2098255170717451 -1.077346169164583 2.102629380539815 2.050037204598331 -0.5200000505531511 1.139994078173451
1.38157105446 0.2871394130911657 -0.2098255170717451 -1.077346169164583 2.102629380539815 2.050037204598331 -0.5200000505531511 1.139994078173451
1.39161300659 0.2871394130911657 -0.2098255170717451 -1.077346169164583 2.102629380539815 2.050037204598331 -0.5200000505531511 1.139994078173451
1.39161300659 0.2871394130911657 -0.2098255170717451 -1.077346169164583 2.102629380539815 2.050037204598331 -0.5200000505531511 1.139994078173451
1.40161299706 0.2871394130911657 -0.2098255170717451 -1.077346169164583 2.102629380539815 2.050037204598331 -0.5200000505531511 1.139994078173451
1.40161299706 0.2871394130911657 -0.2098255170717451 -1.077346169164583 2.102629380539815 2.050037204598331 -0.5200000505531511 1.139994078173451
1.41155695915 0.2871394130911657 -0.202155511395941 -1.077346169164583 2.1049764022766118 2.050037204598331 -0.519995485093592 1.13999864363301
1.41155695915 0.2871394130911657 -0.202155511395941 -1.077346169164583 2.1049764022766118 2.050037204598331 -0.519995485093592 1.13999864363301
1.42150998116 0.2871394130911657 -0.202155511395941 -1.077346169164583 2.1049764022766118 2.050037204598331 -0.519995485093592 1.13999864363301
1.42150998116 0.2871394130911657 -0.202155511395941 -1.077346169164583 2.1049764022766118 2.050037204598331 -0.519995485093592 1.13999864363301
1.43158793449 0.2871394130911657 -0.202155511395941 -1.077346169164583 2.1049764022766118 2.050037204598331 -0.519995485093592 1.13999864363301
1.43158793449 0.2871394130911657 -0.202155511395941 -1.077346169164583 2.1049764022766118 2.050037204598331 -0.519995485093592 1.13999864363301
1.44134402275 0.2871394130911657 -0.1954365864239365 -1.077346169164583 2.109808505852368 2.050037204598331 -0.5200000505531511 1.139994078173451
1.44134402275 0.2871394130911657 -0.1954365864239365 -1.077346169164583 2.109808505852368 2.050037204598331 -0.5200000505531511 1.139994078173451
1.45150589943 0.2871394130911657 -0.1954365864239365 -1.077346169164583 2.109808505852368 2.050037204598331 -0.5200000505531511 1.139994078173451
1.45150589943 0.2871394130911657 -0.1954365864239365 -1.077346169164583 2.109808505852368 2.050037204598331 -0.5200000505531511 1.139994078173451
1.46230101585 0.2871394130911657 -0.1939792853455337 -1.077346169164583 2.1117413472826705 2.050037204598331 -0.519995485093592 1.13999864363301
1.46230101585 0.2871394130911657 -0.1939792853455337 -1.077346169164583 2.1117413472826705 2.050037204598331 -0.519995485093592 1.13999864363301
1.47139501572 0.2871394130911657 -0.1939792853455337 -1.077346169164583 2.1117413472826705 2.050037204598331 -0.519995485093592 1.13999864363301
1.47139501572 0.2871394130911657 -0.1939792853455337 -1.077346169164583 2.1117413472826705 2.050037204598331 -0.519995485093592 1.13999864363301
1.48229789734 0.2871394130911657 -0.1939792853455337 -1.077346169164583 2.1117413472826705 2.050037204598331 -0.519995485093592 1.13999864363301
1.48229789734 0.2871394130911657 -0.1939792853455337 -1.077346169164583 2.1117413472826705 2.050037204598331 -0.519995485093592 1.13999864363301
1.49160790443 0.2871394130911657 -0.1939792853455337 -1.077346169164583 2.1117413472826705 2.050037204598331 -0.519995485093592 1.13999864363301
1.49160790443 0.2871394130911657 -0.1939792853455337 -1.077346169164583 2.1117413472826705 2.050037204598331 -0.519995485093592 1.13999864363301
1.50200295448 0.2871394130911657 -0.1925526642898341 -1.077346169164583 2.1137969088037862 2.050037204598331 -0.519995485093592 1.13999864363301
1.50200295448 0.2871394130911657 -0.1925526642898341 -1.077346169164583 2.1137969088037862 2.050037204598331 -0.519995485093592 1.13999864363301
1.51140785217 0.2871394130911657 -0.1909879831319701 -1.0773615091759343 2.1160518904724723 2.050046335517449 -0.519995485093592 1.13999864363301
1.51140785217 0.2871394130911657 -0.1909879831319701 -1.0773615091759343 2.1160518904724723 2.050046335517449 -0.519995485093592 1.13999864363301
1.52158999443 0.2871394130911657 -0.1909879831319701 -1.0773615091759343 2.1160518904724723 2.050046335517449 -0.519995485093592 1.13999864363301
1.52158999443 0.2871394130911657 -0.1909879831319701 -1.0773615091759343 2.1160518904724723 2.050046335517449 -0.519995485093592 1.13999864363301
1.53145599365 0.2871394130911657 -0.1909879831319701 -1.0773615091759343 2.1160518904724723 2.050046335517449 -0.519995485093592 1.13999864363301
1.53145599365 0.2871394130911657 -0.1909879831319701 -1.0773615091759343 2.1160518904724723 2.050046335517449 -0.519995485093592 1.13999864363301
1.54142308235 0.2871394130911657 -0.1891165017470739 -1.0773615091759343 2.1181534720276427 2.050037204598331 -0.5200000505531511 1.139994078173451
1.54142308235 0.2871394130911657 -0.1891165017470739 -1.0773615091759343 2.1181534720276427 2.050037204598331 -0.5200000505531511 1.139994078173451
1.55139994621 0.2871394130911657 -0.1869689001578486 -1.0773921891986378 2.120531173787142 2.050037204598331 -0.5200000505531511 1.139994078173451
1.55139994621 0.2871394130911657 -0.1869689001578486 -1.0773921891986378 2.120531173787142 2.050037204598331 -0.5200000505531511 1.139994078173451
1.5612180233 0.2871394130911657 -0.1869689001578486 -1.0773921891986378 2.120531173787142 2.050037204598331 -0.5200000505531511 1.139994078173451
1.5612180233 0.2871394130911657 -0.1869689001578486 -1.0773921891986378 2.120531173787142 2.050037204598331 -0.5200000505531511 1.139994078173451
1.57160806656 0.2871394130911657 -0.1869689001578486 -1.0773921891986378 2.120531173787142 2.050037204598331 -0.5200000505531511 1.139994078173451
1.57160806656 0.2871394130911657 -0.1869689001578486 -1.0773921891986378 2.120531173787142 2.050037204598331 -0.5200000505531511 1.139994078173451
1.58165097237 0.2871394130911657 -0.1848059585572719 -1.0774075292099894 2.1231082956942124 2.050037204598331 -0.519995485093592 1.13999864363301
1.58165097237 0.2871394130911657 -0.1848059585572719 -1.0774075292099894 2.1231082956942124 2.050037204598331 -0.519995485093592 1.13999864363301
1.59153199196 0.2871394130911657 -0.1824742768318274 -1.077422869221341 2.1260075578396664 2.050037204598331 -0.519995485093592 1.13999864363301
1.59153199196 0.2871394130911657 -0.1824742768318274 -1.077422869221341 2.1260075578396664 2.050037204598331 -0.519995485093592 1.13999864363301
1.60161304474 0.2871394130911657 -0.1824742768318274 -1.077422869221341 2.1260075578396664 2.050037204598331 -0.519995485093592 1.13999864363301
1.60161304474 0.2871394130911657 -0.1824742768318274 -1.077422869221341 2.1260075578396664 2.050037204598331 -0.519995485093592 1.13999864363301
1.61147904396 0.2871394130911657 -0.1796363747317799 -1.077468889255396 2.1291369201553945 2.050037204598331 -0.519995485093592 1.13999864363301
1.61147904396 0.2871394130911657 -0.1796363747317799 -1.077468889255396 2.1291369201553945 2.050037204598331 -0.519995485093592 1.13999864363301
1.62140202522 0.2871394130911657 -0.1796363747317799 -1.077468889255396 2.1291369201553945 2.050037204598331 -0.519995485093592 1.13999864363301
1.62140202522 0.2871394130911657 -0.1796363747317799 -1.077468889255396 2.1291369201553945 2.050037204598331 -0.519995485093592 1.13999864363301
1.63148593903 0.2871394130911657 -0.1796363747317799 -1.077468889255396 2.1291369201553945 2.050037204598331 -0.519995485093592 1.13999864363301
1.63148593903 0.2871394130911657 -0.1796363747317799 -1.077468889255396 2.1291369201553945 2.050037204598331 -0.519995485093592 1.13999864363301
1.64158391953 0.2871394130911657 -0.1796363747317799 -1.077468889255396 2.1291369201553945 2.050037204598331 -0.519995485093592 1.13999864363301
1.64158391953 0.2871394130911657 -0.1796363747317799 -1.077468889255396 2.1291369201553945 2.050037204598331 -0.519995485093592 1.13999864363301
1.65137505531 0.2871394130911657 -0.1763842923252389 -1.077499569278099 2.1325117226527484 2.050037204598331 -0.519995485093592 1.13999864363301
1.65137505531 0.2871394130911657 -0.1763842923252389 -1.077499569278099 2.1325117226527484 2.050037204598331 -0.519995485093592 1.13999864363301
1.66159486771 0.2871394130911657 -0.1763842923252389 -1.077499569278099 2.1325117226527484 2.050037204598331 -0.519995485093592 1.13999864363301
1.66159486771 0.2871394130911657 -0.1763842923252389 -1.077499569278099 2.1325117226527484 2.050037204598331 -0.519995485093592 1.13999864363301
1.67143797874 0.2871394130911657 -0.1763842923252389 -1.077499569278099 2.1325117226527484 2.050037204598331 -0.519995485093592 1.13999864363301
1.67143797874 0.2871394130911657 -0.1763842923252389 -1.077499569278099 2.1325117226527484 2.050037204598331 -0.519995485093592 1.13999864363301
1.68162894249 0.2871394130911657 -0.1729941498165334 -1.0775455893121535 2.135748465047938 2.050037204598331 -0.5200091814722694 1.1399849472543326
1.68162894249 0.2871394130911657 -0.1729941498165334 -1.0775455893121535 2.135748465047938 2.050037204598331 -0.5200091814722694 1.1399849472543326
1.69161200523 0.2871394130911657 -0.1690671069105216 -1.0776836494143185 2.13929200767016 2.050037204598331 -0.519995485093592 1.13999864363301
1.69161200523 0.2871394130911657 -0.1690671069105216 -1.0776836494143185 2.13929200767016 2.050037204598331 -0.519995485093592 1.13999864363301
1.70155906677 0.2871394130911657 -0.1690671069105216 -1.0776836494143185 2.13929200767016 2.050037204598331 -0.519995485093592 1.13999864363301
1.70155906677 0.2871394130911657 -0.1690671069105216 -1.0776836494143185 2.13929200767016 2.050037204598331 -0.519995485093592 1.13999864363301
1.71249508858 0.2871394130911657 -0.1690671069105216 -1.0776836494143185 2.13929200767016 2.050037204598331 -0.519995485093592 1.13999864363301
1.71249508858 0.2871394130911657 -0.1690671069105216 -1.0776836494143185 2.13929200767016 2.050037204598331 -0.519995485093592 1.13999864363301
1.72133207321 0.2871394130911657 -0.160630100667137 -1.0780364696754052 2.1469159933119086 2.050046335517449 -0.519995485093592 1.13999864363301
1.72133207321 0.2871394130911657 -0.160630100667137 -1.0780364696754052 2.1469159933119086 2.050046335517449 -0.519995485093592 1.13999864363301
1.73151707649 0.2871394130911657 -0.1561354773411158 -1.0782358898229762 2.15055157600224 2.050046335517449 -0.519995485093592 1.13999864363301
1.73151707649 0.2871394130911657 -0.1561354773411158 -1.0782358898229762 2.15055157600224 2.050046335517449 -0.519995485093592 1.13999864363301
1.74137997627 0.2871394130911657 -0.1561354773411158 -1.0782358898229762 2.15055157600224 2.050046335517449 -0.519995485093592 1.13999864363301
1.74137997627 0.2871394130911657 -0.1561354773411158 -1.0782358898229762 2.15055157600224 2.050046335517449 -0.519995485093592 1.13999864363301
1.75120401382 0.2871394130911657 -0.1561354773411158 -1.0782358898229762 2.15055157600224 2.050046335517449 -0.519995485093592 1.13999864363301
1.75120401382 0.2871394130911657 -0.1561354773411158 -1.0782358898229762 2.15055157600224 2.050046335517449 -0.519995485093592 1.13999864363301
1.7612528801 0.2871394130911657 -0.1561354773411158 -1.0782358898229762 2.15055157600224 2.050046335517449 -0.519995485093592 1.13999864363301
1.7612528801 0.2871394130911657 -0.1561354773411158 -1.0782358898229762 2.15055157600224 2.050046335517449 -0.519995485093592 1.13999864363301
1.77139592171 0.2871394130911657 -0.1561354773411158 -1.0782358898229762 2.15055157600224 2.050046335517449 -0.519995485093592 1.13999864363301
1.77139592171 0.2871394130911657 -0.1561354773411158 -1.0782358898229762 2.15055157600224 2.050046335517449 -0.519995485093592 1.13999864363301
1.78146600723 0.2871394130911657 -0.1561354773411158 -1.0782358898229762 2.15055157600224 2.050046335517449 -0.519995485093592 1.13999864363301
1.78146600723 0.2871394130911657 -0.1561354773411158 -1.0782358898229762 2.15055157600224 2.050046335517449 -0.519995485093592 1.13999864363301
1.79134607315 0.2871394130911657 -0.1561354773411158 -1.0782358898229762 2.15055157600224 2.050046335517449 -0.519995485093592 1.13999864363301
1.79134607315 0.2871394130911657 -0.1561354773411158 -1.0782358898229762 2.15055157600224 2.050046335517449 -0.519995485093592 1.13999864363301
1.80160093307 0.2871394130911657 -0.1517175540718526 -1.078481330004602 2.154187158692571 2.050046335517449 -0.5200091814722694 1.1399849472543326
1.80160093307 0.2871394130911657 -0.1517175540718526 -1.078481330004602 2.154187158692571 2.050046335517449 -0.5200091814722694 1.1399849472543326
1.81160593033 0.2871394130911657 -0.1517175540718526 -1.078481330004602 2.154187158692571 2.050046335517449 -0.5200091814722694 1.1399849472543326
1.81160593033 0.2871394130911657 -0.1517175540718526 -1.078481330004602 2.154187158692571 2.050046335517449 -0.5200091814722694 1.1399849472543326
1.82150793076 0.2871394130911657 -0.1517175540718526 -1.078481330004602 2.154187158692571 2.050046335517449 -0.5200091814722694 1.1399849472543326
1.82150793076 0.2871394130911657 -0.1517175540718526 -1.078481330004602 2.154187158692571 2.050046335517449 -0.5200091814722694 1.1399849472543326
1.83161687851 0.2871394130911657 -0.1476064310296215 -1.0788494902770405 2.1576233212353317 2.050046335517449 -0.519995485093592 1.13999864363301
1.83161687851 0.2871394130911657 -0.1476064310296215 -1.0788494902770405 2.1576233212353317 2.050046335517449 -0.519995485093592 1.13999864363301
1.84162688255 0.2871394130911657 -0.1476064310296215 -1.0788494902770405 2.1576233212353317 2.050046335517449 -0.519995485093592 1.13999864363301
1.84162688255 0.2871394130911657 -0.1476064310296215 -1.0788494902770405 2.1576233212353317 2.050046335517449 -0.519995485093592 1.13999864363301
1.85143494606 0.2871394130911657 -0.1476064310296215 -1.0788494902770405 2.1576233212353317 2.050046335517449 -0.519995485093592 1.13999864363301
1.85143494606 0.2871394130911657 -0.1476064310296215 -1.0788494902770405 2.1576233212353317 2.050046335517449 -0.519995485093592 1.13999864363301
1.86155891418 0.2871394130911657 -0.1476064310296215 -1.0788494902770405 2.1576233212353317 2.050046335517449 -0.519995485093592 1.13999864363301
1.86155891418 0.2871394130911657 -0.1476064310296215 -1.0788494902770405 2.1576233212353317 2.050046335517449 -0.519995485093592 1.13999864363301
1.87142586708 0.2871394130911657 -0.1476064310296215 -1.0788494902770405 2.1576233212353317 2.050046335517449 -0.519995485093592 1.13999864363301
1.87142586708 0.2871394130911657 -0.1476064310296215 -1.0788494902770405 2.1576233212353317 2.050046335517449 -0.519995485093592 1.13999864363301
1.88138389587 0.2871394130911657 -0.1438327882371259 -1.0793863906743468 2.160890743653224 2.050055466436567 -0.519995485093592 1.13999864363301
1.88138389587 0.2871394130911657 -0.1438327882371259 -1.0793863906743468 2.160890743653224 2.050055466436567 -0.519995485093592 1.13999864363301
1.89138507843 0.2871394130911657 -0.1438327882371259 -1.0793863906743468 2.160890743653224 2.050055466436567 -0.519995485093592 1.13999864363301
1.89138507843 0.2871394130911657 -0.1438327882371259 -1.0793863906743468 2.160890743653224 2.050055466436567 -0.519995485093592 1.13999864363301
1.90286707878 0.287139413091 -0.134275961165 -1.08452529448 2.17199691187 2.05012851379 -0.519995485094 1.13999864363
1.90286707878 0.287139413091 -0.134275961165 -1.08452529448 2.17199691187 2.05012851379 -0.519995485094 1.13999864363
1.9111559391 0.2871394130911657 -0.1331408003250548 -1.087562616724754 2.1743132535858813 2.050238084818934 -0.519995485093592 1.13999864363301
1.9111559391 0.2871394130911657 -0.1331408003250548 -1.087562616724754 2.1743132535858813 2.050238084818934 -0.519995485093592 1.13999864363301
1.92296004295 0.2871394130911657 -0.1324044797801776 -1.0913822795513046 2.176276775038887 2.050219822980697 -0.5200000505531511 1.139994078173451
1.92296004295 0.2871394130911657 -0.1324044797801776 -1.0913822795513046 2.176276775038887 2.050219822980697 -0.5200000505531511 1.139994078173451
1.93147587776 0.2871394130911657 -0.1324044797801776 -1.0913822795513046 2.176276775038887 2.050219822980697 -0.5200000505531511 1.139994078173451
1.93147587776 0.2871394130911657 -0.1324044797801776 -1.0913822795513046 2.176276775038887 2.050219822980697 -0.5200000505531511 1.139994078173451
1.94149804115 0.2871394130911657 -0.1324044797801776 -1.0913822795513046 2.176276775038887 2.050219822980697 -0.5200000505531511 1.139994078173451
1.94149804115 0.2871394130911657 -0.1324044797801776 -1.0913822795513046 2.176276775038887 2.050219822980697 -0.5200000505531511 1.139994078173451
1.95156598091 0.2871394130911657 -0.1315454391444875 -1.0962757431724677 2.1779334962648607 2.0501193828703954 -0.5200000505531511 1.139994078173451
1.95156598091 0.2871394130911657 -0.1315454391444875 -1.0962757431724677 2.1779334962648607 2.0501193828703954 -0.5200000505531511 1.139994078173451
1.96163797379 0.2871394130911657 -0.1315454391444875 -1.0962757431724677 2.1779334962648607 2.0501193828703954 -0.5200000505531511 1.139994078173451
1.96163797379 0.2871394130911657 -0.1315454391444875 -1.0962757431724677 2.1779334962648607 2.0501193828703954 -0.5200000505531511 1.139994078173451
1.97172689438 0.2871394130911657 -0.1315454391444875 -1.0962757431724677 2.1779334962648607 2.0501193828703954 -0.5200000505531511 1.139994078173451
1.97172689438 0.2871394130911657 -0.1315454391444875 -1.0962757431724677 2.1779334962648607 2.0501193828703954 -0.5200000505531511 1.139994078173451
1.98154902458 0.2871394130911657 -0.1315454391444875 -1.0962757431724677 2.1779334962648607 2.0501193828703954 -0.5200000505531511 1.139994078173451
1.98154902458 0.2871394130911657 -0.1315454391444875 -1.0962757431724677 2.1779334962648607 2.0501193828703954 -0.5200000505531511 1.139994078173451
1.99136900902 0.2871394130911657 -0.1315454391444875 -1.0962757431724677 2.1779334962648607 2.0501193828703954 -0.5200000505531511 1.139994078173451
1.99136900902 0.2871394130911657 -0.1315454391444875 -1.0962757431724677 2.1779334962648607 2.0501193828703954 -0.5200000505531511 1.139994078173451
2.00158500671 0.2871394130911657 -0.1315454391444875 -1.0962757431724677 2.1779334962648607 2.0501193828703954 -0.5200000505531511 1.139994078173451
2.00158500671 0.2871394130911657 -0.1315454391444875 -1.0962757431724677 2.1779334962648607 2.0501193828703954 -0.5200000505531511 1.139994078173451
2.01147294044 0.2871394130911657 -0.1315454391444875 -1.0962757431724677 2.1779334962648607 2.0501193828703954 -0.5200000505531511 1.139994078173451
2.01147294044 0.2871394130911657 -0.1315454391444875 -1.0962757431724677 2.1779334962648607 2.0501193828703954 -0.5200000505531511 1.139994078173451
2.02163004875 0.2871394130911657 -0.1315454391444875 -1.0962757431724677 2.1779334962648607 2.0501193828703954 -0.5200000505531511 1.139994078173451
2.02163004875 0.2871394130911657 -0.1315454391444875 -1.0962757431724677 2.1779334962648607 2.0501193828703954 -0.5200000505531511 1.139994078173451
2.03163695335 0.2871394130911657 -0.1315454391444875 -1.0962757431724677 2.1779334962648607 2.0501193828703954 -0.5200000505531511 1.139994078173451
2.03163695335 0.2871394130911657 -0.1315454391444875 -1.0962757431724677 2.1779334962648607 2.0501193828703954 -0.5200000505531511 1.139994078173451
2.04150795937 0.2871394130911657 -0.1315454391444875 -1.0962757431724677 2.1779334962648607 2.0501193828703954 -0.5200000505531511 1.139994078173451
2.04150795937 0.2871394130911657 -0.1315454391444875 -1.0962757431724677 2.1779334962648607 2.0501193828703954 -0.5200000505531511 1.139994078173451
2.05211091042 0.2871394130911657 -0.1274343161022564 -1.1149291969760236 2.1802958580130083 2.050137644708632 -0.519995485093592 1.13999864363301
2.05211091042 0.2871394130911657 -0.1274343161022564 -1.1149291969760236 2.1802958580130083 2.050137644708632 -0.519995485093592 1.13999864363301
2.06121993065 0.2871394130911657 -0.1242282537297703 -1.128781227226526 2.1802958580130083 2.050283739414525 -0.5200000505531511 1.139994078173451
2.06121993065 0.2871394130911657 -0.1242282537297703 -1.128781227226526 2.1802958580130083 2.050283739414525 -0.5200000505531511 1.139994078173451
2.07130408287 0.2871854331252205 -0.1212983115616131 -1.142571897431622 2.1802958580130083 2.0501741683851056 -0.519995485093592 1.13999864363301
2.07130408287 0.2871854331252205 -0.1212983115616131 -1.142571897431622 2.1802958580130083 2.0501741683851056 -0.519995485093592 1.13999864363301
2.08155703545 0.2871854331252205 -0.1212983115616131 -1.142571897431622 2.1802958580130083 2.0501741683851056 -0.519995485093592 1.13999864363301
2.08155703545 0.2871854331252205 -0.1212983115616131 -1.142571897431622 2.1802958580130083 2.0501741683851056 -0.519995485093592 1.13999864363301
2.09151601791 0.2871854331252205 -0.1199177105399684 -1.1492141223468684 2.1802958580130083 2.050338524929235 -0.519995485093592 1.13999864363301
2.09151601791 0.2871854331252205 -0.1199177105399684 -1.1492141223468684 2.1802958580130083 2.050338524929235 -0.519995485093592 1.13999864363301
2.10196805 0.2871854331252205 -0.1199177105399684 -1.1492141223468684 2.1802958580130083 2.050338524929235 -0.519995485093592 1.13999864363301
2.10196805 0.2871854331252205 -0.1199177105399684 -1.1492141223468684 2.1802958580130083 2.050338524929235 -0.519995485093592 1.13999864363301
2.11135387421 0.2871854331252205 -0.1199177105399684 -1.1492141223468684 2.1802958580130083 2.050338524929235 -0.519995485093592 1.13999864363301
2.11135387421 0.2871854331252205 -0.1199177105399684 -1.1492141223468684 2.1802958580130083 2.050338524929235 -0.519995485093592 1.13999864363301
2.12148594856 0.2871854331252205 -0.1182763293253463 -1.155610907080489 2.1802958580130083 2.050283739414525 -0.519995485093592 1.13999864363301
2.12148594856 0.2871854331252205 -0.1182763293253463 -1.155610907080489 2.1802958580130083 2.050283739414525 -0.519995485093592 1.13999864363301
2.1314239502 0.2872007731365721 -0.1166502881220758 -1.1617469116211323 2.1802958580130083 2.050091990113041 -0.5200000505531511 1.139994078173451
2.1314239502 0.2872007731365721 -0.1166502881220758 -1.1617469116211323 2.1802958580130083 2.050091990113041 -0.5200000505531511 1.139994078173451
2.14159488678 0.2872007731365721 -0.1166502881220758 -1.1617469116211323 2.1802958580130083 2.050091990113041 -0.5200000505531511 1.139994078173451
2.14159488678 0.2872007731365721 -0.1166502881220758 -1.1617469116211323 2.1802958580130083 2.050091990113041 -0.5200000505531511 1.139994078173451
2.15164804459 0.2872007731365721 -0.1166502881220758 -1.1617469116211323 2.1802958580130083 2.050091990113041 -0.5200000505531511 1.139994078173451
2.15164804459 0.2872007731365721 -0.1166502881220758 -1.1617469116211323 2.1802958580130083 2.050091990113041 -0.5200000505531511 1.139994078173451
2.16148996353 0.2872161131479238 -0.1146100666123119 -1.1680516562866434 2.1802958580130083 2.05036591768659 -0.519995485093592 1.13999864363301
2.16148996353 0.2872161131479238 -0.1146100666123119 -1.1680516562866434 2.1802958580130083 2.05036591768659 -0.519995485093592 1.13999864363301
2.17164087296 0.2872161131479238 -0.1146100666123119 -1.1680516562866434 2.1802958580130083 2.05036591768659 -0.519995485093592 1.13999864363301
2.17164087296 0.2872161131479238 -0.1146100666123119 -1.1680516562866434 2.1802958580130083 2.05036591768659 -0.519995485093592 1.13999864363301
2.18163990974 0.2872161131479238 -0.1146100666123119 -1.1680516562866434 2.1802958580130083 2.05036591768659 -0.519995485093592 1.13999864363301
2.18163990974 0.2872161131479238 -0.1146100666123119 -1.1680516562866434 2.1802958580130083 2.05036591768659 -0.519995485093592 1.13999864363301
2.19145894051 0.2872161131479238 -0.1146100666123119 -1.1680516562866434 2.1802958580130083 2.05036591768659 -0.519995485093592 1.13999864363301
2.19145894051 0.2872161131479238 -0.1146100666123119 -1.1680516562866434 2.1802958580130083 2.05036591768659 -0.519995485093592 1.13999864363301
2.20161485672 0.2872161131479238 -0.1146100666123119 -1.1680516562866434 2.1802958580130083 2.05036591768659 -0.519995485093592 1.13999864363301
2.20161485672 0.2872161131479238 -0.1146100666123119 -1.1680516562866434 2.1802958580130083 2.05036591768659 -0.519995485093592 1.13999864363301
2.21148395538 0.2872161131479238 -0.1146100666123119 -1.1680516562866434 2.1802958580130083 2.05036591768659 -0.519995485093592 1.13999864363301
2.21148395538 0.2872161131479238 -0.1146100666123119 -1.1680516562866434 2.1802958580130083 2.05036591768659 -0.519995485093592 1.13999864363301
2.22142291069 0.2872161131479238 -0.1146100666123119 -1.1680516562866434 2.1802958580130083 2.05036591768659 -0.519995485093592 1.13999864363301
2.22142291069 0.2872161131479238 -0.1146100666123119 -1.1680516562866434 2.1802958580130083 2.05036591768659 -0.519995485093592 1.13999864363301
2.23155808449 0.2872161131479238 -0.1146100666123119 -1.1680516562866434 2.1802958580130083 2.05036591768659 -0.519995485093592 1.13999864363301
2.23155808449 0.2872161131479238 -0.1146100666123119 -1.1680516562866434 2.1802958580130083 2.05036591768659 -0.519995485093592 1.13999864363301
2.24160289764 0.2872161131479238 -0.1146100666123119 -1.1680516562866434 2.1802958580130083 2.05036591768659 -0.519995485093592 1.13999864363301
2.24160289764 0.2872161131479238 -0.1146100666123119 -1.1680516562866434 2.1802958580130083 2.05036591768659 -0.519995485093592 1.13999864363301
2.2516438961 0.2872161131479238 -0.1146100666123119 -1.1680516562866434 2.1802958580130083 2.05036591768659 -0.519995485093592 1.13999864363301
2.2516438961 0.2872161131479238 -0.1146100666123119 -1.1680516562866434 2.1802958580130083 2.05036591768659 -0.519995485093592 1.13999864363301
2.26181197166 0.2872161131479238 -0.1146100666123119 -1.1680516562866434 2.1802958580130083 2.05036591768659 -0.519995485093592 1.13999864363301
2.26181197166 0.2872161131479238 -0.1146100666123119 -1.1680516562866434 2.1802958580130083 2.05036591768659 -0.519995485093592 1.13999864363301
2.27165102959 0.2872161131479238 -0.1146100666123119 -1.1680516562866434 2.1802958580130083 2.05036591768659 -0.519995485093592 1.13999864363301
2.27165102959 0.2872161131479238 -0.1146100666123119 -1.1680516562866434 2.1802958580130083 2.05036591768659 -0.519995485093592 1.13999864363301
2.28148293495 0.2872161131479238 -0.1146100666123119 -1.1680516562866434 2.1802958580130083 2.05036591768659 -0.519995485093592 1.13999864363301
2.28148293495 0.2872161131479238 -0.1146100666123119 -1.1680516562866434 2.1802958580130083 2.05036591768659 -0.519995485093592 1.13999864363301
2.29165697098 0.2872161131479238 -0.1146100666123119 -1.1680516562866434 2.1802958580130083 2.05036591768659 -0.519995485093592 1.13999864363301
2.29165697098 0.2872161131479238 -0.1146100666123119 -1.1680516562866434 2.1802958580130083 2.05036591768659 -0.519995485093592 1.13999864363301
2.30162906647 0.2872161131479238 -0.1146100666123119 -1.1680516562866434 2.1802958580130083 2.05036591768659 -0.519995485093592 1.13999864363301
2.30162906647 0.2872161131479238 -0.1146100666123119 -1.1680516562866434 2.1802958580130083 2.05036591768659 -0.519995485093592 1.13999864363301
2.31156897545 0.2872161131479238 -0.1146100666123119 -1.1680516562866434 2.1802958580130083 2.05036591768659 -0.519995485093592 1.13999864363301
2.31156897545 0.2872161131479238 -0.1146100666123119 -1.1680516562866434 2.1802958580130083 2.05036591768659 -0.519995485093592 1.13999864363301
2.32164406776 0.2872161131479238 -0.1146100666123119 -1.1680516562866434 2.1802958580130083 2.05036591768659 -0.519995485093592 1.13999864363301
2.32164406776 0.2872161131479238 -0.1146100666123119 -1.1680516562866434 2.1802958580130083 2.05036591768659 -0.519995485093592 1.13999864363301
2.33142805099 0.2872161131479238 -0.1146100666123119 -1.1680516562866434 2.1802958580130083 2.05036591768659 -0.519995485093592 1.13999864363301
2.33142805099 0.2872161131479238 -0.1146100666123119 -1.1680516562866434 2.1802958580130083 2.05036591768659 -0.519995485093592 1.13999864363301
2.34156990051 0.2872161131479238 -0.1146100666123119 -1.1680516562866434 2.1802958580130083 2.05036591768659 -0.519995485093592 1.13999864363301
2.34156990051 0.2872161131479238 -0.1146100666123119 -1.1680516562866434 2.1802958580130083 2.05036591768659 -0.519995485093592 1.13999864363301
2.35161995888 0.2872161131479238 -0.1146100666123119 -1.1680516562866434 2.1802958580130083 2.05036591768659 -0.519995485093592 1.13999864363301
2.35161995888 0.2872161131479238 -0.1146100666123119 -1.1680516562866434 2.1802958580130083 2.05036591768659 -0.519995485093592 1.13999864363301
2.36162900925 0.2872161131479238 -0.1146100666123119 -1.1680516562866434 2.1802958580130083 2.05036591768659 -0.519995485093592 1.13999864363301
2.36162900925 0.2872161131479238 -0.1146100666123119 -1.1680516562866434 2.1802958580130083 2.05036591768659 -0.519995485093592 1.13999864363301
2.37165689468 0.2872161131479238 -0.1146100666123119 -1.1680516562866434 2.1802958580130083 2.05036591768659 -0.519995485093592 1.13999864363301
2.37165689468 0.2872161131479238 -0.1146100666123119 -1.1680516562866434 2.1802958580130083 2.05036591768659 -0.519995485093592 1.13999864363301
2.38156485558 0.2872161131479238 -0.1146100666123119 -1.1680516562866434 2.1802958580130083 2.05036591768659 -0.519995485093592 1.13999864363301
2.38156485558 0.2872161131479238 -0.1146100666123119 -1.1680516562866434 2.1802958580130083 2.05036591768659 -0.519995485093592 1.13999864363301
2.39163994789 0.2872161131479238 -0.1146100666123119 -1.1680516562866434 2.1802958580130083 2.05036591768659 -0.519995485093592 1.13999864363301
2.39163994789 0.2872161131479238 -0.1146100666123119 -1.1680516562866434 2.1802958580130083 2.05036591768659 -0.519995485093592 1.13999864363301
2.40154790878 0.2872161131479238 -0.1146100666123119 -1.1680516562866434 2.1802958580130083 2.05036591768659 -0.519995485093592 1.13999864363301
2.40154790878 0.2872161131479238 -0.1146100666123119 -1.1680516562866434 2.1802958580130083 2.05036591768659 -0.519995485093592 1.13999864363301
2.41164398193 0.2872161131479238 -0.1146100666123119 -1.1680516562866434 2.1802958580130083 2.05036591768659 -0.519995485093592 1.13999864363301
2.41164398193 0.2872161131479238 -0.1146100666123119 -1.1680516562866434 2.1802958580130083 2.05036591768659 -0.519995485093592 1.13999864363301
2.42163300514 0.2872161131479238 -0.1146100666123119 -1.1680516562866434 2.1802958580130083 2.05036591768659 -0.519995485093592 1.13999864363301
2.42163300514 0.2872161131479238 -0.1146100666123119 -1.1680516562866434 2.1802958580130083 2.05036591768659 -0.519995485093592 1.13999864363301
2.43172192574 0.2872161131479238 -0.1146100666123119 -1.1680516562866434 2.1802958580130083 2.05036591768659 -0.519995485093592 1.13999864363301
2.43172192574 0.2872161131479238 -0.1146100666123119 -1.1680516562866434 2.1802958580130083 2.05036591768659 -0.519995485093592 1.13999864363301
2.44152593613 0.2872161131479238 -0.1146100666123119 -1.1680516562866434 2.1802958580130083 2.05036591768659 -0.519995485093592 1.13999864363301
2.44152593613 0.2872161131479238 -0.1146100666123119 -1.1680516562866434 2.1802958580130083 2.05036591768659 -0.519995485093592 1.13999864363301
2.45131206512 0.2872161131479238 -0.1146100666123119 -1.1680516562866434 2.1802958580130083 2.05036591768659 -0.519995485093592 1.13999864363301
2.45131206512 0.2872161131479238 -0.1146100666123119 -1.1680516562866434 2.1802958580130083 2.05036591768659 -0.519995485093592 1.13999864363301
2.46160697937 0.2872161131479238 -0.1146100666123119 -1.1680516562866434 2.1802958580130083 2.05036591768659 -0.519995485093592 1.13999864363301
2.46160697937 0.2872161131479238 -0.1146100666123119 -1.1680516562866434 2.1802958580130083 2.05036591768659 -0.519995485093592 1.13999864363301
2.4714319706 0.2872161131479238 -0.1146100666123119 -1.1680516562866434 2.1802958580130083 2.05036591768659 -0.519995485093592 1.13999864363301
2.4714319706 0.2872161131479238 -0.1146100666123119 -1.1680516562866434 2.1802958580130083 2.05036591768659 -0.519995485093592 1.13999864363301
2.48165392876 0.2872161131479238 -0.1146100666123119 -1.1680516562866434 2.1802958580130083 2.05036591768659 -0.519995485093592 1.13999864363301
2.48165392876 0.2872161131479238 -0.1146100666123119 -1.1680516562866434 2.1802958580130083 2.05036591768659 -0.519995485093592 1.13999864363301
2.49169206619 0.2872161131479238 -0.1146100666123119 -1.1680516562866434 2.1802958580130083 2.05036591768659 -0.519995485093592 1.13999864363301
2.49169206619 0.2872161131479238 -0.1146100666123119 -1.1680516562866434 2.1802958580130083 2.05036591768659 -0.519995485093592 1.13999864363301
2.50165891647 0.2872161131479238 -0.1146100666123119 -1.1680516562866434 2.1802958580130083 2.05036591768659 -0.519995485093592 1.13999864363301
2.50165891647 0.2872161131479238 -0.1146100666123119 -1.1680516562866434 2.1802958580130083 2.05036591768659 -0.519995485093592 1.13999864363301
2.51169705391 0.2872161131479238 -0.1146100666123119 -1.1680516562866434 2.1802958580130083 2.05036591768659 -0.519995485093592 1.13999864363301
2.51169705391 0.2872161131479238 -0.1146100666123119 -1.1680516562866434 2.1802958580130083 2.05036591768659 -0.519995485093592 1.13999864363301
2.52167105675 0.2872161131479238 -0.1146100666123119 -1.1680516562866434 2.1802958580130083 2.05036591768659 -0.519995485093592 1.13999864363301
2.52167105675 0.2872161131479238 -0.1146100666123119 -1.1680516562866434 2.1802958580130083 2.05036591768659 -0.519995485093592 1.13999864363301
2.53145599365 0.2872161131479238 -0.1146100666123119 -1.1680516562866434 2.1802958580130083 2.05036591768659 -0.519995485093592 1.13999864363301
2.53145599365 0.2872161131479238 -0.1146100666123119 -1.1680516562866434 2.1802958580130083 2.05036591768659 -0.519995485093592 1.13999864363301
2.54161596298 0.2872161131479238 -0.1146100666123119 -1.1680516562866434 2.1802958580130083 2.05036591768659 -0.519995485093592 1.13999864363301
2.54161596298 0.2872161131479238 -0.1146100666123119 -1.1680516562866434 2.1802958580130083 2.05036591768659 -0.519995485093592 1.13999864363301
2.55181407928 0.2872161131479238 -0.1146100666123119 -1.1680516562866434 2.1802958580130083 2.05036591768659 -0.519995485093592 1.13999864363301
2.55181407928 0.2872161131479238 -0.1146100666123119 -1.1680516562866434 2.1802958580130083 2.05036591768659 -0.519995485093592 1.13999864363301
2.56159591675 0.2872161131479238 -0.1146100666123119 -1.1680516562866434 2.1802958580130083 2.05036591768659 -0.519995485093592 1.13999864363301
2.56159591675 0.2872161131479238 -0.1146100666123119 -1.1680516562866434 2.1802958580130083 2.05036591768659 -0.519995485093592 1.13999864363301
2.57152605057 0.2872161131479238 -0.1146100666123119 -1.1680516562866434 2.1802958580130083 2.05036591768659 -0.519995485093592 1.13999864363301
2.57152605057 0.2872161131479238 -0.1146100666123119 -1.1680516562866434 2.1802958580130083 2.05036591768659 -0.519995485093592 1.13999864363301
2.58164906502 0.2872161131479238 -0.1146100666123119 -1.1680516562866434 2.1802958580130083 2.05036591768659 -0.519995485093592 1.13999864363301
2.58164906502 0.2872161131479238 -0.1146100666123119 -1.1680516562866434 2.1802958580130083 2.05036591768659 -0.519995485093592 1.13999864363301
2.59157800674 0.2872161131479238 -0.1146100666123119 -1.1680516562866434 2.1802958580130083 2.05036591768659 -0.519995485093592 1.13999864363301
2.59157800674 0.2872161131479238 -0.1146100666123119 -1.1680516562866434 2.1802958580130083 2.05036591768659 -0.519995485093592 1.13999864363301
2.60158896446 0.2872161131479238 -0.1146100666123119 -1.1680516562866434 2.1802958580130083 2.05036591768659 -0.519995485093592 1.13999864363301
2.60158896446 0.2872161131479238 -0.1146100666123119 -1.1680516562866434 2.1802958580130083 2.05036591768659 -0.519995485093592 1.13999864363301
2.61165904999 0.2872161131479238 -0.1146100666123119 -1.1680516562866434 2.1802958580130083 2.05036591768659 -0.519995485093592 1.13999864363301
2.61165904999 0.2872161131479238 -0.1146100666123119 -1.1680516562866434 2.1802958580130083 2.05036591768659 -0.519995485093592 1.13999864363301
2.62143492699 0.2872161131479238 -0.1146100666123119 -1.1680516562866434 2.1802958580130083 2.05036591768659 -0.519995485093592 1.13999864363301
2.62143492699 0.2872161131479238 -0.1146100666123119 -1.1680516562866434 2.1802958580130083 2.05036591768659 -0.519995485093592 1.13999864363301
2.63163399696 0.2872161131479238 -0.1146100666123119 -1.1680516562866434 2.1802958580130083 2.05036591768659 -0.519995485093592 1.13999864363301
2.63163399696 0.2872161131479238 -0.1146100666123119 -1.1680516562866434 2.1802958580130083 2.05036591768659 -0.519995485093592 1.13999864363301
2.64161801338 0.2872161131479238 -0.1146100666123119 -1.1680516562866434 2.1802958580130083 2.05036591768659 -0.519995485093592 1.13999864363301
2.64161801338 0.2872161131479238 -0.1146100666123119 -1.1680516562866434 2.1802958580130083 2.05036591768659 -0.519995485093592 1.13999864363301
2.65157604218 0.2872161131479238 -0.1146100666123119 -1.1680516562866434 2.1802958580130083 2.05036591768659 -0.519995485093592 1.13999864363301
2.65157604218 0.2872161131479238 -0.1146100666123119 -1.1680516562866434 2.1802958580130083 2.05036591768659 -0.519995485093592 1.13999864363301
2.66164302826 0.2872161131479238 -0.1146100666123119 -1.1680516562866434 2.1802958580130083 2.05036591768659 -0.519995485093592 1.13999864363301
2.66164302826 0.2872161131479238 -0.1146100666123119 -1.1680516562866434 2.1802958580130083 2.05036591768659 -0.519995485093592 1.13999864363301
2.6715490818 0.2872161131479238 -0.1146100666123119 -1.1680516562866434 2.1802958580130083 2.05036591768659 -0.519995485093592 1.13999864363301
2.6715490818 0.2872161131479238 -0.1146100666123119 -1.1680516562866434 2.1802958580130083 2.05036591768659 -0.519995485093592 1.13999864363301
2.68161702156 0.2872161131479238 -0.1146100666123119 -1.1680516562866434 2.1802958580130083 2.05036591768659 -0.519995485093592 1.13999864363301
2.68161702156 0.2872161131479238 -0.1146100666123119 -1.1680516562866434 2.1802958580130083 2.05036591768659 -0.519995485093592 1.13999864363301
2.69155693054 0.2872161131479238 -0.1146100666123119 -1.1680516562866434 2.1802958580130083 2.05036591768659 -0.519995485093592 1.13999864363301
2.69155693054 0.2872161131479238 -0.1146100666123119 -1.1680516562866434 2.1802958580130083 2.05036591768659 -0.519995485093592 1.13999864363301
2.70144987106 0.2872161131479238 -0.1146100666123119 -1.1680516562866434 2.1802958580130083 2.05036591768659 -0.519995485093592 1.13999864363301
2.70144987106 0.2872161131479238 -0.1146100666123119 -1.1680516562866434 2.1802958580130083 2.05036591768659 -0.519995485093592 1.13999864363301
2.71162486076 0.2872161131479238 -0.1146100666123119 -1.1680516562866434 2.1802958580130083 2.05036591768659 -0.519995485093592 1.13999864363301
2.71162486076 0.2872161131479238 -0.1146100666123119 -1.1680516562866434 2.1802958580130083 2.05036591768659 -0.519995485093592 1.13999864363301
2.72175002098 0.2872161131479238 -0.1146100666123119 -1.1680516562866434 2.1802958580130083 2.05036591768659 -0.519995485093592 1.13999864363301
2.72175002098 0.2872161131479238 -0.1146100666123119 -1.1680516562866434 2.1802958580130083 2.05036591768659 -0.519995485093592 1.13999864363301
2.73221087456 0.2880904937949652 -0.1045163391429535 -1.1914451735978462 2.1802958580130083 2.0503750486057086 -0.5200000505531511 1.139994078173451
2.73221087456 0.2880904937949652 -0.1045163391429535 -1.1914451735978462 2.1802958580130083 2.0503750486057086 -0.5200000505531511 1.139994078173451
2.74119591713 0.2880904937949652 -0.1045163391429535 -1.1914451735978462 2.1802958580130083 2.0503750486057086 -0.5200000505531511 1.139994078173451
2.74119591713 0.2880904937949652 -0.1045163391429535 -1.1914451735978462 2.1802958580130083 2.0503750486057086 -0.5200000505531511 1.139994078173451
2.75122404099 0.2880904937949652 -0.1045163391429535 -1.1914451735978462 2.1802958580130083 2.0503750486057086 -0.5200000505531511 1.139994078173451
2.75122404099 0.2880904937949652 -0.1045163391429535 -1.1914451735978462 2.1802958580130083 2.0503750486057086 -0.5200000505531511 1.139994078173451
2.76153206825 0.2880904937949652 -0.1045163391429535 -1.1914451735978462 2.1802958580130083 2.0503750486057086 -0.5200000505531511 1.139994078173451
2.76153206825 0.2880904937949652 -0.1045163391429535 -1.1914451735978462 2.1802958580130083 2.0503750486057086 -0.5200000505531511 1.139994078173451
2.77153706551 0.2880904937949652 -0.1045163391429535 -1.1914451735978462 2.1802958580130083 2.0503750486057086 -0.5200000505531511 1.139994078173451
2.77153706551 0.2880904937949652 -0.1045163391429535 -1.1914451735978462 2.1802958580130083 2.0503750486057086 -0.5200000505531511 1.139994078173451
2.7815220356 0.2880904937949652 -0.1045163391429535 -1.1914451735978462 2.1802958580130083 2.0503750486057086 -0.5200000505531511 1.139994078173451
2.7815220356 0.2880904937949652 -0.1045163391429535 -1.1914451735978462 2.1802958580130083 2.0503750486057086 -0.5200000505531511 1.139994078173451
2.79146194458 0.2880904937949652 -0.1045163391429535 -1.1914451735978462 2.1802958580130083 2.0503750486057086 -0.5200000505531511 1.139994078173451
2.79146194458 0.2880904937949652 -0.1045163391429535 -1.1914451735978462 2.1802958580130083 2.0503750486057086 -0.5200000505531511 1.139994078173451
2.80156707764 0.2889802144533586 -0.0926891903908635 -1.2150227710452683 2.1802958580130083 2.05025634665717 -0.519995485093592 1.13999864363301
2.80156707764 0.2889802144533586 -0.0926891903908635 -1.2150227710452683 2.1802958580130083 2.05025634665717 -0.519995485093592 1.13999864363301
2.81145906448 0.2889802144533586 -0.0926891903908635 -1.2150227710452683 2.1802958580130083 2.05025634665717 -0.519995485093592 1.13999864363301
2.81145906448 0.2889802144533586 -0.0926891903908635 -1.2150227710452683 2.1802958580130083 2.05025634665717 -0.519995485093592 1.13999864363301
2.82135987282 0.2891029345441715 -0.0898206082681127 -1.2210513955064504 2.1802958580130083 2.050091990113041 -0.5200000505531511 1.139994078173451
2.82135987282 0.2891029345441715 -0.0898206082681127 -1.2210513955064504 2.1802958580130083 2.050091990113041 -0.5200000505531511 1.139994078173451
2.83119487762 0.2891949746122812 -0.0767815986192455 -1.2530966792199605 2.1802958580130083 2.050356786767472 -0.5200046160127103 1.1399895127138917
2.83119487762 0.2891949746122812 -0.0767815986192455 -1.2530966792199605 2.1802958580130083 2.050356786767472 -0.5200046160127103 1.1399895127138917
2.84115099907 0.2891949746122812 -0.065598730343923 -1.306387878655448 2.1802958580130083 2.0502654775762887 -0.5200000505531511 1.139994078173451
2.84115099907 0.2891949746122812 -0.065598730343923 -1.306387878655448 2.1802958580130083 2.0502654775762887 -0.5200000505531511 1.139994078173451
2.85120892525 0.2891949746122812 -0.065598730343923 -1.306387878655448 2.1802958580130083 2.0502654775762887 -0.5200000505531511 1.139994078173451
2.85120892525 0.2891949746122812 -0.065598730343923 -1.306387878655448 2.1802958580130083 2.0502654775762887 -0.5200000505531511 1.139994078173451
2.86153793335 0.2891949746122812 -0.065598730343923 -1.306387878655448 2.1802958580130083 2.0502654775762887 -0.5200000505531511 1.139994078173451
2.86153793335 0.2891949746122812 -0.065598730343923 -1.306387878655448 2.1802958580130083 2.0502654775762887 -0.5200000505531511 1.139994078173451
2.87148499489 0.2891949746122812 -0.065598730343923 -1.306387878655448 2.1802958580130083 2.0502654775762887 -0.5200000505531511 1.139994078173451
2.87148499489 0.2891949746122812 -0.065598730343923 -1.306387878655448 2.1802958580130083 2.0502654775762887 -0.5200000505531511 1.139994078173451
2.8815369606 0.2891949746122812 -0.065598730343923 -1.306387878655448 2.1802958580130083 2.0502654775762887 -0.5200000505531511 1.139994078173451
2.8815369606 0.2891949746122812 -0.065598730343923 -1.306387878655448 2.1802958580130083 2.0502654775762887 -0.5200000505531511 1.139994078173451
2.89165997505 0.2891949746122812 -0.0637886090044333 -1.3145794447172068 2.1802958580130083 2.0500828591939224 -0.5200000505531511 1.139994078173451
2.89165997505 0.2891949746122812 -0.0637886090044333 -1.3145794447172068 2.1802958580130083 2.0500828591939224 -0.5200000505531511 1.139994078173451
2.90143990517 0.2891949746122812 -0.0637886090044333 -1.3145794447172068 2.1802958580130083 2.0500828591939224 -0.5200000505531511 1.139994078173451
2.90143990517 0.2891949746122812 -0.0637886090044333 -1.3145794447172068 2.1802958580130083 2.0500828591939224 -0.5200000505531511 1.139994078173451
2.91119003296 0.2891949746122812 -0.0637886090044333 -1.3145794447172068 2.1802958580130083 2.0500828591939224 -0.5200000505531511 1.139994078173451
2.91119003296 0.2891949746122812 -0.0637886090044333 -1.3145794447172068 2.1802958580130083 2.0500828591939224 -0.5200000505531511 1.139994078173451
2.92118406296 0.2891949746122812 -0.0637886090044333 -1.3145794447172068 2.1802958580130083 2.0500828591939224 -0.5200000505531511 1.139994078173451
2.92118406296 0.2891949746122812 -0.0637886090044333 -1.3145794447172068 2.1802958580130083 2.0500828591939224 -0.5200000505531511 1.139994078173451
2.93159508705 0.2891949746122812 -0.0637886090044333 -1.3145794447172068 2.1802958580130083 2.0500828591939224 -0.5200000505531511 1.139994078173451
2.93159508705 0.2891949746122812 -0.0637886090044333 -1.3145794447172068 2.1802958580130083 2.0500828591939224 -0.5200000505531511 1.139994078173451
2.94150996208 0.2891949746122812 -0.0637886090044333 -1.3145794447172068 2.1802958580130083 2.0500828591939224 -0.5200000505531511 1.139994078173451
2.94150996208 0.2891949746122812 -0.0637886090044333 -1.3145794447172068 2.1802958580130083 2.0500828591939224 -0.5200000505531511 1.139994078173451
2.95147585869 0.2891949746122812 -0.0637886090044333 -1.3145794447172068 2.1802958580130083 2.0500828591939224 -0.5200000505531511 1.139994078173451
2.95147585869 0.2891949746122812 -0.0637886090044333 -1.3145794447172068 2.1802958580130083 2.0500828591939224 -0.5200000505531511 1.139994078173451
2.9616060257 0.289164294589578 -0.0598308860757183 -1.3310546169088342 2.1802958580130083 2.0503020012527617 -0.5200000505531511 1.139994078173451
2.9616060257 0.289164294589578 -0.0598308860757183 -1.3310546169088342 2.1802958580130083 2.0503020012527617 -0.5200000505531511 1.139994078173451
2.97161102295 0.289164294589578 -0.0598308860757183 -1.3310546169088342 2.1802958580130083 2.0503020012527617 -0.5200000505531511 1.139994078173451
2.97161102295 0.289164294589578 -0.0598308860757183 -1.3310546169088342 2.1802958580130083 2.0503020012527617 -0.5200000505531511 1.139994078173451
2.98332595825 0.2891336145668747 -0.0540783818188651 -1.3552918348443754 2.180280518001657 2.050329394010117 -0.5200000505531511 1.139994078173451
2.98332595825 0.2891336145668747 -0.0540783818188651 -1.3552918348443754 2.180280518001657 2.050329394010117 -0.5200000505531511 1.139994078173451
2.99121189117 0.2890262344874134 -0.0498445386858212 -1.3722425473879027 2.180157797910844 2.0503841795248268 -0.5200000505531511 1.139994078173451
2.99121189117 0.2890262344874134 -0.0498445386858212 -1.3722425473879027 2.180157797910844 2.0503841795248268 -0.5200000505531511 1.139994078173451
3.00155901909 0.2890262344874134 -0.0498445386858212 -1.3722425473879027 2.180157797910844 2.0503841795248268 -0.5200000505531511 1.139994078173451
3.00155901909 0.2890262344874134 -0.0498445386858212 -1.3722425473879027 2.180157797910844 2.0503841795248268 -0.5200000505531511 1.139994078173451
3.01222586632 0.2888268143398426 -0.0438005742132875 -1.397538226106705 2.1786391367870346 2.050338524929235 -0.5200046160127103 1.1399895127138917
3.01222586632 0.2888268143398426 -0.0438005742132875 -1.397538226106705 2.1786391367870346 2.050338524929235 -0.5200046160127103 1.1399895127138917
3.0211789608 0.2872007731365721 -0.0332006263693261 -1.4544956882552271 2.1677170487046897 2.050192430223342 -0.5200046160127103 1.1399895127138917
3.0211789608 0.2872007731365721 -0.0332006263693261 -1.4544956882552271 2.1677170487046897 2.050192430223342 -0.5200046160127103 1.1399895127138917
3.03113007545 0.2825987697310896 -0.0277702623508567 -1.4853904711173664 2.1481125141973343 2.050238084818934 -0.5200046160127103 1.1399895127138917
3.03113007545 0.2825987697310896 -0.0277702623508567 -1.4853904711173664 2.1481125141973343 2.050238084818934 -0.5200046160127103 1.1399895127138917
3.04153299332 0.2825987697310896 -0.0277702623508567 -1.4853904711173664 2.1481125141973343 2.050238084818934 -0.5200046160127103 1.1399895127138917
3.04153299332 0.2825987697310896 -0.0277702623508567 -1.4853904711173664 2.1481125141973343 2.050238084818934 -0.5200046160127103 1.1399895127138917
3.0518450737 0.2810647685959288 -0.0268038416357054 -1.4903299547725843 2.143372450689687 2.0500828591939224 -0.5200046160127103 1.1399895127138917
3.0518450737 0.2810647685959288 -0.0268038416357054 -1.4903299547725843 2.143372450689687 2.0500828591939224 -0.5200046160127103 1.1399895127138917
3.06136202812 0.2793773673472519 -0.0257914008864992 -1.4947785580645507 2.1380341267393272 2.0502654775762887 -0.5200046160127103 1.1399895127138917
3.06136202812 0.2793773673472519 -0.0257914008864992 -1.4947785580645507 2.1380341267393272 2.0502654775762887 -0.5200046160127103 1.1399895127138917
3.0715649128 0.2793773673472519 -0.0257914008864992 -1.4947785580645507 2.1380341267393272 2.0502654775762887 -0.5200046160127103 1.1399895127138917
3.0715649128 0.2793773673472519 -0.0257914008864992 -1.4947785580645507 2.1380341267393272 2.0502654775762887 -0.5200046160127103 1.1399895127138917
3.08159995079 0.2793773673472519 -0.0257914008864992 -1.4947785580645507 2.1380341267393272 2.0502654775762887 -0.5200046160127103 1.1399895127138917
3.08159995079 0.2793773673472519 -0.0257914008864992 -1.4947785580645507 2.1380341267393272 2.0502654775762887 -0.5200046160127103 1.1399895127138917
3.09153103828 0.2793773673472519 -0.0257914008864992 -1.4947785580645507 2.1380341267393272 2.0502654775762887 -0.5200046160127103 1.1399895127138917
3.09153103828 0.2793773673472519 -0.0257914008864992 -1.4947785580645507 2.1380341267393272 2.0502654775762887 -0.5200046160127103 1.1399895127138917
3.10154604912 0.2774138458942458 -0.0246715800578318 -1.4987362809932656 2.132327642516529 2.0502289538998157 -0.5200046160127103 1.1399895127138917
3.10154604912 0.2774138458942458 -0.0246715800578318 -1.4987362809932656 2.132327642516529 2.0502289538998157 -0.5200046160127103 1.1399895127138917
3.11154389381 0.2774138458942458 -0.0246715800578318 -1.4987362809932656 2.132327642516529 2.0502289538998157 -0.5200046160127103 1.1399895127138917
3.11154389381 0.2774138458942458 -0.0246715800578318 -1.4987362809932656 2.132327642516529 2.0502289538998157 -0.5200046160127103 1.1399895127138917
3.12163090706 0.2752662443050208 -0.0235364192178128 -1.5024178837176516 2.12642173814616 2.0501102519512773 -0.5200046160127103 1.1399895127138917
3.12163090706 0.2752662443050208 -0.0235364192178128 -1.5024178837176516 2.12642173814616 2.0501102519512773 -0.5200046160127103 1.1399895127138917
3.13143587112 0.2752662443050208 -0.0235364192178128 -1.5024178837176516 2.12642173814616 2.0501102519512773 -0.5200046160127103 1.1399895127138917
3.13143587112 0.2752662443050208 -0.0235364192178128 -1.5024178837176516 2.12642173814616 2.0501102519512773 -0.5200046160127103 1.1399895127138917
3.14143204689 0.2730726226817407 -0.022508638457255 -1.5057006461468958 2.120101653469297 2.050274608495407 -0.5200046160127103 1.1399895127138917
3.14143204689 0.2730726226817407 -0.022508638457255 -1.5057006461468958 2.120101653469297 2.050274608495407 -0.5200046160127103 1.1399895127138917
3.15139293671 0.2730726226817407 -0.022508638457255 -1.5057006461468958 2.120101653469297 2.050274608495407 -0.5200046160127103 1.1399895127138917
3.15139293671 0.2730726226817407 -0.022508638457255 -1.5057006461468958 2.120101653469297 2.050274608495407 -0.5200046160127103 1.1399895127138917
3.16129589081 0.2706795809108899 -0.0213427975945328 -1.508830008462624 2.1141804090875764 2.0502654775762887 -0.5200046160127103 1.1399895127138917
3.16129589081 0.2706795809108899 -0.0213427975945328 -1.508830008462624 2.1141804090875764 2.0502654775762887 -0.5200046160127103 1.1399895127138917
3.17155408859 0.2706795809108899 -0.0213427975945328 -1.508830008462624 2.1141804090875764 2.0502654775762887 -0.5200046160127103 1.1399895127138917
3.17155408859 0.2706795809108899 -0.0213427975945328 -1.508830008462624 2.1141804090875764 2.0502654775762887 -0.5200046160127103 1.1399895127138917
3.18157291412 0.2706795809108899 -0.0213427975945328 -1.508830008462624 2.1141804090875764 2.0502654775762887 -0.5200046160127103 1.1399895127138917
3.18157291412 0.2706795809108899 -0.0213427975945328 -1.508830008462624 2.1141804090875764 2.0502654775762887 -0.5200046160127103 1.1399895127138917
3.19165492058 0.2662463176302751 -0.0189804358463851 -1.5140609523335224 2.102138500176564 2.050238084818934 -0.5200091814722694 1.1399849472543326
3.19165492058 0.2662463176302751 -0.0189804358463851 -1.5140609523335224 2.102138500176564 2.050238084818934 -0.5200091814722694 1.1399849472543326
3.20163798332 0.2662463176302751 -0.0189804358463851 -1.5140609523335224 2.102138500176564 2.050238084818934 -0.5200091814722694 1.1399849472543326
3.20163798332 0.2662463176302751 -0.0189804358463851 -1.5140609523335224 2.102138500176564 2.050238084818934 -0.5200091814722694 1.1399849472543326
3.21148085594 0.264405516268082 -0.0177839149609596 -1.5163005939908574 2.09561899535213 2.0502654775762887 -0.5200046160127103 1.1399895127138917
3.21148085594 0.264405516268082 -0.0177839149609596 -1.5163005939908574 2.09561899535213 2.0502654775762887 -0.5200046160127103 1.1399895127138917
3.22161006927 0.264405516268082 -0.0177839149609596 -1.5163005939908574 2.09561899535213 2.0502654775762887 -0.5200046160127103 1.1399895127138917
3.22161006927 0.264405516268082 -0.0177839149609596 -1.5163005939908574 2.09561899535213 2.0502654775762887 -0.5200046160127103 1.1399895127138917
3.23163104057 0.2626107349399437 -0.0164186539506665 -1.5185095556254888 2.0892528906412124 2.050192430223342 -0.5200046160127103 1.1399895127138917
3.23163104057 0.2626107349399437 -0.0164186539506665 -1.5185095556254888 2.0892528906412124 2.050192430223342 -0.5200046160127103 1.1399895127138917
3.24152803421 0.2626107349399437 -0.0164186539506665 -1.5185095556254888 2.0892528906412124 2.050192430223342 -0.5200046160127103 1.1399895127138917
3.24152803421 0.2626107349399437 -0.0164186539506665 -1.5185095556254888 2.0892528906412124 2.050192430223342 -0.5200046160127103 1.1399895127138917
3.25142288208 0.2626107349399437 -0.0164186539506665 -1.5185095556254888 2.0892528906412124 2.050192430223342 -0.5200046160127103 1.1399895127138917
3.25142288208 0.2626107349399437 -0.0164186539506665 -1.5185095556254888 2.0892528906412124 2.050192430223342 -0.5200046160127103 1.1399895127138917
3.26151490211 0.2626107349399437 -0.0164186539506665 -1.5185095556254888 2.0892528906412124 2.050192430223342 -0.5200046160127103 1.1399895127138917
3.26151490211 0.2626107349399437 -0.0164186539506665 -1.5185095556254888 2.0892528906412124 2.050192430223342 -0.5200046160127103 1.1399895127138917
3.27146291733 0.2626107349399437 -0.0164186539506665 -1.5185095556254888 2.0892528906412124 2.050192430223342 -0.5200046160127103 1.1399895127138917
3.27146291733 0.2626107349399437 -0.0164186539506665 -1.5185095556254888 2.0892528906412124 2.050192430223342 -0.5200046160127103 1.1399895127138917
3.2816889286 0.2567815306263325 -0.0141483322706285 -1.525366540699658 2.070553416803602 2.0502106920615786 -0.5200046160127103 1.1399895127138917
3.2816889286 0.2567815306263325 -0.0141483322706285 -1.525366540699658 2.070553416803602 2.0502106920615786 -0.5200046160127103 1.1399895127138917
3.29165005684 0.2567815306263325 -0.0141483322706285 -1.525366540699658 2.070553416803602 2.0502106920615786 -0.5200046160127103 1.1399895127138917
3.29165005684 0.2567815306263325 -0.0141483322706285 -1.525366540699658 2.070553416803602 2.0502106920615786 -0.5200046160127103 1.1399895127138917
3.30155086517 0.2567815306263325 -0.0141483322706285 -1.525366540699658 2.070553416803602 2.0502106920615786 -0.5200046160127103 1.1399895127138917
3.30155086517 0.2567815306263325 -0.0141483322706285 -1.525366540699658 2.070553416803602 2.0502106920615786 -0.5200046160127103 1.1399895127138917
3.31151795387 0.2549560692754912 -0.0136881319300802 -1.528649303128902 2.0641106120359263 2.050137644708632 -0.5200046160127103 1.1399895127138917
3.31151795387 0.2549560692754912 -0.0136881319300802 -1.528649303128902 2.0641106120359263 2.050137644708632 -0.5200046160127103 1.1399895127138917
3.32166790962 0.2549560692754912 -0.0136881319300802 -1.528649303128902 2.0641106120359263 2.050137644708632 -0.5200046160127103 1.1399895127138917
3.32166790962 0.2549560692754912 -0.0136881319300802 -1.528649303128902 2.0641106120359263 2.050137644708632 -0.5200046160127103 1.1399895127138917
3.33145499229 0.2549560692754912 -0.0136881319300802 -1.528649303128902 2.0641106120359263 2.050137644708632 -0.5200046160127103 1.1399895127138917
3.33145499229 0.2549560692754912 -0.0136881319300802 -1.528649303128902 2.0641106120359263 2.050137644708632 -0.5200046160127103 1.1399895127138917
3.34161186218 0.2549560692754912 -0.0136881319300802 -1.528649303128902 2.0641106120359263 2.050137644708632 -0.5200046160127103 1.1399895127138917
3.34161186218 0.2549560692754912 -0.0136881319300802 -1.528649303128902 2.0641106120359263 2.050137644708632 -0.5200046160127103 1.1399895127138917
3.35160708427 0.252455647425179 -0.0131358915214223 -1.535736388373345 2.0516545228184206 2.0502106920615786 -0.5200046160127103 1.1399895127138917
3.35160708427 0.252455647425179 -0.0131358915214223 -1.535736388373345 2.0516545228184206 2.0502106920615786 -0.5200046160127103 1.1399895127138917
3.36153006554 0.2513358265965117 -0.012951811385203 -1.5395713912112472 2.045365118164261 2.050165037465987 -0.5200046160127103 1.1399895127138917
3.36153006554 0.2513358265965117 -0.012951811385203 -1.5395713912112472 2.045365118164261 2.050165037465987 -0.5200046160127103 1.1399895127138917
3.37154603004 0.2513358265965117 -0.012951811385203 -1.5395713912112472 2.045365118164261 2.050165037465987 -0.5200046160127103 1.1399895127138917
3.37154603004 0.2513358265965117 -0.012951811385203 -1.5395713912112472 2.045365118164261 2.050165037465987 -0.5200046160127103 1.1399895127138917
3.38159704208 0.2513358265965117 -0.012951811385203 -1.5395713912112472 2.045365118164261 2.050165037465987 -0.5200046160127103 1.1399895127138917
3.38159704208 0.2513358265965117 -0.012951811385203 -1.5395713912112472 2.045365118164261 2.050165037465987 -0.5200046160127103 1.1399895127138917
3.39157104492 0.2503233858473054 -0.0128444313057417 -1.5433910540377975 2.038431433033334 2.050274608495407 -0.5200046160127103 1.1399895127138917
3.39157104492 0.2503233858473054 -0.0128444313057417 -1.5433910540377975 2.038431433033334 2.050274608495407 -0.5200046160127103 1.1399895127138917
3.4015610218 0.2503233858473054 -0.0128444313057417 -1.5433910540377975 2.038431433033334 2.050274608495407 -0.5200046160127103 1.1399895127138917
3.4015610218 0.2503233858473054 -0.0128444313057417 -1.5433910540377975 2.038431433033334 2.050274608495407 -0.5200046160127103 1.1399895127138917
3.41160297394 0.2503233858473054 -0.0128444313057417 -1.5433910540377975 2.038431433033334 2.050274608495407 -0.5200046160127103 1.1399895127138917
3.41160297394 0.2503233858473054 -0.0128444313057417 -1.5433910540377975 2.038431433033334 2.050274608495407 -0.5200046160127103 1.1399895127138917
3.42155504227 0.249326285109451 -0.0128137512830385 -1.5473027569324578 2.0311909476753747 2.0502106920615786 -0.5200046160127103 1.1399895127138917
3.42155504227 0.249326285109451 -0.0128137512830385 -1.5473027569324578 2.0311909476753747 2.0502106920615786 -0.5200046160127103 1.1399895127138917
3.43162894249 0.2486359845986285 -0.0127984112716869 -1.5508923195887343 2.0243493026125576 2.0501011210321587 -0.5200046160127103 1.1399895127138917
3.43162894249 0.2486359845986285 -0.0127984112716869 -1.5508923195887343 2.0243493026125576 2.0501011210321587 -0.5200046160127103 1.1399895127138917
3.44186592102 0.2479150040651029 -0.0126603511695224 -1.5541750820179785 2.017154837288653 2.050274608495407 -0.5200046160127103 1.1399895127138917
3.44186592102 0.2479150040651029 -0.0126603511695224 -1.5541750820179785 2.017154837288653 2.050274608495407 -0.5200046160127103 1.1399895127138917
3.45165205002 0.2479150040651029 -0.0126603511695224 -1.5541750820179785 2.017154837288653 2.050274608495407 -0.5200046160127103 1.1399895127138917
3.45165205002 0.2479150040651029 -0.0126603511695224 -1.5541750820179785 2.017154837288653 2.050274608495407 -0.5200046160127103 1.1399895127138917
3.46144890785 0.2470252834067096 -0.0124302509992483 -1.557319784345058 2.0101291120896163 2.0502289538998157 -0.5200046160127103 1.1399895127138917
3.46144890785 0.2470252834067096 -0.0124302509992483 -1.557319784345058 2.0101291120896163 2.0502289538998157 -0.5200046160127103 1.1399895127138917
3.4714820385 0.2470252834067096 -0.0124302509992483 -1.557319784345058 2.0101291120896163 2.0502289538998157 -0.5200046160127103 1.1399895127138917
3.4714820385 0.2470252834067096 -0.0124302509992483 -1.557319784345058 2.0101291120896163 2.0502289538998157 -0.5200046160127103 1.1399895127138917
3.4814119339 0.2470252834067096 -0.0124302509992483 -1.557319784345058 2.0101291120896163 2.0502289538998157 -0.5200046160127103 1.1399895127138917
3.4814119339 0.2470252834067096 -0.0124302509992483 -1.557319784345058 2.0101291120896163 2.0502289538998157 -0.5200046160127103 1.1399895127138917
3.49139499664 0.2470252834067096 -0.0124302509992483 -1.557319784345058 2.0101291120896163 2.0502289538998157 -0.5200046160127103 1.1399895127138917
3.49139499664 0.2470252834067096 -0.0124302509992483 -1.557319784345058 2.0101291120896163 2.0502289538998157 -0.5200046160127103 1.1399895127138917
3.5015809536 0.2470252834067096 -0.0124302509992483 -1.557319784345058 2.0101291120896163 2.0502289538998157 -0.5200046160127103 1.1399895127138917
3.5015809536 0.2470252834067096 -0.0124302509992483 -1.557319784345058 2.0101291120896163 2.0502289538998157 -0.5200046160127103 1.1399895127138917
3.51155996323 0.2470252834067096 -0.0124302509992483 -1.557319784345058 2.0101291120896163 2.0502289538998157 -0.5200046160127103 1.1399895127138917
3.51155996323 0.2470252834067096 -0.0124302509992483 -1.557319784345058 2.0101291120896163 2.0502289538998157 -0.5200046160127103 1.1399895127138917
3.52166104317 0.2470252834067096 -0.0124302509992483 -1.557319784345058 2.0101291120896163 2.0502289538998157 -0.5200046160127103 1.1399895127138917
3.52166104317 0.2455066222829005 -0.0119086906132936 -1.5629955885451532 1.9948658007947655 2.050238084818934 -0.5200046160127103 1.1399895127138917
3.53138303757 0.2455066222829005 -0.0119086906132936 -1.5629955885451532 1.9948658007947655 2.050238084818934 -0.5200046160127103 1.1399895127138917
3.53138303757 0.2455066222829005 -0.0119086906132936 -1.5629955885451532 1.9948658007947655 2.050238084818934 -0.5200046160127103 1.1399895127138917
3.54153895378 0.2455066222829005 -0.0119086906132936 -1.5629955885451532 1.9948658007947655 2.050238084818934 -0.5200046160127103 1.1399895127138917
3.54153895378 0.2455066222829005 -0.0119086906132936 -1.5629955885451532 1.9948658007947655 2.050238084818934 -0.5200046160127103 1.1399895127138917
3.55150294304 0.2448470017947812 -0.0113871302273389 -1.565710770554388 1.98718045510761 2.0502015611424604 -0.5200046160127103 1.1399895127138917
3.55150294304 0.2448470017947812 -0.0113871302273389 -1.565710770554388 1.98718045510761 2.0502015611424604 -0.5200046160127103 1.1399895127138917
3.56164693832 0.2448470017947812 -0.0113871302273389 -1.565710770554388 1.98718045510761 2.0502015611424604 -0.5200046160127103 1.1399895127138917
3.56164693832 0.2448470017947812 -0.0113871302273389 -1.565710770554388 1.98718045510761 2.0502015611424604 -0.5200046160127103 1.1399895127138917
3.57176685333 0.2448470017947812 -0.0113871302273389 -1.565710770554388 1.98718045510761 2.0502015611424604 -0.5200046160127103 1.1399895127138917
3.57176685333 0.2448470017947812 -0.0113871302273389 -1.565710770554388 1.98718045510761 2.0502015611424604 -0.5200046160127103 1.1399895127138917
3.58155798912 0.2448470017947812 -0.0113871302273389 -1.565710770554388 1.98718045510761 2.0502015611424604 -0.5200046160127103 1.1399895127138917
3.58155798912 0.2448470017947812 -0.0113871302273389 -1.565710770554388 1.98718045510761 2.0502015611424604 -0.5200046160127103 1.1399895127138917
3.59138703346 0.2441720412953105 -0.010758189761923 -1.567505551882526 1.979234329227477 2.0501102519512773 -0.5200046160127103 1.1399895127138917
3.59138703346 0.2441720412953105 -0.010758189761923 -1.567505551882526 1.979234329227477 2.0501102519512773 -0.5200046160127103 1.1399895127138917
3.60142207146 0.2432669806255655 -0.0096843889673104 -1.5693310132333675 1.9711041232111248 2.050247215738052 -0.5200046160127103 1.1399895127138917
3.60142207146 0.2432669806255655 -0.0096843889673104 -1.5693310132333675 1.9711041232111248 2.050247215738052 -0.5200046160127103 1.1399895127138917
3.61179494858 0.2412727791498565 -0.0069998869807789 -1.57173939501557 1.9544602108946287 2.0501193828703954 -0.5200046160127103 1.1399895127138917
3.61179494858 0.2412727791498565 -0.0069998869807789 -1.57173939501557 1.9544602108946287 2.0501193828703954 -0.5200046160127103 1.1399895127138917
3.6216468811 0.2412727791498565 -0.0069998869807789 -1.57173939501557 1.9544602108946287 2.0501193828703954 -0.5200046160127103 1.1399895127138917
3.6216468811 0.2412727791498565 -0.0069998869807789 -1.57173939501557 1.9544602108946287 2.0501193828703954 -0.5200046160127103 1.1399895127138917
3.63161706924 0.2401069382871343 -0.0053431657548052 -1.5724296955263923 1.9460845646966516 2.0502106920615786 -0.5200046160127103 1.1399895127138917
3.63161706924 0.2401069382871343 -0.0053431657548052 -1.5724296955263923 1.9460845646966516 2.0502106920615786 -0.5200046160127103 1.1399895127138917
3.64161896706 0.2389104174017088 -0.0028274038931414 -1.5731660160712695 1.9375094983511023 2.0502015611424604 -0.5200046160127103 1.1399895127138917
3.64161896706 0.2389104174017088 -0.0028274038931414 -1.5731660160712695 1.9375094983511023 2.0502015611424604 -0.5200046160127103 1.1399895127138917
3.65135097504 0.2389104174017088 -0.0028274038931414 -1.5731660160712695 1.9375094983511023 2.0502015611424604 -0.5200046160127103 1.1399895127138917
3.65135097504 0.2389104174017088 -0.0028274038931414 -1.5731660160712695 1.9375094983511023 2.0502015611424604 -0.5200046160127103 1.1399895127138917
3.66160798073 0.2389104174017088 -0.0028274038931414 -1.5731660160712695 1.9375094983511023 2.0502015611424604 -0.5200046160127103 1.1399895127138917
3.66160798073 0.2389104174017088 -0.0028274038931414 -1.5731660160712695 1.9375094983511023 2.0502015611424604 -0.5200046160127103 1.1399895127138917
3.67147493362 0.2389104174017088 -0.0028274038931414 -1.5731660160712695 1.9375094983511023 2.0502015611424604 -0.5200046160127103 1.1399895127138917
3.67147493362 0.2389104174017088 -0.0028274038931414 -1.5731660160712695 1.9375094983511023 2.0502015611424604 -0.5200046160127103 1.1399895127138917
3.68156504631 0.2389104174017088 -0.0028274038931414 -1.5731660160712695 1.9375094983511023 2.0502015611424604 -0.5200046160127103 1.1399895127138917
3.68156504631 0.2389104174017088 -0.0028274038931414 -1.5731660160712695 1.9375094983511023 2.0502015611424604 -0.5200046160127103 1.1399895127138917
3.69152593613 0.2365327156422096 0.0029404403750632 -1.5739176766274985 1.920159945512433 2.0501011210321587 -0.5200046160127103 1.1399895127138917
3.69152593613 0.2365327156422096 0.0029404403750632 -1.5739176766274985 1.920159945512433 2.0501011210321587 -0.5200046160127103 1.1399895127138917
3.70169186592 0.2353822147908388 0.0060237826567365 -1.5744392370134532 1.9113087589625548 2.050219822980697 -0.5200046160127103 1.1399895127138917
3.70169186592 0.2353822147908388 0.0060237826567365 -1.5744392370134532 1.9113087589625548 2.050219822980697 -0.5200046160127103 1.1399895127138917
3.71138000488 0.2353822147908388 0.0060237826567365 -1.5744392370134532 1.9113087589625548 2.050219822980697 -0.5200046160127103 1.1399895127138917
3.71138000488 0.2353822147908388 0.0060237826567365 -1.5744392370134532 1.9113087589625548 2.050219822980697 -0.5200046160127103 1.1399895127138917
3.7215950489 0.2353822147908388 0.0060237826567365 -1.5744392370134532 1.9113087589625548 2.050219822980697 -0.5200046160127103 1.1399895127138917
3.7215950489 0.2353822147908388 0.0060237826567365 -1.5744392370134532 1.9113087589625548 2.050219822980697 -0.5200046160127103 1.1399895127138917
3.73140001297 0.2341856939054133 0.0091991650065195 -1.575298277649143 1.9019206720153707 2.0502015611424604 -0.5200046160127103 1.1399895127138917
3.73140001297 0.2341856939054133 0.0091991650065195 -1.575298277649143 1.9019206720153707 2.0502015611424604 -0.5200046160127103 1.1399895127138917
3.7416009903 0.2341856939054133 0.0091991650065195 -1.575298277649143 1.9019206720153707 2.0502015611424604 -0.5200046160127103 1.1399895127138917
3.7416009903 0.2341856939054133 0.0091991650065195 -1.575298277649143 1.9019206720153707 2.0502015611424604 -0.5200046160127103 1.1399895127138917
3.75139904022 0.2341856939054133 0.0091991650065195 -1.575298277649143 1.9019206720153707 2.0502015611424604 -0.5200046160127103 1.1399895127138917
3.75139904022 0.2341856939054133 0.0091991650065195 -1.575298277649143 1.9019206720153707 2.0502015611424604 -0.5200046160127103 1.1399895127138917
3.7617020607 0.2341856939054133 0.0091991650065195 -1.575298277649143 1.9019206720153707 2.0502015611424604 -0.5200046160127103 1.1399895127138917
3.7617020607 0.2341856939054133 0.0091991650065195 -1.575298277649143 1.9019206720153707 2.0502015611424604 -0.5200046160127103 1.1399895127138917
3.77146792412 0.2341856939054133 0.0091991650065195 -1.575298277649143 1.9019206720153707 2.0502015611424604 -0.5200046160127103 1.1399895127138917
3.77146792412 0.2341856939054133 0.0091991650065195 -1.575298277649143 1.9019206720153707 2.0502015611424604 -0.5200046160127103 1.1399895127138917
3.78152894974 0.2341856939054133 0.0091991650065195 -1.575298277649143 1.9019206720153707 2.0502015611424604 -0.5200046160127103 1.1399895127138917
3.78152894974 0.2341856939054133 0.0091991650065195 -1.575298277649143 1.9019206720153707 2.0502015611424604 -0.5200046160127103 1.1399895127138917
3.79151201248 0.2341856939054133 0.0091991650065195 -1.575298277649143 1.9019206720153707 2.0502015611424604 -0.5200046160127103 1.1399895127138917
3.79151201248 0.2341856939054133 0.0091991650065195 -1.575298277649143 1.9019206720153707 2.0502015611424604 -0.5200046160127103 1.1399895127138917
3.80158305168 0.2341856939054133 0.0091991650065195 -1.575298277649143 1.9019206720153707 2.0502015611424604 -0.5200046160127103 1.1399895127138917
3.80158305168 0.2341856939054133 0.0091991650065195 -1.575298277649143 1.9019206720153707 2.0502015611424604 -0.5200046160127103 1.1399895127138917
3.81124305725 0.2296757305680405 0.0216552542240255 -1.5782128798059487 1.8640001639541948 2.0501467756277503 -0.5200046160127103 1.1399895127138917
3.81124305725 0.2296757305680405 0.0216552542240255 -1.5782128798059487 1.8640001639541948 2.0501467756277503 -0.5200046160127103 1.1399895127138917
3.82110404968 0.2290928101366795 0.0241556760743377 -1.5788571602827164 1.8543359568026807 2.0501193828703954 -0.5200046160127103 1.1399895127138917
3.82110404968 0.2290928101366795 0.0241556760743377 -1.5788571602827164 1.8543359568026807 2.0501193828703954 -0.5200046160127103 1.1399895127138917
3.83176207542 0.2290928101366795 0.0241556760743377 -1.5788571602827164 1.8543359568026807 2.0501193828703954 -0.5200046160127103 1.1399895127138917
3.83176207542 0.2290928101366795 0.0241556760743377 -1.5788571602827164 1.8543359568026807 2.0501193828703954 -0.5200046160127103 1.1399895127138917
3.84146499634 0.2284792096826151 0.0261958975841016 -1.5794861007481322 1.844441649480894 2.0502289538998157 -0.5200046160127103 1.1399895127138917
3.84146499634 0.2284792096826151 0.0261958975841016 -1.5794861007481322 1.844441649480894 2.0502289538998157 -0.5200046160127103 1.1399895127138917
3.85145998001 0.2284792096826151 0.0261958975841016 -1.5794861007481322 1.844441649480894 2.0502289538998157 -0.5200046160127103 1.1399895127138917
3.85145998001 0.2284792096826151 0.0261958975841016 -1.5794861007481322 1.844441649480894 2.0502289538998157 -0.5200046160127103 1.1399895127138917
3.86145806313 0.2284792096826151 0.0261958975841016 -1.5794861007481322 1.844441649480894 2.0502289538998157 -0.5200046160127103 1.1399895127138917
3.86145806313 0.2284792096826151 0.0261958975841016 -1.5794861007481322 1.844441649480894 2.0502289538998157 -0.5200046160127103 1.1399895127138917
3.87156605721 0.2284792096826151 0.0261958975841016 -1.5794861007481322 1.844441649480894 2.0502289538998157 -0.5200046160127103 1.1399895127138917
3.87156605721 0.2284792096826151 0.0261958975841016 -1.5794861007481322 1.844441649480894 2.0502289538998157 -0.5200046160127103 1.1399895127138917
3.88167786598 0.2277275491263863 0.0281900990598106 -1.579961641100032 1.834532002147755 2.0501741683851056 -0.5200046160127103 1.1399895127138917
3.88167786598 0.2277275491263863 0.0281900990598106 -1.579961641100032 1.834532002147755 2.0501741683851056 -0.5200046160127103 1.1399895127138917
3.8913629055 0.2277275491263863 0.0281900990598106 -1.579961641100032 1.834532002147755 2.0501741683851056 -0.5200046160127103 1.1399895127138917
3.8913629055 0.2277275491263863 0.0281900990598106 -1.579961641100032 1.834532002147755 2.0501741683851056 -0.5200046160127103 1.1399895127138917
3.90207505226 0.226684428354477 0.0298468202857843 -1.580007661134087 1.8245609947692092 2.0501011210321587 -0.5200046160127103 1.1399895127138917
3.90207505226 0.226684428354477 0.0298468202857843 -1.580007661134087 1.8245609947692092 2.0501011210321587 -0.5200046160127103 1.1399895127138917
3.91152501106 0.2256106275598643 0.0315035415117581 -1.5800230011454386 1.8148814476063444 2.050219822980697 -0.5200046160127103 1.1399895127138917
3.91152501106 0.2256106275598643 0.0315035415117581 -1.5800230011454386 1.8148814476063444 2.050219822980697 -0.5200046160127103 1.1399895127138917
3.92142295837 0.2245061467425486 0.0326847223858319 -1.5800230011454386 1.805063840341315 2.0502106920615786 -0.5200046160127103 1.1399895127138917
3.92142295837 0.2245061467425486 0.0326847223858319 -1.5800230011454386 1.805063840341315 2.0502106920615786 -0.5200046160127103 1.1399895127138917
3.9313659668 0.2245061467425486 0.0326847223858319 -1.5800230011454386 1.805063840341315 2.0502106920615786 -0.5200046160127103 1.1399895127138917
3.9313659668 0.2245061467425486 0.0326847223858319 -1.5800230011454386 1.805063840341315 2.0502106920615786 -0.5200046160127103 1.1399895127138917
3.9415910244 0.2245061467425486 0.0326847223858319 -1.5800230011454386 1.805063840341315 2.0502106920615786 -0.5200046160127103 1.1399895127138917
3.9415910244 0.2245061467425486 0.0326847223858319 -1.5800230011454386 1.805063840341315 2.0502106920615786 -0.5200046160127103 1.1399895127138917
3.95146608353 0.2245061467425486 0.0326847223858319 -1.5800230011454386 1.805063840341315 2.0502106920615786 -0.5200046160127103 1.1399895127138917
3.95146608353 0.2245061467425486 0.0326847223858319 -1.5800230011454386 1.805063840341315 2.0502106920615786 -0.5200046160127103 1.1399895127138917
3.96145296097 0.2245061467425486 0.0326847223858319 -1.5800230011454386 1.805063840341315 2.0502106920615786 -0.5200046160127103 1.1399895127138917
3.96145296097 0.2245061467425486 0.0326847223858319 -1.5800230011454386 1.805063840341315 2.0502106920615786 -0.5200046160127103 1.1399895127138917
3.97152304649 0.2232175857890134 0.0338045432144993 -1.5800383411567902 1.7951081729741214 2.050128513789514 -0.5200046160127103 1.1399895127138917
3.97152304649 0.2232175857890134 0.0338045432144993 -1.5800383411567902 1.7951081729741214 2.050128513789514 -0.5200046160127103 1.1399895127138917
3.98148488998 0.2232175857890134 0.0338045432144993 -1.5800383411567902 1.7951081729741214 2.050128513789514 -0.5200046160127103 1.1399895127138917
3.98148488998 0.2232175857890134 0.0338045432144993 -1.5800383411567902 1.7951081729741214 2.050128513789514 -0.5200046160127103 1.1399895127138917
3.99147200584 0.2209779441316785 0.0348016439523539 -1.5800536811681418 1.774123037445121 2.0501467756277503 -0.5200046160127103 1.1399895127138917
3.99147200584 0.2209779441316785 0.0348016439523539 -1.5800536811681418 1.774123037445121 2.0501467756277503 -0.5200046160127103 1.1399895127138917
4.00160193443 0.2209779441316785 0.0348016439523539 -1.5800536811681418 1.774123037445121 2.0501467756277503 -0.5200046160127103 1.1399895127138917
4.00160193443 0.2209779441316785 0.0348016439523539 -1.5800536811681418 1.774123037445121 2.0501467756277503 -0.5200046160127103 1.1399895127138917
4.01142907143 0.2197967632576047 0.0350624241453312 -1.5800536811681418 1.7636458096919725 2.050137644708632 -0.5200046160127103 1.1399895127138917
4.01142907143 0.2197967632576047 0.0350624241453312 -1.5800536811681418 1.7636458096919725 2.050137644708632 -0.5200046160127103 1.1399895127138917
4.02158308029 0.2197967632576047 0.0350624241453312 -1.5800536811681418 1.7636458096919725 2.050137644708632 -0.5200046160127103 1.1399895127138917
4.02158308029 0.2197967632576047 0.0350624241453312 -1.5800536811681418 1.7636458096919725 2.050137644708632 -0.5200046160127103 1.1399895127138917
4.03155398369 0.2197967632576047 0.0350624241453312 -1.5800536811681418 1.7636458096919725 2.050137644708632 -0.5200046160127103 1.1399895127138917
4.03155398369 0.2197967632576047 0.0350624241453312 -1.5800536811681418 1.7636458096919725 2.050137644708632 -0.5200046160127103 1.1399895127138917
4.04149389267 0.2197967632576047 0.0350624241453312 -1.5800536811681418 1.7636458096919725 2.050137644708632 -0.5200046160127103 1.1399895127138917
4.04149389267 0.2197967632576047 0.0350624241453312 -1.5800536811681418 1.7636458096919725 2.050137644708632 -0.5200046160127103 1.1399895127138917
4.05183887482 0.2183548021905536 0.0350931041680344 -1.5800536811681418 1.7530458618480111 2.0501193828703954 -0.5200046160127103 1.1399895127138917
4.05183887482 0.2183548021905536 0.0350931041680344 -1.5800536811681418 1.7530458618480111 2.0501193828703954 -0.5200046160127103 1.1399895127138917
4.06155586243 0.2170509012256669 0.0350931041680344 -1.5800536811681418 1.742507274049456 2.0501741683851056 -0.5200091814722694 1.1399849472543326
4.06155586243 0.2170509012256669 0.0350931041680344 -1.5800536811681418 1.742507274049456 2.0501741683851056 -0.5200091814722694 1.1399849472543326
4.07160592079 0.2155936001472639 0.0350931041680344 -1.5800536811681418 1.7320607263190109 2.0501741683851056 -0.5200046160127103 1.1399895127138917
4.07160592079 0.2155936001472639 0.0350931041680344 -1.5800536811681418 1.7320607263190109 2.0501741683851056 -0.5200046160127103 1.1399895127138917
4.08161997795 0.2140595990121032 0.035108444179386 -1.5800536811681418 1.7215528185431592 2.0501467756277503 -0.5200046160127103 1.1399895127138917
4.08161997795 0.2140595990121032 0.035108444179386 -1.5800536811681418 1.7215528185431592 2.0501467756277503 -0.5200046160127103 1.1399895127138917
4.09157204628 0.2140595990121032 0.035108444179386 -1.5800536811681418 1.7215528185431592 2.0501467756277503 -0.5200046160127103 1.1399895127138917
4.09157204628 0.2140595990121032 0.035108444179386 -1.5800536811681418 1.7215528185431592 2.0501467756277503 -0.5200046160127103 1.1399895127138917
4.10160493851 0.2140595990121032 0.035108444179386 -1.5800536811681418 1.7215528185431592 2.0501467756277503 -0.5200046160127103 1.1399895127138917
4.10160493851 0.2140595990121032 0.035108444179386 -1.5800536811681418 1.7215528185431592 2.0501467756277503 -0.5200046160127103 1.1399895127138917
4.11162090302 0.2140595990121032 0.035108444179386 -1.5800536811681418 1.7215528185431592 2.0501467756277503 -0.5200046160127103 1.1399895127138917
4.11162090302 0.2140595990121032 0.035108444179386 -1.5800536811681418 1.7215528185431592 2.0501467756277503 -0.5200046160127103 1.1399895127138917
4.12163591385 0.2140595990121032 0.035108444179386 -1.5800536811681418 1.7215528185431592 2.0501467756277503 -0.5200046160127103 1.1399895127138917
4.12163591385 0.2140595990121032 0.035108444179386 -1.5800536811681418 1.7215528185431592 2.0501467756277503 -0.5200046160127103 1.1399895127138917
4.13173604012 0.2140595990121032 0.035108444179386 -1.5800536811681418 1.7215528185431592 2.0501467756277503 -0.5200046160127103 1.1399895127138917
4.13173604012 0.2140595990121032 0.035108444179386 -1.5800536811681418 1.7215528185431592 2.0501467756277503 -0.5200046160127103 1.1399895127138917
4.14163303375 0.2113290769915169 0.035108444179386 -1.5800536811681418 1.701304003559036 2.050165037465987 -0.5200046160127103 1.1399895127138917
4.14163303375 0.2113290769915169 0.035108444179386 -1.5800536811681418 1.701304003559036 2.050165037465987 -0.5200046160127103 1.1399895127138917
4.15148305893 0.2097797358450046 0.0351237841907376 -1.5800536811681418 1.6913636762031936 2.050155906546869 -0.5200046160127103 1.1399895127138917
4.15148305893 0.2097797358450046 0.0351237841907376 -1.5800536811681418 1.6913636762031936 2.050155906546869 -0.5200046160127103 1.1399895127138917
4.16146302223 0.2097797358450046 0.0351237841907376 -1.5800536811681418 1.6913636762031936 2.050155906546869 -0.5200046160127103 1.1399895127138917
4.16146302223 0.2097797358450046 0.0351237841907376 -1.5800536811681418 1.6913636762031936 2.050155906546869 -0.5200046160127103 1.1399895127138917
4.1715118885 0.2097797358450046 0.0351237841907376 -1.5800536811681418 1.6913636762031936 2.050155906546869 -0.5200046160127103 1.1399895127138917
4.1715118885 0.2097797358450046 0.0351237841907376 -1.5800536811681418 1.6913636762031936 2.050155906546869 -0.5200046160127103 1.1399895127138917
4.18155503273 0.2080002945282179 0.0351391242020893 -1.5800536811681418 1.681638109006274 2.0501193828703954 -0.5200046160127103 1.1399895127138917
4.18155503273 0.2080002945282179 0.0351391242020893 -1.5800536811681418 1.681638109006274 2.0501193828703954 -0.5200046160127103 1.1399895127138917
4.191644907 0.2080002945282179 0.0351391242020893 -1.5800536811681418 1.681638109006274 2.0501193828703954 -0.5200046160127103 1.1399895127138917
4.191644907 0.2080002945282179 0.0351391242020893 -1.5800536811681418 1.681638109006274 2.0501193828703954 -0.5200046160127103 1.1399895127138917
4.20154595375 0.2080002945282179 0.0351391242020893 -1.5800536811681418 1.681638109006274 2.0501193828703954 -0.5200046160127103 1.1399895127138917
4.20154595375 0.2080002945282179 0.0351391242020893 -1.5800536811681418 1.681638109006274 2.0501193828703954 -0.5200046160127103 1.1399895127138917
4.21164894104 0.2040885916335577 0.0359981648377793 -1.5800690211794934 1.6624937748394666 2.050137644708632 -0.5200046160127103 1.1399895127138917
4.21164894104 0.2040885916335577 0.0359981648377793 -1.5800690211794934 1.6624937748394666 2.050137644708632 -0.5200046160127103 1.1399895127138917
4.22155094147 0.2023244903281228 0.036443025166976 -1.5800690211794934 1.6531363679149855 2.050137644708632 -0.5200046160127103 1.1399895127138917
4.22155094147 0.2023244903281228 0.036443025166976 -1.5800690211794934 1.6531363679149855 2.050137644708632 -0.5200046160127103 1.1399895127138917
4.23151397705 0.2023244903281228 0.036443025166976 -1.5800690211794934 1.6531363679149855 2.050137644708632 -0.5200046160127103 1.1399895127138917
