riccardo-csl/Motion-Planning-for-TIAGo-Manipulator/T3_G_7/head_scan/head_scan/tiago_traiettorie_SG/2a-3b/place_3b_rep1.txt
time arm_1_joint arm_2_joint arm_3_joint arm_4_joint arm_5_joint arm_6_joint arm_7_joint
1.3344039917 0.3595749466934605 -0.2042264129284082 -1.0565144337490988 2.108934125205326 2.050037204598331 -0.5200046160127103 1.1399895127138917
1.34441494942 0.3595749466934605 -0.2042264129284082 -1.0565144337490988 2.108934125205326 2.050037204598331 -0.5200046160127103 1.1399895127138917
1.34441494942 0.3595749466934605 -0.2042264129284082 -1.0565144337490988 2.108934125205326 2.050037204598331 -0.5200046160127103 1.1399895127138917
1.35469698906 0.3595749466934605 -0.2042264129284082 -1.0565144337490988 2.108934125205326 2.050037204598331 -0.5200046160127103 1.1399895127138917
1.35469698906 0.3595749466934605 -0.2042264129284082 -1.0565144337490988 2.108934125205326 2.050037204598331 -0.5200046160127103 1.1399895127138917
1.36492300034 0.3595749466934605 -0.2042264129284082 -1.0565144337490988 2.108934125205326 2.0500098118409755 -0.5200046160127103 1.1399895127138917
1.36492300034 0.3595749466934605 -0.2042264129284082 -1.0565144337490988 2.108934125205326 2.0500098118409755 -0.5200046160127103 1.1399895127138917
1.37463498116 0.3595749466934605 -0.2042264129284082 -1.0565144337490988 2.108934125205326 2.0500098118409755 -0.5200046160127103 1.1399895127138917
1.37463498116 0.3595749466934605 -0.2042264129284082 -1.0565144337490988 2.108934125205326 2.0500098118409755 -0.5200046160127103 1.1399895127138917
1.38450598717 0.3595749466934605 -0.2042264129284082 -1.0565144337490988 2.108934125205326 2.0500098118409755 -0.5200046160127103 1.1399895127138917
1.38450598717 0.3595749466934605 -0.2042264129284082 -1.0565144337490988 2.108934125205326 2.0500098118409755 -0.5200046160127103 1.1399895127138917
1.39473199844 0.3595749466934605 -0.2042264129284082 -1.0565144337490988 2.108934125205326 2.050028073679212 -0.5200091814722694 1.1399849472543326
1.39473199844 0.3595749466934605 -0.2042264129284082 -1.0565144337490988 2.108934125205326 2.050028073679212 -0.5200091814722694 1.1399849472543326
1.40463495255 0.3595749466934605 -0.2042264129284082 -1.0565144337490988 2.108934125205326 2.050046335517449 -0.5200046160127103 1.1399895127138917
1.40463495255 0.3595749466934605 -0.2042264129284082 -1.0565144337490988 2.108934125205326 2.050046335517449 -0.5200046160127103 1.1399895127138917
1.41457295418 0.3595749466934605 -0.2042264129284082 -1.0565144337490988 2.108934125205326 2.050046335517449 -0.5200046160127103 1.1399895127138917
1.41457295418 0.3595749466934605 -0.2042264129284082 -1.0565144337490988 2.108934125205326 2.050046335517449 -0.5200046160127103 1.1399895127138917
1.42560982704 0.3595749466934605 -0.2042264129284082 -1.0565144337490988 2.108934125205326 2.0499824190836207 -0.5200046160127103 1.1399895127138917
1.42560982704 0.3595749466934605 -0.2042264129284082 -1.0565144337490988 2.108934125205326 2.0499824190836207 -0.5200046160127103 1.1399895127138917
1.43455195427 0.3595749466934605 -0.2042264129284082 -1.0565144337490988 2.108934125205326 2.0499824190836207 -0.5200046160127103 1.1399895127138917
1.43455195427 0.3595749466934605 -0.2042264129284082 -1.0565144337490988 2.108934125205326 2.0499824190836207 -0.5200046160127103 1.1399895127138917
1.44463300705 0.3595749466934605 -0.2042264129284082 -1.0565144337490988 2.108934125205326 2.0499915500027392 -0.5200046160127103 1.1399895127138917
1.44463300705 0.3595749466934605 -0.2042264129284082 -1.0565144337490988 2.108934125205326 2.0499915500027392 -0.5200046160127103 1.1399895127138917
1.45458292961 0.3595749466934605 -0.2042264129284082 -1.0565144337490988 2.108934125205326 2.0499915500027392 -0.5200046160127103 1.1399895127138917
1.45458292961 0.3595749466934605 -0.2042264129284082 -1.0565144337490988 2.108934125205326 2.0499915500027392 -0.5200046160127103 1.1399895127138917
1.464635849 0.3595749466934605 -0.2042264129284082 -1.0565144337490988 2.108934125205326 2.050018942760094 -0.5200046160127103 1.1399895127138917
1.464635849 0.3595749466934605 -0.2042264129284082 -1.0565144337490988 2.108934125205326 2.050018942760094 -0.5200046160127103 1.1399895127138917
1.4747698307 0.3595749466934605 -0.2042264129284082 -1.0565144337490988 2.108934125205326 2.050018942760094 -0.5200046160127103 1.1399895127138917
1.4747698307 0.3595749466934605 -0.2042264129284082 -1.0565144337490988 2.108934125205326 2.050018942760094 -0.5200046160127103 1.1399895127138917
1.48458790779 0.3595749466934605 -0.2042264129284082 -1.0565144337490988 2.108934125205326 2.050018942760094 -0.5200046160127103 1.1399895127138917
1.48458790779 0.3595749466934605 -0.2042264129284082 -1.0565144337490988 2.108934125205326 2.050018942760094 -0.5200046160127103 1.1399895127138917
1.49473381042 0.3595749466934605 -0.2042264129284082 -1.0565144337490988 2.108934125205326 2.050037204598331 -0.5200046160127103 1.1399895127138917
1.49473381042 0.3595749466934605 -0.2042264129284082 -1.0565144337490988 2.108934125205326 2.050037204598331 -0.5200046160127103 1.1399895127138917
1.50451493263 0.3595749466934605 -0.2042264129284082 -1.0565144337490988 2.108934125205326 2.0499732881645025 -0.5200046160127103 1.1399895127138917
1.50451493263 0.3595749466934605 -0.2042264129284082 -1.0565144337490988 2.108934125205326 2.0499732881645025 -0.5200046160127103 1.1399895127138917
1.51500701904 0.3595749466934605 -0.2042264129284082 -1.0565144337490988 2.108934125205326 2.0499732881645025 -0.5200046160127103 1.1399895127138917
1.51500701904 0.3595749466934605 -0.2042264129284082 -1.0565144337490988 2.108934125205326 2.0499732881645025 -0.5200046160127103 1.1399895127138917
1.52465486526 0.3595749466934605 -0.2042264129284082 -1.0565144337490988 2.108934125205326 2.0499915500027392 -0.5200046160127103 1.1399895127138917
1.52465486526 0.3595749466934605 -0.2042264129284082 -1.0565144337490988 2.108934125205326 2.0499915500027392 -0.5200046160127103 1.1399895127138917
1.53456187248 0.3595749466934605 -0.2042264129284082 -1.0565144337490988 2.108934125205326 2.0499915500027392 -0.5200046160127103 1.1399895127138917
1.53456187248 0.3595749466934605 -0.2042264129284082 -1.0565144337490988 2.108934125205326 2.0499915500027392 -0.5200046160127103 1.1399895127138917
1.54459786415 0.3595749466934605 -0.2042264129284082 -1.0565144337490988 2.108934125205326 2.050018942760094 -0.5200046160127103 1.1399895127138917
1.54459786415 0.3595749466934605 -0.2042264129284082 -1.0565144337490988 2.108934125205326 2.050018942760094 -0.5200046160127103 1.1399895127138917
1.55466794968 0.3595749466934605 -0.2042264129284082 -1.0565144337490988 2.108934125205326 2.050018942760094 -0.5200046160127103 1.1399895127138917
1.55466794968 0.3595749466934605 -0.2042264129284082 -1.0565144337490988 2.108934125205326 2.050018942760094 -0.5200046160127103 1.1399895127138917
1.5644569397 0.3595749466934605 -0.2042264129284082 -1.0565144337490988 2.108934125205326 2.050018942760094 -0.5200046160127103 1.1399895127138917
1.5644569397 0.3595749466934605 -0.2042264129284082 -1.0565144337490988 2.108934125205326 2.050018942760094 -0.5200046160127103 1.1399895127138917
1.57466197014 0.3595749466934605 -0.2042264129284082 -1.0565144337490988 2.108934125205326 2.050018942760094 -0.5200046160127103 1.1399895127138917
1.57466197014 0.3595749466934605 -0.2042264129284082 -1.0565144337490988 2.108934125205326 2.050018942760094 -0.5200046160127103 1.1399895127138917
1.58460283279 0.3595749466934605 -0.2042264129284082 -1.0565144337490988 2.108934125205326 2.050018942760094 -0.5200046160127103 1.1399895127138917
1.58460283279 0.3595749466934605 -0.2042264129284082 -1.0565144337490988 2.108934125205326 2.050018942760094 -0.5200046160127103 1.1399895127138917
1.59468793869 0.3595749466934605 -0.2042264129284082 -1.0565144337490988 2.108934125205326 2.050018942760094 -0.5200046160127103 1.1399895127138917
1.59468793869 0.3595749466934605 -0.2042264129284082 -1.0565144337490988 2.108934125205326 2.050018942760094 -0.5200046160127103 1.1399895127138917
1.60459494591 0.3595749466934605 -0.2042264129284082 -1.0565144337490988 2.108934125205326 2.050018942760094 -0.5200046160127103 1.1399895127138917
1.60459494591 0.3595749466934605 -0.2042264129284082 -1.0565144337490988 2.108934125205326 2.050018942760094 -0.5200046160127103 1.1399895127138917
1.6146979332 0.3595749466934605 -0.2042264129284082 -1.0565144337490988 2.108934125205326 2.050018942760094 -0.5200046160127103 1.1399895127138917
1.6146979332 0.3595749466934605 -0.2042264129284082 -1.0565144337490988 2.108934125205326 2.050018942760094 -0.5200046160127103 1.1399895127138917
1.62476086617 0.3595749466934605 -0.2042264129284082 -1.0565144337490988 2.108934125205326 2.050018942760094 -0.5200046160127103 1.1399895127138917
1.62476086617 0.3595749466934605 -0.2042264129284082 -1.0565144337490988 2.108934125205326 2.050018942760094 -0.5200046160127103 1.1399895127138917
1.63473081589 0.3595749466934605 -0.2042264129284082 -1.0565144337490988 2.108934125205326 2.050018942760094 -0.5200046160127103 1.1399895127138917
1.63473081589 0.3595749466934605 -0.2042264129284082 -1.0565144337490988 2.108934125205326 2.050018942760094 -0.5200046160127103 1.1399895127138917
1.64464187622 0.3595749466934605 -0.2042264129284082 -1.0565144337490988 2.108934125205326 2.050018942760094 -0.5200046160127103 1.1399895127138917
1.64464187622 0.3595749466934605 -0.2042264129284082 -1.0565144337490988 2.108934125205326 2.050018942760094 -0.5200046160127103 1.1399895127138917
1.65459990501 0.3595749466934605 -0.2042264129284082 -1.0565144337490988 2.108934125205326 2.050018942760094 -0.5200046160127103 1.1399895127138917
1.65459990501 0.3595749466934605 -0.2042264129284082 -1.0565144337490988 2.108934125205326 2.050018942760094 -0.5200046160127103 1.1399895127138917
1.6646668911 0.3595749466934605 -0.2042264129284082 -1.0565144337490988 2.108934125205326 2.050018942760094 -0.5200046160127103 1.1399895127138917
1.6646668911 0.3595749466934605 -0.2042264129284082 -1.0565144337490988 2.108934125205326 2.050018942760094 -0.5200046160127103 1.1399895127138917
1.67450881004 0.3595749466934605 -0.2042264129284082 -1.0565144337490988 2.108934125205326 2.050018942760094 -0.5200046160127103 1.1399895127138917
1.67450881004 0.3595749466934605 -0.2042264129284082 -1.0565144337490988 2.108934125205326 2.050018942760094 -0.5200046160127103 1.1399895127138917
1.68463587761 0.3595749466934605 -0.2042264129284082 -1.0565144337490988 2.108934125205326 2.050018942760094 -0.5200046160127103 1.1399895127138917
1.68463587761 0.3595749466934605 -0.2042264129284082 -1.0565144337490988 2.108934125205326 2.050018942760094 -0.5200046160127103 1.1399895127138917
1.69458794594 0.3595749466934605 -0.2042264129284082 -1.0565144337490988 2.108934125205326 2.050018942760094 -0.5200046160127103 1.1399895127138917
1.69458794594 0.3595749466934605 -0.2042264129284082 -1.0565144337490988 2.108934125205326 2.050018942760094 -0.5200046160127103 1.1399895127138917
1.70463085175 0.3595749466934605 -0.2042264129284082 -1.0565144337490988 2.108934125205326 2.050018942760094 -0.5200046160127103 1.1399895127138917
1.70463085175 0.3595749466934605 -0.2042264129284082 -1.0565144337490988 2.108934125205326 2.050018942760094 -0.5200046160127103 1.1399895127138917
1.71468997002 0.3595749466934605 -0.2042264129284082 -1.0565144337490988 2.108934125205326 2.050018942760094 -0.5200046160127103 1.1399895127138917
1.71468997002 0.3595749466934605 -0.2042264129284082 -1.0565144337490988 2.108934125205326 2.050018942760094 -0.5200046160127103 1.1399895127138917
1.7246568203 0.3595749466934605 -0.2042264129284082 -1.0565144337490988 2.108934125205326 2.050018942760094 -0.5200046160127103 1.1399895127138917
1.7246568203 0.3595749466934605 -0.2042264129284082 -1.0565144337490988 2.108934125205326 2.050018942760094 -0.5200046160127103 1.1399895127138917
1.73471689224 0.3595749466934605 -0.2042264129284082 -1.0565144337490988 2.108934125205326 2.050018942760094 -0.5200046160127103 1.1399895127138917
1.73471689224 0.3595749466934605 -0.2042264129284082 -1.0565144337490988 2.108934125205326 2.050018942760094 -0.5200046160127103 1.1399895127138917
1.74465489388 0.3595749466934605 -0.2042264129284082 -1.0565144337490988 2.108934125205326 2.050018942760094 -0.5200046160127103 1.1399895127138917
1.74465489388 0.3595749466934605 -0.2042264129284082 -1.0565144337490988 2.108934125205326 2.050018942760094 -0.5200046160127103 1.1399895127138917
1.75460791588 0.3595749466934605 -0.2042264129284082 -1.0565144337490988 2.108934125205326 2.050018942760094 -0.5200046160127103 1.1399895127138917
1.75460791588 0.3595749466934605 -0.2042264129284082 -1.0565144337490988 2.108934125205326 2.050018942760094 -0.5200046160127103 1.1399895127138917
1.76463294029 0.3595749466934605 -0.2042264129284082 -1.0565144337490988 2.108934125205326 2.050018942760094 -0.5200046160127103 1.1399895127138917
1.76463294029 0.3595749466934605 -0.2042264129284082 -1.0565144337490988 2.108934125205326 2.050018942760094 -0.5200046160127103 1.1399895127138917
1.77471089363 0.3595749466934605 -0.2042264129284082 -1.0565144337490988 2.108934125205326 2.050018942760094 -0.5200046160127103 1.1399895127138917
1.77471089363 0.3595749466934605 -0.2042264129284082 -1.0565144337490988 2.108934125205326 2.050018942760094 -0.5200046160127103 1.1399895127138917
1.78460788727 0.3595749466934605 -0.2042264129284082 -1.0565144337490988 2.108934125205326 2.050018942760094 -0.5200046160127103 1.1399895127138917
1.78460788727 0.3595749466934605 -0.2042264129284082 -1.0565144337490988 2.108934125205326 2.050018942760094 -0.5200046160127103 1.1399895127138917
1.79458093643 0.3595749466934605 -0.2042264129284082 -1.0565144337490988 2.108934125205326 2.050018942760094 -0.5200046160127103 1.1399895127138917
1.79458093643 0.3595749466934605 -0.2042264129284082 -1.0565144337490988 2.108934125205326 2.050018942760094 -0.5200046160127103 1.1399895127138917
1.80460596085 0.3595749466934605 -0.2042264129284082 -1.0565144337490988 2.108934125205326 2.050018942760094 -0.5200046160127103 1.1399895127138917
1.80460596085 0.3595749466934605 -0.2042264129284082 -1.0565144337490988 2.108934125205326 2.050018942760094 -0.5200046160127103 1.1399895127138917
1.81474590302 0.3595749466934605 -0.2042264129284082 -1.0565144337490988 2.108934125205326 2.050018942760094 -0.5200046160127103 1.1399895127138917
1.81474590302 0.3595749466934605 -0.2042264129284082 -1.0565144337490988 2.108934125205326 2.050018942760094 -0.5200046160127103 1.1399895127138917
1.82450199127 0.3595749466934605 -0.2042264129284082 -1.0565144337490988 2.108934125205326 2.050018942760094 -0.5200046160127103 1.1399895127138917
1.82450199127 0.3595749466934605 -0.2042264129284082 -1.0565144337490988 2.108934125205326 2.050018942760094 -0.5200046160127103 1.1399895127138917
1.83469581604 0.3595749466934605 -0.2042264129284082 -1.0565144337490988 2.108934125205326 2.050018942760094 -0.5200046160127103 1.1399895127138917
1.83469581604 0.3595749466934605 -0.2042264129284082 -1.0565144337490988 2.108934125205326 2.050018942760094 -0.5200046160127103 1.1399895127138917
1.84450697899 0.3595749466934605 -0.2042264129284082 -1.0565144337490988 2.108934125205326 2.050018942760094 -0.5200046160127103 1.1399895127138917
1.84450697899 0.3595749466934605 -0.2042264129284082 -1.0565144337490988 2.108934125205326 2.050018942760094 -0.5200046160127103 1.1399895127138917
1.85469889641 0.3595749466934605 -0.2042264129284082 -1.0565144337490988 2.108934125205326 2.050018942760094 -0.5200046160127103 1.1399895127138917
1.85469889641 0.3595749466934605 -0.2042264129284082 -1.0565144337490988 2.108934125205326 2.050018942760094 -0.5200046160127103 1.1399895127138917
1.86463284492 0.3595749466934605 -0.2042264129284082 -1.0565144337490988 2.108934125205326 2.050018942760094 -0.5200046160127103 1.1399895127138917
1.86463284492 0.3595749466934605 -0.2042264129284082 -1.0565144337490988 2.108934125205326 2.050018942760094 -0.5200046160127103 1.1399895127138917
1.87476992607 0.3595749466934605 -0.2042264129284082 -1.0565144337490988 2.108934125205326 2.050018942760094 -0.5200046160127103 1.1399895127138917
1.87476992607 0.3595749466934605 -0.2042264129284082 -1.0565144337490988 2.108934125205326 2.050018942760094 -0.5200046160127103 1.1399895127138917
1.8846487999 0.3595749466934605 -0.2042264129284082 -1.0565144337490988 2.108934125205326 2.050018942760094 -0.5200046160127103 1.1399895127138917
1.8846487999 0.3595749466934605 -0.2042264129284082 -1.0565144337490988 2.108934125205326 2.050018942760094 -0.5200046160127103 1.1399895127138917
1.89471292496 0.3595749466934605 -0.2042264129284082 -1.0565144337490988 2.108934125205326 2.050018942760094 -0.5200046160127103 1.1399895127138917
1.89471292496 0.3595749466934605 -0.2042264129284082 -1.0565144337490988 2.108934125205326 2.050018942760094 -0.5200046160127103 1.1399895127138917
1.90446281433 0.3595749466934605 -0.2042264129284082 -1.0565144337490988 2.108934125205326 2.050018942760094 -0.5200046160127103 1.1399895127138917
1.90446281433 0.3595749466934605 -0.2042264129284082 -1.0565144337490988 2.108934125205326 2.050018942760094 -0.5200046160127103 1.1399895127138917
1.91455888748 0.3595749466934605 -0.2042264129284082 -1.0565144337490988 2.108934125205326 2.050018942760094 -0.5200046160127103 1.1399895127138917
1.91455888748 0.3595749466934605 -0.2042264129284082 -1.0565144337490988 2.108934125205326 2.050018942760094 -0.5200046160127103 1.1399895127138917
1.92460489273 0.3595749466934605 -0.2042264129284082 -1.0565144337490988 2.108934125205326 2.050018942760094 -0.5200046160127103 1.1399895127138917
1.92460489273 0.3595749466934605 -0.2042264129284082 -1.0565144337490988 2.108934125205326 2.050018942760094 -0.5200046160127103 1.1399895127138917
1.93471479416 0.3595749466934605 -0.2042264129284082 -1.0565144337490988 2.108934125205326 2.050018942760094 -0.5200046160127103 1.1399895127138917
1.93471479416 0.3595749466934605 -0.2042264129284082 -1.0565144337490988 2.108934125205326 2.050018942760094 -0.5200046160127103 1.1399895127138917
1.94467592239 0.3595749466934605 -0.2042264129284082 -1.0565144337490988 2.108934125205326 2.050018942760094 -0.5200046160127103 1.1399895127138917
1.94467592239 0.3595749466934605 -0.2042264129284082 -1.0565144337490988 2.108934125205326 2.050018942760094 -0.5200046160127103 1.1399895127138917
1.95473098755 0.3595749466934605 -0.2042264129284082 -1.0565144337490988 2.108934125205326 2.050018942760094 -0.5200046160127103 1.1399895127138917
1.95473098755 0.3595749466934605 -0.2042264129284082 -1.0565144337490988 2.108934125205326 2.050018942760094 -0.5200046160127103 1.1399895127138917
1.96464085579 0.3595749466934605 -0.2042264129284082 -1.0565144337490988 2.108934125205326 2.050018942760094 -0.5200046160127103 1.1399895127138917
1.96464085579 0.3595749466934605 -0.2042264129284082 -1.0565144337490988 2.108934125205326 2.050018942760094 -0.5200046160127103 1.1399895127138917
1.97472691536 0.3595749466934605 -0.2042264129284082 -1.0565144337490988 2.108934125205326 2.050018942760094 -0.5200046160127103 1.1399895127138917
1.97472691536 0.3595749466934605 -0.2042264129284082 -1.0565144337490988 2.108934125205326 2.050018942760094 -0.5200046160127103 1.1399895127138917
1.98469686508 0.3595749466934605 -0.2042264129284082 -1.0565144337490988 2.108934125205326 2.050018942760094 -0.5200046160127103 1.1399895127138917
1.98469686508 0.3595749466934605 -0.2042264129284082 -1.0565144337490988 2.108934125205326 2.050018942760094 -0.5200046160127103 1.1399895127138917
1.99476289749 0.3595749466934605 -0.2042264129284082 -1.0565144337490988 2.108934125205326 2.050018942760094 -0.5200046160127103 1.1399895127138917
1.99476289749 0.3595749466934605 -0.2042264129284082 -1.0565144337490988 2.108934125205326 2.050018942760094 -0.5200046160127103 1.1399895127138917
2.00457191467 0.3595749466934605 -0.2042264129284082 -1.0565144337490988 2.108934125205326 2.050018942760094 -0.5200046160127103 1.1399895127138917
2.00457191467 0.3595749466934605 -0.2042264129284082 -1.0565144337490988 2.108934125205326 2.050018942760094 -0.5200046160127103 1.1399895127138917
2.01455998421 0.3595749466934605 -0.2042264129284082 -1.0565144337490988 2.108934125205326 2.050018942760094 -0.5200046160127103 1.1399895127138917
2.01455998421 0.3595749466934605 -0.2042264129284082 -1.0565144337490988 2.108934125205326 2.050018942760094 -0.5200046160127103 1.1399895127138917
2.02461194992 0.3595749466934605 -0.2042264129284082 -1.0565144337490988 2.108934125205326 2.050018942760094 -0.5200046160127103 1.1399895127138917
2.02461194992 0.3595749466934605 -0.2042264129284082 -1.0565144337490988 2.108934125205326 2.050018942760094 -0.5200046160127103 1.1399895127138917
2.03458881378 0.3595749466934605 -0.2042264129284082 -1.0565144337490988 2.108934125205326 2.050018942760094 -0.5200046160127103 1.1399895127138917
2.03458881378 0.3595749466934605 -0.2042264129284082 -1.0565144337490988 2.108934125205326 2.050018942760094 -0.5200046160127103 1.1399895127138917
2.04473686218 0.3595749466934605 -0.2042264129284082 -1.0565144337490988 2.108934125205326 2.050018942760094 -0.5200046160127103 1.1399895127138917
2.04473686218 0.3595749466934605 -0.2042264129284082 -1.0565144337490988 2.108934125205326 2.050018942760094 -0.5200046160127103 1.1399895127138917
2.05475783348 0.3595749466934605 -0.2042264129284082 -1.0565144337490988 2.108934125205326 2.050018942760094 -0.5200046160127103 1.1399895127138917
2.05475783348 0.3595749466934605 -0.2042264129284082 -1.0565144337490988 2.108934125205326 2.050018942760094 -0.5200046160127103 1.1399895127138917
2.06480002403 0.3595749466934605 -0.2042264129284082 -1.0565144337490988 2.108934125205326 2.050018942760094 -0.5200046160127103 1.1399895127138917
2.06480002403 0.3595749466934605 -0.2042264129284082 -1.0565144337490988 2.108934125205326 2.050018942760094 -0.5200046160127103 1.1399895127138917
2.07474899292 0.3595749466934605 -0.2042264129284082 -1.0565144337490988 2.108934125205326 2.050018942760094 -0.5200046160127103 1.1399895127138917
2.07474899292 0.3595749466934605 -0.2042264129284082 -1.0565144337490988 2.108934125205326 2.050018942760094 -0.5200046160127103 1.1399895127138917
2.08473682404 0.3595749466934605 -0.2042264129284082 -1.0565144337490988 2.108934125205326 2.050018942760094 -0.5200046160127103 1.1399895127138917
2.08473682404 0.3595749466934605 -0.2042264129284082 -1.0565144337490988 2.108934125205326 2.050018942760094 -0.5200046160127103 1.1399895127138917
2.09454083443 0.3595749466934605 -0.2042264129284082 -1.0565144337490988 2.108934125205326 2.050018942760094 -0.5200046160127103 1.1399895127138917
2.09454083443 0.3595749466934605 -0.2042264129284082 -1.0565144337490988 2.108934125205326 2.050018942760094 -0.5200046160127103 1.1399895127138917
2.10471582413 0.3595749466934605 -0.2042264129284082 -1.0565144337490988 2.108934125205326 2.050018942760094 -0.5200046160127103 1.1399895127138917
2.10471582413 0.3595749466934605 -0.2042264129284082 -1.0565144337490988 2.108934125205326 2.050018942760094 -0.5200046160127103 1.1399895127138917
2.11476778984 0.3595749466934605 -0.2042264129284082 -1.0565144337490988 2.108934125205326 2.050018942760094 -0.5200046160127103 1.1399895127138917
2.11476778984 0.3595749466934605 -0.2042264129284082 -1.0565144337490988 2.108934125205326 2.050018942760094 -0.5200046160127103 1.1399895127138917
2.12471294403 0.3595749466934605 -0.2042264129284082 -1.0565144337490988 2.108934125205326 2.050018942760094 -0.5200046160127103 1.1399895127138917
2.12471294403 0.3595749466934605 -0.2042264129284082 -1.0565144337490988 2.108934125205326 2.050018942760094 -0.5200046160127103 1.1399895127138917
2.13454890251 0.3595749466934605 -0.2042264129284082 -1.0565144337490988 2.108934125205326 2.050018942760094 -0.5200046160127103 1.1399895127138917
2.13454890251 0.3595749466934605 -0.2042264129284082 -1.0565144337490988 2.108934125205326 2.050018942760094 -0.5200046160127103 1.1399895127138917
2.14474081993 0.3595749466934605 -0.2042264129284082 -1.0565144337490988 2.108934125205326 2.050018942760094 -0.5200046160127103 1.1399895127138917
2.14474081993 0.3595749466934605 -0.2042264129284082 -1.0565144337490988 2.108934125205326 2.050018942760094 -0.5200046160127103 1.1399895127138917
2.15466284752 0.3595749466934605 -0.2042264129284082 -1.0565144337490988 2.108934125205326 2.050018942760094 -0.5200046160127103 1.1399895127138917
2.15466284752 0.3595749466934605 -0.2042264129284082 -1.0565144337490988 2.108934125205326 2.050018942760094 -0.5200046160127103 1.1399895127138917
2.16449379921 0.3595749466934605 -0.2042264129284082 -1.0565144337490988 2.108934125205326 2.050018942760094 -0.5200046160127103 1.1399895127138917
2.16449379921 0.3595749466934605 -0.2042264129284082 -1.0565144337490988 2.108934125205326 2.050018942760094 -0.5200046160127103 1.1399895127138917
2.1747238636 0.3595749466934605 -0.2042264129284082 -1.0565144337490988 2.108934125205326 2.050018942760094 -0.5200046160127103 1.1399895127138917
2.1747238636 0.3595749466934605 -0.2042264129284082 -1.0565144337490988 2.108934125205326 2.050018942760094 -0.5200046160127103 1.1399895127138917
2.18465089798 0.3595749466934605 -0.2042264129284082 -1.0565144337490988 2.108934125205326 2.050018942760094 -0.5200046160127103 1.1399895127138917
2.18465089798 0.3595749466934605 -0.2042264129284082 -1.0565144337490988 2.108934125205326 2.050018942760094 -0.5200046160127103 1.1399895127138917
2.19471001625 0.3595749466934605 -0.2042264129284082 -1.0565144337490988 2.108934125205326 2.050018942760094 -0.5200046160127103 1.1399895127138917
2.19471001625 0.3595749466934605 -0.2042264129284082 -1.0565144337490988 2.108934125205326 2.050018942760094 -0.5200046160127103 1.1399895127138917
2.2045109272 0.3595749466934605 -0.2042264129284082 -1.0565144337490988 2.108934125205326 2.050018942760094 -0.5200046160127103 1.1399895127138917
2.2045109272 0.3595749466934605 -0.2042264129284082 -1.0565144337490988 2.108934125205326 2.050018942760094 -0.5200046160127103 1.1399895127138917
2.21465682983 0.3595749466934605 -0.2042264129284082 -1.0565144337490988 2.108934125205326 2.050018942760094 -0.5200046160127103 1.1399895127138917
2.21465682983 0.3595749466934605 -0.2042264129284082 -1.0565144337490988 2.108934125205326 2.050018942760094 -0.5200046160127103 1.1399895127138917
2.22462296486 0.3595749466934605 -0.2042264129284082 -1.0565144337490988 2.108934125205326 2.050018942760094 -0.5200046160127103 1.1399895127138917
2.22462296486 0.3595749466934605 -0.2042264129284082 -1.0565144337490988 2.108934125205326 2.050018942760094 -0.5200046160127103 1.1399895127138917
2.23478579521 0.3595749466934605 -0.2042264129284082 -1.0565144337490988 2.108934125205326 2.050018942760094 -0.5200046160127103 1.1399895127138917
2.23478579521 0.3595749466934605 -0.2042264129284082 -1.0565144337490988 2.108934125205326 2.050018942760094 -0.5200046160127103 1.1399895127138917
2.24466085434 0.3595749466934605 -0.2042264129284082 -1.0565144337490988 2.108934125205326 2.050018942760094 -0.5200046160127103 1.1399895127138917
2.24466085434 0.3595749466934605 -0.2042264129284082 -1.0565144337490988 2.108934125205326 2.050018942760094 -0.5200046160127103 1.1399895127138917
2.25479102135 0.3595749466934605 -0.2042264129284082 -1.0565144337490988 2.108934125205326 2.050018942760094 -0.5200046160127103 1.1399895127138917
2.25479102135 0.3595749466934605 -0.2042264129284082 -1.0565144337490988 2.108934125205326 2.050018942760094 -0.5200046160127103 1.1399895127138917
2.26463699341 0.3595749466934605 -0.2042264129284082 -1.0565144337490988 2.108934125205326 2.050018942760094 -0.5200046160127103 1.1399895127138917
2.26463699341 0.3595749466934605 -0.2042264129284082 -1.0565144337490988 2.108934125205326 2.050018942760094 -0.5200046160127103 1.1399895127138917
2.27473187447 0.3595749466934605 -0.2042264129284082 -1.0565144337490988 2.108934125205326 2.050018942760094 -0.5200046160127103 1.1399895127138917
2.27473187447 0.3595749466934605 -0.2042264129284082 -1.0565144337490988 2.108934125205326 2.050018942760094 -0.5200046160127103 1.1399895127138917
2.28477787971 0.3595749466934605 -0.2042264129284082 -1.0565144337490988 2.108934125205326 2.050018942760094 -0.5200046160127103 1.1399895127138917
2.28477787971 0.3595749466934605 -0.2042264129284082 -1.0565144337490988 2.108934125205326 2.050018942760094 -0.5200046160127103 1.1399895127138917
2.29460000992 0.3595749466934605 -0.2042264129284082 -1.0565144337490988 2.108934125205326 2.050018942760094 -0.5200046160127103 1.1399895127138917
2.29460000992 0.3595749466934605 -0.2042264129284082 -1.0565144337490988 2.108934125205326 2.050018942760094 -0.5200046160127103 1.1399895127138917
2.30482983589 0.3595749466934605 -0.2042264129284082 -1.0565144337490988 2.108934125205326 2.050018942760094 -0.5200046160127103 1.1399895127138917
2.30482983589 0.3595749466934605 -0.2042264129284082 -1.0565144337490988 2.108934125205326 2.050018942760094 -0.5200046160127103 1.1399895127138917
2.31472396851 0.3595749466934605 -0.2042264129284082 -1.0565144337490988 2.108934125205326 2.050018942760094 -0.5200046160127103 1.1399895127138917
2.31472396851 0.3595749466934605 -0.2042264129284082 -1.0565144337490988 2.108934125205326 2.050018942760094 -0.5200046160127103 1.1399895127138917
2.32469797134 0.3595749466934605 -0.2042264129284082 -1.0565144337490988 2.108934125205326 2.050018942760094 -0.5200046160127103 1.1399895127138917
2.32469797134 0.3595749466934605 -0.2042264129284082 -1.0565144337490988 2.108934125205326 2.050018942760094 -0.5200046160127103 1.1399895127138917
2.33476090431 0.3595749466934605 -0.2042264129284082 -1.0565144337490988 2.108934125205326 2.050018942760094 -0.5200046160127103 1.1399895127138917
2.33476090431 0.3595749466934605 -0.2042264129284082 -1.0565144337490988 2.108934125205326 2.050018942760094 -0.5200046160127103 1.1399895127138917
2.34462380409 0.3595749466934605 -0.2042264129284082 -1.0565144337490988 2.108934125205326 2.050018942760094 -0.5200046160127103 1.1399895127138917
2.34462380409 0.3595749466934605 -0.2042264129284082 -1.0565144337490988 2.108934125205326 2.050018942760094 -0.5200046160127103 1.1399895127138917
2.35454893112 0.3595749466934605 -0.2042264129284082 -1.0565144337490988 2.108934125205326 2.050018942760094 -0.5200046160127103 1.1399895127138917
2.35454893112 0.3595749466934605 -0.2042264129284082 -1.0565144337490988 2.108934125205326 2.050018942760094 -0.5200046160127103 1.1399895127138917
2.36457586288 0.3595749466934605 -0.2042264129284082 -1.0565144337490988 2.108934125205326 2.050018942760094 -0.5200046160127103 1.1399895127138917
2.36457586288 0.3595749466934605 -0.2042264129284082 -1.0565144337490988 2.108934125205326 2.050018942760094 -0.5200046160127103 1.1399895127138917
2.37457489967 0.3595749466934605 -0.2042264129284082 -1.0565144337490988 2.108934125205326 2.050018942760094 -0.5200046160127103 1.1399895127138917
2.37457489967 0.3595749466934605 -0.2042264129284082 -1.0565144337490988 2.108934125205326 2.050018942760094 -0.5200046160127103 1.1399895127138917
2.38472390175 0.3595749466934605 -0.2042264129284082 -1.0565144337490988 2.108934125205326 2.050018942760094 -0.5200046160127103 1.1399895127138917
2.38472390175 0.3595749466934605 -0.2042264129284082 -1.0565144337490988 2.108934125205326 2.050018942760094 -0.5200046160127103 1.1399895127138917
2.39475393295 0.3595749466934605 -0.2042264129284082 -1.0565144337490988 2.108934125205326 2.050018942760094 -0.5200046160127103 1.1399895127138917
2.39475393295 0.3595749466934605 -0.2042264129284082 -1.0565144337490988 2.108934125205326 2.050018942760094 -0.5200046160127103 1.1399895127138917
2.40479397774 0.3595749466934605 -0.2042264129284082 -1.0565144337490988 2.108934125205326 2.050018942760094 -0.5200046160127103 1.1399895127138917
2.40479397774 0.3595749466934605 -0.2042264129284082 -1.0565144337490988 2.108934125205326 2.050018942760094 -0.5200046160127103 1.1399895127138917
2.41473984718 0.3595749466934605 -0.2042264129284082 -1.0565144337490988 2.108934125205326 2.050018942760094 -0.5200046160127103 1.1399895127138917
2.41473984718 0.3595749466934605 -0.2042264129284082 -1.0565144337490988 2.108934125205326 2.050018942760094 -0.5200046160127103 1.1399895127138917
2.4247739315 0.3595749466934605 -0.2042264129284082 -1.0565144337490988 2.108934125205326 2.050018942760094 -0.5200046160127103 1.1399895127138917
2.4247739315 0.3595749466934605 -0.2042264129284082 -1.0565144337490988 2.108934125205326 2.050018942760094 -0.5200046160127103 1.1399895127138917
2.43463802338 0.3595749466934605 -0.2042264129284082 -1.0565144337490988 2.108934125205326 2.050018942760094 -0.5200046160127103 1.1399895127138917
2.43463802338 0.3595749466934605 -0.2042264129284082 -1.0565144337490988 2.108934125205326 2.050018942760094 -0.5200046160127103 1.1399895127138917
2.4446709156 0.3595749466934605 -0.2042264129284082 -1.0565144337490988 2.108934125205326 2.050018942760094 -0.5200046160127103 1.1399895127138917
2.4446709156 0.3595749466934605 -0.2042264129284082 -1.0565144337490988 2.108934125205326 2.050018942760094 -0.5200046160127103 1.1399895127138917
2.45477390289 0.3595749466934605 -0.2042264129284082 -1.0565144337490988 2.108934125205326 2.050018942760094 -0.5200046160127103 1.1399895127138917
2.45477390289 0.3595749466934605 -0.2042264129284082 -1.0565144337490988 2.108934125205326 2.050018942760094 -0.5200046160127103 1.1399895127138917
2.46466183662 0.3595749466934605 -0.2042264129284082 -1.0565144337490988 2.108934125205326 2.050018942760094 -0.5200046160127103 1.1399895127138917
2.46466183662 0.3595749466934605 -0.2042264129284082 -1.0565144337490988 2.108934125205326 2.050018942760094 -0.5200046160127103 1.1399895127138917
2.47473883629 0.3595749466934605 -0.2042264129284082 -1.0565144337490988 2.108934125205326 2.050018942760094 -0.5200046160127103 1.1399895127138917
2.47473883629 0.3595749466934605 -0.2042264129284082 -1.0565144337490988 2.108934125205326 2.050018942760094 -0.5200046160127103 1.1399895127138917
2.48478484154 0.3595749466934605 -0.2042264129284082 -1.0565144337490988 2.108934125205326 2.050018942760094 -0.5200046160127103 1.1399895127138917
2.48478484154 0.3595749466934605 -0.2042264129284082 -1.0565144337490988 2.108934125205326 2.050018942760094 -0.5200046160127103 1.1399895127138917
2.49471998215 0.3595749466934605 -0.2042264129284082 -1.0565144337490988 2.108934125205326 2.050018942760094 -0.5200046160127103 1.1399895127138917
2.49471998215 0.3595749466934605 -0.2042264129284082 -1.0565144337490988 2.108934125205326 2.050018942760094 -0.5200046160127103 1.1399895127138917
2.50466799736 0.3595749466934605 -0.2042264129284082 -1.0565144337490988 2.108934125205326 2.050018942760094 -0.5200046160127103 1.1399895127138917
2.50466799736 0.3595749466934605 -0.2042264129284082 -1.0565144337490988 2.108934125205326 2.050018942760094 -0.5200046160127103 1.1399895127138917
2.5147819519 0.3595749466934605 -0.2042264129284082 -1.0565144337490988 2.108934125205326 2.050018942760094 -0.5200046160127103 1.1399895127138917
2.5147819519 0.3595749466934605 -0.2042264129284082 -1.0565144337490988 2.108934125205326 2.050018942760094 -0.5200046160127103 1.1399895127138917
2.52475881577 0.3595749466934605 -0.2042264129284082 -1.0565144337490988 2.108934125205326 2.050018942760094 -0.5200046160127103 1.1399895127138917
2.52475881577 0.3595749466934605 -0.2042264129284082 -1.0565144337490988 2.108934125205326 2.050018942760094 -0.5200046160127103 1.1399895127138917
2.53474879265 0.3595749466934605 -0.2042264129284082 -1.0565144337490988 2.108934125205326 2.050018942760094 -0.5200046160127103 1.1399895127138917
2.53474879265 0.3595749466934605 -0.2042264129284082 -1.0565144337490988 2.108934125205326 2.050018942760094 -0.5200046160127103 1.1399895127138917
2.54466080666 0.3595749466934605 -0.2042264129284082 -1.0565144337490988 2.108934125205326 2.050018942760094 -0.5200046160127103 1.1399895127138917
2.54466080666 0.3595749466934605 -0.2042264129284082 -1.0565144337490988 2.108934125205326 2.050018942760094 -0.5200046160127103 1.1399895127138917
2.55476689339 0.3595749466934605 -0.2042264129284082 -1.0565144337490988 2.108934125205326 2.050018942760094 -0.5200046160127103 1.1399895127138917
2.55476689339 0.3595749466934605 -0.2042264129284082 -1.0565144337490988 2.108934125205326 2.050018942760094 -0.5200046160127103 1.1399895127138917
2.56465101242 0.3595749466934605 -0.2042264129284082 -1.0565144337490988 2.108934125205326 2.050018942760094 -0.5200046160127103 1.1399895127138917
2.56465101242 0.3595749466934605 -0.2042264129284082 -1.0565144337490988 2.108934125205326 2.050018942760094 -0.5200046160127103 1.1399895127138917
2.57458591461 0.3595749466934605 -0.2042264129284082 -1.0565144337490988 2.108934125205326 2.050018942760094 -0.5200046160127103 1.1399895127138917
2.57458591461 0.3595749466934605 -0.2042264129284082 -1.0565144337490988 2.108934125205326 2.050018942760094 -0.5200046160127103 1.1399895127138917
2.58447384834 0.3595749466934605 -0.2042264129284082 -1.0565144337490988 2.108934125205326 2.050018942760094 -0.5200046160127103 1.1399895127138917
2.58447384834 0.3595749466934605 -0.2042264129284082 -1.0565144337490988 2.108934125205326 2.050018942760094 -0.5200046160127103 1.1399895127138917
2.59473586082 0.3595749466934605 -0.2042264129284082 -1.0565144337490988 2.108934125205326 2.050018942760094 -0.5200046160127103 1.1399895127138917
2.59473586082 0.3595749466934605 -0.2042264129284082 -1.0565144337490988 2.108934125205326 2.050018942760094 -0.5200046160127103 1.1399895127138917
2.60451793671 0.3595749466934605 -0.2042264129284082 -1.0565144337490988 2.108934125205326 2.050018942760094 -0.5200046160127103 1.1399895127138917
2.60451793671 0.3595749466934605 -0.2042264129284082 -1.0565144337490988 2.108934125205326 2.050018942760094 -0.5200046160127103 1.1399895127138917
2.61467885971 0.3595749466934605 -0.2042264129284082 -1.0565144337490988 2.108934125205326 2.050018942760094 -0.5200046160127103 1.1399895127138917
2.61467885971 0.3595749466934605 -0.2042264129284082 -1.0565144337490988 2.108934125205326 2.050018942760094 -0.5200046160127103 1.1399895127138917
2.62467694283 0.3595749466934605 -0.2042264129284082 -1.0565144337490988 2.108934125205326 2.050018942760094 -0.5200046160127103 1.1399895127138917
2.62467694283 0.3595749466934605 -0.2042264129284082 -1.0565144337490988 2.108934125205326 2.050018942760094 -0.5200046160127103 1.1399895127138917
2.63455891609 0.3595749466934605 -0.2042264129284082 -1.0565144337490988 2.108934125205326 2.050018942760094 -0.5200046160127103 1.1399895127138917
2.63455891609 0.3595749466934605 -0.2042264129284082 -1.0565144337490988 2.108934125205326 2.050018942760094 -0.5200046160127103 1.1399895127138917
2.64461278915 0.3595749466934605 -0.2042264129284082 -1.0565144337490988 2.108934125205326 2.050018942760094 -0.5200046160127103 1.1399895127138917
2.64461278915 0.3595749466934605 -0.2042264129284082 -1.0565144337490988 2.108934125205326 2.050018942760094 -0.5200046160127103 1.1399895127138917
2.65450596809 0.3595749466934605 -0.2042264129284082 -1.0565144337490988 2.108934125205326 2.050018942760094 -0.5200046160127103 1.1399895127138917
2.65450596809 0.3595749466934605 -0.2042264129284082 -1.0565144337490988 2.108934125205326 2.050018942760094 -0.5200046160127103 1.1399895127138917
2.66460490227 0.3595749466934605 -0.2042264129284082 -1.0565144337490988 2.108934125205326 2.050018942760094 -0.5200046160127103 1.1399895127138917
2.66460490227 0.3595749466934605 -0.2042264129284082 -1.0565144337490988 2.108934125205326 2.050018942760094 -0.5200046160127103 1.1399895127138917
2.67472100258 0.3595749466934605 -0.2042264129284082 -1.0565144337490988 2.108934125205326 2.050018942760094 -0.5200046160127103 1.1399895127138917
2.67472100258 0.3595749466934605 -0.2042264129284082 -1.0565144337490988 2.108934125205326 2.050018942760094 -0.5200046160127103 1.1399895127138917
2.6846139431 0.3595749466934605 -0.2042264129284082 -1.0565144337490988 2.108934125205326 2.050018942760094 -0.5200046160127103 1.1399895127138917
2.6846139431 0.3595749466934605 -0.2042264129284082 -1.0565144337490988 2.108934125205326 2.050018942760094 -0.5200046160127103 1.1399895127138917
2.69451880455 0.3595749466934605 -0.2042264129284082 -1.0565144337490988 2.108934125205326 2.050018942760094 -0.5200046160127103 1.1399895127138917
2.69451880455 0.3595749466934605 -0.2042264129284082 -1.0565144337490988 2.108934125205326 2.050018942760094 -0.5200046160127103 1.1399895127138917
2.70464396477 0.3595749466934605 -0.2042264129284082 -1.0565144337490988 2.108934125205326 2.050018942760094 -0.5200046160127103 1.1399895127138917
2.70464396477 0.3595749466934605 -0.2042264129284082 -1.0565144337490988 2.108934125205326 2.050018942760094 -0.5200046160127103 1.1399895127138917
2.71461081505 0.3595749466934605 -0.2042264129284082 -1.0565144337490988 2.108934125205326 2.050018942760094 -0.5200046160127103 1.1399895127138917
2.71461081505 0.3595749466934605 -0.2042264129284082 -1.0565144337490988 2.108934125205326 2.050018942760094 -0.5200046160127103 1.1399895127138917
2.72462081909 0.3595749466934605 -0.2042264129284082 -1.0565144337490988 2.108934125205326 2.050018942760094 -0.5200046160127103 1.1399895127138917
2.72462081909 0.3595749466934605 -0.2042264129284082 -1.0565144337490988 2.108934125205326 2.050018942760094 -0.5200046160127103 1.1399895127138917
2.73468399048 0.3595749466934605 -0.2042264129284082 -1.0565144337490988 2.108934125205326 2.050018942760094 -0.5200046160127103 1.1399895127138917
2.73468399048 0.3595749466934605 -0.2042264129284082 -1.0565144337490988 2.108934125205326 2.050018942760094 -0.5200046160127103 1.1399895127138917
2.74467301369 0.3595749466934605 -0.2042264129284082 -1.0565144337490988 2.108934125205326 2.050018942760094 -0.5200046160127103 1.1399895127138917
2.74467301369 0.3595749466934605 -0.2042264129284082 -1.0565144337490988 2.108934125205326 2.050018942760094 -0.5200046160127103 1.1399895127138917
2.75458288193 0.3595749466934605 -0.2042264129284082 -1.0565144337490988 2.108934125205326 2.050018942760094 -0.5200046160127103 1.1399895127138917
2.75458288193 0.3595749466934605 -0.2042264129284082 -1.0565144337490988 2.108934125205326 2.050018942760094 -0.5200046160127103 1.1399895127138917
2.7646009922 0.3595749466934605 -0.2042264129284082 -1.0565144337490988 2.108934125205326 2.050018942760094 -0.5200046160127103 1.1399895127138917
2.7646009922 0.3595749466934605 -0.2042264129284082 -1.0565144337490988 2.108934125205326 2.050018942760094 -0.5200046160127103 1.1399895127138917
2.77457380295 0.3595749466934605 -0.2042264129284082 -1.0565144337490988 2.108934125205326 2.050018942760094 -0.5200046160127103 1.1399895127138917
2.77457380295 0.3595749466934605 -0.2042264129284082 -1.0565144337490988 2.108934125205326 2.050018942760094 -0.5200046160127103 1.1399895127138917
2.78459882736 0.3595749466934605 -0.2042264129284082 -1.0565144337490988 2.108934125205326 2.050018942760094 -0.5200046160127103 1.1399895127138917
2.78459882736 0.3595749466934605 -0.2042264129284082 -1.0565144337490988 2.108934125205326 2.050018942760094 -0.5200046160127103 1.1399895127138917
2.79469585419 0.3595749466934605 -0.2042264129284082 -1.0565144337490988 2.108934125205326 2.050018942760094 -0.5200046160127103 1.1399895127138917
2.79469585419 0.3595749466934605 -0.2042264129284082 -1.0565144337490988 2.108934125205326 2.050018942760094 -0.5200046160127103 1.1399895127138917
2.8045167923 0.3595749466934605 -0.2042264129284082 -1.0565144337490988 2.108934125205326 2.050018942760094 -0.5200046160127103 1.1399895127138917
2.8045167923 0.3595749466934605 -0.2042264129284082 -1.0565144337490988 2.108934125205326 2.050018942760094 -0.5200046160127103 1.1399895127138917
2.81467294693 0.3595749466934605 -0.2042264129284082 -1.0565144337490988 2.108934125205326 2.050018942760094 -0.5200046160127103 1.1399895127138917
2.81467294693 0.3595749466934605 -0.2042264129284082 -1.0565144337490988 2.108934125205326 2.050018942760094 -0.5200046160127103 1.1399895127138917
2.82452297211 0.3595749466934605 -0.2042264129284082 -1.0565144337490988 2.108934125205326 2.050018942760094 -0.5200046160127103 1.1399895127138917
2.82452297211 0.3595749466934605 -0.2042264129284082 -1.0565144337490988 2.108934125205326 2.050018942760094 -0.5200046160127103 1.1399895127138917
2.83468198776 0.3595749466934605 -0.2042264129284082 -1.0565144337490988 2.108934125205326 2.050018942760094 -0.5200046160127103 1.1399895127138917
2.83468198776 0.3595749466934605 -0.2042264129284082 -1.0565144337490988 2.108934125205326 2.050018942760094 -0.5200046160127103 1.1399895127138917
2.84463381767 0.3595749466934605 -0.2042264129284082 -1.0565144337490988 2.108934125205326 2.050018942760094 -0.5200046160127103 1.1399895127138917
2.84463381767 0.3595749466934605 -0.2042264129284082 -1.0565144337490988 2.108934125205326 2.050018942760094 -0.5200046160127103 1.1399895127138917
2.85459280014 0.3595749466934605 -0.2042264129284082 -1.0565144337490988 2.108934125205326 2.050018942760094 -0.5200046160127103 1.1399895127138917
2.85459280014 0.3595749466934605 -0.2042264129284082 -1.0565144337490988 2.108934125205326 2.050018942760094 -0.5200046160127103 1.1399895127138917
2.86459898949 0.3595749466934605 -0.2042264129284082 -1.0565144337490988 2.108934125205326 2.050018942760094 -0.5200046160127103 1.1399895127138917
2.86459898949 0.3595749466934605 -0.2042264129284082 -1.0565144337490988 2.108934125205326 2.050018942760094 -0.5200046160127103 1.1399895127138917
2.8747189045 0.3595749466934605 -0.2042264129284082 -1.0565144337490988 2.108934125205326 2.050018942760094 -0.5200046160127103 1.1399895127138917
2.8747189045 0.3595749466934605 -0.2042264129284082 -1.0565144337490988 2.108934125205326 2.050018942760094 -0.5200046160127103 1.1399895127138917
2.88463497162 0.3595749466934605 -0.2042264129284082 -1.0565144337490988 2.108934125205326 2.050018942760094 -0.5200046160127103 1.1399895127138917
2.88463497162 0.3595749466934605 -0.2042264129284082 -1.0565144337490988 2.108934125205326 2.050018942760094 -0.5200046160127103 1.1399895127138917
2.89462089539 0.3595749466934605 -0.2042264129284082 -1.0565144337490988 2.108934125205326 2.050018942760094 -0.5200046160127103 1.1399895127138917
2.89462089539 0.3595749466934605 -0.2042264129284082 -1.0565144337490988 2.108934125205326 2.050018942760094 -0.5200046160127103 1.1399895127138917
2.90463995934 0.3595749466934605 -0.2042264129284082 -1.0565144337490988 2.108934125205326 2.050018942760094 -0.5200046160127103 1.1399895127138917
2.90463995934 0.3595749466934605 -0.2042264129284082 -1.0565144337490988 2.108934125205326 2.050018942760094 -0.5200046160127103 1.1399895127138917
2.91457796097 0.3595749466934605 -0.2042264129284082 -1.0565144337490988 2.108934125205326 2.050018942760094 -0.5200046160127103 1.1399895127138917
2.91457796097 0.3595749466934605 -0.2042264129284082 -1.0565144337490988 2.108934125205326 2.050018942760094 -0.5200046160127103 1.1399895127138917
2.92446899414 0.3595749466934605 -0.2042264129284082 -1.0565144337490988 2.108934125205326 2.050018942760094 -0.5200046160127103 1.1399895127138917
2.92446899414 0.3595749466934605 -0.2042264129284082 -1.0565144337490988 2.108934125205326 2.050018942760094 -0.5200046160127103 1.1399895127138917
2.93464279175 0.3595749466934605 -0.2042264129284082 -1.0565144337490988 2.108934125205326 2.050018942760094 -0.5200046160127103 1.1399895127138917
2.93464279175 0.3595749466934605 -0.2042264129284082 -1.0565144337490988 2.108934125205326 2.050018942760094 -0.5200046160127103 1.1399895127138917
2.94464683533 0.3595749466934605 -0.2042264129284082 -1.0565144337490988 2.108934125205326 2.050018942760094 -0.5200046160127103 1.1399895127138917
2.94464683533 0.3595749466934605 -0.2042264129284082 -1.0565144337490988 2.108934125205326 2.050018942760094 -0.5200046160127103 1.1399895127138917
2.95470881462 0.3595749466934605 -0.2042264129284082 -1.0565144337490988 2.108934125205326 2.050018942760094 -0.5200046160127103 1.1399895127138917
2.95470881462 0.3595749466934605 -0.2042264129284082 -1.0565144337490988 2.108934125205326 2.050018942760094 -0.5200046160127103 1.1399895127138917
2.96479797363 0.3595749466934605 -0.2042264129284082 -1.0565144337490988 2.108934125205326 2.050018942760094 -0.5200046160127103 1.1399895127138917
2.96479797363 0.3595749466934605 -0.2042264129284082 -1.0565144337490988 2.108934125205326 2.050018942760094 -0.5200046160127103 1.1399895127138917
2.9747300148 0.3595749466934605 -0.2042264129284082 -1.0565144337490988 2.108934125205326 2.050018942760094 -0.5200046160127103 1.1399895127138917
2.9747300148 0.3595749466934605 -0.2042264129284082 -1.0565144337490988 2.108934125205326 2.050018942760094 -0.5200046160127103 1.1399895127138917
2.98469901085 0.3595749466934605 -0.2042264129284082 -1.0565144337490988 2.108934125205326 2.050018942760094 -0.5200046160127103 1.1399895127138917
2.98469901085 0.3595749466934605 -0.2042264129284082 -1.0565144337490988 2.108934125205326 2.050018942760094 -0.5200046160127103 1.1399895127138917
2.9947309494 0.3595749466934605 -0.2042264129284082 -1.0565144337490988 2.108934125205326 2.050018942760094 -0.5200046160127103 1.1399895127138917
2.9947309494 0.3595749466934605 -0.2042264129284082 -1.0565144337490988 2.108934125205326 2.050018942760094 -0.5200046160127103 1.1399895127138917
3.00467395782 0.3595749466934605 -0.2042264129284082 -1.0565144337490988 2.108934125205326 2.050018942760094 -0.5200046160127103 1.1399895127138917
3.00467395782 0.3595749466934605 -0.2042264129284082 -1.0565144337490988 2.108934125205326 2.050018942760094 -0.5200046160127103 1.1399895127138917
3.01471996307 0.3595749466934605 -0.2042264129284082 -1.0565144337490988 2.108934125205326 2.050018942760094 -0.5200046160127103 1.1399895127138917
3.01471996307 0.3595749466934605 -0.2042264129284082 -1.0565144337490988 2.108934125205326 2.050018942760094 -0.5200046160127103 1.1399895127138917
3.02461695671 0.3595749466934605 -0.2042264129284082 -1.0565144337490988 2.108934125205326 2.050018942760094 -0.5200046160127103 1.1399895127138917
3.02461695671 0.3595749466934605 -0.2042264129284082 -1.0565144337490988 2.108934125205326 2.050018942760094 -0.5200046160127103 1.1399895127138917
3.03445196152 0.3595749466934605 -0.2042264129284082 -1.0565144337490988 2.108934125205326 2.050018942760094 -0.5200046160127103 1.1399895127138917
3.03445196152 0.3595749466934605 -0.2042264129284082 -1.0565144337490988 2.108934125205326 2.050018942760094 -0.5200046160127103 1.1399895127138917
3.04458999634 0.3595749466934605 -0.2042264129284082 -1.0565144337490988 2.108934125205326 2.050018942760094 -0.5200046160127103 1.1399895127138917
3.04458999634 0.3595749466934605 -0.2042264129284082 -1.0565144337490988 2.108934125205326 2.050018942760094 -0.5200046160127103 1.1399895127138917
3.05472397804 0.3595749466934605 -0.2042264129284082 -1.0565144337490988 2.108934125205326 2.050018942760094 -0.5200046160127103 1.1399895127138917
3.05472397804 0.3595749466934605 -0.2042264129284082 -1.0565144337490988 2.108934125205326 2.050018942760094 -0.5200046160127103 1.1399895127138917
3.0646238327 0.3595749466934605 -0.2042264129284082 -1.0565144337490988 2.108934125205326 2.050018942760094 -0.5200046160127103 1.1399895127138917
3.0646238327 0.3595749466934605 -0.2042264129284082 -1.0565144337490988 2.108934125205326 2.050018942760094 -0.5200046160127103 1.1399895127138917
3.07471084595 0.3595749466934605 -0.2042264129284082 -1.0565144337490988 2.108934125205326 2.050018942760094 -0.5200046160127103 1.1399895127138917
3.07471084595 0.3595749466934605 -0.2042264129284082 -1.0565144337490988 2.108934125205326 2.050018942760094 -0.5200046160127103 1.1399895127138917
3.08458590508 0.3595749466934605 -0.2042264129284082 -1.0565144337490988 2.108934125205326 2.050018942760094 -0.5200046160127103 1.1399895127138917
3.08458590508 0.3595749466934605 -0.2042264129284082 -1.0565144337490988 2.108934125205326 2.050018942760094 -0.5200046160127103 1.1399895127138917
3.09469079971 0.3595749466934605 -0.2042264129284082 -1.0565144337490988 2.108934125205326 2.050018942760094 -0.5200046160127103 1.1399895127138917
3.09469079971 0.3595749466934605 -0.2042264129284082 -1.0565144337490988 2.108934125205326 2.050018942760094 -0.5200046160127103 1.1399895127138917
3.10463285446 0.3595749466934605 -0.2042264129284082 -1.0565144337490988 2.108934125205326 2.050018942760094 -0.5200046160127103 1.1399895127138917
3.10463285446 0.3595749466934605 -0.2042264129284082 -1.0565144337490988 2.108934125205326 2.050018942760094 -0.5200046160127103 1.1399895127138917
3.11477279663 0.3595749466934605 -0.2042264129284082 -1.0565144337490988 2.108934125205326 2.050018942760094 -0.5200046160127103 1.1399895127138917
3.11477279663 0.3595749466934605 -0.2042264129284082 -1.0565144337490988 2.108934125205326 2.050018942760094 -0.5200046160127103 1.1399895127138917
3.12466692924 0.3595749466934605 -0.2042264129284082 -1.0565144337490988 2.108934125205326 2.050018942760094 -0.5200046160127103 1.1399895127138917
3.12466692924 0.3595749466934605 -0.2042264129284082 -1.0565144337490988 2.108934125205326 2.050018942760094 -0.5200046160127103 1.1399895127138917
3.13471889496 0.3595749466934605 -0.2042264129284082 -1.0565144337490988 2.108934125205326 2.050018942760094 -0.5200046160127103 1.1399895127138917
3.13471889496 0.3595749466934605 -0.2042264129284082 -1.0565144337490988 2.108934125205326 2.050018942760094 -0.5200046160127103 1.1399895127138917
3.14452195168 0.3595749466934605 -0.2042264129284082 -1.0565144337490988 2.108934125205326 2.050018942760094 -0.5200046160127103 1.1399895127138917
3.14452195168 0.3595749466934605 -0.2042264129284082 -1.0565144337490988 2.108934125205326 2.050018942760094 -0.5200046160127103 1.1399895127138917
3.15470695496 0.3595749466934605 -0.2042264129284082 -1.0565144337490988 2.108934125205326 2.050018942760094 -0.5200046160127103 1.1399895127138917
3.15470695496 0.3595749466934605 -0.2042264129284082 -1.0565144337490988 2.108934125205326 2.050018942760094 -0.5200046160127103 1.1399895127138917
3.16454386711 0.3595749466934605 -0.2042264129284082 -1.0565144337490988 2.108934125205326 2.050018942760094 -0.5200046160127103 1.1399895127138917
3.16454386711 0.3595749466934605 -0.2042264129284082 -1.0565144337490988 2.108934125205326 2.050018942760094 -0.5200046160127103 1.1399895127138917
3.17476201057 0.3595749466934605 -0.2042264129284082 -1.0565144337490988 2.108934125205326 2.050018942760094 -0.5200046160127103 1.1399895127138917
3.17476201057 0.3595749466934605 -0.2042264129284082 -1.0565144337490988 2.108934125205326 2.050018942760094 -0.5200046160127103 1.1399895127138917
3.184664011 0.3595749466934605 -0.2042264129284082 -1.0565144337490988 2.108934125205326 2.050018942760094 -0.5200046160127103 1.1399895127138917
3.184664011 0.3595749466934605 -0.2042264129284082 -1.0565144337490988 2.108934125205326 2.050018942760094 -0.5200046160127103 1.1399895127138917
3.19451189041 0.3595749466934605 -0.2042264129284082 -1.0565144337490988 2.108934125205326 2.050018942760094 -0.5200046160127103 1.1399895127138917
3.19451189041 0.3595749466934605 -0.2042264129284082 -1.0565144337490988 2.108934125205326 2.050018942760094 -0.5200046160127103 1.1399895127138917
3.20471286774 0.3595749466934605 -0.2042264129284082 -1.0565144337490988 2.108934125205326 2.050018942760094 -0.5200046160127103 1.1399895127138917
3.20471286774 0.3595749466934605 -0.2042264129284082 -1.0565144337490988 2.108934125205326 2.050018942760094 -0.5200046160127103 1.1399895127138917
3.21473789215 0.3595749466934605 -0.2042264129284082 -1.0565144337490988 2.108934125205326 2.050018942760094 -0.5200046160127103 1.1399895127138917
3.21473789215 0.3595749466934605 -0.2042264129284082 -1.0565144337490988 2.108934125205326 2.050018942760094 -0.5200046160127103 1.1399895127138917
3.22464394569 0.3595749466934605 -0.2042264129284082 -1.0565144337490988 2.108934125205326 2.050018942760094 -0.5200046160127103 1.1399895127138917
3.22464394569 0.3595749466934605 -0.2042264129284082 -1.0565144337490988 2.108934125205326 2.050018942760094 -0.5200046160127103 1.1399895127138917
3.23474884033 0.3595749466934605 -0.2042264129284082 -1.0565144337490988 2.108934125205326 2.050018942760094 -0.5200046160127103 1.1399895127138917
3.23474884033 0.3595749466934605 -0.2042264129284082 -1.0565144337490988 2.108934125205326 2.050018942760094 -0.5200046160127103 1.1399895127138917
3.2446539402 0.3595749466934605 -0.2042264129284082 -1.0565144337490988 2.108934125205326 2.050018942760094 -0.5200046160127103 1.1399895127138917
3.2446539402 0.3595749466934605 -0.2042264129284082 -1.0565144337490988 2.108934125205326 2.050018942760094 -0.5200046160127103 1.1399895127138917
3.25480389595 0.359574946693 -0.204226412928 -1.05651443375 2.10893412521 2.04997328816 -0.520004616013 1.13998951271
3.25480389595 0.359574946693 -0.204226412928 -1.05651443375 2.10893412521 2.04997328816 -0.520004616013 1.13998951271
3.26426792145 0.3595749466934605 -0.2042264129284082 -1.0565144337490988 2.108934125205326 2.050028073679212 -0.5200046160127103 1.1399895127138917
3.26426792145 0.3595749466934605 -0.2042264129284082 -1.0565144337490988 2.108934125205326 2.050028073679212 -0.5200046160127103 1.1399895127138917
3.27429795265 0.3595749466934605 -0.2042264129284082 -1.0565144337490988 2.108934125205326 2.0500006809218574 -0.5200046160127103 1.1399895127138917
3.27429795265 0.3595749466934605 -0.2042264129284082 -1.0565144337490988 2.108934125205326 2.0500006809218574 -0.5200046160127103 1.1399895127138917
3.28429698944 0.359574946693 -0.204226412928 -1.05651443375 2.10891878519 2.05000068092 -0.520004616013 1.13998951271
3.28429698944 0.3595749466934605 -0.2042264129284082 -1.0565144337490988 2.108918785193975 2.0500006809218574 -0.5200046160127103 1.1399895127138917
3.29433584213 0.3595749466934605 -0.2042264129284082 -1.0565144337490988 2.108918785193975 2.0500006809218574 -0.5200046160127103 1.1399895127138917
3.29433584213 0.3595749466934605 -0.2042264129284082 -1.0565144337490988 2.108918785193975 2.0500006809218574 -0.5200046160127103 1.1399895127138917
3.30428195 0.3595749466934605 -0.2042264129284082 -1.0565144337490988 2.108918785193975 2.0500006809218574 -0.5200046160127103 1.1399895127138917
3.30428195 0.3595749466934605 -0.2042264129284082 -1.0565144337490988 2.108918785193975 2.0500006809218574 -0.5200046160127103 1.1399895127138917
3.3143248558 0.3595749466934605 -0.2042264129284082 -1.0566371538399115 2.108918785193975 2.0500006809218574 -0.5200046160127103 1.1399895127138917
3.3143248558 0.3595749466934605 -0.2042264129284082 -1.0566371538399115 2.108918785193975 2.0500006809218574 -0.5200046160127103 1.1399895127138917
3.32424497604 0.3595749466934605 -0.2042264129284082 -1.0566371538399115 2.108918785193975 2.0500006809218574 -0.5200046160127103 1.1399895127138917
3.32424497604 0.3595749466934605 -0.2042264129284082 -1.0566371538399115 2.108918785193975 2.0500006809218574 -0.5200046160127103 1.1399895127138917
3.3346529007 0.3595749466934605 -0.2042264129284082 -1.0566371538399115 2.108918785193975 2.0500006809218574 -0.5200046160127103 1.1399895127138917
3.3346529007 0.3595749466934605 -0.2042264129284082 -1.0566371538399115 2.108918785193975 2.0500006809218574 -0.5200046160127103 1.1399895127138917
3.34464383125 0.3595749466934605 -0.2041343728602985 -1.065473000378438 2.1094556855912807 2.0499824190836207 -0.5200046160127103 1.1399895127138917
3.34464383125 0.3595749466934605 -0.2041343728602985 -1.065473000378438 2.1094556855912807 2.0499824190836207 -0.5200046160127103 1.1399895127138917
3.35472893715 0.3595749466934605 -0.2041343728602985 -1.065473000378438 2.1094556855912807 2.0499824190836207 -0.5200046160127103 1.1399895127138917
3.35472893715 0.3595749466934605 -0.2041343728602985 -1.065473000378438 2.1094556855912807 2.0499824190836207 -0.5200046160127103 1.1399895127138917
3.36432981491 0.3595749466934605 -0.2040423327921889 -1.0720078452142232 2.1105448263972453 2.050028073679212 -0.5200046160127103 1.1399895127138917
3.36432981491 0.3595749466934605 -0.2040423327921889 -1.0720078452142232 2.1105448263972453 2.050028073679212 -0.5200046160127103 1.1399895127138917
3.37468981743 0.3595749466934605 -0.2040423327921889 -1.0720078452142232 2.1105448263972453 2.050028073679212 -0.5200046160127103 1.1399895127138917
3.37468981743 0.3595749466934605 -0.2040423327921889 -1.0720078452142232 2.1105448263972453 2.050028073679212 -0.5200046160127103 1.1399895127138917
3.38471293449 0.3595749466934605 -0.2040423327921889 -1.0720078452142232 2.1105448263972453 2.050028073679212 -0.5200046160127103 1.1399895127138917
3.38471293449 0.3595749466934605 -0.2040423327921889 -1.0720078452142232 2.1105448263972453 2.050028073679212 -0.5200046160127103 1.1399895127138917
3.39432787895 0.3595749466934605 -0.2038582526559695 -1.0760576082110478 2.111695327248616 2.050028073679212 -0.5200046160127103 1.1399895127138917
3.39432787895 0.3595749466934605 -0.2038582526559695 -1.0760576082110478 2.111695327248616 2.050028073679212 -0.5200046160127103 1.1399895127138917
3.40468382835 0.3624435288162113 -0.0983343145682553 -1.2558732212746015 2.2233092498429183 2.0502106920615786 -0.5200046160127103 1.1399895127138917
3.40468382835 0.3624435288162113 -0.0983343145682553 -1.2558732212746015 2.2233092498429183 2.0502106920615786 -0.5200046160127103 1.1399895127138917
3.41442990303 0.3624435288162113 -0.0941004714352114 -1.259969004305481 2.2233092498429183 2.0501193828703954 -0.5200046160127103 1.1399895127138917
3.41442990303 0.3624435288162113 -0.0941004714352114 -1.259969004305481 2.2233092498429183 2.0501193828703954 -0.5200046160127103 1.1399895127138917
3.4242978096 0.3624435288162113 -0.0774565591187163 -1.27560047587277 2.2233092498429183 2.0503841795248268 -0.5200046160127103 1.1399895127138917
3.4242978096 0.3624435288162113 -0.0774565591187163 -1.27560047587277 2.2233092498429183 2.0503841795248268 -0.5200046160127103 1.1399895127138917
3.43465089798 0.3624435288162113 -0.0774565591187163 -1.27560047587277 2.2233092498429183 2.0503841795248268 -0.5200046160127103 1.1399895127138917
3.43465089798 0.3624435288162113 -0.0774565591187163 -1.27560047587277 2.2233092498429183 2.0503841795248268 -0.5200046160127103 1.1399895127138917
3.44474983215 0.3624435288162113 -0.0620858677444047 -1.3000217739445306 2.2233092498429183 2.05036591768659 -0.5200046160127103 1.1399895127138917
3.44474983215 0.3624435288162113 -0.0620858677444047 -1.3000217739445306 2.2233092498429183 2.05036591768659 -0.5200046160127103 1.1399895127138917
3.45449590683 0.3624435288162113 -0.0620858677444047 -1.3000217739445306 2.2233092498429183 2.05036591768659 -0.5200046160127103 1.1399895127138917
3.45449590683 0.3624435288162113 -0.0620858677444047 -1.3000217739445306 2.2233092498429183 2.05036591768659 -0.5200046160127103 1.1399895127138917
3.46652579308 0.3624435288162113 -0.0592479656443572 -1.3054674779743514 2.2233092498429183 2.050183299304224 -0.5200046160127103 1.1399895127138917
3.46652579308 0.3624435288162113 -0.0592479656443572 -1.3054674779743514 2.2233092498429183 2.050183299304224 -0.5200046160127103 1.1399895127138917
3.47428393364 0.3624435288162113 -0.0592479656443572 -1.3054674779743514 2.2233092498429183 2.050183299304224 -0.5200046160127103 1.1399895127138917
3.47428393364 0.3624435288162113 -0.0592479656443572 -1.3054674779743514 2.2233092498429183 2.050183299304224 -0.5200046160127103 1.1399895127138917
3.48424386978 0.3624435288162113 -0.0566248237032321 -1.3108364819474143 2.2233092498429183 2.050457226877773 -0.5200046160127103 1.1399895127138917
3.48424386978 0.3624435288162113 -0.0566248237032321 -1.3108364819474143 2.2233092498429183 2.050457226877773 -0.5200046160127103 1.1399895127138917
3.49430298805 0.3624435288162113 -0.0566248237032321 -1.3108364819474143 2.2233092498429183 2.050457226877773 -0.5200046160127103 1.1399895127138917
3.49430298805 0.3624435288162113 -0.0566248237032321 -1.3108364819474143 2.2233092498429183 2.050457226877773 -0.5200046160127103 1.1399895127138917
3.50456595421 0.3624435288162113 -0.0566248237032321 -1.3108364819474143 2.2233092498429183 2.050457226877773 -0.5200046160127103 1.1399895127138917
3.50456595421 0.3624435288162113 -0.0566248237032321 -1.3108364819474143 2.2233092498429183 2.050457226877773 -0.5200046160127103 1.1399895127138917
3.51470780373 0.3624435288162113 -0.0566248237032321 -1.3108364819474143 2.2233092498429183 2.050457226877773 -0.5200046160127103 1.1399895127138917
3.51470780373 0.3624435288162113 -0.0566248237032321 -1.3108364819474143 2.2233092498429183 2.050457226877773 -0.5200046160127103 1.1399895127138917
3.52459597588 0.3624435288162113 -0.0566248237032321 -1.3108364819474143 2.2233092498429183 2.050457226877773 -0.5200046160127103 1.1399895127138917
3.52459597588 0.3624435288162113 -0.0566248237032321 -1.3108364819474143 2.2233092498429183 2.050457226877773 -0.5200046160127103 1.1399895127138917
3.53532290459 0.3624435288162113 -0.0517927201274754 -1.321896630131924 2.2233092498429183 2.050283739414525 -0.5200046160127103 1.1399895127138917
3.53532290459 0.3624435288162113 -0.0517927201274754 -1.321896630131924 2.2233092498429183 2.050283739414525 -0.5200046160127103 1.1399895127138917
3.54460000992 0.3624435288162113 -0.0517927201274754 -1.321896630131924 2.2233092498429183 2.050283739414525 -0.5200046160127103 1.1399895127138917
3.54460000992 0.3624435288162113 -0.0517927201274754 -1.321896630131924 2.2233092498429183 2.050283739414525 -0.5200046160127103 1.1399895127138917
3.55470585823 0.3624435288162113 -0.0517927201274754 -1.321896630131924 2.2233092498429183 2.050283739414525 -0.5200046160127103 1.1399895127138917
3.55470585823 0.3624435288162113 -0.0517927201274754 -1.321896630131924 2.2233092498429183 2.050283739414525 -0.5200046160127103 1.1399895127138917
3.56463599205 0.3624435288162113 -0.0517927201274754 -1.321896630131924 2.2233092498429183 2.050283739414525 -0.5200046160127103 1.1399895127138917
3.56463599205 0.3624435288162113 -0.0517927201274754 -1.321896630131924 2.2233092498429183 2.050283739414525 -0.5200046160127103 1.1399895127138917
3.5748000145 0.3624435288162113 -0.0517927201274754 -1.321896630131924 2.2233092498429183 2.050283739414525 -0.5200046160127103 1.1399895127138917
3.5748000145 0.3624435288162113 -0.0517927201274754 -1.321896630131924 2.2233092498429183 2.050283739414525 -0.5200046160127103 1.1399895127138917
3.58461594582 0.3624435288162113 -0.0517927201274754 -1.321896630131924 2.2233092498429183 2.050283739414525 -0.5200046160127103 1.1399895127138917
3.58461594582 0.3624435288162113 -0.0517927201274754 -1.321896630131924 2.2233092498429183 2.050283739414525 -0.5200046160127103 1.1399895127138917
3.59470391273 0.3624435288162113 -0.0517927201274754 -1.321896630131924 2.2233092498429183 2.050283739414525 -0.5200046160127103 1.1399895127138917
3.59470391273 0.3624435288162113 -0.0517927201274754 -1.321896630131924 2.2233092498429183 2.050283739414525 -0.5200046160127103 1.1399895127138917
3.60462379456 0.3624435288162113 -0.0517927201274754 -1.321896630131924 2.2233092498429183 2.050283739414525 -0.5200046160127103 1.1399895127138917
3.60462379456 0.3624435288162113 -0.0517927201274754 -1.321896630131924 2.2233092498429183 2.050283739414525 -0.5200046160127103 1.1399895127138917
3.61462783813 0.3624435288162113 -0.0517927201274754 -1.321896630131924 2.2233092498429183 2.050283739414525 -0.5200046160127103 1.1399895127138917
3.61462783813 0.3624435288162113 -0.0517927201274754 -1.321896630131924 2.2233092498429183 2.050283739414525 -0.5200046160127103 1.1399895127138917
3.62464880943 0.3624435288162113 -0.0517927201274754 -1.321896630131924 2.2233092498429183 2.050283739414525 -0.5200046160127103 1.1399895127138917
3.62464880943 0.3624435288162113 -0.0517927201274754 -1.321896630131924 2.2233092498429183 2.050283739414525 -0.5200046160127103 1.1399895127138917
3.63481998444 0.3624435288162113 -0.0517927201274754 -1.321896630131924 2.2233092498429183 2.050283739414525 -0.5200046160127103 1.1399895127138917
3.63481998444 0.3624435288162113 -0.0517927201274754 -1.321896630131924 2.2233092498429183 2.050283739414525 -0.5200046160127103 1.1399895127138917
3.64453697205 0.3624435288162113 -0.0517927201274754 -1.321896630131924 2.2233092498429183 2.050283739414525 -0.5200046160127103 1.1399895127138917
3.64453697205 0.3624435288162113 -0.0517927201274754 -1.321896630131924 2.2233092498429183 2.050283739414525 -0.5200046160127103 1.1399895127138917
3.65469193459 0.3624435288162113 -0.0517927201274754 -1.321896630131924 2.2233092498429183 2.050283739414525 -0.5200046160127103 1.1399895127138917
3.65469193459 0.3624435288162113 -0.0517927201274754 -1.321896630131924 2.2233092498429183 2.050283739414525 -0.5200046160127103 1.1399895127138917
3.66473388672 0.3624435288162113 -0.0517927201274754 -1.321896630131924 2.2233092498429183 2.050283739414525 -0.5200046160127103 1.1399895127138917
3.66473388672 0.3624435288162113 -0.0517927201274754 -1.321896630131924 2.2233092498429183 2.050283739414525 -0.5200046160127103 1.1399895127138917
3.67474293709 0.3624435288162113 -0.0517927201274754 -1.321896630131924 2.2233092498429183 2.050283739414525 -0.5200046160127103 1.1399895127138917
3.67474293709 0.3624435288162113 -0.0517927201274754 -1.321896630131924 2.2233092498429183 2.050283739414525 -0.5200046160127103 1.1399895127138917
3.68463683128 0.3624435288162113 -0.0517927201274754 -1.321896630131924 2.2233092498429183 2.050283739414525 -0.5200046160127103 1.1399895127138917
3.68463683128 0.3624435288162113 -0.0517927201274754 -1.321896630131924 2.2233092498429183 2.050283739414525 -0.5200046160127103 1.1399895127138917
3.69452381134 0.3624435288162113 -0.0517927201274754 -1.321896630131924 2.2233092498429183 2.050283739414525 -0.5200046160127103 1.1399895127138917
3.69452381134 0.3624435288162113 -0.0517927201274754 -1.321896630131924 2.2233092498429183 2.050283739414525 -0.5200046160127103 1.1399895127138917
3.70471096039 0.3624435288162113 -0.0517927201274754 -1.321896630131924 2.2233092498429183 2.050283739414525 -0.5200046160127103 1.1399895127138917
3.70471096039 0.3624435288162113 -0.0517927201274754 -1.321896630131924 2.2233092498429183 2.050283739414525 -0.5200046160127103 1.1399895127138917
3.71482682228 0.3624435288162113 -0.0517927201274754 -1.321896630131924 2.2233092498429183 2.050283739414525 -0.5200046160127103 1.1399895127138917
3.71482682228 0.3624435288162113 -0.0517927201274754 -1.321896630131924 2.2233092498429183 2.050283739414525 -0.5200046160127103 1.1399895127138917
3.72464895248 0.3624435288162113 -0.0517927201274754 -1.321896630131924 2.2233092498429183 2.050283739414525 -0.5200046160127103 1.1399895127138917
3.72464895248 0.3624435288162113 -0.0517927201274754 -1.321896630131924 2.2233092498429183 2.050283739414525 -0.5200046160127103 1.1399895127138917
3.73472285271 0.3624435288162113 -0.0517927201274754 -1.321896630131924 2.2233092498429183 2.050283739414525 -0.5200046160127103 1.1399895127138917
3.73472285271 0.3624435288162113 -0.0517927201274754 -1.321896630131924 2.2233092498429183 2.050283739414525 -0.5200046160127103 1.1399895127138917
3.74478888512 0.3624435288162113 -0.0517927201274754 -1.321896630131924 2.2233092498429183 2.050283739414525 -0.5200046160127103 1.1399895127138917
3.74478888512 0.3624435288162113 -0.0517927201274754 -1.321896630131924 2.2233092498429183 2.050283739414525 -0.5200046160127103 1.1399895127138917
3.75476789474 0.3624435288162113 -0.0517927201274754 -1.321896630131924 2.2233092498429183 2.050283739414525 -0.5200046160127103 1.1399895127138917
3.75476789474 0.3624435288162113 -0.0517927201274754 -1.321896630131924 2.2233092498429183 2.050283739414525 -0.5200046160127103 1.1399895127138917
3.76468682289 0.3624435288162113 -0.0517927201274754 -1.321896630131924 2.2233092498429183 2.050283739414525 -0.5200046160127103 1.1399895127138917
3.76468682289 0.3624435288162113 -0.0517927201274754 -1.321896630131924 2.2233092498429183 2.050283739414525 -0.5200046160127103 1.1399895127138917
3.77473402023 0.3624435288162113 -0.0517927201274754 -1.321896630131924 2.2233092498429183 2.050283739414525 -0.5200046160127103 1.1399895127138917
3.77473402023 0.3624435288162113 -0.0517927201274754 -1.321896630131924 2.2233092498429183 2.050283739414525 -0.5200046160127103 1.1399895127138917
3.784678936 0.3624435288162113 -0.0517927201274754 -1.321896630131924 2.2233092498429183 2.050283739414525 -0.5200046160127103 1.1399895127138917
3.784678936 0.3624435288162113 -0.0517927201274754 -1.321896630131924 2.2233092498429183 2.050283739414525 -0.5200046160127103 1.1399895127138917
3.79453086853 0.3624435288162113 -0.0517927201274754 -1.321896630131924 2.2233092498429183 2.050283739414525 -0.5200046160127103 1.1399895127138917
3.79453086853 0.3624435288162113 -0.0517927201274754 -1.321896630131924 2.2233092498429183 2.050283739414525 -0.5200046160127103 1.1399895127138917
3.80458498001 0.3624435288162113 -0.0517927201274754 -1.321896630131924 2.2233092498429183 2.050283739414525 -0.5200046160127103 1.1399895127138917
3.80458498001 0.3624435288162113 -0.0517927201274754 -1.321896630131924 2.2233092498429183 2.050283739414525 -0.5200046160127103 1.1399895127138917
3.81457185745 0.3624435288162113 -0.0517927201274754 -1.321896630131924 2.2233092498429183 2.050283739414525 -0.5200046160127103 1.1399895127138917
3.81457185745 0.3624435288162113 -0.0517927201274754 -1.321896630131924 2.2233092498429183 2.050283739414525 -0.5200046160127103 1.1399895127138917
3.82460284233 0.3624435288162113 -0.0517927201274754 -1.321896630131924 2.2233092498429183 2.050283739414525 -0.5200046160127103 1.1399895127138917
3.82460284233 0.3624435288162113 -0.0517927201274754 -1.321896630131924 2.2233092498429183 2.050283739414525 -0.5200046160127103 1.1399895127138917
3.83474183083 0.3624435288162113 -0.0517927201274754 -1.321896630131924 2.2233092498429183 2.050283739414525 -0.5200046160127103 1.1399895127138917
3.83474183083 0.3624435288162113 -0.0517927201274754 -1.321896630131924 2.2233092498429183 2.050283739414525 -0.5200046160127103 1.1399895127138917
3.84463691711 0.3624435288162113 -0.0517927201274754 -1.321896630131924 2.2233092498429183 2.050283739414525 -0.5200046160127103 1.1399895127138917
3.84463691711 0.3624435288162113 -0.0517927201274754 -1.321896630131924 2.2233092498429183 2.050283739414525 -0.5200046160127103 1.1399895127138917
3.85472583771 0.3624435288162113 -0.0517927201274754 -1.321896630131924 2.2233092498429183 2.050283739414525 -0.5200046160127103 1.1399895127138917
3.85472583771 0.3624435288162113 -0.0517927201274754 -1.321896630131924 2.2233092498429183 2.050283739414525 -0.5200046160127103 1.1399895127138917
3.86474680901 0.3624435288162113 -0.0517927201274754 -1.321896630131924 2.2233092498429183 2.050283739414525 -0.5200046160127103 1.1399895127138917
3.86474680901 0.3624435288162113 -0.0517927201274754 -1.321896630131924 2.2233092498429183 2.050283739414525 -0.5200046160127103 1.1399895127138917
3.8747279644 0.3624435288162113 -0.0517927201274754 -1.321896630131924 2.2233092498429183 2.050283739414525 -0.5200046160127103 1.1399895127138917
3.8747279644 0.3624435288162113 -0.0517927201274754 -1.321896630131924 2.2233092498429183 2.050283739414525 -0.5200046160127103 1.1399895127138917
3.88453292847 0.3624435288162113 -0.0474361569036186 -1.3330488183845433 2.2233092498429183 2.050521143311601 -0.5200046160127103 1.1399895127138917
3.88453292847 0.3624435288162113 -0.0474361569036186 -1.3330488183845433 2.2233092498429183 2.050521143311601 -0.5200046160127103 1.1399895127138917
3.89475297928 0.3624435288162113 -0.0474361569036186 -1.3330488183845433 2.2233092498429183 2.050521143311601 -0.5200046160127103 1.1399895127138917
3.89475297928 0.3624435288162113 -0.0474361569036186 -1.3330488183845433 2.2233092498429183 2.050521143311601 -0.5200046160127103 1.1399895127138917
3.90468382835 0.3624435288162113 -0.0474361569036186 -1.3330488183845433 2.2233092498429183 2.050521143311601 -0.5200046160127103 1.1399895127138917
3.90468382835 0.3624435288162113 -0.0474361569036186 -1.3330488183845433 2.2233092498429183 2.050521143311601 -0.5200046160127103 1.1399895127138917
3.91463589668 0.3624435288162113 -0.0474361569036186 -1.3330488183845433 2.2233092498429183 2.050521143311601 -0.5200046160127103 1.1399895127138917
3.91463589668 0.3624435288162113 -0.0474361569036186 -1.3330488183845433 2.2233092498429183 2.050521143311601 -0.5200046160127103 1.1399895127138917
3.92450690269 0.3624435288162113 -0.0367595090028992 -1.3609369590217677 2.223017789627238 2.0504115722821816 -0.5200046160127103 1.1399895127138917
3.92450690269 0.3624435288162113 -0.0367595090028992 -1.3609369590217677 2.223017789627238 2.0504115722821816 -0.5200046160127103 1.1399895127138917
3.93469500542 0.3624435288162113 -0.0367595090028992 -1.3609369590217677 2.223017789627238 2.0504115722821816 -0.5200046160127103 1.1399895127138917
3.93469500542 0.3624435288162113 -0.0367595090028992 -1.3609369590217677 2.223017789627238 2.0504115722821816 -0.5200046160127103 1.1399895127138917
3.94450592995 0.3624435288162113 -0.0339829669482581 -1.3664440230969948 2.222803029468315 2.050183299304224 -0.5200046160127103 1.1399895127138917
3.94450592995 0.3624435288162113 -0.0339829669482581 -1.3664440230969948 2.222803029468315 2.050183299304224 -0.5200046160127103 1.1399895127138917
3.9545879364 0.3624435288162113 -0.0339829669482581 -1.3664440230969948 2.222803029468315 2.050183299304224 -0.5200046160127103 1.1399895127138917
3.9545879364 0.3624435288162113 -0.0339829669482581 -1.3664440230969948 2.222803029468315 2.050183299304224 -0.5200046160127103 1.1399895127138917
3.96461296082 0.3624435288162113 -0.0339829669482581 -1.3664440230969948 2.222803029468315 2.050183299304224 -0.5200046160127103 1.1399895127138917
3.96461296082 0.3624435288162113 -0.0339829669482581 -1.3664440230969948 2.222803029468315 2.050183299304224 -0.5200046160127103 1.1399895127138917
3.97468590736 0.3624435288162113 -0.0339829669482581 -1.3664440230969948 2.222803029468315 2.050183299304224 -0.5200046160127103 1.1399895127138917
3.97468590736 0.3624435288162113 -0.0339829669482581 -1.3664440230969948 2.222803029468315 2.050183299304224 -0.5200046160127103 1.1399895127138917
3.98451590538 0.3624435288162113 -0.0339829669482581 -1.3664440230969948 2.222803029468315 2.050183299304224 -0.5200046160127103 1.1399895127138917
3.98451590538 0.3624435288162113 -0.0339829669482581 -1.3664440230969948 2.222803029468315 2.050183299304224 -0.5200046160127103 1.1399895127138917
3.99468684196 0.3624435288162113 -0.0339829669482581 -1.3664440230969948 2.222803029468315 2.050183299304224 -0.5200046160127103 1.1399895127138917
3.99468684196 0.3624435288162113 -0.0339829669482581 -1.3664440230969948 2.222803029468315 2.050183299304224 -0.5200046160127103 1.1399895127138917
4.00471401215 0.3624435288162113 -0.0339829669482581 -1.3664440230969948 2.222803029468315 2.050183299304224 -0.5200046160127103 1.1399895127138917
4.00471401215 0.3624435288162113 -0.0339829669482581 -1.3664440230969948 2.222803029468315 2.050183299304224 -0.5200046160127103 1.1399895127138917
4.01473879814 0.3624435288162113 -0.0339829669482581 -1.3664440230969948 2.222803029468315 2.050183299304224 -0.5200046160127103 1.1399895127138917
4.01473879814 0.3624435288162113 -0.0339829669482581 -1.3664440230969948 2.222803029468315 2.050183299304224 -0.5200046160127103 1.1399895127138917
4.02471494675 0.3624435288162113 -0.0339829669482581 -1.3664440230969948 2.222803029468315 2.050183299304224 -0.5200046160127103 1.1399895127138917
4.02471494675 0.3624435288162113 -0.0339829669482581 -1.3664440230969948 2.222803029468315 2.050183299304224 -0.5200046160127103 1.1399895127138917
4.03461289406 0.3624435288162113 -0.0339829669482581 -1.3664440230969948 2.222803029468315 2.050183299304224 -0.5200046160127103 1.1399895127138917
4.03461289406 0.3624435288162113 -0.0339829669482581 -1.3664440230969948 2.222803029468315 2.050183299304224 -0.5200046160127103 1.1399895127138917
4.04473400116 0.3624435288162113 -0.0339829669482581 -1.3664440230969948 2.222803029468315 2.050183299304224 -0.5200046160127103 1.1399895127138917
4.04473400116 0.3624435288162113 -0.0339829669482581 -1.3664440230969948 2.222803029468315 2.050183299304224 -0.5200046160127103 1.1399895127138917
4.05461001396 0.3624435288162113 -0.0339829669482581 -1.3664440230969948 2.222803029468315 2.050183299304224 -0.5200046160127103 1.1399895127138917
4.05461001396 0.3624435288162113 -0.0339829669482581 -1.3664440230969948 2.222803029468315 2.050183299304224 -0.5200046160127103 1.1399895127138917
4.06476998329 0.3624435288162113 -0.0339829669482581 -1.3664440230969948 2.222803029468315 2.050183299304224 -0.5200046160127103 1.1399895127138917
4.06476998329 0.3624435288162113 -0.0339829669482581 -1.3664440230969948 2.222803029468315 2.050183299304224 -0.5200046160127103 1.1399895127138917
4.07473182678 0.3624435288162113 -0.0339829669482581 -1.3664440230969948 2.222803029468315 2.050183299304224 -0.5200046160127103 1.1399895127138917
4.07473182678 0.3624435288162113 -0.0339829669482581 -1.3664440230969948 2.222803029468315 2.050183299304224 -0.5200046160127103 1.1399895127138917
4.08475399017 0.3624435288162113 -0.0339829669482581 -1.3664440230969948 2.222803029468315 2.050183299304224 -0.5200046160127103 1.1399895127138917
4.08475399017 0.3624435288162113 -0.0339829669482581 -1.3664440230969948 2.222803029468315 2.050183299304224 -0.5200046160127103 1.1399895127138917
4.09474992752 0.3624435288162113 -0.0339829669482581 -1.3664440230969948 2.222803029468315 2.050183299304224 -0.5200046160127103 1.1399895127138917
4.09474992752 0.3624435288162113 -0.0339829669482581 -1.3664440230969948 2.222803029468315 2.050183299304224 -0.5200046160127103 1.1399895127138917
4.10454487801 0.3624435288162113 -0.0339829669482581 -1.3664440230969948 2.222803029468315 2.050183299304224 -0.5200046160127103 1.1399895127138917
4.10454487801 0.3624435288162113 -0.0339829669482581 -1.3664440230969948 2.222803029468315 2.050183299304224 -0.5200046160127103 1.1399895127138917
4.11472392082 0.3624435288162113 -0.0339829669482581 -1.3664440230969948 2.222803029468315 2.050183299304224 -0.5200046160127103 1.1399895127138917
4.11472392082 0.3624435288162113 -0.0339829669482581 -1.3664440230969948 2.222803029468315 2.050183299304224 -0.5200046160127103 1.1399895127138917
4.12467980385 0.3624435288162113 -0.0339829669482581 -1.3664440230969948 2.222803029468315 2.050183299304224 -0.5200046160127103 1.1399895127138917
4.12467980385 0.3624435288162113 -0.0339829669482581 -1.3664440230969948 2.222803029468315 2.050183299304224 -0.5200046160127103 1.1399895127138917
4.13479781151 0.3624435288162113 -0.0339829669482581 -1.3664440230969948 2.222803029468315 2.050183299304224 -0.5200046160127103 1.1399895127138917
4.13479781151 0.3624435288162113 -0.0339829669482581 -1.3664440230969948 2.222803029468315 2.050183299304224 -0.5200046160127103 1.1399895127138917
4.14459085464 0.3624435288162113 -0.0339829669482581 -1.3664440230969948 2.222803029468315 2.050183299304224 -0.5200046160127103 1.1399895127138917
4.14459085464 0.3624435288162113 -0.0339829669482581 -1.3664440230969948 2.222803029468315 2.050183299304224 -0.5200046160127103 1.1399895127138917
4.15453386307 0.3624435288162113 -0.0339829669482581 -1.3664440230969948 2.222803029468315 2.050183299304224 -0.5200046160127103 1.1399895127138917
4.15453386307 0.3624435288162113 -0.0339829669482581 -1.3664440230969948 2.222803029468315 2.050183299304224 -0.5200046160127103 1.1399895127138917
4.16467499733 0.3624435288162113 -0.0339829669482581 -1.3664440230969948 2.222803029468315 2.050183299304224 -0.5200046160127103 1.1399895127138917
4.16467499733 0.3624435288162113 -0.0339829669482581 -1.3664440230969948 2.222803029468315 2.050183299304224 -0.5200046160127103 1.1399895127138917
4.17456793785 0.3624435288162113 -0.0339829669482581 -1.3664440230969948 2.222803029468315 2.050183299304224 -0.5200046160127103 1.1399895127138917
4.17456793785 0.3624435288162113 -0.0339829669482581 -1.3664440230969948 2.222803029468315 2.050183299304224 -0.5200046160127103 1.1399895127138917
4.18463897705 0.3624435288162113 -0.0339829669482581 -1.3664440230969948 2.222803029468315 2.050183299304224 -0.5200046160127103 1.1399895127138917
4.18463897705 0.3624435288162113 -0.0339829669482581 -1.3664440230969948 2.222803029468315 2.050183299304224 -0.5200046160127103 1.1399895127138917
4.19473981857 0.3624435288162113 -0.0339829669482581 -1.3664440230969948 2.222803029468315 2.050183299304224 -0.5200046160127103 1.1399895127138917
4.19473981857 0.3624435288162113 -0.0339829669482581 -1.3664440230969948 2.222803029468315 2.050183299304224 -0.5200046160127103 1.1399895127138917
4.20450997353 0.3624435288162113 -0.0339829669482581 -1.3664440230969948 2.222803029468315 2.050183299304224 -0.5200046160127103 1.1399895127138917
4.20450997353 0.3624435288162113 -0.0339829669482581 -1.3664440230969948 2.222803029468315 2.050183299304224 -0.5200046160127103 1.1399895127138917
4.21471595764 0.3624435288162113 -0.0339829669482581 -1.3664440230969948 2.222803029468315 2.050183299304224 -0.5200046160127103 1.1399895127138917
4.21471595764 0.3624435288162113 -0.0339829669482581 -1.3664440230969948 2.222803029468315 2.050183299304224 -0.5200046160127103 1.1399895127138917
4.22464489937 0.3624435288162113 -0.0339829669482581 -1.3664440230969948 2.222803029468315 2.050183299304224 -0.5200046160127103 1.1399895127138917
4.22464489937 0.3624435288162113 -0.0339829669482581 -1.3664440230969948 2.222803029468315 2.050183299304224 -0.5200046160127103 1.1399895127138917
4.23476099968 0.3624435288162113 -0.0339829669482581 -1.3664440230969948 2.222803029468315 2.050183299304224 -0.5200046160127103 1.1399895127138917
4.23476099968 0.3624435288162113 -0.0339829669482581 -1.3664440230969948 2.222803029468315 2.050183299304224 -0.5200046160127103 1.1399895127138917
4.24468684196 0.3624435288162113 -0.0339829669482581 -1.3664440230969948 2.222803029468315 2.050183299304224 -0.5200046160127103 1.1399895127138917
4.24468684196 0.3624435288162113 -0.0339829669482581 -1.3664440230969948 2.222803029468315 2.050183299304224 -0.5200046160127103 1.1399895127138917
4.25474381447 0.3624435288162113 -0.0339829669482581 -1.3664440230969948 2.222803029468315 2.050183299304224 -0.5200046160127103 1.1399895127138917
4.25474381447 0.3624435288162113 -0.0339829669482581 -1.3664440230969948 2.222803029468315 2.050183299304224 -0.5200046160127103 1.1399895127138917
4.26461291313 0.3624435288162113 -0.0339829669482581 -1.3664440230969948 2.222803029468315 2.050183299304224 -0.5200046160127103 1.1399895127138917
4.26461291313 0.3624435288162113 -0.0339829669482581 -1.3664440230969948 2.222803029468315 2.050183299304224 -0.5200046160127103 1.1399895127138917
4.27473092079 0.3624435288162113 -0.0339829669482581 -1.3664440230969948 2.222803029468315 2.050183299304224 -0.5200046160127103 1.1399895127138917
4.27473092079 0.3624435288162113 -0.0339829669482581 -1.3664440230969948 2.222803029468315 2.050183299304224 -0.5200046160127103 1.1399895127138917
4.28473091125 0.3624435288162113 -0.0339829669482581 -1.3664440230969948 2.222803029468315 2.050183299304224 -0.5200046160127103 1.1399895127138917
4.28473091125 0.3624435288162113 -0.0339829669482581 -1.3664440230969948 2.222803029468315 2.050183299304224 -0.5200046160127103 1.1399895127138917
4.29452395439 0.3624435288162113 -0.0339829669482581 -1.3664440230969948 2.222803029468315 2.050183299304224 -0.5200046160127103 1.1399895127138917
4.29452395439 0.3624435288162113 -0.0339829669482581 -1.3664440230969948 2.222803029468315 2.050183299304224 -0.5200046160127103 1.1399895127138917
4.30472493172 0.3624435288162113 -0.0339829669482581 -1.3664440230969948 2.222803029468315 2.050183299304224 -0.5200046160127103 1.1399895127138917
4.30472493172 0.3624435288162113 -0.0339829669482581 -1.3664440230969948 2.222803029468315 2.050183299304224 -0.5200046160127103 1.1399895127138917
4.31477284431 0.3624435288162113 -0.0339829669482581 -1.3664440230969948 2.222803029468315 2.050183299304224 -0.5200046160127103 1.1399895127138917
4.31477284431 0.3624435288162113 -0.0339829669482581 -1.3664440230969948 2.222803029468315 2.050183299304224 -0.5200046160127103 1.1399895127138917
4.32467794418 0.3624435288162113 -0.0339829669482581 -1.3664440230969948 2.222803029468315 2.050183299304224 -0.5200046160127103 1.1399895127138917
4.32467794418 0.3624435288162113 -0.0339829669482581 -1.3664440230969948 2.222803029468315 2.050183299304224 -0.5200046160127103 1.1399895127138917
4.33476901054 0.3624435288162113 -0.0339829669482581 -1.3664440230969948 2.222803029468315 2.050183299304224 -0.5200046160127103 1.1399895127138917
4.33476901054 0.3624435288162113 -0.0339829669482581 -1.3664440230969948 2.222803029468315 2.050183299304224 -0.5200046160127103 1.1399895127138917
4.34474802017 0.3624435288162113 -0.0339829669482581 -1.3664440230969948 2.222803029468315 2.050183299304224 -0.5200046160127103 1.1399895127138917
4.34474802017 0.3624435288162113 -0.0339829669482581 -1.3664440230969948 2.222803029468315 2.050183299304224 -0.5200046160127103 1.1399895127138917
4.35456395149 0.3624435288162113 -0.0339829669482581 -1.3664440230969948 2.222803029468315 2.050183299304224 -0.5200046160127103 1.1399895127138917
4.35456395149 0.3624435288162113 -0.0339829669482581 -1.3664440230969948 2.222803029468315 2.050183299304224 -0.5200046160127103 1.1399895127138917
4.36473178864 0.3624435288162113 -0.0339829669482581 -1.3664440230969948 2.222803029468315 2.050183299304224 -0.5200046160127103 1.1399895127138917
4.36473178864 0.3624435288162113 -0.0339829669482581 -1.3664440230969948 2.222803029468315 2.050183299304224 -0.5200046160127103 1.1399895127138917
4.37460589409 0.3624435288162113 -0.0339829669482581 -1.3664440230969948 2.222803029468315 2.050183299304224 -0.5200046160127103 1.1399895127138917
4.37460589409 0.3624435288162113 -0.0339829669482581 -1.3664440230969948 2.222803029468315 2.050183299304224 -0.5200046160127103 1.1399895127138917
4.38467884064 0.3624435288162113 -0.0339829669482581 -1.3664440230969948 2.222803029468315 2.050183299304224 -0.5200046160127103 1.1399895127138917
4.38467884064 0.3624435288162113 -0.0339829669482581 -1.3664440230969948 2.222803029468315 2.050183299304224 -0.5200046160127103 1.1399895127138917
4.39461493492 0.3624435288162113 -0.0339829669482581 -1.3664440230969948 2.222803029468315 2.050183299304224 -0.5200046160127103 1.1399895127138917
4.39461493492 0.3624435288162113 -0.0339829669482581 -1.3664440230969948 2.222803029468315 2.050183299304224 -0.5200046160127103 1.1399895127138917
4.40472793579 0.3624435288162113 -0.0339829669482581 -1.3664440230969948 2.222803029468315 2.050183299304224 -0.5200046160127103 1.1399895127138917
4.40472793579 0.3624435288162113 -0.0339829669482581 -1.3664440230969948 2.222803029468315 2.050183299304224 -0.5200046160127103 1.1399895127138917
4.41473698616 0.3624435288162113 -0.0339829669482581 -1.3664440230969948 2.222803029468315 2.050183299304224 -0.5200046160127103 1.1399895127138917
4.41473698616 0.3624435288162113 -0.0339829669482581 -1.3664440230969948 2.222803029468315 2.050183299304224 -0.5200046160127103 1.1399895127138917
4.42465400696 0.3624435288162113 -0.0339829669482581 -1.3664440230969948 2.222803029468315 2.050183299304224 -0.5200046160127103 1.1399895127138917
4.42465400696 0.3624435288162113 -0.0339829669482581 -1.3664440230969948 2.222803029468315 2.050183299304224 -0.5200046160127103 1.1399895127138917
4.43475580215 0.3624435288162113 -0.0339829669482581 -1.3664440230969948 2.222803029468315 2.050183299304224 -0.5200046160127103 1.1399895127138917
4.43475580215 0.3624435288162113 -0.0339829669482581 -1.3664440230969948 2.222803029468315 2.050183299304224 -0.5200046160127103 1.1399895127138917
4.44482588768 0.3624435288162113 -0.0339829669482581 -1.3664440230969948 2.222803029468315 2.050183299304224 -0.5200046160127103 1.1399895127138917
4.44482588768 0.3624435288162113 -0.0339829669482581 -1.3664440230969948 2.222803029468315 2.050183299304224 -0.5200046160127103 1.1399895127138917
4.45438480377 0.3624435288162113 -0.0339829669482581 -1.3664440230969948 2.222803029468315 2.050183299304224 -0.5200046160127103 1.1399895127138917
4.45438480377 0.3624435288162113 -0.0339829669482581 -1.3664440230969948 2.222803029468315 2.050183299304224 -0.5200046160127103 1.1399895127138917
4.46442198753 0.3624435288162113 -0.0339829669482581 -1.3664440230969948 2.222803029468315 2.050183299304224 -0.5200046160127103 1.1399895127138917
4.46442198753 0.3624435288162113 -0.0339829669482581 -1.3664440230969948 2.222803029468315 2.050183299304224 -0.5200046160127103 1.1399895127138917
4.47456479073 0.3624435288162113 -0.0339829669482581 -1.3664440230969948 2.222803029468315 2.050183299304224 -0.5200046160127103 1.1399895127138917
4.47456479073 0.3624435288162113 -0.0339829669482581 -1.3664440230969948 2.222803029468315 2.050183299304224 -0.5200046160127103 1.1399895127138917
4.48461198807 0.3624435288162113 -0.0339829669482581 -1.3664440230969948 2.222803029468315 2.050183299304224 -0.5200046160127103 1.1399895127138917
4.48461198807 0.3624435288162113 -0.0339829669482581 -1.3664440230969948 2.222803029468315 2.050183299304224 -0.5200046160127103 1.1399895127138917
4.49445080757 0.3624435288162113 -0.0339829669482581 -1.3664440230969948 2.222803029468315 2.050183299304224 -0.5200046160127103 1.1399895127138917
4.49445080757 0.3624435288162113 -0.0339829669482581 -1.3664440230969948 2.222803029468315 2.050183299304224 -0.5200046160127103 1.1399895127138917
4.50456380844 0.3624435288162113 -0.0339829669482581 -1.3664440230969948 2.222803029468315 2.050183299304224 -0.5200046160127103 1.1399895127138917
4.50456380844 0.3624435288162113 -0.0339829669482581 -1.3664440230969948 2.222803029468315 2.050183299304224 -0.5200046160127103 1.1399895127138917
4.51468682289 0.3624435288162113 -0.0339829669482581 -1.3664440230969948 2.222803029468315 2.050183299304224 -0.5200046160127103 1.1399895127138917
4.51468682289 0.3624435288162113 -0.0339829669482581 -1.3664440230969948 2.222803029468315 2.050183299304224 -0.5200046160127103 1.1399895127138917
4.52464389801 0.3624435288162113 -0.0339829669482581 -1.3664440230969948 2.222803029468315 2.050183299304224 -0.5200046160127103 1.1399895127138917
4.52464389801 0.3624435288162113 -0.0339829669482581 -1.3664440230969948 2.222803029468315 2.050183299304224 -0.5200046160127103 1.1399895127138917
4.53470087051 0.3624435288162113 -0.0339829669482581 -1.3664440230969948 2.222803029468315 2.050183299304224 -0.5200046160127103 1.1399895127138917
4.53470087051 0.3624435288162113 -0.0339829669482581 -1.3664440230969948 2.222803029468315 2.050183299304224 -0.5200046160127103 1.1399895127138917
4.54465579987 0.3624435288162113 -0.0339829669482581 -1.3664440230969948 2.222803029468315 2.050183299304224 -0.5200046160127103 1.1399895127138917
4.54465579987 0.3624435288162113 -0.0339829669482581 -1.3664440230969948 2.222803029468315 2.050183299304224 -0.5200046160127103 1.1399895127138917
4.55475091934 0.3624435288162113 -0.0339829669482581 -1.3664440230969948 2.222803029468315 2.050183299304224 -0.5200046160127103 1.1399895127138917
4.55475091934 0.3624435288162113 -0.0339829669482581 -1.3664440230969948 2.222803029468315 2.050183299304224 -0.5200046160127103 1.1399895127138917
4.56469798088 0.3624435288162113 -0.0339829669482581 -1.3664440230969948 2.222803029468315 2.050183299304224 -0.5200046160127103 1.1399895127138917
4.56469798088 0.3624435288162113 -0.0339829669482581 -1.3664440230969948 2.222803029468315 2.050183299304224 -0.5200046160127103 1.1399895127138917
4.5746049881 0.3624435288162113 -0.0339829669482581 -1.3664440230969948 2.222803029468315 2.050183299304224 -0.5200046160127103 1.1399895127138917
4.5746049881 0.3624435288162113 -0.0339829669482581 -1.3664440230969948 2.222803029468315 2.050183299304224 -0.5200046160127103 1.1399895127138917
4.58464384079 0.3624435288162113 -0.0339829669482581 -1.3664440230969948 2.222803029468315 2.050183299304224 -0.5200046160127103 1.1399895127138917
4.58464384079 0.3624435288162113 -0.0339829669482581 -1.3664440230969948 2.222803029468315 2.050183299304224 -0.5200046160127103 1.1399895127138917
4.59473180771 0.3624435288162113 -0.0339829669482581 -1.3664440230969948 2.222803029468315 2.050183299304224 -0.5200046160127103 1.1399895127138917
4.59473180771 0.3624435288162113 -0.0339829669482581 -1.3664440230969948 2.222803029468315 2.050183299304224 -0.5200046160127103 1.1399895127138917
4.60460186005 0.3624435288162113 -0.0339829669482581 -1.3664440230969948 2.222803029468315 2.050183299304224 -0.5200046160127103 1.1399895127138917
4.60460186005 0.3624435288162113 -0.0339829669482581 -1.3664440230969948 2.222803029468315 2.050183299304224 -0.5200046160127103 1.1399895127138917
4.61473083496 0.3624435288162113 -0.0339829669482581 -1.3664440230969948 2.222803029468315 2.050183299304224 -0.5200046160127103 1.1399895127138917
4.61473083496 0.3624435288162113 -0.0339829669482581 -1.3664440230969948 2.222803029468315 2.050183299304224 -0.5200046160127103 1.1399895127138917
4.62475681305 0.3624435288162113 -0.0339829669482581 -1.3664440230969948 2.222803029468315 2.050183299304224 -0.5200046160127103 1.1399895127138917
4.62475681305 0.3624435288162113 -0.0339829669482581 -1.3664440230969948 2.222803029468315 2.050183299304224 -0.5200046160127103 1.1399895127138917
4.63460588455 0.3624435288162113 -0.0339829669482581 -1.3664440230969948 2.222803029468315 2.050183299304224 -0.5200046160127103 1.1399895127138917
4.63460588455 0.3624435288162113 -0.0339829669482581 -1.3664440230969948 2.222803029468315 2.050183299304224 -0.5200046160127103 1.1399895127138917
4.64465594292 0.3624435288162113 -0.0339829669482581 -1.3664440230969948 2.222803029468315 2.050183299304224 -0.5200046160127103 1.1399895127138917
4.64465594292 0.3624435288162113 -0.0339829669482581 -1.3664440230969948 2.222803029468315 2.050183299304224 -0.5200046160127103 1.1399895127138917
4.65479779243 0.3624435288162113 -0.0339829669482581 -1.3664440230969948 2.222803029468315 2.050183299304224 -0.5200046160127103 1.1399895127138917
4.65479779243 0.3624435288162113 -0.0339829669482581 -1.3664440230969948 2.222803029468315 2.050183299304224 -0.5200046160127103 1.1399895127138917
4.66466784477 0.3624435288162113 -0.0339829669482581 -1.3664440230969948 2.222803029468315 2.050183299304224 -0.5200046160127103 1.1399895127138917
4.66466784477 0.3624435288162113 -0.0339829669482581 -1.3664440230969948 2.222803029468315 2.050183299304224 -0.5200046160127103 1.1399895127138917
4.6747508049 0.3624435288162113 -0.0339829669482581 -1.3664440230969948 2.222803029468315 2.050183299304224 -0.5200046160127103 1.1399895127138917
4.6747508049 0.3624435288162113 -0.0339829669482581 -1.3664440230969948 2.222803029468315 2.050183299304224 -0.5200046160127103 1.1399895127138917
4.68477892876 0.3624435288162113 -0.0339829669482581 -1.3664440230969948 2.222803029468315 2.050183299304224 -0.5200046160127103 1.1399895127138917
4.68477892876 0.3624435288162113 -0.0339829669482581 -1.3664440230969948 2.222803029468315 2.050183299304224 -0.5200046160127103 1.1399895127138917
