riccardo-csl/Motion-Planning-for-TIAGo-Manipulator/T3_G_7/head_scan/head_scan/tiago_traiettorie_SG/4a-4b/pick_4a_rep1.txt
time arm_1_joint arm_2_joint arm_3_joint arm_4_joint arm_5_joint arm_6_joint arm_7_joint
0.682745933533 0.0693419319210295 0.0891359641597508 -3.1000033659309087 1.363056753256071 2.050046335517449 -0.5200137469318284 1.1399529890374185
0.682745933533 0.0693419319210295 0.0891359641597508 -3.1000033659309087 1.363056753256071 2.050046335517449 -0.5200137469318284 1.1399529890374185
0.692954063416 0.0693419319210295 0.0891359641597508 -3.1000033659309087 1.363056753256071 2.050046335517449 -0.5200137469318284 1.1399529890374185
0.692954063416 0.0693419319210295 0.0891359641597508 -3.1000033659309087 1.363056753256071 2.050046335517449 -0.5200137469318284 1.1399529890374185
0.702877998352 0.0693419319210295 0.0891359641597508 -3.1000033659309087 1.363056753256071 2.050046335517449 -0.5200137469318284 1.1399529890374185
0.702877998352 0.0693419319210295 0.0891359641597508 -3.1000033659309087 1.363056753256071 2.050046335517449 -0.5200137469318284 1.1399529890374185
0.713111162186 0.0693419319210295 0.0891359641597508 -3.1000033659309087 1.363056753256071 2.050046335517449 -0.5200137469318284 1.1399529890374185
0.713111162186 0.0693419319210295 0.0891359641597508 -3.1000033659309087 1.363056753256071 2.050046335517449 -0.5200137469318284 1.1399529890374185
0.722809076309 0.0693419319210295 0.0891359641597508 -3.1000033659309087 1.363056753256071 2.050046335517449 -0.5200137469318284 1.1399529890374185
0.722809076309 0.0693419319210295 0.0891359641597508 -3.1000033659309087 1.363056753256071 2.050046335517449 -0.5200137469318284 1.1399529890374185
0.73290514946 0.0693419319210295 0.0891359641597508 -3.1000033659309087 1.363056753256071 2.050046335517449 -0.5200137469318284 1.1399529890374185
0.73290514946 0.0693419319210295 0.0891359641597508 -3.1000033659309087 1.363056753256071 2.050046335517449 -0.5200137469318284 1.1399529890374185
0.742886066437 0.0693419319210295 0.0891359641597508 -3.1000033659309087 1.363056753256071 2.050046335517449 -0.5200137469318284 1.1399529890374185
0.742886066437 0.0693419319210295 0.0891359641597508 -3.1000033659309087 1.363056753256071 2.050046335517449 -0.5200137469318284 1.1399529890374185
0.752918958664 0.0693419319210295 0.0891359641597508 -3.1000033659309087 1.363056753256071 2.050046335517449 -0.5200137469318284 1.1399529890374185
0.752918958664 0.0693419319210295 0.0891359641597508 -3.1000033659309087 1.363056753256071 2.050046335517449 -0.5200137469318284 1.1399529890374185
0.762884140015 0.0693419319210295 0.0891359641597508 -3.1000033659309087 1.363056753256071 2.050046335517449 -0.5200137469318284 1.1399529890374185
0.762884140015 0.0693419319210295 0.0891359641597508 -3.1000033659309087 1.363056753256071 2.050046335517449 -0.5200137469318284 1.1399529890374185
0.772978067398 0.0693419319210295 0.0891359641597508 -3.1000033659309087 1.363056753256071 2.050046335517449 -0.5200137469318284 1.1399529890374185
0.772978067398 0.0693419319210295 0.0891359641597508 -3.1000033659309087 1.363056753256071 2.050046335517449 -0.5200137469318284 1.1399529890374185
0.782892942429 0.0693419319210295 0.0891359641597508 -3.1000033659309087 1.363056753256071 2.050046335517449 -0.5200137469318284 1.1399529890374185
0.782892942429 0.0693419319210295 0.0891359641597508 -3.1000033659309087 1.363056753256071 2.050046335517449 -0.5200137469318284 1.1399529890374185
0.792922973633 0.0693419319210295 0.0891359641597508 -3.1000033659309087 1.363056753256071 2.050046335517449 -0.5200137469318284 1.1399529890374185
0.792922973633 0.0693419319210295 0.0891359641597508 -3.1000033659309087 1.363056753256071 2.050046335517449 -0.5200137469318284 1.1399529890374185
0.802830934525 0.0693419319210295 0.0891359641597508 -3.1000033659309087 1.363056753256071 2.050046335517449 -0.5200137469318284 1.1399529890374185
0.802830934525 0.0693419319210295 0.0891359641597508 -3.1000033659309087 1.363056753256071 2.050046335517449 -0.5200137469318284 1.1399529890374185
0.813044071198 0.0693419319210295 0.0891359641597508 -3.1000033659309087 1.363056753256071 2.050046335517449 -0.5200137469318284 1.1399529890374185
0.813044071198 0.0693419319210295 0.0891359641597508 -3.1000033659309087 1.363056753256071 2.050046335517449 -0.5200137469318284 1.1399529890374185
0.823234081268 0.0693419319210295 0.0891359641597508 -3.1000033659309087 1.363056753256071 2.050046335517449 -0.5200137469318284 1.1399529890374185
0.823234081268 0.0693419319210295 0.0891359641597508 -3.1000033659309087 1.363056753256071 2.050046335517449 -0.5200137469318284 1.1399529890374185
0.83328795433 0.0693419319210295 0.0891359641597508 -3.1000033659309087 1.363056753256071 2.050046335517449 -0.5200137469318284 1.1399529890374185
0.83328795433 0.0693419319210295 0.0891359641597508 -3.1000033659309087 1.363056753256071 2.050046335517449 -0.5200137469318284 1.1399529890374185
0.843271017075 0.0693419319210295 0.0891359641597508 -3.1000033659309087 1.363056753256071 2.050046335517449 -0.5200137469318284 1.1399529890374185
0.843271017075 0.0693419319210295 0.0891359641597508 -3.1000033659309087 1.363056753256071 2.050046335517449 -0.5200137469318284 1.1399529890374185
0.853274106979 0.0693419319210295 0.0891359641597508 -3.1000033659309087 1.363056753256071 2.050046335517449 -0.5200137469318284 1.1399529890374185
0.853274106979 0.0693419319210295 0.0891359641597508 -3.1000033659309087 1.363056753256071 2.050046335517449 -0.5200137469318284 1.1399529890374185
0.863306999207 0.0693419319210295 0.0891359641597508 -3.1000033659309087 1.363056753256071 2.050046335517449 -0.5200137469318284 1.1399529890374185
0.863306999207 0.0693419319210295 0.0891359641597508 -3.1000033659309087 1.363056753256071 2.050046335517449 -0.5200137469318284 1.1399529890374185
0.873108148575 0.0693419319210295 0.0891359641597508 -3.1000033659309087 1.363056753256071 2.050046335517449 -0.5200137469318284 1.1399529890374185
0.873108148575 0.0693419319210295 0.0891359641597508 -3.1000033659309087 1.363056753256071 2.050046335517449 -0.5200137469318284 1.1399529890374185
0.883298158646 0.0693419319210295 0.0891359641597508 -3.1000033659309087 1.363056753256071 2.050046335517449 -0.5200137469318284 1.1399529890374185
0.883298158646 0.0693419319210295 0.0891359641597508 -3.1000033659309087 1.363056753256071 2.050046335517449 -0.5200137469318284 1.1399529890374185
0.893218994141 0.0693419319210295 0.0891359641597508 -3.1000033659309087 1.363056753256071 2.050046335517449 -0.5200137469318284 1.1399529890374185
0.893218994141 0.0693419319210295 0.0891359641597508 -3.1000033659309087 1.363056753256071 2.050046335517449 -0.5200137469318284 1.1399529890374185
0.903067111969 0.0693419319210295 0.0891359641597508 -3.1000033659309087 1.363056753256071 2.050046335517449 -0.5200137469318284 1.1399529890374185
0.903067111969 0.0693419319210295 0.0891359641597508 -3.1000033659309087 1.363056753256071 2.050046335517449 -0.5200137469318284 1.1399529890374185
0.913089990616 0.0693419319210295 0.0891359641597508 -3.1000033659309087 1.363056753256071 2.050046335517449 -0.5200137469318284 1.1399529890374185
0.913089990616 0.0693419319210295 0.0891359641597508 -3.1000033659309087 1.363056753256071 2.050046335517449 -0.5200137469318284 1.1399529890374185
0.923298120499 0.0693419319210295 0.0891359641597508 -3.1000033659309087 1.363056753256071 2.050046335517449 -0.5200137469318284 1.1399529890374185
0.923298120499 0.0693419319210295 0.0891359641597508 -3.1000033659309087 1.363056753256071 2.050046335517449 -0.5200137469318284 1.1399529890374185
0.933397054672 0.0693419319210295 0.0891359641597508 -3.1000033659309087 1.363056753256071 2.050046335517449 -0.5200137469318284 1.1399529890374185
0.933397054672 0.0693419319210295 0.0891359641597508 -3.1000033659309087 1.363056753256071 2.050046335517449 -0.5200137469318284 1.1399529890374185
0.943341970444 0.0693419319210295 0.0891359641597508 -3.1000033659309087 1.363056753256071 2.050046335517449 -0.5200137469318284 1.1399529890374185
0.943341970444 0.0693419319210295 0.0891359641597508 -3.1000033659309087 1.363056753256071 2.050046335517449 -0.5200137469318284 1.1399529890374185
0.953315019608 0.0693419319210295 0.0891359641597508 -3.1000033659309087 1.363056753256071 2.050046335517449 -0.5200137469318284 1.1399529890374185
0.953315019608 0.0693419319210295 0.0891359641597508 -3.1000033659309087 1.363056753256071 2.050046335517449 -0.5200137469318284 1.1399529890374185
0.963402032852 0.0693419319210295 0.0891359641597508 -3.1000033659309087 1.363056753256071 2.050046335517449 -0.5200137469318284 1.1399529890374185
0.963402032852 0.0693419319210295 0.0891359641597508 -3.1000033659309087 1.363056753256071 2.050046335517449 -0.5200137469318284 1.1399529890374185
0.973335027695 0.0693419319210295 0.0891359641597508 -3.1000033659309087 1.363056753256071 2.050046335517449 -0.5200137469318284 1.1399529890374185
0.973335027695 0.0693419319210295 0.0891359641597508 -3.1000033659309087 1.363056753256071 2.050046335517449 -0.5200137469318284 1.1399529890374185
0.983389139175 0.0693419319210295 0.0891359641597508 -3.1000033659309087 1.363056753256071 2.050046335517449 -0.5200137469318284 1.1399529890374185
0.983389139175 0.0693419319210295 0.0891359641597508 -3.1000033659309087 1.363056753256071 2.050046335517449 -0.5200137469318284 1.1399529890374185
0.993399143219 0.0693419319210295 0.0891359641597508 -3.1000033659309087 1.363056753256071 2.050046335517449 -0.5200137469318284 1.1399529890374185
0.993399143219 0.0693419319210295 0.0891359641597508 -3.1000033659309087 1.363056753256071 2.050046335517449 -0.5200137469318284 1.1399529890374185
1.00336313248 0.0693419319210295 0.0891359641597508 -3.1000033659309087 1.363056753256071 2.050046335517449 -0.5200137469318284 1.1399529890374185
1.00336313248 0.0693419319210295 0.0891359641597508 -3.1000033659309087 1.363056753256071 2.050046335517449 -0.5200137469318284 1.1399529890374185
1.01343512535 0.0693419319210295 0.0891359641597508 -3.1000033659309087 1.363056753256071 2.050046335517449 -0.5200137469318284 1.1399529890374185
1.01343512535 0.0693419319210295 0.0891359641597508 -3.1000033659309087 1.363056753256071 2.050046335517449 -0.5200137469318284 1.1399529890374185
1.02314805984 0.0693419319210295 0.0891359641597508 -3.1000033659309087 1.363056753256071 2.050046335517449 -0.5200137469318284 1.1399529890374185
1.02314805984 0.0693419319210295 0.0891359641597508 -3.1000033659309087 1.363056753256071 2.050046335517449 -0.5200137469318284 1.1399529890374185
1.03314900398 0.0693419319210295 0.0891359641597508 -3.1000033659309087 1.363056753256071 2.050046335517449 -0.5200137469318284 1.1399529890374185
1.03314900398 0.0693419319210295 0.0891359641597508 -3.1000033659309087 1.363056753256071 2.050046335517449 -0.5200137469318284 1.1399529890374185
1.04313611984 0.0693419319210295 0.0891359641597508 -3.1000033659309087 1.363056753256071 2.050046335517449 -0.5200137469318284 1.1399529890374185
1.04313611984 0.0693419319210295 0.0891359641597508 -3.1000033659309087 1.363056753256071 2.050046335517449 -0.5200137469318284 1.1399529890374185
1.05322599411 0.0693419319210295 0.0891359641597508 -3.1000033659309087 1.363056753256071 2.050046335517449 -0.5200137469318284 1.1399529890374185
1.05322599411 0.0693419319210295 0.0891359641597508 -3.1000033659309087 1.363056753256071 2.050046335517449 -0.5200137469318284 1.1399529890374185
1.06329798698 0.0693419319210295 0.0891359641597508 -3.1000033659309087 1.363056753256071 2.050046335517449 -0.5200137469318284 1.1399529890374185
1.06329798698 0.0693419319210295 0.0891359641597508 -3.1000033659309087 1.363056753256071 2.050046335517449 -0.5200137469318284 1.1399529890374185
1.07331895828 0.0693419319210295 0.0891359641597508 -3.1000033659309087 1.363056753256071 2.050046335517449 -0.5200137469318284 1.1399529890374185
1.07331895828 0.0693419319210295 0.0891359641597508 -3.1000033659309087 1.363056753256071 2.050046335517449 -0.5200137469318284 1.1399529890374185
1.08325815201 0.0693419319210295 0.0891359641597508 -3.1000033659309087 1.363056753256071 2.050046335517449 -0.5200137469318284 1.1399529890374185
1.08325815201 0.0693419319210295 0.0891359641597508 -3.1000033659309087 1.363056753256071 2.050046335517449 -0.5200137469318284 1.1399529890374185
1.09321808815 0.0693419319210295 0.0891359641597508 -3.1000033659309087 1.363056753256071 2.050046335517449 -0.5200137469318284 1.1399529890374185
1.09321808815 0.0693419319210295 0.0891359641597508 -3.1000033659309087 1.363056753256071 2.050046335517449 -0.5200137469318284 1.1399529890374185
1.10328102112 0.0693419319210295 0.0891359641597508 -3.1000033659309087 1.363056753256071 2.050046335517449 -0.5200137469318284 1.1399529890374185
1.10328102112 0.0693419319210295 0.0891359641597508 -3.1000033659309087 1.363056753256071 2.050046335517449 -0.5200137469318284 1.1399529890374185
1.11325311661 0.0693419319210295 0.0891359641597508 -3.1000033659309087 1.363056753256071 2.050046335517449 -0.5200137469318284 1.1399529890374185
1.11325311661 0.0693419319210295 0.0891359641597508 -3.1000033659309087 1.363056753256071 2.050046335517449 -0.5200137469318284 1.1399529890374185
1.12321901321 0.0693419319210295 0.0891359641597508 -3.1000033659309087 1.363056753256071 2.050046335517449 -0.5200137469318284 1.1399529890374185
1.12321901321 0.0693419319210295 0.0891359641597508 -3.1000033659309087 1.363056753256071 2.050046335517449 -0.5200137469318284 1.1399529890374185
1.13305711746 0.0693419319210295 0.0891359641597508 -3.1000033659309087 1.363056753256071 2.050046335517449 -0.5200137469318284 1.1399529890374185
1.13305711746 0.0693419319210295 0.0891359641597508 -3.1000033659309087 1.363056753256071 2.050046335517449 -0.5200137469318284 1.1399529890374185
1.14295005798 0.0693419319210295 0.0891359641597508 -3.1000033659309087 1.363056753256071 2.050046335517449 -0.5200137469318284 1.1399529890374185
1.14295005798 0.0693419319210295 0.0891359641597508 -3.1000033659309087 1.363056753256071 2.050046335517449 -0.5200137469318284 1.1399529890374185
1.1527929306 0.0693419319210295 0.0891359641597508 -3.1000033659309087 1.363056753256071 2.050046335517449 -0.5200137469318284 1.1399529890374185
1.1527929306 0.0693419319210295 0.0891359641597508 -3.1000033659309087 1.363056753256071 2.050046335517449 -0.5200137469318284 1.1399529890374185
1.16293907166 0.0693419319210295 0.0891359641597508 -3.1000033659309087 1.363056753256071 2.050046335517449 -0.5200137469318284 1.1399529890374185
1.16293907166 0.0693419319210295 0.0891359641597508 -3.1000033659309087 1.363056753256071 2.050046335517449 -0.5200137469318284 1.1399529890374185
1.17292499542 0.0693419319210295 0.0891359641597508 -3.1000033659309087 1.363056753256071 2.050046335517449 -0.5200137469318284 1.1399529890374185
1.17292499542 0.0693419319210295 0.0891359641597508 -3.1000033659309087 1.363056753256071 2.050046335517449 -0.5200137469318284 1.1399529890374185
1.18283510208 0.0693419319210295 0.0891359641597508 -3.1000033659309087 1.363056753256071 2.050046335517449 -0.5200137469318284 1.1399529890374185
1.18283510208 0.0693419319210295 0.0891359641597508 -3.1000033659309087 1.363056753256071 2.050046335517449 -0.5200137469318284 1.1399529890374185
1.1929359436 0.0693419319210295 0.0891359641597508 -3.1000033659309087 1.363056753256071 2.050046335517449 -0.5200137469318284 1.1399529890374185
1.1929359436 0.0693419319210295 0.0891359641597508 -3.1000033659309087 1.363056753256071 2.050046335517449 -0.5200137469318284 1.1399529890374185
1.2028901577 0.0693419319210295 0.0891359641597508 -3.1000033659309087 1.363056753256071 2.050046335517449 -0.5200137469318284 1.1399529890374185
1.2028901577 0.0693419319210295 0.0891359641597508 -3.1000033659309087 1.363056753256071 2.050046335517449 -0.5200137469318284 1.1399529890374185
1.21283507347 0.0693419319210295 0.0891359641597508 -3.1000033659309087 1.363056753256071 2.050046335517449 -0.5200137469318284 1.1399529890374185
1.21283507347 0.0693419319210295 0.0891359641597508 -3.1000033659309087 1.363056753256071 2.050046335517449 -0.5200137469318284 1.1399529890374185
1.22285795212 0.0693419319210295 0.0891359641597508 -3.1000033659309087 1.363056753256071 2.050046335517449 -0.5200137469318284 1.1399529890374185
1.22285795212 0.0693419319210295 0.0891359641597508 -3.1000033659309087 1.363056753256071 2.050046335517449 -0.5200137469318284 1.1399529890374185
1.23285007477 0.0693419319210295 0.0891359641597508 -3.1000033659309087 1.363056753256071 2.050046335517449 -0.5200137469318284 1.1399529890374185
1.23285007477 0.0693419319210295 0.0891359641597508 -3.1000033659309087 1.363056753256071 2.050046335517449 -0.5200137469318284 1.1399529890374185
1.24285793304 0.0693419319210295 0.0891359641597508 -3.1000033659309087 1.363056753256071 2.050046335517449 -0.5200137469318284 1.1399529890374185
1.24285793304 0.0693419319210295 0.0891359641597508 -3.1000033659309087 1.363056753256071 2.050046335517449 -0.5200137469318284 1.1399529890374185
1.25379514694 0.0693419319210295 0.0891359641597508 -3.1000033659309087 1.363056753256071 2.050046335517449 -0.5200137469318284 1.1399529890374185
1.25379514694 0.0693419319210295 0.0891359641597508 -3.1000033659309087 1.363056753256071 2.050046335517449 -0.5200137469318284 1.1399529890374185
1.26284193993 0.0693419319210295 0.0891359641597508 -3.1000033659309087 1.363056753256071 2.050046335517449 -0.5200137469318284 1.1399529890374185
1.26284193993 0.0693419319210295 0.0891359641597508 -3.1000033659309087 1.363056753256071 2.050046335517449 -0.5200137469318284 1.1399529890374185
1.27295613289 0.0693419319210295 0.0891359641597508 -3.1000033659309087 1.363056753256071 2.050046335517449 -0.5200137469318284 1.1399529890374185
1.27295613289 0.0693419319210295 0.0891359641597508 -3.1000033659309087 1.363056753256071 2.050046335517449 -0.5200137469318284 1.1399529890374185
1.28289699554 0.0693419319210295 0.0891359641597508 -3.1000033659309087 1.363056753256071 2.050046335517449 -0.5200137469318284 1.1399529890374185
1.28289699554 0.0693419319210295 0.0891359641597508 -3.1000033659309087 1.363056753256071 2.050046335517449 -0.5200137469318284 1.1399529890374185
1.29291510582 0.0693419319210295 0.0891359641597508 -3.1000033659309087 1.363056753256071 2.050046335517449 -0.5200137469318284 1.1399529890374185
1.29291510582 0.0693419319210295 0.0891359641597508 -3.1000033659309087 1.363056753256071 2.050046335517449 -0.5200137469318284 1.1399529890374185
1.3028409481 0.0693419319210295 0.0891359641597508 -3.1000033659309087 1.363056753256071 2.050046335517449 -0.5200137469318284 1.1399529890374185
1.3028409481 0.0693419319210295 0.0891359641597508 -3.1000033659309087 1.363056753256071 2.050046335517449 -0.5200137469318284 1.1399529890374185
1.31292104721 0.0693419319210295 0.0891359641597508 -3.1000033659309087 1.363056753256071 2.050046335517449 -0.5200137469318284 1.1399529890374185
1.31292104721 0.0693419319210295 0.0891359641597508 -3.1000033659309087 1.363056753256071 2.050046335517449 -0.5200137469318284 1.1399529890374185
1.32287406921 0.0693419319210295 0.0891359641597508 -3.1000033659309087 1.363056753256071 2.050046335517449 -0.5200137469318284 1.1399529890374185
1.32287406921 0.0693419319210295 0.0891359641597508 -3.1000033659309087 1.363056753256071 2.050046335517449 -0.5200137469318284 1.1399529890374185
1.3329770565 0.0693419319210295 0.0891359641597508 -3.1000033659309087 1.363056753256071 2.050046335517449 -0.5200137469318284 1.1399529890374185
1.3329770565 0.0693419319210295 0.0891359641597508 -3.1000033659309087 1.363056753256071 2.050046335517449 -0.5200137469318284 1.1399529890374185
1.34288907051 0.0693419319210295 0.0891359641597508 -3.1000033659309087 1.363056753256071 2.050046335517449 -0.5200137469318284 1.1399529890374185
1.34288907051 0.0693419319210295 0.0891359641597508 -3.1000033659309087 1.363056753256071 2.050046335517449 -0.5200137469318284 1.1399529890374185
1.35294699669 0.0693419319210295 0.0891359641597508 -3.1000033659309087 1.363056753256071 2.050046335517449 -0.5200137469318284 1.1399529890374185
1.35294699669 0.0693419319210295 0.0891359641597508 -3.1000033659309087 1.363056753256071 2.050046335517449 -0.5200137469318284 1.1399529890374185
1.36299395561 0.0693419319210295 0.0891359641597508 -3.1000033659309087 1.363056753256071 2.050046335517449 -0.5200137469318284 1.1399529890374185
1.36299395561 0.0693419319210295 0.0891359641597508 -3.1000033659309087 1.363056753256071 2.050046335517449 -0.5200137469318284 1.1399529890374185
1.37284016609 0.0693419319210295 0.0891359641597508 -3.1000033659309087 1.363056753256071 2.050046335517449 -0.5200137469318284 1.1399529890374185
1.37284016609 0.0693419319210295 0.0891359641597508 -3.1000033659309087 1.363056753256071 2.050046335517449 -0.5200137469318284 1.1399529890374185
1.38288497925 0.0693419319210295 0.0891359641597508 -3.1000033659309087 1.363056753256071 2.050046335517449 -0.5200137469318284 1.1399529890374185
1.38288497925 0.0693419319210295 0.0891359641597508 -3.1000033659309087 1.363056753256071 2.050046335517449 -0.5200137469318284 1.1399529890374185
1.39289402962 0.0693419319210295 0.0891359641597508 -3.1000033659309087 1.363056753256071 2.050046335517449 -0.5200137469318284 1.1399529890374185
1.39289402962 0.0693419319210295 0.0891359641597508 -3.1000033659309087 1.363056753256071 2.050046335517449 -0.5200137469318284 1.1399529890374185
1.40285611153 0.0693419319210295 0.0891359641597508 -3.1000033659309087 1.363056753256071 2.050046335517449 -0.5200137469318284 1.1399529890374185
1.40285611153 0.0693419319210295 0.0891359641597508 -3.1000033659309087 1.363056753256071 2.050046335517449 -0.5200137469318284 1.1399529890374185
1.41292405128 0.0693419319210295 0.0891359641597508 -3.1000033659309087 1.363056753256071 2.050046335517449 -0.5200137469318284 1.1399529890374185
1.41292405128 0.0693419319210295 0.0891359641597508 -3.1000033659309087 1.363056753256071 2.050046335517449 -0.5200137469318284 1.1399529890374185
1.4228811264 0.0693419319210295 0.0891359641597508 -3.1000033659309087 1.363056753256071 2.050046335517449 -0.5200137469318284 1.1399529890374185
1.4228811264 0.0693419319210295 0.0891359641597508 -3.1000033659309087 1.363056753256071 2.050046335517449 -0.5200137469318284 1.1399529890374185
1.43291807175 0.0693419319210295 0.0891359641597508 -3.1000033659309087 1.363056753256071 2.050046335517449 -0.5200137469318284 1.1399529890374185
1.43291807175 0.0693419319210295 0.0891359641597508 -3.1000033659309087 1.363056753256071 2.050046335517449 -0.5200137469318284 1.1399529890374185
1.44296598434 0.0693419319210295 0.0891359641597508 -3.1000033659309087 1.363056753256071 2.050046335517449 -0.5200137469318284 1.1399529890374185
1.44296598434 0.0693419319210295 0.0891359641597508 -3.1000033659309087 1.363056753256071 2.050046335517449 -0.5200137469318284 1.1399529890374185
1.45290803909 0.0693419319210295 0.0891359641597508 -3.1000033659309087 1.363056753256071 2.050046335517449 -0.5200137469318284 1.1399529890374185
1.45290803909 0.0693419319210295 0.0891359641597508 -3.1000033659309087 1.363056753256071 2.050046335517449 -0.5200137469318284 1.1399529890374185
1.46292805672 0.0693419319210295 0.0891359641597508 -3.1000033659309087 1.363056753256071 2.050046335517449 -0.5200137469318284 1.1399529890374185
1.46292805672 0.0693419319210295 0.0891359641597508 -3.1000033659309087 1.363056753256071 2.050046335517449 -0.5200137469318284 1.1399529890374185
1.47287201881 0.0693419319210295 0.0891359641597508 -3.1000033659309087 1.363056753256071 2.050046335517449 -0.5200137469318284 1.1399529890374185
1.47287201881 0.0693419319210295 0.0891359641597508 -3.1000033659309087 1.363056753256071 2.050046335517449 -0.5200137469318284 1.1399529890374185
1.48288297653 0.0693419319210295 0.0891359641597508 -3.1000033659309087 1.363056753256071 2.050046335517449 -0.5200137469318284 1.1399529890374185
1.48288297653 0.0693419319210295 0.0891359641597508 -3.1000033659309087 1.363056753256071 2.050046335517449 -0.5200137469318284 1.1399529890374185
1.49301099777 0.0693419319210295 0.0891359641597508 -3.1000033659309087 1.363056753256071 2.050046335517449 -0.5200137469318284 1.1399529890374185
1.49301099777 0.0693419319210295 0.0891359641597508 -3.1000033659309087 1.363056753256071 2.050046335517449 -0.5200137469318284 1.1399529890374185
1.50293302536 0.0693419319210295 0.0891359641597508 -3.1000033659309087 1.363056753256071 2.050046335517449 -0.5200137469318284 1.1399529890374185
1.50293302536 0.0693419319210295 0.0891359641597508 -3.1000033659309087 1.363056753256071 2.050046335517449 -0.5200137469318284 1.1399529890374185
1.51314401627 0.0693419319210295 0.0891359641597508 -3.1000033659309087 1.363056753256071 2.050046335517449 -0.5200137469318284 1.1399529890374185
1.51314401627 0.0693419319210295 0.0891359641597508 -3.1000033659309087 1.363056753256071 2.050046335517449 -0.5200137469318284 1.1399529890374185
1.52303814888 0.0693419319210295 0.0891359641597508 -3.1000033659309087 1.363056753256071 2.050046335517449 -0.5200137469318284 1.1399529890374185
1.52303814888 0.0693419319210295 0.0891359641597508 -3.1000033659309087 1.363056753256071 2.050046335517449 -0.5200137469318284 1.1399529890374185
1.53297114372 0.0693419319210295 0.0891359641597508 -3.1000033659309087 1.363056753256071 2.050046335517449 -0.5200137469318284 1.1399529890374185
1.53297114372 0.0693419319210295 0.0891359641597508 -3.1000033659309087 1.363056753256071 2.050046335517449 -0.5200137469318284 1.1399529890374185
1.54296994209 0.0693419319210295 0.0891359641597508 -3.1000033659309087 1.363056753256071 2.050046335517449 -0.5200137469318284 1.1399529890374185
1.54296994209 0.0693419319210295 0.0891359641597508 -3.1000033659309087 1.363056753256071 2.050046335517449 -0.5200137469318284 1.1399529890374185
1.5530371666 0.0693419319210295 0.0891359641597508 -3.1000033659309087 1.363056753256071 2.050046335517449 -0.5200137469318284 1.1399529890374185
1.5530371666 0.0693419319210295 0.0891359641597508 -3.1000033659309087 1.363056753256071 2.050046335517449 -0.5200137469318284 1.1399529890374185
1.56297206879 0.0693419319210295 0.0891359641597508 -3.1000033659309087 1.363056753256071 2.050046335517449 -0.5200137469318284 1.1399529890374185
1.56297206879 0.0693419319210295 0.0891359641597508 -3.1000033659309087 1.363056753256071 2.050046335517449 -0.5200137469318284 1.1399529890374185
1.57299399376 0.0693419319210295 0.0891359641597508 -3.1000033659309087 1.363056753256071 2.050046335517449 -0.5200137469318284 1.1399529890374185
1.57299399376 0.0693419319210295 0.0891359641597508 -3.1000033659309087 1.363056753256071 2.050046335517449 -0.5200137469318284 1.1399529890374185
1.58297801018 0.0693419319210295 0.0891359641597508 -3.1000033659309087 1.363056753256071 2.050046335517449 -0.5200137469318284 1.1399529890374185
1.58297801018 0.0693419319210295 0.0891359641597508 -3.1000033659309087 1.363056753256071 2.050046335517449 -0.5200137469318284 1.1399529890374185
1.59300708771 0.0693419319210295 0.0891359641597508 -3.1000033659309087 1.363056753256071 2.050046335517449 -0.5200137469318284 1.1399529890374185
1.59300708771 0.0693419319210295 0.0891359641597508 -3.1000033659309087 1.363056753256071 2.050046335517449 -0.5200137469318284 1.1399529890374185
1.6028470993 0.0693419319210295 0.0891359641597508 -3.1000033659309087 1.363056753256071 2.050046335517449 -0.5200137469318284 1.1399529890374185
1.6028470993 0.0693419319210295 0.0891359641597508 -3.1000033659309087 1.363056753256071 2.050046335517449 -0.5200137469318284 1.1399529890374185
1.61291694641 0.0693419319210295 0.0891359641597508 -3.1000033659309087 1.363056753256071 2.050046335517449 -0.5200137469318284 1.1399529890374185
1.61291694641 0.0693419319210295 0.0891359641597508 -3.1000033659309087 1.363056753256071 2.050046335517449 -0.5200137469318284 1.1399529890374185
1.62286710739 0.0693419319210295 0.0891359641597508 -3.1000033659309087 1.363056753256071 2.050046335517449 -0.5200137469318284 1.1399529890374185
1.62286710739 0.0693419319210295 0.0891359641597508 -3.1000033659309087 1.363056753256071 2.050046335517449 -0.5200137469318284 1.1399529890374185
1.63294315338 0.0693419319210295 0.0891359641597508 -3.1000033659309087 1.363056753256071 2.050046335517449 -0.5200137469318284 1.1399529890374185
1.63294315338 0.0693419319210295 0.0891359641597508 -3.1000033659309087 1.363056753256071 2.050046335517449 -0.5200137469318284 1.1399529890374185
1.6428861618 0.0693419319210295 0.0891359641597508 -3.1000033659309087 1.363056753256071 2.050046335517449 -0.5200137469318284 1.1399529890374185
1.6428861618 0.0693419319210295 0.0891359641597508 -3.1000033659309087 1.363056753256071 2.050046335517449 -0.5200137469318284 1.1399529890374185
1.65290999413 0.0693419319210295 0.0891359641597508 -3.1000033659309087 1.363056753256071 2.050046335517449 -0.5200137469318284 1.1399529890374185
1.65290999413 0.0693419319210295 0.0891359641597508 -3.1000033659309087 1.363056753256071 2.050046335517449 -0.5200137469318284 1.1399529890374185
1.66286706924 0.0693419319210295 0.0891359641597508 -3.1000033659309087 1.363056753256071 2.050046335517449 -0.5200137469318284 1.1399529890374185
1.66286706924 0.0693419319210295 0.0891359641597508 -3.1000033659309087 1.363056753256071 2.050046335517449 -0.5200137469318284 1.1399529890374185
1.67308497429 0.0693419319210295 0.0891359641597508 -3.1000033659309087 1.363056753256071 2.050046335517449 -0.5200137469318284 1.1399529890374185
1.67308497429 0.0693419319210295 0.0891359641597508 -3.1000033659309087 1.363056753256071 2.050046335517449 -0.5200137469318284 1.1399529890374185
1.68320894241 0.0693419319210295 0.0891359641597508 -3.1000033659309087 1.363056753256071 2.050046335517449 -0.5200137469318284 1.1399529890374185
1.68320894241 0.0693419319210295 0.0891359641597508 -3.1000033659309087 1.363056753256071 2.050046335517449 -0.5200137469318284 1.1399529890374185
1.69300103188 0.0693419319210295 0.0891359641597508 -3.1000033659309087 1.363056753256071 2.050046335517449 -0.5200137469318284 1.1399529890374185
1.69300103188 0.0693419319210295 0.0891359641597508 -3.1000033659309087 1.363056753256071 2.050046335517449 -0.5200137469318284 1.1399529890374185
1.70305800438 0.0692959118869748 0.0891359641597508 -3.1000033659309087 1.363056753256071 2.050046335517449 -0.5200137469318284 1.1399529890374185
1.70305800438 0.0692959118869748 0.0891359641597508 -3.1000033659309087 1.363056753256071 2.050046335517449 -0.5200137469318284 1.1399529890374185
1.7131819725 0.0692959118869748 0.0891359641597508 -3.1000033659309087 1.363056753256071 2.050046335517449 -0.5200137469318284 1.1399529890374185
1.7131819725 0.0692959118869748 0.0891359641597508 -3.1000033659309087 1.363056753256071 2.050046335517449 -0.5200137469318284 1.1399529890374185
1.72315907478 0.0692959118869748 0.0891359641597508 -3.1000033659309087 1.363056753256071 2.050046335517449 -0.5200137469318284 1.1399529890374185
1.72315907478 0.0692959118869748 0.0891359641597508 -3.1000033659309087 1.363056753256071 2.050046335517449 -0.5200137469318284 1.1399529890374185
1.73308396339 0.0692959118869748 0.0891359641597508 -3.1000033659309087 1.363056753256071 2.050046335517449 -0.5200137469318284 1.1399529890374185
1.73308396339 0.0692959118869748 0.0891359641597508 -3.1000033659309087 1.363056753256071 2.050046335517449 -0.5200137469318284 1.1399529890374185
1.74318814278 0.0692959118869748 0.0891359641597508 -3.1000033659309087 1.363056753256071 2.050046335517449 -0.5200137469318284 1.1399529890374185
1.74318814278 0.0692959118869748 0.0891359641597508 -3.1000033659309087 1.363056753256071 2.050046335517449 -0.5200137469318284 1.1399529890374185
1.75305700302 0.0692959118869748 0.0891359641597508 -3.1000033659309087 1.363056753256071 2.050046335517449 -0.5200137469318284 1.1399529890374185
1.75305700302 0.0692959118869748 0.0891359641597508 -3.1000033659309087 1.363056753256071 2.050046335517449 -0.5200137469318284 1.1399529890374185
1.76311302185 0.0692959118869748 0.0891359641597508 -3.1000033659309087 1.363056753256071 2.050046335517449 -0.5200137469318284 1.1399529890374185
1.76311302185 0.0692959118869748 0.0891359641597508 -3.1000033659309087 1.363056753256071 2.050046335517449 -0.5200137469318284 1.1399529890374185
1.77333593369 0.0692959118869748 0.0891359641597508 -3.1000033659309087 1.363056753256071 2.050046335517449 -0.5200137469318284 1.1399529890374185
1.77333593369 0.0692959118869748 0.0891359641597508 -3.1000033659309087 1.363056753256071 2.050046335517449 -0.5200137469318284 1.1399529890374185
1.78332901001 0.0692959118869748 0.0891359641597508 -3.1000033659309087 1.363056753256071 2.050046335517449 -0.5200137469318284 1.1399529890374185
1.78332901001 0.0692959118869748 0.0891359641597508 -3.1000033659309087 1.363056753256071 2.050046335517449 -0.5200137469318284 1.1399529890374185
1.79290795326 0.0692805718756232 0.0891359641597508 -3.1000033659309087 1.363056753256071 2.050046335517449 -0.5200137469318284 1.1399529890374185
1.79290795326 0.0692805718756232 0.0891359641597508 -3.1000033659309087 1.363056753256071 2.050046335517449 -0.5200137469318284 1.1399529890374185
1.80280804634 0.0692805718756232 0.0891359641597508 -3.1000033659309087 1.363056753256071 2.050046335517449 -0.5200137469318284 1.1399529890374185
1.80280804634 0.0692805718756232 0.0891359641597508 -3.1000033659309087 1.363056753256071 2.050046335517449 -0.5200137469318284 1.1399529890374185
1.81297016144 0.0692805718756232 0.0891359641597508 -3.1000033659309087 1.363056753256071 2.050046335517449 -0.5200137469318284 1.1399529890374185
1.81297016144 0.0692805718756232 0.0891359641597508 -3.1000033659309087 1.363056753256071 2.050046335517449 -0.5200137469318284 1.1399529890374185
1.82288193703 0.0692805718756232 0.0891359641597508 -3.1000033659309087 1.363056753256071 2.050046335517449 -0.5200137469318284 1.1399529890374185
1.82288193703 0.0692805718756232 0.0891359641597508 -3.1000033659309087 1.363056753256071 2.050046335517449 -0.5200137469318284 1.1399529890374185
1.83292913437 0.0692805718756232 0.0891359641597508 -3.1000033659309087 1.363056753256071 2.050046335517449 -0.5200137469318284 1.1399529890374185
1.83292913437 0.0692805718756232 0.0891359641597508 -3.1000033659309087 1.363056753256071 2.050046335517449 -0.5200137469318284 1.1399529890374185
1.84280109406 0.0692805718756232 0.0891359641597508 -3.1000033659309087 1.363056753256071 2.050046335517449 -0.5200137469318284 1.1399529890374185
1.84280109406 0.0692805718756232 0.0891359641597508 -3.1000033659309087 1.363056753256071 2.050046335517449 -0.5200137469318284 1.1399529890374185
1.85283112526 0.0692805718756232 0.0891359641597508 -3.1000033659309087 1.363056753256071 2.050046335517449 -0.5200137469318284 1.1399529890374185
1.85283112526 0.0692805718756232 0.0891359641597508 -3.1000033659309087 1.363056753256071 2.050046335517449 -0.5200137469318284 1.1399529890374185
1.86289000511 0.0692805718756232 0.0891359641597508 -3.1000033659309087 1.363056753256071 2.050046335517449 -0.5200137469318284 1.1399529890374185
1.86289000511 0.0692805718756232 0.0891359641597508 -3.1000033659309087 1.363056753256071 2.050046335517449 -0.5200137469318284 1.1399529890374185
1.87288594246 0.0692805718756232 0.0891359641597508 -3.1000033659309087 1.363056753256071 2.050046335517449 -0.5200137469318284 1.1399529890374185
1.87288594246 0.0692805718756232 0.0891359641597508 -3.1000033659309087 1.363056753256071 2.050046335517449 -0.5200137469318284 1.1399529890374185
1.88316607475 0.0692805718756232 0.0891359641597508 -3.1000033659309087 1.363056753256071 2.050046335517449 -0.5200137469318284 1.1399529890374185
1.88316607475 0.0692805718756232 0.0891359641597508 -3.1000033659309087 1.363056753256071 2.050046335517449 -0.5200137469318284 1.1399529890374185
1.89413905144 0.0692805718756232 0.0891359641597508 -3.1000033659309087 1.363056753256071 2.050046335517449 -0.5200137469318284 1.1399529890374185
1.89413905144 0.0692805718756232 0.0891359641597508 -3.1000033659309087 1.363056753256071 2.050046335517449 -0.5200137469318284 1.1399529890374185
1.90296196938 0.0692805718756232 0.0891359641597508 -3.1000033659309087 1.363056753256071 2.050046335517449 -0.5200137469318284 1.1399529890374185
1.90296196938 0.0692805718756232 0.0891359641597508 -3.1000033659309087 1.363056753256071 2.050046335517449 -0.5200137469318284 1.1399529890374185
1.91319203377 0.0692805718756232 0.0891359641597508 -3.1000033659309087 1.363056753256071 2.050046335517449 -0.5200137469318284 1.1399529890374185
1.91319203377 0.0692805718756232 0.0891359641597508 -3.1000033659309087 1.363056753256071 2.050046335517449 -0.5200137469318284 1.1399529890374185
1.92298793793 0.0692805718756232 0.0891359641597508 -3.1000033659309087 1.363056753256071 2.050046335517449 -0.5200137469318284 1.1399529890374185
1.92298793793 0.0692805718756232 0.0891359641597508 -3.1000033659309087 1.363056753256071 2.050046335517449 -0.5200137469318284 1.1399529890374185
1.93301105499 0.0692805718756232 0.0891359641597508 -3.1000033659309087 1.363056753256071 2.050046335517449 -0.5200137469318284 1.1399529890374185
1.93301105499 0.0692805718756232 0.0891359641597508 -3.1000033659309087 1.363056753256071 2.050046335517449 -0.5200137469318284 1.1399529890374185
1.9432489872 0.0692805718756232 0.0891359641597508 -3.1000033659309087 1.363056753256071 2.050046335517449 -0.5200137469318284 1.1399529890374185
1.9432489872 0.0692805718756232 0.0891359641597508 -3.1000033659309087 1.363056753256071 2.050046335517449 -0.5200137469318284 1.1399529890374185
1.95296597481 0.0692805718756232 0.0891359641597508 -3.1000033659309087 1.363056753256071 2.050046335517449 -0.5200137469318284 1.1399529890374185
1.95296597481 0.0692805718756232 0.0891359641597508 -3.1000033659309087 1.363056753256071 2.050046335517449 -0.5200137469318284 1.1399529890374185
1.96313810349 0.0692805718756232 0.0891359641597508 -3.1000033659309087 1.363056753256071 2.050046335517449 -0.5200137469318284 1.1399529890374185
1.96313810349 0.0692805718756232 0.0891359641597508 -3.1000033659309087 1.363056753256071 2.050046335517449 -0.5200137469318284 1.1399529890374185
1.97319507599 0.0692805718756232 0.0891359641597508 -3.1000033659309087 1.363056753256071 2.050046335517449 -0.5200137469318284 1.1399529890374185
1.97319507599 0.0692805718756232 0.0891359641597508 -3.1000033659309087 1.363056753256071 2.050046335517449 -0.5200137469318284 1.1399529890374185
1.98295903206 0.0692805718756232 0.0891359641597508 -3.1000033659309087 1.363056753256071 2.050046335517449 -0.5200137469318284 1.1399529890374185
1.98295903206 0.0692805718756232 0.0891359641597508 -3.1000033659309087 1.363056753256071 2.050046335517449 -0.5200137469318284 1.1399529890374185
1.99304413795 0.0692805718756232 0.0891359641597508 -3.1000033659309087 1.363056753256071 2.050046335517449 -0.5200137469318284 1.1399529890374185
1.99304413795 0.0692805718756232 0.0891359641597508 -3.1000033659309087 1.363056753256071 2.050046335517449 -0.5200137469318284 1.1399529890374185
2.00316905975 0.0692805718756232 0.0891359641597508 -3.1000033659309087 1.363056753256071 2.050046335517449 -0.5200137469318284 1.1399529890374185
2.00316905975 0.0692805718756232 0.0891359641597508 -3.1000033659309087 1.363056753256071 2.050046335517449 -0.5200137469318284 1.1399529890374185
2.0131149292 0.0692805718756232 0.0891359641597508 -3.1000033659309087 1.363056753256071 2.050046335517449 -0.5200137469318284 1.1399529890374185
2.0131149292 0.0692805718756232 0.0891359641597508 -3.1000033659309087 1.363056753256071 2.050046335517449 -0.5200137469318284 1.1399529890374185
2.02326011658 0.0692805718756232 0.0891359641597508 -3.1000033659309087 1.363056753256071 2.050046335517449 -0.5200137469318284 1.1399529890374185
2.02326011658 0.0692805718756232 0.0891359641597508 -3.1000033659309087 1.363056753256071 2.050046335517449 -0.5200137469318284 1.1399529890374185
2.03298997879 0.0692805718756232 0.0891359641597508 -3.1000033659309087 1.363056753256071 2.050046335517449 -0.5200137469318284 1.1399529890374185
2.03298997879 0.0692805718756232 0.0891359641597508 -3.1000033659309087 1.363056753256071 2.050046335517449 -0.5200137469318284 1.1399529890374185
2.04311609268 0.0692805718756232 0.0891359641597508 -3.1000033659309087 1.363056753256071 2.050046335517449 -0.5200137469318284 1.1399529890374185
2.04311609268 0.0692805718756232 0.0891359641597508 -3.1000033659309087 1.363056753256071 2.050046335517449 -0.5200137469318284 1.1399529890374185
2.05318903923 0.0692805718756232 0.0891359641597508 -3.1000033659309087 1.363056753256071 2.050046335517449 -0.5200137469318284 1.1399529890374185
2.05318903923 0.0692805718756232 0.0891359641597508 -3.1000033659309087 1.363056753256071 2.050046335517449 -0.5200137469318284 1.1399529890374185
2.06316709518 0.0692805718756232 0.0891359641597508 -3.1000033659309087 1.363056753256071 2.050046335517449 -0.5200137469318284 1.1399529890374185
2.06316709518 0.0692805718756232 0.0891359641597508 -3.1000033659309087 1.363056753256071 2.050046335517449 -0.5200137469318284 1.1399529890374185
2.07287502289 0.0692805718756232 0.0891359641597508 -3.1000033659309087 1.363056753256071 2.050046335517449 -0.5200137469318284 1.1399529890374185
2.07287502289 0.0692805718756232 0.0891359641597508 -3.1000033659309087 1.363056753256071 2.050046335517449 -0.5200137469318284 1.1399529890374185
2.08327007294 0.0692805718756232 0.0891359641597508 -3.1000033659309087 1.363056753256071 2.050046335517449 -0.5200137469318284 1.1399529890374185
2.08327007294 0.0692805718756232 0.0891359641597508 -3.1000033659309087 1.363056753256071 2.050046335517449 -0.5200137469318284 1.1399529890374185
2.09323000908 0.0692805718756232 0.0891359641597508 -3.1000033659309087 1.363056753256071 2.050046335517449 -0.5200137469318284 1.1399529890374185
2.09323000908 0.0692805718756232 0.0891359641597508 -3.1000033659309087 1.363056753256071 2.050046335517449 -0.5200137469318284 1.1399529890374185
2.1031639576 0.0692805718756232 0.0891359641597508 -3.1000033659309087 1.363056753256071 2.050046335517449 -0.5200137469318284 1.1399529890374185
2.1031639576 0.0692805718756232 0.0891359641597508 -3.1000033659309087 1.363056753256071 2.050046335517449 -0.5200137469318284 1.1399529890374185
2.11292695999 0.0692805718756232 0.0891359641597508 -3.1000033659309087 1.363056753256071 2.050046335517449 -0.5200137469318284 1.1399529890374185
2.11292695999 0.0692805718756232 0.0891359641597508 -3.1000033659309087 1.363056753256071 2.050046335517449 -0.5200137469318284 1.1399529890374185
2.12284803391 0.0692805718756232 0.0891359641597508 -3.1000033659309087 1.363056753256071 2.050046335517449 -0.5200137469318284 1.1399529890374185
2.12284803391 0.0692805718756232 0.0891359641597508 -3.1000033659309087 1.363056753256071 2.050046335517449 -0.5200137469318284 1.1399529890374185
2.13283801079 0.0692805718756232 0.0891359641597508 -3.1000033659309087 1.363056753256071 2.050046335517449 -0.5200137469318284 1.1399529890374185
2.13283801079 0.0692805718756232 0.0891359641597508 -3.1000033659309087 1.363056753256071 2.050046335517449 -0.5200137469318284 1.1399529890374185
2.14292216301 0.0692805718756232 0.0891359641597508 -3.1000033659309087 1.363056753256071 2.050046335517449 -0.5200137469318284 1.1399529890374185
2.14292216301 0.0692805718756232 0.0891359641597508 -3.1000033659309087 1.363056753256071 2.050046335517449 -0.5200137469318284 1.1399529890374185
2.15289115906 0.0692805718756232 0.0891359641597508 -3.1000033659309087 1.363056753256071 2.050046335517449 -0.5200137469318284 1.1399529890374185
2.15289115906 0.0692805718756232 0.0891359641597508 -3.1000033659309087 1.363056753256071 2.050046335517449 -0.5200137469318284 1.1399529890374185
2.16289997101 0.0692805718756232 0.0891359641597508 -3.1000033659309087 1.363056753256071 2.050046335517449 -0.5200137469318284 1.1399529890374185
2.16289997101 0.0692805718756232 0.0891359641597508 -3.1000033659309087 1.363056753256071 2.050046335517449 -0.5200137469318284 1.1399529890374185
2.17305111885 0.0692805718756232 0.0891359641597508 -3.1000033659309087 1.363056753256071 2.050046335517449 -0.5200137469318284 1.1399529890374185
2.17305111885 0.0692805718756232 0.0891359641597508 -3.1000033659309087 1.363056753256071 2.050046335517449 -0.5200137469318284 1.1399529890374185
2.1828930378 0.0692805718756232 0.0891359641597508 -3.1000033659309087 1.363056753256071 2.050046335517449 -0.5200137469318284 1.1399529890374185
2.1828930378 0.0692805718756232 0.0891359641597508 -3.1000033659309087 1.363056753256071 2.050046335517449 -0.5200137469318284 1.1399529890374185
2.19311714172 0.0692805718756232 0.0891359641597508 -3.1000033659309087 1.363056753256071 2.050046335517449 -0.5200137469318284 1.1399529890374185
2.19311714172 0.0692805718756232 0.0891359641597508 -3.1000033659309087 1.363056753256071 2.050046335517449 -0.5200137469318284 1.1399529890374185
2.20293712616 0.0692805718756232 0.0891359641597508 -3.1000033659309087 1.363056753256071 2.050046335517449 -0.5200137469318284 1.1399529890374185
2.20293712616 0.0692805718756232 0.0891359641597508 -3.1000033659309087 1.363056753256071 2.050046335517449 -0.5200137469318284 1.1399529890374185
2.21304893494 0.0692805718756232 0.0891359641597508 -3.1000033659309087 1.363056753256071 2.050046335517449 -0.5200137469318284 1.1399529890374185
2.21304893494 0.0692805718756232 0.0891359641597508 -3.1000033659309087 1.363056753256071 2.050046335517449 -0.5200137469318284 1.1399529890374185
2.22291707993 0.0692805718756232 0.0891359641597508 -3.1000033659309087 1.363056753256071 2.050046335517449 -0.5200137469318284 1.1399529890374185
2.22291707993 0.0692805718756232 0.0891359641597508 -3.1000033659309087 1.363056753256071 2.050046335517449 -0.5200137469318284 1.1399529890374185
2.23289608955 0.0692805718756232 0.0891359641597508 -3.1000033659309087 1.363056753256071 2.050046335517449 -0.5200137469318284 1.1399529890374185
2.23289608955 0.0692805718756232 0.0891359641597508 -3.1000033659309087 1.363056753256071 2.050046335517449 -0.5200137469318284 1.1399529890374185
2.24289703369 0.0692805718756232 0.0891359641597508 -3.1000033659309087 1.363056753256071 2.050046335517449 -0.5200137469318284 1.1399529890374185
2.24289703369 0.0692805718756232 0.0891359641597508 -3.1000033659309087 1.363056753256071 2.050046335517449 -0.5200137469318284 1.1399529890374185
2.25300812721 0.0692805718756232 0.0891359641597508 -3.1000033659309087 1.363056753256071 2.050046335517449 -0.5200137469318284 1.1399529890374185
2.25300812721 0.0692805718756232 0.0891359641597508 -3.1000033659309087 1.363056753256071 2.050046335517449 -0.5200137469318284 1.1399529890374185
2.26311802864 0.0692805718756232 0.0891359641597508 -3.1000033659309087 1.363056753256071 2.050046335517449 -0.5200137469318284 1.1399529890374185
2.26311802864 0.0692805718756232 0.0891359641597508 -3.1000033659309087 1.363056753256071 2.050046335517449 -0.5200137469318284 1.1399529890374185
2.27313303947 0.0692805718756232 0.0891359641597508 -3.1000033659309087 1.363056753256071 2.050046335517449 -0.5200137469318284 1.1399529890374185
2.27313303947 0.0692805718756232 0.0891359641597508 -3.1000033659309087 1.363056753256071 2.050046335517449 -0.5200137469318284 1.1399529890374185
2.2832069397 0.0692805718756232 0.0891359641597508 -3.1000033659309087 1.363056753256071 2.050046335517449 -0.5200137469318284 1.1399529890374185
2.2832069397 0.0692805718756232 0.0891359641597508 -3.1000033659309087 1.363056753256071 2.050046335517449 -0.5200137469318284 1.1399529890374185
2.29327201843 0.0692805718756232 0.0891359641597508 -3.1000033659309087 1.363056753256071 2.050046335517449 -0.5200137469318284 1.1399529890374185
2.29327201843 0.0692805718756232 0.0891359641597508 -3.1000033659309087 1.363056753256071 2.050046335517449 -0.5200137469318284 1.1399529890374185
2.30330395699 0.0692805718756232 0.0891359641597508 -3.1000033659309087 1.363056753256071 2.050046335517449 -0.5200137469318284 1.1399529890374185
2.30330395699 0.0692805718756232 0.0891359641597508 -3.1000033659309087 1.363056753256071 2.050046335517449 -0.5200137469318284 1.1399529890374185
2.31324505806 0.0692805718756232 0.0891359641597508 -3.1000033659309087 1.363056753256071 2.050046335517449 -0.5200137469318284 1.1399529890374185
2.31324505806 0.0692805718756232 0.0891359641597508 -3.1000033659309087 1.363056753256071 2.050046335517449 -0.5200137469318284 1.1399529890374185
2.32330107689 0.0692805718756232 0.0891359641597508 -3.1000033659309087 1.363056753256071 2.050046335517449 -0.5200137469318284 1.1399529890374185
2.32330107689 0.0692805718756232 0.0891359641597508 -3.1000033659309087 1.363056753256071 2.050046335517449 -0.5200137469318284 1.1399529890374185
2.33333611488 0.0692805718756232 0.0891359641597508 -3.1000033659309087 1.363056753256071 2.050046335517449 -0.5200137469318284 1.1399529890374185
2.33333611488 0.0692805718756232 0.0891359641597508 -3.1000033659309087 1.363056753256071 2.050046335517449 -0.5200137469318284 1.1399529890374185
2.34326410294 0.0692805718756232 0.0891359641597508 -3.1000033659309087 1.363056753256071 2.050046335517449 -0.5200137469318284 1.1399529890374185
2.34326410294 0.0692805718756232 0.0891359641597508 -3.1000033659309087 1.363056753256071 2.050046335517449 -0.5200137469318284 1.1399529890374185
2.35307097435 0.0692805718756232 0.0891359641597508 -3.1000033659309087 1.363056753256071 2.050046335517449 -0.5200137469318284 1.1399529890374185
2.35307097435 0.0692805718756232 0.0891359641597508 -3.1000033659309087 1.363056753256071 2.050046335517449 -0.5200137469318284 1.1399529890374185
2.363063097 0.0692805718756232 0.0891359641597508 -3.1000033659309087 1.363056753256071 2.050046335517449 -0.5200137469318284 1.1399529890374185
2.363063097 0.0692805718756232 0.0891359641597508 -3.1000033659309087 1.363056753256071 2.050046335517449 -0.5200137469318284 1.1399529890374185
2.37303113937 0.0692805718756232 0.0891359641597508 -3.1000033659309087 1.363056753256071 2.050046335517449 -0.5200137469318284 1.1399529890374185
2.37303113937 0.0692805718756232 0.0891359641597508 -3.1000033659309087 1.363056753256071 2.050046335517449 -0.5200137469318284 1.1399529890374185
2.38327908516 0.0692805718756232 0.0891359641597508 -3.1000033659309087 1.363056753256071 2.050046335517449 -0.5200137469318284 1.1399529890374185
2.38327908516 0.0692805718756232 0.0891359641597508 -3.1000033659309087 1.363056753256071 2.050046335517449 -0.5200137469318284 1.1399529890374185
2.39312195778 0.0692805718756232 0.0891359641597508 -3.1000033659309087 1.363056753256071 2.050046335517449 -0.5200137469318284 1.1399529890374185
2.39312195778 0.0692805718756232 0.0891359641597508 -3.1000033659309087 1.363056753256071 2.050046335517449 -0.5200137469318284 1.1399529890374185
2.40326809883 0.0692805718756232 0.0891359641597508 -3.1000033659309087 1.363056753256071 2.050046335517449 -0.5200137469318284 1.1399529890374185
2.40326809883 0.0692805718756232 0.0891359641597508 -3.1000033659309087 1.363056753256071 2.050046335517449 -0.5200137469318284 1.1399529890374185
2.41331005096 0.0692805718756232 0.0891359641597508 -3.1000033659309087 1.363056753256071 2.050046335517449 -0.5200137469318284 1.1399529890374185
2.41331005096 0.0692805718756232 0.0891359641597508 -3.1000033659309087 1.363056753256071 2.050046335517449 -0.5200137469318284 1.1399529890374185
2.42329406738 0.0692805718756232 0.0891359641597508 -3.1000033659309087 1.363056753256071 2.050046335517449 -0.5200137469318284 1.1399529890374185
2.42329406738 0.0692805718756232 0.0891359641597508 -3.1000033659309087 1.363056753256071 2.050046335517449 -0.5200137469318284 1.1399529890374185
2.4331381321 0.0692805718756232 0.0891359641597508 -3.1000033659309087 1.363056753256071 2.050046335517449 -0.5200137469318284 1.1399529890374185
2.4331381321 0.0692805718756232 0.0891359641597508 -3.1000033659309087 1.363056753256071 2.050046335517449 -0.5200137469318284 1.1399529890374185
2.44325995445 0.0692805718756232 0.0891359641597508 -3.1000033659309087 1.363056753256071 2.050046335517449 -0.5200137469318284 1.1399529890374185
2.44325995445 0.0692805718756232 0.0891359641597508 -3.1000033659309087 1.363056753256071 2.050046335517449 -0.5200137469318284 1.1399529890374185
2.45325398445 0.0692805718756232 0.0891359641597508 -3.1000033659309087 1.363056753256071 2.050046335517449 -0.5200137469318284 1.1399529890374185
2.45325398445 0.0692805718756232 0.0891359641597508 -3.1000033659309087 1.363056753256071 2.050046335517449 -0.5200137469318284 1.1399529890374185
2.46328210831 0.0692805718756232 0.0891359641597508 -3.1000033659309087 1.363056753256071 2.050046335517449 -0.5200137469318284 1.1399529890374185
2.46328210831 0.0692805718756232 0.0891359641597508 -3.1000033659309087 1.363056753256071 2.050046335517449 -0.5200137469318284 1.1399529890374185
2.47308301926 0.0692805718756232 0.0891359641597508 -3.1000033659309087 1.363056753256071 2.050046335517449 -0.5200137469318284 1.1399529890374185
2.47308301926 0.0692805718756232 0.0891359641597508 -3.1000033659309087 1.363056753256071 2.050046335517449 -0.5200137469318284 1.1399529890374185
2.48300814629 0.0692805718756232 0.0891359641597508 -3.1000033659309087 1.363056753256071 2.050046335517449 -0.5200137469318284 1.1399529890374185
2.48300814629 0.0692805718756232 0.0891359641597508 -3.1000033659309087 1.363056753256071 2.050046335517449 -0.5200137469318284 1.1399529890374185
2.49319505692 0.0692805718756232 0.0891359641597508 -3.1000033659309087 1.363056753256071 2.050046335517449 -0.5200137469318284 1.1399529890374185
2.49319505692 0.0692805718756232 0.0891359641597508 -3.1000033659309087 1.363056753256071 2.050046335517449 -0.5200137469318284 1.1399529890374185
2.5032479763 0.0692805718756232 0.0891359641597508 -3.1000033659309087 1.363056753256071 2.050046335517449 -0.5200137469318284 1.1399529890374185
2.5032479763 0.0692805718756232 0.0891359641597508 -3.1000033659309087 1.363056753256071 2.050046335517449 -0.5200137469318284 1.1399529890374185
2.51314997673 0.0692805718756232 0.0891359641597508 -3.1000033659309087 1.363056753256071 2.050046335517449 -0.5200137469318284 1.1399529890374185
2.51314997673 0.0692805718756232 0.0891359641597508 -3.1000033659309087 1.363056753256071 2.050046335517449 -0.5200137469318284 1.1399529890374185
2.52328300476 0.0692805718756232 0.0891359641597508 -3.1000033659309087 1.363056753256071 2.050046335517449 -0.5200137469318284 1.1399529890374185
2.52328300476 0.0692805718756232 0.0891359641597508 -3.1000033659309087 1.363056753256071 2.050046335517449 -0.5200137469318284 1.1399529890374185
2.53332495689 0.0692805718756232 0.0891359641597508 -3.1000033659309087 1.363056753256071 2.050046335517449 -0.5200137469318284 1.1399529890374185
2.53332495689 0.0692805718756232 0.0891359641597508 -3.1000033659309087 1.363056753256071 2.050046335517449 -0.5200137469318284 1.1399529890374185
2.54317212105 0.0692805718756232 0.0891359641597508 -3.1000033659309087 1.363056753256071 2.050046335517449 -0.5200137469318284 1.1399529890374185
2.54317212105 0.0692805718756232 0.0891359641597508 -3.1000033659309087 1.363056753256071 2.050046335517449 -0.5200137469318284 1.1399529890374185
2.55332112312 0.0692805718756232 0.0891359641597508 -3.1000033659309087 1.363056753256071 2.050046335517449 -0.5200137469318284 1.1399529890374185
2.55332112312 0.0692805718756232 0.0891359641597508 -3.1000033659309087 1.363056753256071 2.050046335517449 -0.5200137469318284 1.1399529890374185
2.56332707405 0.0692805718756232 0.0891359641597508 -3.1000033659309087 1.363056753256071 2.050046335517449 -0.5200137469318284 1.1399529890374185
2.56332707405 0.0692805718756232 0.0891359641597508 -3.1000033659309087 1.363056753256071 2.050046335517449 -0.5200137469318284 1.1399529890374185
2.57304501534 0.0692805718756232 0.0891359641597508 -3.1000033659309087 1.363056753256071 2.050046335517449 -0.5200137469318284 1.1399529890374185
2.57304501534 0.0692805718756232 0.0891359641597508 -3.1000033659309087 1.363056753256071 2.050046335517449 -0.5200137469318284 1.1399529890374185
2.58331894875 0.0692805718756232 0.0891359641597508 -3.1000033659309087 1.363056753256071 2.050046335517449 -0.5200137469318284 1.1399529890374185
2.58331894875 0.0692805718756232 0.0891359641597508 -3.1000033659309087 1.363056753256071 2.050046335517449 -0.5200137469318284 1.1399529890374185
2.59326505661 0.0692805718756232 0.0891359641597508 -3.1000033659309087 1.363056753256071 2.050046335517449 -0.5200137469318284 1.1399529890374185
2.59326505661 0.0692805718756232 0.0891359641597508 -3.1000033659309087 1.363056753256071 2.050046335517449 -0.5200137469318284 1.1399529890374185
2.60307097435 0.0692805718756232 0.0891359641597508 -3.1000033659309087 1.363056753256071 2.050046335517449 -0.5200137469318284 1.1399529890374185
2.60307097435 0.0692805718756232 0.0891359641597508 -3.1000033659309087 1.363056753256071 2.050046335517449 -0.5200137469318284 1.1399529890374185
2.61327815056 0.0692805718756232 0.0891359641597508 -3.1000033659309087 1.363056753256071 2.050046335517449 -0.5200137469318284 1.1399529890374185
2.61327815056 0.0692805718756232 0.0891359641597508 -3.1000033659309087 1.363056753256071 2.050046335517449 -0.5200137469318284 1.1399529890374185
2.62329101562 0.0692805718756232 0.0891359641597508 -3.1000033659309087 1.363056753256071 2.050046335517449 -0.5200137469318284 1.1399529890374185
2.62329101562 0.0692805718756232 0.0891359641597508 -3.1000033659309087 1.363056753256071 2.050046335517449 -0.5200137469318284 1.1399529890374185
2.63322210312 0.0692805718756232 0.0891359641597508 -3.1000033659309087 1.363056753256071 2.050046335517449 -0.5200137469318284 1.1399529890374185
2.63322210312 0.0692805718756232 0.0891359641597508 -3.1000033659309087 1.363056753256071 2.050046335517449 -0.5200137469318284 1.1399529890374185
2.64330601692 0.0692805718756232 0.0891359641597508 -3.1000033659309087 1.363056753256071 2.050046335517449 -0.5200137469318284 1.1399529890374185
2.64330601692 0.0692805718756232 0.0891359641597508 -3.1000033659309087 1.363056753256071 2.050046335517449 -0.5200137469318284 1.1399529890374185
2.65329504013 0.0692805718756232 0.0891359641597508 -3.1000033659309087 1.363056753256071 2.050046335517449 -0.5200137469318284 1.1399529890374185
2.65329504013 0.0692805718756232 0.0891359641597508 -3.1000033659309087 1.363056753256071 2.050046335517449 -0.5200137469318284 1.1399529890374185
2.6632270813 0.0692805718756232 0.0891359641597508 -3.1000033659309087 1.363056753256071 2.050046335517449 -0.5200137469318284 1.1399529890374185
2.6632270813 0.0692805718756232 0.0891359641597508 -3.1000033659309087 1.363056753256071 2.050046335517449 -0.5200137469318284 1.1399529890374185
2.67324900627 0.0692805718756232 0.0891359641597508 -3.1000033659309087 1.363056753256071 2.050046335517449 -0.5200137469318284 1.1399529890374185
2.67324900627 0.0692805718756232 0.0891359641597508 -3.1000033659309087 1.363056753256071 2.050046335517449 -0.5200137469318284 1.1399529890374185
2.68331503868 0.0692805718756232 0.0891359641597508 -3.1000033659309087 1.363056753256071 2.050046335517449 -0.5200137469318284 1.1399529890374185
2.68331503868 0.0692805718756232 0.0891359641597508 -3.1000033659309087 1.363056753256071 2.050046335517449 -0.5200137469318284 1.1399529890374185
2.69316911697 0.0692805718756232 0.0891359641597508 -3.1000033659309087 1.363056753256071 2.050046335517449 -0.5200137469318284 1.1399529890374185
2.69316911697 0.0692805718756232 0.0891359641597508 -3.1000033659309087 1.363056753256071 2.050046335517449 -0.5200137469318284 1.1399529890374185
2.70315098763 0.0692805718756232 0.0891359641597508 -3.1000033659309087 1.363056753256071 2.050046335517449 -0.5200137469318284 1.1399529890374185
2.70315098763 0.0692805718756232 0.0891359641597508 -3.1000033659309087 1.363056753256071 2.050046335517449 -0.5200137469318284 1.1399529890374185
2.71301007271 0.0692805718756232 0.0891359641597508 -3.1000033659309087 1.363056753256071 2.050046335517449 -0.5200137469318284 1.1399529890374185
2.71301007271 0.0692805718756232 0.0891359641597508 -3.1000033659309087 1.363056753256071 2.050046335517449 -0.5200137469318284 1.1399529890374185
2.72317504883 0.0692805718756232 0.0891359641597508 -3.1000033659309087 1.363056753256071 2.050046335517449 -0.5200137469318284 1.1399529890374185
2.72317504883 0.0692805718756232 0.0891359641597508 -3.1000033659309087 1.363056753256071 2.050046335517449 -0.5200137469318284 1.1399529890374185
2.7331969738 0.0692805718756232 0.0891359641597508 -3.1000033659309087 1.363056753256071 2.050046335517449 -0.5200137469318284 1.1399529890374185
2.7331969738 0.0692805718756232 0.0891359641597508 -3.1000033659309087 1.363056753256071 2.050046335517449 -0.5200137469318284 1.1399529890374185
2.74300909042 0.0692805718756232 0.0891359641597508 -3.1000033659309087 1.363056753256071 2.050046335517449 -0.5200137469318284 1.1399529890374185
2.74300909042 0.0692805718756232 0.0891359641597508 -3.1000033659309087 1.363056753256071 2.050046335517449 -0.5200137469318284 1.1399529890374185
2.75318598747 0.0692805718756232 0.0891359641597508 -3.1000033659309087 1.363056753256071 2.050046335517449 -0.5200137469318284 1.1399529890374185
2.75318598747 0.0692805718756232 0.0891359641597508 -3.1000033659309087 1.363056753256071 2.050046335517449 -0.5200137469318284 1.1399529890374185
2.76330804825 0.0692805718756232 0.0891359641597508 -3.1000033659309087 1.363056753256071 2.050046335517449 -0.5200137469318284 1.1399529890374185
2.76330804825 0.0692805718756232 0.0891359641597508 -3.1000033659309087 1.363056753256071 2.050046335517449 -0.5200137469318284 1.1399529890374185
2.77328014374 0.0692805718756232 0.0891359641597508 -3.1000033659309087 1.363056753256071 2.050046335517449 -0.5200137469318284 1.1399529890374185
2.77328014374 0.0692805718756232 0.0891359641597508 -3.1000033659309087 1.363056753256071 2.050046335517449 -0.5200137469318284 1.1399529890374185
2.78336310387 0.0692805718756232 0.0891359641597508 -3.1000033659309087 1.363056753256071 2.050046335517449 -0.5200137469318284 1.1399529890374185
2.78336310387 0.0692805718756232 0.0891359641597508 -3.1000033659309087 1.363056753256071 2.050046335517449 -0.5200137469318284 1.1399529890374185
2.79323601723 0.0692805718756232 0.0891359641597508 -3.1000033659309087 1.363056753256071 2.050046335517449 -0.5200137469318284 1.1399529890374185
2.79323601723 0.0692805718756232 0.0891359641597508 -3.1000033659309087 1.363056753256071 2.050046335517449 -0.5200137469318284 1.1399529890374185
2.80336308479 0.0692805718756232 0.0891359641597508 -3.1000033659309087 1.363056753256071 2.050046335517449 -0.5200137469318284 1.1399529890374185
2.80336308479 0.0692805718756232 0.0891359641597508 -3.1000033659309087 1.363056753256071 2.050046335517449 -0.5200137469318284 1.1399529890374185
2.81337094307 0.0692805718756232 0.0891359641597508 -3.1000033659309087 1.363056753256071 2.050046335517449 -0.5200137469318284 1.1399529890374185
2.81337094307 0.0692805718756232 0.0891359641597508 -3.1000033659309087 1.363056753256071 2.050046335517449 -0.5200137469318284 1.1399529890374185
2.82315301895 0.0692805718756232 0.0891359641597508 -3.1000033659309087 1.363056753256071 2.050046335517449 -0.5200137469318284 1.1399529890374185
2.82315301895 0.0692805718756232 0.0891359641597508 -3.1000033659309087 1.363056753256071 2.050046335517449 -0.5200137469318284 1.1399529890374185
2.83297610283 0.0692805718756232 0.0891359641597508 -3.1000033659309087 1.363056753256071 2.050046335517449 -0.5200137469318284 1.1399529890374185
2.83297610283 0.0692805718756232 0.0891359641597508 -3.1000033659309087 1.363056753256071 2.050046335517449 -0.5200137469318284 1.1399529890374185
2.84312415123 0.0692805718756232 0.0891359641597508 -3.1000033659309087 1.363056753256071 2.050046335517449 -0.5200137469318284 1.1399529890374185
2.84312415123 0.0692805718756232 0.0891359641597508 -3.1000033659309087 1.363056753256071 2.050046335517449 -0.5200137469318284 1.1399529890374185
2.85307002068 0.0692805718756232 0.0891359641597508 -3.1000033659309087 1.363056753256071 2.050046335517449 -0.5200137469318284 1.1399529890374185
2.85307002068 0.0692805718756232 0.0891359641597508 -3.1000033659309087 1.363056753256071 2.050046335517449 -0.5200137469318284 1.1399529890374185
2.86327314377 0.0692805718756232 0.0891359641597508 -3.1000033659309087 1.363056753256071 2.050046335517449 -0.5200137469318284 1.1399529890374185
2.86327314377 0.0692805718756232 0.0891359641597508 -3.1000033659309087 1.363056753256071 2.050046335517449 -0.5200137469318284 1.1399529890374185
2.87328314781 0.0692805718756232 0.0891359641597508 -3.1000033659309087 1.363056753256071 2.050046335517449 -0.5200137469318284 1.1399529890374185
2.87328314781 0.0692805718756232 0.0891359641597508 -3.1000033659309087 1.363056753256071 2.050046335517449 -0.5200137469318284 1.1399529890374185
2.88326716423 0.0692805718756232 0.0891359641597508 -3.1000033659309087 1.363056753256071 2.050046335517449 -0.5200137469318284 1.1399529890374185
2.88326716423 0.0692805718756232 0.0891359641597508 -3.1000033659309087 1.363056753256071 2.050046335517449 -0.5200137469318284 1.1399529890374185
2.89329195023 0.0692805718756232 0.0891359641597508 -3.1000033659309087 1.363056753256071 2.050046335517449 -0.5200137469318284 1.1399529890374185
2.89329195023 0.0692805718756232 0.0891359641597508 -3.1000033659309087 1.363056753256071 2.050046335517449 -0.5200137469318284 1.1399529890374185
2.90332007408 0.0692805718756232 0.0891359641597508 -3.1000033659309087 1.363056753256071 2.050046335517449 -0.5200137469318284 1.1399529890374185
2.90332007408 0.0692805718756232 0.0891359641597508 -3.1000033659309087 1.363056753256071 2.050046335517449 -0.5200137469318284 1.1399529890374185
2.91318011284 0.0692805718756232 0.0891359641597508 -3.1000033659309087 1.363056753256071 2.050046335517449 -0.5200137469318284 1.1399529890374185
2.91318011284 0.0692805718756232 0.0891359641597508 -3.1000033659309087 1.363056753256071 2.050046335517449 -0.5200137469318284 1.1399529890374185
2.92333698273 0.0692805718756232 0.0891359641597508 -3.1000033659309087 1.363056753256071 2.050046335517449 -0.5200137469318284 1.1399529890374185
2.92333698273 0.0692805718756232 0.0891359641597508 -3.1000033659309087 1.363056753256071 2.050046335517449 -0.5200137469318284 1.1399529890374185
2.93338394165 0.0692805718756232 0.0891359641597508 -3.1000033659309087 1.363056753256071 2.050046335517449 -0.5200137469318284 1.1399529890374185
2.93338394165 0.0692805718756232 0.0891359641597508 -3.1000033659309087 1.363056753256071 2.050046335517449 -0.5200137469318284 1.1399529890374185
2.94323611259 0.0692805718756232 0.0891359641597508 -3.1000033659309087 1.363056753256071 2.050046335517449 -0.5200137469318284 1.1399529890374185
2.94323611259 0.0692805718756232 0.0891359641597508 -3.1000033659309087 1.363056753256071 2.050046335517449 -0.5200137469318284 1.1399529890374185
2.9530711174 0.0692805718756232 0.0891359641597508 -3.1000033659309087 1.363056753256071 2.050046335517449 -0.5200137469318284 1.1399529890374185
2.9530711174 0.0692805718756232 0.0891359641597508 -3.1000033659309087 1.363056753256071 2.050046335517449 -0.5200137469318284 1.1399529890374185
2.96311807632 0.0692805718756232 0.0891359641597508 -3.1000033659309087 1.363056753256071 2.050046335517449 -0.5200137469318284 1.1399529890374185
2.96311807632 0.0692805718756232 0.0891359641597508 -3.1000033659309087 1.363056753256071 2.050046335517449 -0.5200137469318284 1.1399529890374185
2.97316002846 0.0692805718756232 0.0891359641597508 -3.1000033659309087 1.363056753256071 2.050046335517449 -0.5200137469318284 1.1399529890374185
2.97316002846 0.0692805718756232 0.0891359641597508 -3.1000033659309087 1.363056753256071 2.050046335517449 -0.5200137469318284 1.1399529890374185
2.983273983 0.0692805718756232 0.0891359641597508 -3.1000033659309087 1.363056753256071 2.050046335517449 -0.5200137469318284 1.1399529890374185
2.983273983 0.0692805718756232 0.0891359641597508 -3.1000033659309087 1.363056753256071 2.050046335517449 -0.5200137469318284 1.1399529890374185
2.9932539463 0.0692805718756232 0.0891359641597508 -3.1000033659309087 1.363056753256071 2.050046335517449 -0.5200137469318284 1.1399529890374185
2.9932539463 0.0692805718756232 0.0891359641597508 -3.1000033659309087 1.363056753256071 2.050046335517449 -0.5200137469318284 1.1399529890374185
3.00319910049 0.0692805718756232 0.0891359641597508 -3.1000033659309087 1.363056753256071 2.050046335517449 -0.5200137469318284 1.1399529890374185
3.00319910049 0.0692805718756232 0.0891359641597508 -3.1000033659309087 1.363056753256071 2.050046335517449 -0.5200137469318284 1.1399529890374185
3.01310396194 0.0692805718756232 0.0891359641597508 -3.1000033659309087 1.363056753256071 2.050046335517449 -0.5200137469318284 1.1399529890374185
3.01310396194 0.0692805718756232 0.0891359641597508 -3.1000033659309087 1.363056753256071 2.050046335517449 -0.5200137469318284 1.1399529890374185
3.02320599556 0.0692805718756232 0.0891359641597508 -3.1000033659309087 1.363056753256071 2.050046335517449 -0.5200137469318284 1.1399529890374185
3.02320599556 0.0692805718756232 0.0891359641597508 -3.1000033659309087 1.363056753256071 2.050046335517449 -0.5200137469318284 1.1399529890374185
3.03309702873 0.0692805718756232 0.0891359641597508 -3.1000033659309087 1.363056753256071 2.050046335517449 -0.5200137469318284 1.1399529890374185
3.03309702873 0.0692805718756232 0.0891359641597508 -3.1000033659309087 1.363056753256071 2.050046335517449 -0.5200137469318284 1.1399529890374185
3.04318499565 0.0692805718756232 0.0891359641597508 -3.1000033659309087 1.363056753256071 2.050046335517449 -0.5200137469318284 1.1399529890374185
3.04318499565 0.0692805718756232 0.0891359641597508 -3.1000033659309087 1.363056753256071 2.050046335517449 -0.5200137469318284 1.1399529890374185
3.05328893661 0.0692805718756232 0.0891359641597508 -3.1000033659309087 1.363056753256071 2.050046335517449 -0.5200137469318284 1.1399529890374185
3.05328893661 0.0692805718756232 0.0891359641597508 -3.1000033659309087 1.363056753256071 2.050046335517449 -0.5200137469318284 1.1399529890374185
3.06333804131 0.0692805718756232 0.0891359641597508 -3.1000033659309087 1.363056753256071 2.050046335517449 -0.5200137469318284 1.1399529890374185
3.06333804131 0.0692805718756232 0.0891359641597508 -3.1000033659309087 1.363056753256071 2.050046335517449 -0.5200137469318284 1.1399529890374185
3.0731420517 0.0692805718756232 0.0891359641597508 -3.1000033659309087 1.363056753256071 2.050046335517449 -0.5200137469318284 1.1399529890374185
3.0731420517 0.0692805718756232 0.0891359641597508 -3.1000033659309087 1.363056753256071 2.050046335517449 -0.5200137469318284 1.1399529890374185
3.08316397667 0.0692805718756232 0.0891359641597508 -3.1000033659309087 1.363056753256071 2.050046335517449 -0.5200137469318284 1.1399529890374185
3.08316397667 0.0692805718756232 0.0891359641597508 -3.1000033659309087 1.363056753256071 2.050046335517449 -0.5200137469318284 1.1399529890374185
3.09326696396 0.0692805718756232 0.0891359641597508 -3.1000033659309087 1.363056753256071 2.050046335517449 -0.5200137469318284 1.1399529890374185
3.09326696396 0.0692805718756232 0.0891359641597508 -3.1000033659309087 1.363056753256071 2.050046335517449 -0.5200137469318284 1.1399529890374185
3.10326814651 0.0692805718756232 0.0891359641597508 -3.1000033659309087 1.363056753256071 2.050046335517449 -0.5200137469318284 1.1399529890374185
3.10326814651 0.0692805718756232 0.0891359641597508 -3.1000033659309087 1.363056753256071 2.050046335517449 -0.5200137469318284 1.1399529890374185
3.11328101158 0.0692805718756232 0.0891359641597508 -3.1000033659309087 1.363056753256071 2.050046335517449 -0.5200137469318284 1.1399529890374185
3.11328101158 0.0692805718756232 0.0891359641597508 -3.1000033659309087 1.363056753256071 2.050046335517449 -0.5200137469318284 1.1399529890374185
3.12328505516 0.0692805718756232 0.0891359641597508 -3.1000033659309087 1.363056753256071 2.050046335517449 -0.5200137469318284 1.1399529890374185
3.12328505516 0.0692805718756232 0.0891359641597508 -3.1000033659309087 1.363056753256071 2.050046335517449 -0.5200137469318284 1.1399529890374185
3.13315415382 0.0692805718756232 0.0891359641597508 -3.1000033659309087 1.363056753256071 2.050046335517449 -0.5200137469318284 1.1399529890374185
3.13315415382 0.0692805718756232 0.0891359641597508 -3.1000033659309087 1.363056753256071 2.050046335517449 -0.5200137469318284 1.1399529890374185
3.14376616478 0.0692805718756232 0.0891359641597508 -3.1000033659309087 1.363056753256071 2.050046335517449 -0.5200137469318284 1.1399529890374185
3.14376616478 0.0692805718756232 0.0891359641597508 -3.1000033659309087 1.363056753256071 2.050046335517449 -0.5200137469318284 1.1399529890374185
3.15285611153 0.0692805718756232 0.0891359641597508 -3.1000033659309087 1.363056753256071 2.050046335517449 -0.5200137469318284 1.1399529890374185
3.15285611153 0.0692805718756232 0.0891359641597508 -3.1000033659309087 1.363056753256071 2.050046335517449 -0.5200137469318284 1.1399529890374185
3.1630859375 0.0692805718756232 0.0891359641597508 -3.1000033659309087 1.363056753256071 2.050046335517449 -0.5200137469318284 1.1399529890374185
3.1630859375 0.0692805718756232 0.0891359641597508 -3.1000033659309087 1.363056753256071 2.050046335517449 -0.5200137469318284 1.1399529890374185
3.17319202423 0.0692805718756232 0.0891359641597508 -3.1000033659309087 1.363056753256071 2.050046335517449 -0.5200137469318284 1.1399529890374185
3.17319202423 0.0692805718756232 0.0891359641597508 -3.1000033659309087 1.363056753256071 2.050046335517449 -0.5200137469318284 1.1399529890374185
3.18329310417 0.0692805718756232 0.0891359641597508 -3.1000033659309087 1.363056753256071 2.050046335517449 -0.5200137469318284 1.1399529890374185
3.18329310417 0.0692805718756232 0.0891359641597508 -3.1000033659309087 1.363056753256071 2.050046335517449 -0.5200137469318284 1.1399529890374185
3.1930501461 0.0692805718756232 0.0891359641597508 -3.1000033659309087 1.363056753256071 2.050046335517449 -0.5200137469318284 1.1399529890374185
3.1930501461 0.0692805718756232 0.0891359641597508 -3.1000033659309087 1.363056753256071 2.050046335517449 -0.5200137469318284 1.1399529890374185
3.20309996605 0.0692805718756232 0.0891359641597508 -3.1000033659309087 1.363056753256071 2.050046335517449 -0.5200137469318284 1.1399529890374185
3.20309996605 0.0692805718756232 0.0891359641597508 -3.1000033659309087 1.363056753256071 2.050046335517449 -0.5200137469318284 1.1399529890374185
3.21318101883 0.0692805718756232 0.0891359641597508 -3.1000033659309087 1.363056753256071 2.050046335517449 -0.5200137469318284 1.1399529890374185
3.21318101883 0.0692805718756232 0.0891359641597508 -3.1000033659309087 1.363056753256071 2.050046335517449 -0.5200137469318284 1.1399529890374185
3.22328901291 0.0692805718756232 0.0891359641597508 -3.1000033659309087 1.363056753256071 2.050046335517449 -0.5200137469318284 1.1399529890374185
3.22328901291 0.0692805718756232 0.0891359641597508 -3.1000033659309087 1.363056753256071 2.050046335517449 -0.5200137469318284 1.1399529890374185
3.23389697075 0.0692805718756232 0.0891359641597508 -3.1000033659309087 1.363056753256071 2.050046335517449 -0.5200137469318284 1.1399529890374185
3.23389697075 0.0692805718756232 0.0891359641597508 -3.1000033659309087 1.363056753256071 2.050046335517449 -0.5200137469318284 1.1399529890374185
3.24296092987 0.0692805718756232 0.0891359641597508 -3.1000033659309087 1.363056753256071 2.050046335517449 -0.5200137469318284 1.1399529890374185
3.24296092987 0.0692805718756232 0.0891359641597508 -3.1000033659309087 1.363056753256071 2.050046335517449 -0.5200137469318284 1.1399529890374185
3.25325512886 0.0692805718756232 0.0891359641597508 -3.1000033659309087 1.363056753256071 2.050046335517449 -0.5200137469318284 1.1399529890374185
3.25325512886 0.0692805718756232 0.0891359641597508 -3.1000033659309087 1.363056753256071 2.050046335517449 -0.5200137469318284 1.1399529890374185
3.26330494881 0.0692805718756232 0.0891359641597508 -3.1000033659309087 1.363056753256071 2.050046335517449 -0.5200137469318284 1.1399529890374185
3.26330494881 0.0692805718756232 0.0891359641597508 -3.1000033659309087 1.363056753256071 2.050046335517449 -0.5200137469318284 1.1399529890374185
3.27332806587 0.0692805718756232 0.0891359641597508 -3.1000033659309087 1.363056753256071 2.050046335517449 -0.5200137469318284 1.1399529890374185
3.27332806587 0.0692805718756232 0.0891359641597508 -3.1000033659309087 1.363056753256071 2.050046335517449 -0.5200137469318284 1.1399529890374185
3.28330397606 0.0692805718756232 0.0891359641597508 -3.1000033659309087 1.363056753256071 2.050046335517449 -0.5200137469318284 1.1399529890374185
3.28330397606 0.0692805718756232 0.0891359641597508 -3.1000033659309087 1.363056753256071 2.050046335517449 -0.5200137469318284 1.1399529890374185
3.2932779789 0.0692805718756232 0.0891359641597508 -3.1000033659309087 1.363056753256071 2.050046335517449 -0.5200137469318284 1.1399529890374185
3.2932779789 0.0692805718756232 0.0891359641597508 -3.1000033659309087 1.363056753256071 2.050046335517449 -0.5200137469318284 1.1399529890374185
3.30306410789 0.0692805718756232 0.0891359641597508 -3.098730144988725 1.363056753256071 2.050046335517449 -0.5200137469318284 1.1399529890374185
3.30306410789 0.0692805718756232 0.0891359641597508 -3.098730144988725 1.363056753256071 2.050046335517449 -0.5200137469318284 1.1399529890374185
3.3130531311 0.0692805718756232 0.0891359641597508 -3.098730144988725 1.363056753256071 2.050046335517449 -0.5200137469318284 1.1399529890374185
3.3130531311 0.0692805718756232 0.0891359641597508 -3.098730144988725 1.363056753256071 2.050046335517449 -0.5200137469318284 1.1399529890374185
3.32330298424 0.0692805718756232 0.0891359641597508 -3.098730144988725 1.363056753256071 2.050046335517449 -0.5200137469318284 1.1399529890374185
3.32330298424 0.0692805718756232 0.0891359641597508 -3.098730144988725 1.363056753256071 2.050046335517449 -0.5200137469318284 1.1399529890374185
3.33324503899 0.0692805718756232 0.0891359641597508 -3.098730144988725 1.363056753256071 2.050046335517449 -0.5200137469318284 1.1399529890374185
3.33324503899 0.0692805718756232 0.0891359641597508 -3.098730144988725 1.363056753256071 2.050046335517449 -0.5200137469318284 1.1399529890374185
3.34327602386 0.0692805718756232 0.0891359641597508 -3.098730144988725 1.363056753256071 2.050046335517449 -0.5200137469318284 1.1399529890374185
3.34327602386 0.0692805718756232 0.0891359641597508 -3.098730144988725 1.363056753256071 2.050046335517449 -0.5200137469318284 1.1399529890374185
3.35321497917 0.0692805718756232 0.0891359641597508 -3.098730144988725 1.363056753256071 2.050046335517449 -0.5200137469318284 1.1399529890374185
3.35321497917 0.0692805718756232 0.0891359641597508 -3.098730144988725 1.363056753256071 2.050046335517449 -0.5200137469318284 1.1399529890374185
3.36314606667 0.0692805718756232 0.0891359641597508 -3.098730144988725 1.363056753256071 2.050046335517449 -0.5200137469318284 1.1399529890374185
3.36314606667 0.0692805718756232 0.0891359641597508 -3.098730144988725 1.363056753256071 2.050046335517449 -0.5200137469318284 1.1399529890374185
3.37305116653 0.0692805718756232 0.0891359641597508 -3.098730144988725 1.363056753256071 2.050046335517449 -0.5200137469318284 1.1399529890374185
3.37305116653 0.0692805718756232 0.0891359641597508 -3.098730144988725 1.363056753256071 2.050046335517449 -0.5200137469318284 1.1399529890374185
3.38327598572 0.0692805718756232 0.0891359641597508 -3.098730144988725 1.363056753256071 2.050046335517449 -0.5200137469318284 1.1399529890374185
3.38327598572 0.0692805718756232 0.0891359641597508 -3.098730144988725 1.363056753256071 2.050046335517449 -0.5200137469318284 1.1399529890374185
3.39327001572 0.0692805718756232 0.0891359641597508 -3.098730144988725 1.363056753256071 2.050046335517449 -0.5200137469318284 1.1399529890374185
3.39327001572 0.0692805718756232 0.0891359641597508 -3.098730144988725 1.363056753256071 2.050046335517449 -0.5200137469318284 1.1399529890374185
3.40323400497 0.0692805718756232 0.0891359641597508 -3.097947804409793 1.363056753256071 2.050046335517449 -0.5200137469318284 1.1399529890374185
3.40323400497 0.0692805718756232 0.0891359641597508 -3.097947804409793 1.363056753256071 2.050046335517449 -0.5200137469318284 1.1399529890374185
3.4131360054 0.0692805718756232 0.0891359641597508 -3.097947804409793 1.363056753256071 2.050046335517449 -0.5200137469318284 1.1399529890374185
3.4131360054 0.0692805718756232 0.0891359641597508 -3.097947804409793 1.363056753256071 2.050046335517449 -0.5200137469318284 1.1399529890374185
3.42302298546 0.0692805718756232 0.0891359641597508 -3.097947804409793 1.363056753256071 2.050046335517449 -0.5200137469318284 1.1399529890374185
3.42302298546 0.0692805718756232 0.0891359641597508 -3.097947804409793 1.363056753256071 2.050046335517449 -0.5200137469318284 1.1399529890374185
3.43325901031 0.0692805718756232 0.0891359641597508 -3.097947804409793 1.363056753256071 2.050046335517449 -0.5200137469318284 1.1399529890374185
3.43325901031 0.0692805718756232 0.0891359641597508 -3.097947804409793 1.363056753256071 2.050046335517449 -0.5200137469318284 1.1399529890374185
3.44329094887 0.0692805718756232 0.0891359641597508 -3.097947804409793 1.363056753256071 2.050046335517449 -0.5200137469318284 1.1399529890374185
3.44329094887 0.0692805718756232 0.0891359641597508 -3.097947804409793 1.363056753256071 2.050046335517449 -0.5200137469318284 1.1399529890374185
3.45331001282 0.0692805718756232 0.0891359641597508 -3.097947804409793 1.363056753256071 2.050046335517449 -0.5200137469318284 1.1399529890374185
3.45331001282 0.0692805718756232 0.0891359641597508 -3.097947804409793 1.363056753256071 2.050046335517449 -0.5200137469318284 1.1399529890374185
3.46333909035 0.0692805718756232 0.0891359641597508 -3.097947804409793 1.363056753256071 2.050046335517449 -0.5200137469318284 1.1399529890374185
3.46333909035 0.0692805718756232 0.0891359641597508 -3.097947804409793 1.363056753256071 2.050046335517449 -0.5200137469318284 1.1399529890374185
3.47315692902 0.0692805718756232 0.0891359641597508 -3.097947804409793 1.363056753256071 2.050046335517449 -0.5200137469318284 1.1399529890374185
3.47315692902 0.0692805718756232 0.0891359641597508 -3.097947804409793 1.363056753256071 2.050046335517449 -0.5200137469318284 1.1399529890374185
3.48301196098 0.0693112518983262 0.0891359641597508 -3.096920023649236 1.363056753256071 2.050046335517449 -0.5200137469318284 1.1399529890374185
3.48301196098 0.0693112518983262 0.0891359641597508 -3.096920023649236 1.363056753256071 2.050046335517449 -0.5200137469318284 1.1399529890374185
3.49323797226 0.0693112518983262 0.0891359641597508 -3.096920023649236 1.363056753256071 2.050046335517449 -0.5200137469318284 1.1399529890374185
3.49323797226 0.0693112518983262 0.0891359641597508 -3.096920023649236 1.363056753256071 2.050046335517449 -0.5200137469318284 1.1399529890374185
3.50327897072 0.0693112518983262 0.0891359641597508 -3.096920023649236 1.363056753256071 2.050046335517449 -0.5200137469318284 1.1399529890374185
3.50327897072 0.0693112518983262 0.0891359641597508 -3.096920023649236 1.363056753256071 2.050046335517449 -0.5200137469318284 1.1399529890374185
3.51326012611 0.0693112518983262 0.0891359641597508 -3.096920023649236 1.363056753256071 2.050046335517449 -0.5200137469318284 1.1399529890374185
3.51326012611 0.0693112518983262 0.0891359641597508 -3.096920023649236 1.363056753256071 2.050046335517449 -0.5200137469318284 1.1399529890374185
3.52337694168 0.0693112518983262 0.0891359641597508 -3.096920023649236 1.363056753256071 2.050046335517449 -0.5200137469318284 1.1399529890374185
3.52337694168 0.0693112518983262 0.0891359641597508 -3.096920023649236 1.363056753256071 2.050046335517449 -0.5200137469318284 1.1399529890374185
3.53317499161 0.0693112518983262 0.0891359641597508 -3.096920023649236 1.363056753256071 2.050046335517449 -0.5200137469318284 1.1399529890374185
3.53317499161 0.0693112518983262 0.0891359641597508 -3.096920023649236 1.363056753256071 2.050046335517449 -0.5200137469318284 1.1399529890374185
3.54311013222 0.0693112518983262 0.0891359641597508 -3.096920023649236 1.363056753256071 2.050046335517449 -0.5200137469318284 1.1399529890374185
3.54311013222 0.0693112518983262 0.0891359641597508 -3.096920023649236 1.363056753256071 2.050046335517449 -0.5200137469318284 1.1399529890374185
3.55322313309 0.0693112518983262 0.0891359641597508 -3.096920023649236 1.363056753256071 2.050046335517449 -0.5200137469318284 1.1399529890374185
3.55322313309 0.0693112518983262 0.0891359641597508 -3.096920023649236 1.363056753256071 2.050046335517449 -0.5200137469318284 1.1399529890374185
3.56309103966 0.0693112518983262 0.0891359641597508 -3.096920023649236 1.363056753256071 2.050046335517449 -0.5200137469318284 1.1399529890374185
3.56309103966 0.0693112518983262 0.0891359641597508 -3.096920023649236 1.363056753256071 2.050046335517449 -0.5200137469318284 1.1399529890374185
3.5732281208 0.0693112518983262 0.0891359641597508 -3.096920023649236 1.363056753256071 2.050046335517449 -0.5200137469318284 1.1399529890374185
3.5732281208 0.0693112518983262 0.0891359641597508 -3.096920023649236 1.363056753256071 2.050046335517449 -0.5200137469318284 1.1399529890374185
3.58329510689 0.0693112518983262 0.0891359641597508 -3.096920023649236 1.363056753256071 2.050046335517449 -0.5200137469318284 1.1399529890374185
3.58329510689 0.0693112518983262 0.0891359641597508 -3.096920023649236 1.363056753256071 2.050046335517449 -0.5200137469318284 1.1399529890374185
3.59330296516 0.0693112518983262 0.0891359641597508 -3.096920023649236 1.363056753256071 2.050046335517449 -0.5200137469318284 1.1399529890374185
3.59330296516 0.0693112518983262 0.0891359641597508 -3.096920023649236 1.363056753256071 2.050046335517449 -0.5200137469318284 1.1399529890374185
3.60328412056 0.0693112518983262 0.0891359641597508 -3.096920023649236 1.363056753256071 2.050046335517449 -0.5200137469318284 1.1399529890374185
3.60328412056 0.0693112518983262 0.0891359641597508 -3.096920023649236 1.363056753256071 2.050046335517449 -0.5200137469318284 1.1399529890374185
3.613270998 0.0693112518983262 0.0891359641597508 -3.096920023649236 1.363056753256071 2.050046335517449 -0.5200137469318284 1.1399529890374185
3.613270998 0.0693112518983262 0.0891359641597508 -3.096920023649236 1.363056753256071 2.050046335517449 -0.5200137469318284 1.1399529890374185
3.62309598923 0.0693112518983262 0.0891359641597508 -3.096920023649236 1.363056753256071 2.050046335517449 -0.5200137469318284 1.1399529890374185
3.62309598923 0.0693112518983262 0.0891359641597508 -3.096920023649236 1.363056753256071 2.050046335517449 -0.5200137469318284 1.1399529890374185
3.63327693939 0.0693112518983262 0.0891359641597508 -3.096920023649236 1.363056753256071 2.050046335517449 -0.5200137469318284 1.1399529890374185
3.63327693939 0.0693112518983262 0.0891359641597508 -3.096920023649236 1.363056753256071 2.050046335517449 -0.5200137469318284 1.1399529890374185
3.64331412315 0.0693112518983262 0.0891359641597508 -3.096920023649236 1.363056753256071 2.050046335517449 -0.5200137469318284 1.1399529890374185
3.64331412315 0.0693112518983262 0.0891359641597508 -3.096920023649236 1.363056753256071 2.050046335517449 -0.5200137469318284 1.1399529890374185
3.65314412117 0.0693112518983262 0.0891359641597508 -3.096920023649236 1.363056753256071 2.050046335517449 -0.5200137469318284 1.1399529890374185
3.65314412117 0.0693112518983262 0.0891359641597508 -3.096920023649236 1.363056753256071 2.050046335517449 -0.5200137469318284 1.1399529890374185
3.66307115555 0.0693112518983262 0.0891359641597508 -3.096920023649236 1.363056753256071 2.050046335517449 -0.5200137469318284 1.1399529890374185
3.66307115555 0.0693112518983262 0.0891359641597508 -3.096920023649236 1.363056753256071 2.050046335517449 -0.5200137469318284 1.1399529890374185
3.67319607735 0.0693112518983262 0.0891359641597508 -3.096920023649236 1.363056753256071 2.050046335517449 -0.5200137469318284 1.1399529890374185
3.67319607735 0.0693112518983262 0.0891359641597508 -3.096920023649236 1.363056753256071 2.050046335517449 -0.5200137469318284 1.1399529890374185
3.68317604065 0.0693112518983262 0.0891359641597508 -3.096920023649236 1.363056753256071 2.050046335517449 -0.5200137469318284 1.1399529890374185
3.68317604065 0.0693112518983262 0.0891359641597508 -3.096920023649236 1.363056753256071 2.050046335517449 -0.5200137469318284 1.1399529890374185
3.69321703911 0.0693112518983262 0.0891359641597508 -3.096920023649236 1.363056753256071 2.050046335517449 -0.5200137469318284 1.1399529890374185
3.69321703911 0.0693112518983262 0.0891359641597508 -3.096920023649236 1.363056753256071 2.050046335517449 -0.5200137469318284 1.1399529890374185
3.70328402519 0.0693112518983262 0.0891359641597508 -3.096920023649236 1.363056753256071 2.050046335517449 -0.5200137469318284 1.1399529890374185
3.70328402519 0.0693112518983262 0.0891359641597508 -3.096920023649236 1.363056753256071 2.050046335517449 -0.5200137469318284 1.1399529890374185
3.71328401566 0.0693112518983262 0.0891359641597508 -3.096920023649236 1.363056753256071 2.050046335517449 -0.5200137469318284 1.1399529890374185
3.71328401566 0.0693112518983262 0.0891359641597508 -3.096920023649236 1.363056753256071 2.050046335517449 -0.5200137469318284 1.1399529890374185
3.72315311432 0.0693112518983262 0.0891359641597508 -3.096920023649236 1.363056753256071 2.050046335517449 -0.5200137469318284 1.1399529890374185
3.72315311432 0.0693112518983262 0.0891359641597508 -3.096920023649236 1.363056753256071 2.050046335517449 -0.5200137469318284 1.1399529890374185
3.73325705528 0.0693112518983262 0.0891359641597508 -3.096920023649236 1.363056753256071 2.050046335517449 -0.5200137469318284 1.1399529890374185
3.73325705528 0.0693112518983262 0.0891359641597508 -3.096920023649236 1.363056753256071 2.050046335517449 -0.5200137469318284 1.1399529890374185
3.7432949543 0.0693112518983262 0.0891359641597508 -3.096920023649236 1.363056753256071 2.050046335517449 -0.5200137469318284 1.1399529890374185
3.7432949543 0.0693112518983262 0.0891359641597508 -3.096920023649236 1.363056753256071 2.050046335517449 -0.5200137469318284 1.1399529890374185
3.7531580925 0.0693112518983262 0.0891359641597508 -3.096920023649236 1.363056753256071 2.050046335517449 -0.5200137469318284 1.1399529890374185
3.7531580925 0.0693112518983262 0.0891359641597508 -3.096920023649236 1.363056753256071 2.050046335517449 -0.5200137469318284 1.1399529890374185
3.76329398155 0.0693112518983262 0.0891359641597508 -3.096920023649236 1.363056753256071 2.050046335517449 -0.5200137469318284 1.1399529890374185
3.76329398155 0.0693112518983262 0.0891359641597508 -3.096920023649236 1.363056753256071 2.050046335517449 -0.5200137469318284 1.1399529890374185
3.77303314209 0.0693112518983262 0.0891359641597508 -3.096920023649236 1.363056753256071 2.050046335517449 -0.5200137469318284 1.1399529890374185
3.77303314209 0.0693112518983262 0.0891359641597508 -3.096920023649236 1.363056753256071 2.050046335517449 -0.5200137469318284 1.1399529890374185
3.78303194046 0.0693112518983262 0.0891359641597508 -3.096920023649236 1.363056753256071 2.050046335517449 -0.5200137469318284 1.1399529890374185
3.78303194046 0.0693112518983262 0.0891359641597508 -3.096920023649236 1.363056753256071 2.050046335517449 -0.5200137469318284 1.1399529890374185
3.79328012466 0.0693112518983262 0.0891359641597508 -3.096920023649236 1.363056753256071 2.050046335517449 -0.5200137469318284 1.1399529890374185
3.79328012466 0.0693112518983262 0.0891359641597508 -3.096920023649236 1.363056753256071 2.050046335517449 -0.5200137469318284 1.1399529890374185
3.80329394341 0.0693112518983262 0.0891359641597508 -3.096920023649236 1.363056753256071 2.050046335517449 -0.5200137469318284 1.1399529890374185
3.80329394341 0.0693112518983262 0.0891359641597508 -3.096920023649236 1.363056753256071 2.050046335517449 -0.5200137469318284 1.1399529890374185
3.81314897537 0.0693112518983262 0.0891359641597508 -3.096920023649236 1.363056753256071 2.050046335517449 -0.5200137469318284 1.1399529890374185
3.81314897537 0.0693112518983262 0.0891359641597508 -3.096920023649236 1.363056753256071 2.050046335517449 -0.5200137469318284 1.1399529890374185
3.82328796387 0.0693112518983262 0.0891359641597508 -3.096920023649236 1.363056753256071 2.050046335517449 -0.5200137469318284 1.1399529890374185
3.82328796387 0.0693112518983262 0.0891359641597508 -3.096920023649236 1.363056753256071 2.050046335517449 -0.5200137469318284 1.1399529890374185
3.83333706856 0.0693112518983262 0.0891359641597508 -3.096920023649236 1.363056753256071 2.050046335517449 -0.5200137469318284 1.1399529890374185
3.83333706856 0.0693112518983262 0.0891359641597508 -3.096920023649236 1.363056753256071 2.050046335517449 -0.5200137469318284 1.1399529890374185
3.84330415726 0.0693112518983262 0.0891359641597508 -3.096920023649236 1.363056753256071 2.050046335517449 -0.5200137469318284 1.1399529890374185
3.84330415726 0.0693112518983262 0.0891359641597508 -3.096920023649236 1.363056753256071 2.050046335517449 -0.5200137469318284 1.1399529890374185
3.85328507423 0.0693112518983262 0.0891359641597508 -3.096920023649236 1.363056753256071 2.050046335517449 -0.5200137469318284 1.1399529890374185
3.85328507423 0.0693112518983262 0.0891359641597508 -3.096920023649236 1.363056753256071 2.050046335517449 -0.5200137469318284 1.1399529890374185
3.86329603195 0.0693112518983262 0.0891359641597508 -3.096920023649236 1.363056753256071 2.050046335517449 -0.5200137469318284 1.1399529890374185
3.86329603195 0.0693112518983262 0.0891359641597508 -3.096920023649236 1.363056753256071 2.050046335517449 -0.5200137469318284 1.1399529890374185
3.87308812141 0.0693112518983262 0.0891359641597508 -3.096920023649236 1.363056753256071 2.050046335517449 -0.5200137469318284 1.1399529890374185
3.87308812141 0.0693112518983262 0.0891359641597508 -3.096920023649236 1.363056753256071 2.050046335517449 -0.5200137469318284 1.1399529890374185
3.88327407837 0.0693112518983262 0.0891359641597508 -3.096920023649236 1.363056753256071 2.050046335517449 -0.5200137469318284 1.1399529890374185
3.88327407837 0.0693112518983262 0.0891359641597508 -3.096920023649236 1.363056753256071 2.050046335517449 -0.5200137469318284 1.1399529890374185
3.89309501648 0.0693112518983262 0.0891359641597508 -3.096920023649236 1.363056753256071 2.050046335517449 -0.5200137469318284 1.1399529890374185
3.89309501648 0.0693112518983262 0.0891359641597508 -3.096920023649236 1.363056753256071 2.050046335517449 -0.5200137469318284 1.1399529890374185
3.90298604965 0.0693112518983262 0.0891359641597508 -3.096920023649236 1.363056753256071 2.050046335517449 -0.5200137469318284 1.1399529890374185
3.90298604965 0.0693112518983262 0.0891359641597508 -3.096920023649236 1.363056753256071 2.050046335517449 -0.5200137469318284 1.1399529890374185
3.91320300102 0.0693112518983262 0.0891359641597508 -3.096920023649236 1.363056753256071 2.050046335517449 -0.5200137469318284 1.1399529890374185
3.91320300102 0.0693112518983262 0.0891359641597508 -3.096920023649236 1.363056753256071 2.050046335517449 -0.5200137469318284 1.1399529890374185
3.92329001427 0.0693112518983262 0.0891359641597508 -3.096920023649236 1.363056753256071 2.050046335517449 -0.5200137469318284 1.1399529890374185
3.92329001427 0.0693112518983262 0.0891359641597508 -3.096920023649236 1.363056753256071 2.050046335517449 -0.5200137469318284 1.1399529890374185
3.93327403069 0.0693112518983262 0.0891359641597508 -3.096920023649236 1.363056753256071 2.050046335517449 -0.5200137469318284 1.1399529890374185
3.93327403069 0.0693112518983262 0.0891359641597508 -3.096920023649236 1.363056753256071 2.050046335517449 -0.5200137469318284 1.1399529890374185
3.94325900078 0.0693112518983262 0.0891359641597508 -3.096920023649236 1.363056753256071 2.050046335517449 -0.5200137469318284 1.1399529890374185
3.94325900078 0.0693112518983262 0.0891359641597508 -3.096920023649236 1.363056753256071 2.050046335517449 -0.5200137469318284 1.1399529890374185
3.95325493813 0.0693112518983262 0.0891359641597508 -3.096920023649236 1.363056753256071 2.050046335517449 -0.5200137469318284 1.1399529890374185
3.95325493813 0.0693112518983262 0.0891359641597508 -3.096920023649236 1.363056753256071 2.050046335517449 -0.5200137469318284 1.1399529890374185
3.96333098412 0.0693112518983262 0.0891359641597508 -3.096920023649236 1.363056753256071 2.050046335517449 -0.5200137469318284 1.1399529890374185
3.96333098412 0.0693112518983262 0.0891359641597508 -3.096920023649236 1.363056753256071 2.050046335517449 -0.5200137469318284 1.1399529890374185
3.97325706482 0.0693112518983262 0.0891359641597508 -3.096920023649236 1.363056753256071 2.050046335517449 -0.5200137469318284 1.1399529890374185
3.97325706482 0.0693112518983262 0.0891359641597508 -3.096920023649236 1.363056753256071 2.050046335517449 -0.5200137469318284 1.1399529890374185
3.98329401016 0.0693112518983262 0.0891359641597508 -3.096920023649236 1.363056753256071 2.050046335517449 -0.5200137469318284 1.1399529890374185
3.98329401016 0.0693112518983262 0.0891359641597508 -3.096920023649236 1.363056753256071 2.050046335517449 -0.5200137469318284 1.1399529890374185
3.99316811562 0.0693112518983262 0.0891359641597508 -3.096920023649236 1.363056753256071 2.050046335517449 -0.5200137469318284 1.1399529890374185
3.99316811562 0.0693112518983262 0.0891359641597508 -3.096920023649236 1.363056753256071 2.050046335517449 -0.5200137469318284 1.1399529890374185
4.00327706337 0.0693112518983262 0.0891359641597508 -3.096920023649236 1.363056753256071 2.050046335517449 -0.5200137469318284 1.1399529890374185
4.00327706337 0.0693112518983262 0.0891359641597508 -3.096920023649236 1.363056753256071 2.050046335517449 -0.5200137469318284 1.1399529890374185
4.01297593117 0.0693112518983262 0.0891359641597508 -3.096920023649236 1.363056753256071 2.050046335517449 -0.5200137469318284 1.1399529890374185
4.01297593117 0.0693112518983262 0.0891359641597508 -3.096920023649236 1.363056753256071 2.050046335517449 -0.5200137469318284 1.1399529890374185
4.02296614647 0.0693112518983262 0.0891359641597508 -3.096920023649236 1.363056753256071 2.050046335517449 -0.5200137469318284 1.1399529890374185
4.02296614647 0.0693112518983262 0.0891359641597508 -3.096920023649236 1.363056753256071 2.050046335517449 -0.5200137469318284 1.1399529890374185
4.03328108788 0.0693112518983262 0.0891359641597508 -3.096920023649236 1.363056753256071 2.050046335517449 -0.5200137469318284 1.1399529890374185
4.03328108788 0.0693112518983262 0.0891359641597508 -3.096920023649236 1.363056753256071 2.050046335517449 -0.5200137469318284 1.1399529890374185
4.04328799248 0.0693112518983262 0.0891359641597508 -3.096920023649236 1.363056753256071 2.050046335517449 -0.5200137469318284 1.1399529890374185
4.04328799248 0.0693112518983262 0.0891359641597508 -3.096920023649236 1.363056753256071 2.050046335517449 -0.5200137469318284 1.1399529890374185
4.05324101448 0.0693112518983262 0.0891359641597508 -3.096920023649236 1.363056753256071 2.050046335517449 -0.5200137469318284 1.1399529890374185
4.05324101448 0.0693112518983262 0.0891359641597508 -3.096920023649236 1.363056753256071 2.050046335517449 -0.5200137469318284 1.1399529890374185
