riccardo-csl/Motion-Planning-for-TIAGo-Manipulator/T3_G_7/head_scan/head_scan/tiago_traiettorie_SG/4a-4b/place_4b_rep2.txt
time arm_1_joint arm_2_joint arm_3_joint arm_4_joint arm_5_joint arm_6_joint arm_7_joint
0.579663991928 0.0466847351547039 -0.173791830406817 -1.134809851687708 1.8163540886960992 2.0501193828703954 -0.5200091814722694 1.1399484235778592
0.580497980118 0.0466847351547039 -0.173791830406817 -1.134809851687708 1.8163540886960992 2.0501193828703954 -0.5200091814722694 1.1399484235778592
0.580497980118 0.0466847351547039 -0.173791830406817 -1.134809851687708 1.8163540886960992 2.0501193828703954 -0.5200091814722694 1.1399484235778592
0.590829849243 0.0466847351547039 -0.173791830406817 -1.134809851687708 1.8163540886960992 2.0501193828703954 -0.5200091814722694 1.1399484235778592
0.590829849243 0.0466847351547039 -0.173791830406817 -1.134809851687708 1.8163540886960992 2.0501193828703954 -0.5200091814722694 1.1399484235778592
0.600589990616 0.0466847351547039 -0.173791830406817 -1.134809851687708 1.8163540886960992 2.0501193828703954 -0.5200091814722694 1.1399484235778592
0.600589990616 0.0466847351547039 -0.173791830406817 -1.134809851687708 1.8163540886960992 2.0501193828703954 -0.5200091814722694 1.1399484235778592
0.610884904861 0.0466847351547039 -0.173791830406817 -1.134809851687708 1.8163540886960992 2.0501193828703954 -0.5200091814722694 1.1399484235778592
0.610884904861 0.0466847351547039 -0.173791830406817 -1.134809851687708 1.8163540886960992 2.0501193828703954 -0.5200091814722694 1.1399484235778592
0.620594978333 0.0466847351547039 -0.173791830406817 -1.134809851687708 1.8163540886960992 2.0501193828703954 -0.5200091814722694 1.1399484235778592
0.620594978333 0.0466847351547039 -0.173791830406817 -1.134809851687708 1.8163540886960992 2.0501193828703954 -0.5200091814722694 1.1399484235778592
0.630877017975 0.0466847351547039 -0.173791830406817 -1.134809851687708 1.8163540886960992 2.0501193828703954 -0.5200091814722694 1.1399484235778592
0.630877017975 0.0466847351547039 -0.173791830406817 -1.134809851687708 1.8163540886960992 2.0501193828703954 -0.5200091814722694 1.1399484235778592
0.64078783989 0.0466847351547039 -0.173791830406817 -1.134809851687708 1.8163540886960992 2.0501193828703954 -0.5200091814722694 1.1399484235778592
0.64078783989 0.0466847351547039 -0.173791830406817 -1.134809851687708 1.8163540886960992 2.0501193828703954 -0.5200091814722694 1.1399484235778592
0.650707006454 0.0466847351547039 -0.173791830406817 -1.134809851687708 1.8163540886960992 2.0501193828703954 -0.5200091814722694 1.1399484235778592
0.650707006454 0.0466847351547039 -0.173791830406817 -1.134809851687708 1.8163540886960992 2.0501193828703954 -0.5200091814722694 1.1399484235778592
0.660549879074 0.0466847351547039 -0.173791830406817 -1.134809851687708 1.8163540886960992 2.0501193828703954 -0.5200091814722694 1.1399484235778592
0.660549879074 0.0466847351547039 -0.173791830406817 -1.134809851687708 1.8163540886960992 2.0501193828703954 -0.5200091814722694 1.1399484235778592
0.671658039093 0.0466847351547039 -0.173791830406817 -1.134809851687708 1.8163540886960992 2.0501193828703954 -0.5200091814722694 1.1399484235778592
0.671658039093 0.0466847351547039 -0.173791830406817 -1.134809851687708 1.8163540886960992 2.0501193828703954 -0.5200091814722694 1.1399484235778592
0.680577039719 0.0466847351547039 -0.173791830406817 -1.134809851687708 1.8163540886960992 2.0501193828703954 -0.5200091814722694 1.1399484235778592
0.680577039719 0.0466847351547039 -0.173791830406817 -1.134809851687708 1.8163540886960992 2.0501193828703954 -0.5200091814722694 1.1399484235778592
0.690759897232 0.0466847351547039 -0.173791830406817 -1.134809851687708 1.8163540886960992 2.0501102519512773 -0.5200091814722694 1.1399484235778592
0.690759897232 0.0466847351547039 -0.173791830406817 -1.134809851687708 1.8163540886960992 2.0501102519512773 -0.5200091814722694 1.1399484235778592
0.700640916824 0.0466847351547039 -0.173791830406817 -1.134809851687708 1.8163540886960992 2.0501102519512773 -0.5200091814722694 1.1399484235778592
0.700640916824 0.0466847351547039 -0.173791830406817 -1.134809851687708 1.8163540886960992 2.0501102519512773 -0.5200091814722694 1.1399484235778592
0.710757017136 0.0466847351547039 -0.173791830406817 -1.134809851687708 1.8163540886960992 2.0501102519512773 -0.5200091814722694 1.1399484235778592
0.710757017136 0.0466847351547039 -0.173791830406817 -1.134809851687708 1.8163540886960992 2.0501102519512773 -0.5200091814722694 1.1399484235778592
0.720715999603 0.0466847351547039 -0.173791830406817 -1.134809851687708 1.8163540886960992 2.0501102519512773 -0.5200091814722694 1.1399484235778592
0.720715999603 0.0466847351547039 -0.173791830406817 -1.134809851687708 1.8163540886960992 2.0501102519512773 -0.5200091814722694 1.1399484235778592
0.73072385788 0.0466847351547039 -0.173791830406817 -1.134809851687708 1.8163540886960992 2.0501011210321587 -0.5200091814722694 1.1399484235778592
0.73072385788 0.0466847351547039 -0.173791830406817 -1.134809851687708 1.8163540886960992 2.0501011210321587 -0.5200091814722694 1.1399484235778592
0.740599870682 0.0466847351547039 -0.173791830406817 -1.134809851687708 1.8163540886960992 2.0501011210321587 -0.5200091814722694 1.1399484235778592
0.740599870682 0.0466847351547039 -0.173791830406817 -1.134809851687708 1.8163540886960992 2.0501011210321587 -0.5200091814722694 1.1399484235778592
0.750633001328 0.0466847351547039 -0.173791830406817 -1.134809851687708 1.8163540886960992 2.0501011210321587 -0.5200091814722694 1.1399484235778592
0.750633001328 0.0466847351547039 -0.173791830406817 -1.134809851687708 1.8163540886960992 2.0501011210321587 -0.5200091814722694 1.1399484235778592
0.760697841644 0.0466847351547039 -0.173791830406817 -1.134809851687708 1.8163540886960992 2.0501011210321587 -0.5200091814722694 1.1399484235778592
0.760697841644 0.0466847351547039 -0.173791830406817 -1.134809851687708 1.8163540886960992 2.0501011210321587 -0.5200091814722694 1.1399484235778592
0.770736932755 0.0466847351547039 -0.173791830406817 -1.134809851687708 1.8163540886960992 2.0501102519512773 -0.5200091814722694 1.1399484235778592
0.770736932755 0.0466847351547039 -0.173791830406817 -1.134809851687708 1.8163540886960992 2.0501102519512773 -0.5200091814722694 1.1399484235778592
0.780647039413 0.0466847351547039 -0.173791830406817 -1.134809851687708 1.8163540886960992 2.0501102519512773 -0.5200091814722694 1.1399484235778592
0.780647039413 0.0466847351547039 -0.173791830406817 -1.134809851687708 1.8163540886960992 2.0501102519512773 -0.5200091814722694 1.1399484235778592
0.790803909302 0.0466847351547039 -0.173791830406817 -1.134809851687708 1.8163540886960992 2.0501011210321587 -0.5200091814722694 1.1399484235778592
0.790803909302 0.0466847351547039 -0.173791830406817 -1.134809851687708 1.8163540886960992 2.0501011210321587 -0.5200091814722694 1.1399484235778592
0.800569057465 0.0466847351547039 -0.173791830406817 -1.134809851687708 1.8163540886960992 2.0501011210321587 -0.5200091814722694 1.1399484235778592
0.800569057465 0.0466847351547039 -0.173791830406817 -1.134809851687708 1.8163540886960992 2.0501011210321587 -0.5200091814722694 1.1399484235778592
0.810787916183 0.0466847351547039 -0.173791830406817 -1.134809851687708 1.8163540886960992 2.0501011210321587 -0.5200091814722694 1.1399484235778592
0.810787916183 0.0466847351547039 -0.173791830406817 -1.134809851687708 1.8163540886960992 2.0501011210321587 -0.5200091814722694 1.1399484235778592
0.820729017258 0.0466847351547039 -0.173791830406817 -1.134809851687708 1.8163540886960992 2.0501193828703954 -0.5200091814722694 1.1399484235778592
0.820729017258 0.0466847351547039 -0.173791830406817 -1.134809851687708 1.8163540886960992 2.0501193828703954 -0.5200091814722694 1.1399484235778592
0.830724954605 0.0466847351547039 -0.173791830406817 -1.134809851687708 1.8163540886960992 2.0501193828703954 -0.5200091814722694 1.1399484235778592
0.830724954605 0.0466847351547039 -0.173791830406817 -1.134809851687708 1.8163540886960992 2.0501193828703954 -0.5200091814722694 1.1399484235778592
0.840724945068 0.0466847351547039 -0.173791830406817 -1.134809851687708 1.8163540886960992 2.0501193828703954 -0.5200091814722694 1.1399484235778592
0.840724945068 0.0466847351547039 -0.173791830406817 -1.134809851687708 1.8163540886960992 2.0501193828703954 -0.5200091814722694 1.1399484235778592
0.850791931152 0.0466847351547039 -0.173791830406817 -1.134809851687708 1.8163540886960992 2.0501193828703954 -0.5200091814722694 1.1399484235778592
0.850791931152 0.0466847351547039 -0.173791830406817 -1.134809851687708 1.8163540886960992 2.0501193828703954 -0.5200091814722694 1.1399484235778592
0.860596895218 0.0466847351547039 -0.173791830406817 -1.134809851687708 1.8163540886960992 2.0501193828703954 -0.5200091814722694 1.1399484235778592
0.860596895218 0.0466847351547039 -0.173791830406817 -1.134809851687708 1.8163540886960992 2.0501193828703954 -0.5200091814722694 1.1399484235778592
0.87074804306 0.0466847351547039 -0.173791830406817 -1.134809851687708 1.8163540886960992 2.0501102519512773 -0.5200091814722694 1.1399484235778592
0.87074804306 0.0466847351547039 -0.173791830406817 -1.134809851687708 1.8163540886960992 2.0501102519512773 -0.5200091814722694 1.1399484235778592
0.880719900131 0.0466847351547039 -0.173791830406817 -1.134809851687708 1.8163540886960992 2.0501102519512773 -0.5200091814722694 1.1399484235778592
0.880719900131 0.0466847351547039 -0.173791830406817 -1.134809851687708 1.8163540886960992 2.0501102519512773 -0.5200091814722694 1.1399484235778592
0.890801906586 0.0466847351547039 -0.173791830406817 -1.134809851687708 1.8163540886960992 2.0501102519512773 -0.5200091814722694 1.1399484235778592
0.890801906586 0.0466847351547039 -0.173791830406817 -1.134809851687708 1.8163540886960992 2.0501102519512773 -0.5200091814722694 1.1399484235778592
0.900825023651 0.0466847351547039 -0.173791830406817 -1.134809851687708 1.8163540886960992 2.0501102519512773 -0.5200091814722694 1.1399484235778592
0.900825023651 0.0466847351547039 -0.173791830406817 -1.134809851687708 1.8163540886960992 2.0501102519512773 -0.5200091814722694 1.1399484235778592
0.910842895508 0.0466847351547039 -0.173791830406817 -1.134809851687708 1.8163540886960992 2.0501102519512773 -0.5200091814722694 1.1399484235778592
0.910842895508 0.0466847351547039 -0.173791830406817 -1.134809851687708 1.8163540886960992 2.0501102519512773 -0.5200091814722694 1.1399484235778592
0.920711040497 0.0466847351547039 -0.173791830406817 -1.134809851687708 1.8163540886960992 2.0501102519512773 -0.5200091814722694 1.1399484235778592
0.920711040497 0.0466847351547039 -0.173791830406817 -1.134809851687708 1.8163540886960992 2.0501102519512773 -0.5200091814722694 1.1399484235778592
0.930526971817 0.0466847351547039 -0.173791830406817 -1.134809851687708 1.8163540886960992 2.0501193828703954 -0.5200091814722694 1.1399484235778592
0.930526971817 0.0466847351547039 -0.173791830406817 -1.134809851687708 1.8163540886960992 2.0501193828703954 -0.5200091814722694 1.1399484235778592
0.940532922745 0.0466847351547039 -0.173791830406817 -1.134809851687708 1.8163540886960992 2.0501102519512773 -0.5200091814722694 1.1399484235778592
0.940532922745 0.0466847351547039 -0.173791830406817 -1.134809851687708 1.8163540886960992 2.0501102519512773 -0.5200091814722694 1.1399484235778592
0.950522899628 0.0466847351547039 -0.173791830406817 -1.134809851687708 1.8163540886960992 2.0501011210321587 -0.5200091814722694 1.1399484235778592
0.950522899628 0.0466847351547039 -0.173791830406817 -1.134809851687708 1.8163540886960992 2.0501011210321587 -0.5200091814722694 1.1399484235778592
0.96067404747 0.0466847351547039 -0.173791830406817 -1.134809851687708 1.8163540886960992 2.0501011210321587 -0.5200091814722694 1.1399484235778592
0.96067404747 0.0466847351547039 -0.173791830406817 -1.134809851687708 1.8163540886960992 2.0501011210321587 -0.5200091814722694 1.1399484235778592
0.970525026321 0.0466847351547039 -0.173791830406817 -1.134809851687708 1.8163540886960992 2.0501011210321587 -0.5200091814722694 1.1399484235778592
0.970525026321 0.0466847351547039 -0.173791830406817 -1.134809851687708 1.8163540886960992 2.0501011210321587 -0.5200091814722694 1.1399484235778592
0.980711936951 0.0466847351547039 -0.173791830406817 -1.134809851687708 1.8163540886960992 2.0501011210321587 -0.5200091814722694 1.1399484235778592
0.980711936951 0.0466847351547039 -0.173791830406817 -1.134809851687708 1.8163540886960992 2.0501011210321587 -0.5200091814722694 1.1399484235778592
0.990646839142 0.0466847351547039 -0.173791830406817 -1.134809851687708 1.8163540886960992 2.0501011210321587 -0.5200091814722694 1.1399484235778592
0.990646839142 0.0466847351547039 -0.173791830406817 -1.134809851687708 1.8163540886960992 2.0501011210321587 -0.5200091814722694 1.1399484235778592
1.0006608963 0.0466847351547039 -0.173791830406817 -1.134809851687708 1.8163540886960992 2.0501193828703954 -0.5200091814722694 1.1399484235778592
1.0006608963 0.0466847351547039 -0.173791830406817 -1.134809851687708 1.8163540886960992 2.0501193828703954 -0.5200091814722694 1.1399484235778592
1.0107190609 0.0466847351547039 -0.173791830406817 -1.134809851687708 1.8163540886960992 2.0501102519512773 -0.5200091814722694 1.1399484235778592
1.0107190609 0.0466847351547039 -0.173791830406817 -1.134809851687708 1.8163540886960992 2.0501102519512773 -0.5200091814722694 1.1399484235778592
1.02061295509 0.0466847351547039 -0.173791830406817 -1.134809851687708 1.8163540886960992 2.0501102519512773 -0.5200091814722694 1.1399484235778592
1.02061295509 0.0466847351547039 -0.173791830406817 -1.134809851687708 1.8163540886960992 2.0501102519512773 -0.5200091814722694 1.1399484235778592
1.03078484535 0.0466847351547039 -0.173791830406817 -1.134809851687708 1.8163540886960992 2.0501102519512773 -0.5200091814722694 1.1399484235778592
1.03078484535 0.0466847351547039 -0.173791830406817 -1.134809851687708 1.8163540886960992 2.0501102519512773 -0.5200091814722694 1.1399484235778592
1.04074883461 0.0466847351547039 -0.173791830406817 -1.134809851687708 1.8163540886960992 2.0501102519512773 -0.5200091814722694 1.1399484235778592
1.04074883461 0.0466847351547039 -0.173791830406817 -1.134809851687708 1.8163540886960992 2.0501102519512773 -0.5200091814722694 1.1399484235778592
1.0505490303 0.0466847351547039 -0.173791830406817 -1.134809851687708 1.8163540886960992 2.0501102519512773 -0.5200091814722694 1.1399484235778592
1.0505490303 0.0466847351547039 -0.173791830406817 -1.134809851687708 1.8163540886960992 2.0501102519512773 -0.5200091814722694 1.1399484235778592
1.06069803238 0.0466847351547039 -0.173791830406817 -1.134809851687708 1.8163540886960992 2.0501102519512773 -0.5200091814722694 1.1399484235778592
1.06069803238 0.0466847351547039 -0.173791830406817 -1.134809851687708 1.8163540886960992 2.0501102519512773 -0.5200091814722694 1.1399484235778592
1.07114291191 0.0467000751660555 -0.173791830406817 -1.134809851687708 1.8163540886960992 2.0501193828703954 -0.5200091814722694 1.1399484235778592
1.07114291191 0.0467000751660555 -0.173791830406817 -1.134809851687708 1.8163540886960992 2.0501193828703954 -0.5200091814722694 1.1399484235778592
1.08070993423 0.0467000751660555 -0.173791830406817 -1.134809851687708 1.8163540886960992 2.0501193828703954 -0.5200091814722694 1.1399484235778592
1.08070993423 0.0467000751660555 -0.173791830406817 -1.134809851687708 1.8163540886960992 2.0501193828703954 -0.5200091814722694 1.1399484235778592
1.09065198898 0.0467000751660555 -0.173791830406817 -1.134809851687708 1.8163540886960992 2.0501102519512773 -0.5200091814722694 1.1399484235778592
1.09065198898 0.0467000751660555 -0.173791830406817 -1.134809851687708 1.8163540886960992 2.0501102519512773 -0.5200091814722694 1.1399484235778592
1.10065293312 0.0467000751660555 -0.173791830406817 -1.134809851687708 1.8163540886960992 2.0501102519512773 -0.5200091814722694 1.1399484235778592
1.10065293312 0.0467000751660555 -0.173791830406817 -1.134809851687708 1.8163540886960992 2.0501102519512773 -0.5200091814722694 1.1399484235778592
1.11075901985 0.0467000751660555 -0.173791830406817 -1.134809851687708 1.8163540886960992 2.0501102519512773 -0.5200091814722694 1.1399484235778592
1.11075901985 0.0467000751660555 -0.173791830406817 -1.134809851687708 1.8163540886960992 2.0501102519512773 -0.5200091814722694 1.1399484235778592
1.12069988251 0.0467000751660555 -0.173791830406817 -1.134809851687708 1.8163540886960992 2.0501102519512773 -0.5200091814722694 1.1399484235778592
1.12069988251 0.0467000751660555 -0.173791830406817 -1.134809851687708 1.8163540886960992 2.0501102519512773 -0.5200091814722694 1.1399484235778592
1.13054895401 0.0467000751660555 -0.173791830406817 -1.134809851687708 1.8163540886960992 2.0501102519512773 -0.5200091814722694 1.1399484235778592
1.13054895401 0.0467000751660555 -0.173791830406817 -1.134809851687708 1.8163540886960992 2.0501102519512773 -0.5200091814722694 1.1399484235778592
1.14057683945 0.0467000751660555 -0.173791830406817 -1.134809851687708 1.8163540886960992 2.0501102519512773 -0.5200091814722694 1.1399484235778592
1.14057683945 0.0467000751660555 -0.173791830406817 -1.134809851687708 1.8163540886960992 2.0501102519512773 -0.5200091814722694 1.1399484235778592
1.15076589584 0.0467000751660555 -0.173791830406817 -1.134809851687708 1.8163540886960992 2.0501102519512773 -0.5200091814722694 1.1399484235778592
1.15076589584 0.0467000751660555 -0.173791830406817 -1.134809851687708 1.8163540886960992 2.0501102519512773 -0.5200091814722694 1.1399484235778592
1.16072702408 0.0467000751660555 -0.173791830406817 -1.134809851687708 1.8163540886960992 2.0501102519512773 -0.5200091814722694 1.1399484235778592
1.16072702408 0.0467000751660555 -0.173791830406817 -1.134809851687708 1.8163540886960992 2.0501102519512773 -0.5200091814722694 1.1399484235778592
1.17081403732 0.0467000751660555 -0.173791830406817 -1.134809851687708 1.8163540886960992 2.0501102519512773 -0.5200091814722694 1.1399484235778592
1.17081403732 0.0467000751660555 -0.173791830406817 -1.134809851687708 1.8163540886960992 2.0501102519512773 -0.5200091814722694 1.1399484235778592
1.18077087402 0.0467000751660555 -0.173791830406817 -1.134809851687708 1.8163540886960992 2.0501102519512773 -0.5200091814722694 1.1399484235778592
1.18077087402 0.0467000751660555 -0.173791830406817 -1.134809851687708 1.8163540886960992 2.0501102519512773 -0.5200091814722694 1.1399484235778592
1.19062900543 0.0467000751660555 -0.173791830406817 -1.134809851687708 1.8163540886960992 2.0501102519512773 -0.5200091814722694 1.1399484235778592
1.19062900543 0.0467000751660555 -0.173791830406817 -1.134809851687708 1.8163540886960992 2.0501102519512773 -0.5200091814722694 1.1399484235778592
1.2003698349 0.0467000751660555 -0.173791830406817 -1.134809851687708 1.8163540886960992 2.0501193828703954 -0.5200091814722694 1.1399484235778592
1.2003698349 0.0467000751660555 -0.173791830406817 -1.134809851687708 1.8163540886960992 2.0501193828703954 -0.5200091814722694 1.1399484235778592
1.21040487289 0.0467000751660555 -0.173791830406817 -1.134809851687708 1.8163540886960992 2.0501193828703954 -0.5200091814722694 1.1399484235778592
1.21040487289 0.0467000751660555 -0.173791830406817 -1.134809851687708 1.8163540886960992 2.0501193828703954 -0.5200091814722694 1.1399484235778592
1.22056698799 0.0467000751660555 -0.173791830406817 -1.134809851687708 1.8163540886960992 2.0501193828703954 -0.5200091814722694 1.1399484235778592
1.22056698799 0.0467000751660555 -0.173791830406817 -1.134809851687708 1.8163540886960992 2.0501193828703954 -0.5200091814722694 1.1399484235778592
1.23081183434 0.0467000751660555 -0.173791830406817 -1.134809851687708 1.8163540886960992 2.0501193828703954 -0.5200091814722694 1.1399484235778592
1.23081183434 0.0467000751660555 -0.173791830406817 -1.134809851687708 1.8163540886960992 2.0501193828703954 -0.5200091814722694 1.1399484235778592
1.24058699608 0.0467000751660555 -0.173791830406817 -1.134809851687708 1.8163540886960992 2.0501193828703954 -0.5200091814722694 1.1399484235778592
1.24058699608 0.0467000751660555 -0.173791830406817 -1.134809851687708 1.8163540886960992 2.0501193828703954 -0.5200091814722694 1.1399484235778592
1.25077295303 0.0467000751660555 -0.173791830406817 -1.134809851687708 1.8163540886960992 2.0501193828703954 -0.5200091814722694 1.1399484235778592
1.25077295303 0.0467000751660555 -0.173791830406817 -1.134809851687708 1.8163540886960992 2.0501193828703954 -0.5200091814722694 1.1399484235778592
1.26082205772 0.0467000751660555 -0.173791830406817 -1.134809851687708 1.8163540886960992 2.0501193828703954 -0.5200091814722694 1.1399484235778592
1.26082205772 0.0467000751660555 -0.173791830406817 -1.134809851687708 1.8163540886960992 2.0501193828703954 -0.5200091814722694 1.1399484235778592
1.2707400322 0.0467000751660555 -0.173791830406817 -1.134809851687708 1.8163540886960992 2.0501102519512773 -0.5200091814722694 1.1399484235778592
1.2707400322 0.0467000751660555 -0.173791830406817 -1.134809851687708 1.8163540886960992 2.0501102519512773 -0.5200091814722694 1.1399484235778592
1.2806429863 0.0467000751660555 -0.173791830406817 -1.134809851687708 1.8163540886960992 2.0501102519512773 -0.5200091814722694 1.1399484235778592
1.2806429863 0.0467000751660555 -0.173791830406817 -1.134809851687708 1.8163540886960992 2.0501102519512773 -0.5200091814722694 1.1399484235778592
1.29071593285 0.0467000751660555 -0.173791830406817 -1.134809851687708 1.8163540886960992 2.0501193828703954 -0.5200091814722694 1.1399484235778592
1.29071593285 0.0467000751660555 -0.173791830406817 -1.134809851687708 1.8163540886960992 2.0501193828703954 -0.5200091814722694 1.1399484235778592
1.30069684982 0.0467000751660555 -0.173791830406817 -1.134809851687708 1.8163540886960992 2.0501193828703954 -0.5200091814722694 1.1399484235778592
1.30069684982 0.0467000751660555 -0.173791830406817 -1.134809851687708 1.8163540886960992 2.0501193828703954 -0.5200091814722694 1.1399484235778592
1.31082701683 0.0467000751660555 -0.173791830406817 -1.134809851687708 1.8163540886960992 2.0501193828703954 -0.5200091814722694 1.1399484235778592
1.31082701683 0.0467000751660555 -0.173791830406817 -1.134809851687708 1.8163540886960992 2.0501193828703954 -0.5200091814722694 1.1399484235778592
1.32061886787 0.0467000751660555 -0.173791830406817 -1.134809851687708 1.8163540886960992 2.0501193828703954 -0.5200091814722694 1.1399484235778592
1.32061886787 0.0467000751660555 -0.173791830406817 -1.134809851687708 1.8163540886960992 2.0501193828703954 -0.5200091814722694 1.1399484235778592
1.33071494102 0.0467000751660555 -0.173791830406817 -1.134809851687708 1.8163540886960992 2.0501193828703954 -0.5200091814722694 1.1399484235778592
1.33071494102 0.0467000751660555 -0.173791830406817 -1.134809851687708 1.8163540886960992 2.0501193828703954 -0.5200091814722694 1.1399484235778592
1.34070396423 0.0467000751660555 -0.173791830406817 -1.134809851687708 1.8163540886960992 2.0501193828703954 -0.5200091814722694 1.1399484235778592
1.34070396423 0.0467000751660555 -0.173791830406817 -1.134809851687708 1.8163540886960992 2.0501193828703954 -0.5200091814722694 1.1399484235778592
1.35080695152 0.0467000751660555 -0.173791830406817 -1.134809851687708 1.8163540886960992 2.0501102519512773 -0.5200091814722694 1.1399484235778592
1.35080695152 0.0467000751660555 -0.173791830406817 -1.134809851687708 1.8163540886960992 2.0501102519512773 -0.5200091814722694 1.1399484235778592
1.36064505577 0.0467000751660555 -0.173791830406817 -1.134809851687708 1.8163540886960992 2.0501102519512773 -0.5200091814722694 1.1399484235778592
1.36064505577 0.0467000751660555 -0.173791830406817 -1.134809851687708 1.8163540886960992 2.0501102519512773 -0.5200091814722694 1.1399484235778592
1.37076306343 0.0467000751660555 -0.173791830406817 -1.134809851687708 1.8163540886960992 2.0501193828703954 -0.5200091814722694 1.1399484235778592
1.37076306343 0.0467000751660555 -0.173791830406817 -1.134809851687708 1.8163540886960992 2.0501193828703954 -0.5200091814722694 1.1399484235778592
1.3805809021 0.0467000751660555 -0.173791830406817 -1.134809851687708 1.8163540886960992 2.0501193828703954 -0.5200091814722694 1.1399484235778592
1.3805809021 0.0467000751660555 -0.173791830406817 -1.134809851687708 1.8163540886960992 2.0501193828703954 -0.5200091814722694 1.1399484235778592
1.39057087898 0.0467000751660555 -0.173791830406817 -1.134809851687708 1.8163540886960992 2.0501102519512773 -0.5200091814722694 1.1399484235778592
1.39057087898 0.0467000751660555 -0.173791830406817 -1.134809851687708 1.8163540886960992 2.0501102519512773 -0.5200091814722694 1.1399484235778592
1.40077400208 0.0467000751660555 -0.173791830406817 -1.134809851687708 1.8163540886960992 2.0501102519512773 -0.5200091814722694 1.1399484235778592
1.40077400208 0.0467000751660555 -0.173791830406817 -1.134809851687708 1.8163540886960992 2.0501102519512773 -0.5200091814722694 1.1399484235778592
1.41114902496 0.0467000751660555 -0.173791830406817 -1.134809851687708 1.8163540886960992 2.0501102519512773 -0.5200091814722694 1.1399484235778592
1.41114902496 0.0467000751660555 -0.173791830406817 -1.134809851687708 1.8163540886960992 2.0501102519512773 -0.5200091814722694 1.1399484235778592
1.42067098618 0.0467000751660555 -0.173791830406817 -1.134809851687708 1.8163540886960992 2.0501102519512773 -0.5200091814722694 1.1399484235778592
1.42067098618 0.0467000751660555 -0.173791830406817 -1.134809851687708 1.8163540886960992 2.0501102519512773 -0.5200091814722694 1.1399484235778592
1.43077898026 0.0467000751660555 -0.173791830406817 -1.134809851687708 1.8163540886960992 2.0501102519512773 -0.5200091814722694 1.1399484235778592
1.43077898026 0.0467000751660555 -0.173791830406817 -1.134809851687708 1.8163540886960992 2.0501102519512773 -0.5200091814722694 1.1399484235778592
1.44063806534 0.0467000751660555 -0.173791830406817 -1.134809851687708 1.8163540886960992 2.0501193828703954 -0.5200091814722694 1.1399484235778592
1.44063806534 0.0467000751660555 -0.173791830406817 -1.134809851687708 1.8163540886960992 2.0501193828703954 -0.5200091814722694 1.1399484235778592
1.45054292679 0.0467000751660555 -0.173791830406817 -1.134809851687708 1.8163540886960992 2.0501193828703954 -0.5200091814722694 1.1399484235778592
1.45054292679 0.0467000751660555 -0.173791830406817 -1.134809851687708 1.8163540886960992 2.0501193828703954 -0.5200091814722694 1.1399484235778592
1.46037387848 0.0467000751660555 -0.173791830406817 -1.134809851687708 1.8163540886960992 2.0501193828703954 -0.5200091814722694 1.1399484235778592
1.46037387848 0.0467000751660555 -0.173791830406817 -1.134809851687708 1.8163540886960992 2.0501193828703954 -0.5200091814722694 1.1399484235778592
1.47071099281 0.0467000751660555 -0.173791830406817 -1.134809851687708 1.8163540886960992 2.0501193828703954 -0.5200091814722694 1.1399484235778592
1.47071099281 0.0467000751660555 -0.173791830406817 -1.134809851687708 1.8163540886960992 2.0501193828703954 -0.5200091814722694 1.1399484235778592
1.48064804077 0.0467000751660555 -0.173791830406817 -1.134809851687708 1.8163540886960992 2.0501193828703954 -0.5200091814722694 1.1399484235778592
1.48064804077 0.0467000751660555 -0.173791830406817 -1.134809851687708 1.8163540886960992 2.0501193828703954 -0.5200091814722694 1.1399484235778592
1.49075698853 0.0467000751660555 -0.173791830406817 -1.134809851687708 1.8163540886960992 2.0501193828703954 -0.5200091814722694 1.1399484235778592
1.49075698853 0.0467000751660555 -0.173791830406817 -1.134809851687708 1.8163540886960992 2.0501193828703954 -0.5200091814722694 1.1399484235778592
1.50070405006 0.0467000751660555 -0.173791830406817 -1.134809851687708 1.8163540886960992 2.0501193828703954 -0.5200091814722694 1.1399484235778592
1.50070405006 0.0467000751660555 -0.173791830406817 -1.134809851687708 1.8163540886960992 2.0501193828703954 -0.5200091814722694 1.1399484235778592
1.51085305214 0.0467000751660555 -0.173791830406817 -1.134809851687708 1.8163540886960992 2.0501193828703954 -0.5200091814722694 1.1399484235778592
1.51085305214 0.0467000751660555 -0.173791830406817 -1.134809851687708 1.8163540886960992 2.0501193828703954 -0.5200091814722694 1.1399484235778592
1.52063894272 0.0467000751660555 -0.173791830406817 -1.134809851687708 1.8163540886960992 2.0501102519512773 -0.5200091814722694 1.1399484235778592
1.52063894272 0.0467000751660555 -0.173791830406817 -1.134809851687708 1.8163540886960992 2.0501102519512773 -0.5200091814722694 1.1399484235778592
1.53077197075 0.0467000751660555 -0.173791830406817 -1.134809851687708 1.8163540886960992 2.0501102519512773 -0.5200091814722694 1.1399484235778592
1.53077197075 0.0467000751660555 -0.173791830406817 -1.134809851687708 1.8163540886960992 2.0501102519512773 -0.5200091814722694 1.1399484235778592
1.54073786736 0.0467000751660555 -0.173791830406817 -1.134809851687708 1.8163540886960992 2.0501193828703954 -0.5200091814722694 1.1399484235778592
1.54073786736 0.0467000751660555 -0.173791830406817 -1.134809851687708 1.8163540886960992 2.0501193828703954 -0.5200091814722694 1.1399484235778592
1.55061793327 0.0467000751660555 -0.173791830406817 -1.134809851687708 1.8163540886960992 2.0501193828703954 -0.5200091814722694 1.1399484235778592
1.55061793327 0.0467000751660555 -0.173791830406817 -1.134809851687708 1.8163540886960992 2.0501193828703954 -0.5200091814722694 1.1399484235778592
1.56061291695 0.0467000751660555 -0.173791830406817 -1.134809851687708 1.8163540886960992 2.0501102519512773 -0.5200091814722694 1.1399484235778592
1.56061291695 0.0467000751660555 -0.173791830406817 -1.134809851687708 1.8163540886960992 2.0501102519512773 -0.5200091814722694 1.1399484235778592
1.5706820488 0.0467000751660555 -0.173791830406817 -1.134809851687708 1.8163540886960992 2.0501102519512773 -0.5200091814722694 1.1399484235778592
1.5706820488 0.0467000751660555 -0.173791830406817 -1.134809851687708 1.8163540886960992 2.0501102519512773 -0.5200091814722694 1.1399484235778592
1.58068084717 0.0467000751660555 -0.173791830406817 -1.134809851687708 1.8163540886960992 2.0501102519512773 -0.5200091814722694 1.1399484235778592
1.58068084717 0.0467000751660555 -0.173791830406817 -1.134809851687708 1.8163540886960992 2.0501102519512773 -0.5200091814722694 1.1399484235778592
1.59082984924 0.0467000751660555 -0.173791830406817 -1.134809851687708 1.8163540886960992 2.0501102519512773 -0.5200091814722694 1.1399484235778592
1.59082984924 0.0467000751660555 -0.173791830406817 -1.134809851687708 1.8163540886960992 2.0501102519512773 -0.5200091814722694 1.1399484235778592
1.60068488121 0.0467000751660555 -0.173791830406817 -1.134809851687708 1.8163540886960992 2.0501102519512773 -0.5200091814722694 1.1399484235778592
1.60068488121 0.0467000751660555 -0.173791830406817 -1.134809851687708 1.8163540886960992 2.0501102519512773 -0.5200091814722694 1.1399484235778592
1.61076188087 0.0467000751660555 -0.173791830406817 -1.134809851687708 1.8163540886960992 2.0501102519512773 -0.5200091814722694 1.1399484235778592
1.61076188087 0.0467000751660555 -0.173791830406817 -1.134809851687708 1.8163540886960992 2.0501102519512773 -0.5200091814722694 1.1399484235778592
1.62059903145 0.0467000751660555 -0.173791830406817 -1.134809851687708 1.8163540886960992 2.0501193828703954 -0.5200091814722694 1.1399484235778592
1.62059903145 0.0467000751660555 -0.173791830406817 -1.134809851687708 1.8163540886960992 2.0501193828703954 -0.5200091814722694 1.1399484235778592
1.63073301315 0.0467000751660555 -0.173791830406817 -1.134809851687708 1.8163540886960992 2.0501193828703954 -0.5200091814722694 1.1399484235778592
1.63073301315 0.0467000751660555 -0.173791830406817 -1.134809851687708 1.8163540886960992 2.0501193828703954 -0.5200091814722694 1.1399484235778592
1.6408469677 0.0467000751660555 -0.173791830406817 -1.134809851687708 1.8163540886960992 2.0501193828703954 -0.5200091814722694 1.1399484235778592
1.6408469677 0.0467000751660555 -0.173791830406817 -1.134809851687708 1.8163540886960992 2.0501193828703954 -0.5200091814722694 1.1399484235778592
1.65084385872 0.0467000751660555 -0.173791830406817 -1.134809851687708 1.8163540886960992 2.0501102519512773 -0.5200091814722694 1.1399484235778592
1.65084385872 0.0467000751660555 -0.173791830406817 -1.134809851687708 1.8163540886960992 2.0501102519512773 -0.5200091814722694 1.1399484235778592
1.66075801849 0.0467000751660555 -0.173791830406817 -1.134809851687708 1.8163540886960992 2.0501102519512773 -0.5200091814722694 1.1399484235778592
1.66075801849 0.0467000751660555 -0.173791830406817 -1.134809851687708 1.8163540886960992 2.0501102519512773 -0.5200091814722694 1.1399484235778592
1.67073988914 0.0467000751660555 -0.173791830406817 -1.134809851687708 1.8163540886960992 2.0501102519512773 -0.5200091814722694 1.1399484235778592
1.67073988914 0.0467000751660555 -0.173791830406817 -1.134809851687708 1.8163540886960992 2.0501102519512773 -0.5200091814722694 1.1399484235778592
1.68084692955 0.0467000751660555 -0.173791830406817 -1.134809851687708 1.8163540886960992 2.0501102519512773 -0.5200091814722694 1.1399484235778592
1.68084692955 0.0467000751660555 -0.173791830406817 -1.134809851687708 1.8163540886960992 2.0501102519512773 -0.5200091814722694 1.1399484235778592
1.69055104256 0.0467000751660555 -0.173791830406817 -1.134809851687708 1.8163540886960992 2.0501193828703954 -0.5200091814722694 1.1399484235778592
1.69055104256 0.0467000751660555 -0.173791830406817 -1.134809851687708 1.8163540886960992 2.0501193828703954 -0.5200091814722694 1.1399484235778592
1.70057487488 0.0467000751660555 -0.173791830406817 -1.134809851687708 1.8163540886960992 2.0501193828703954 -0.5200091814722694 1.1399484235778592
1.70057487488 0.0467000751660555 -0.173791830406817 -1.134809851687708 1.8163540886960992 2.0501193828703954 -0.5200091814722694 1.1399484235778592
1.71072101593 0.0467000751660555 -0.173791830406817 -1.134809851687708 1.8163540886960992 2.0501102519512773 -0.5200091814722694 1.1399484235778592
1.71072101593 0.0467000751660555 -0.173791830406817 -1.134809851687708 1.8163540886960992 2.0501102519512773 -0.5200091814722694 1.1399484235778592
1.72061491013 0.0467000751660555 -0.173791830406817 -1.134809851687708 1.8163540886960992 2.0501102519512773 -0.5200091814722694 1.1399484235778592
1.72061491013 0.0467000751660555 -0.173791830406817 -1.134809851687708 1.8163540886960992 2.0501102519512773 -0.5200091814722694 1.1399484235778592
1.73058795929 0.0467000751660555 -0.173791830406817 -1.134809851687708 1.8163540886960992 2.0501102519512773 -0.5200091814722694 1.1399484235778592
1.73058795929 0.0467000751660555 -0.173791830406817 -1.134809851687708 1.8163540886960992 2.0501102519512773 -0.5200091814722694 1.1399484235778592
1.74069285393 0.0467000751660555 -0.173791830406817 -1.134809851687708 1.8163540886960992 2.0501102519512773 -0.5200091814722694 1.1399484235778592
1.74069285393 0.0467000751660555 -0.173791830406817 -1.134809851687708 1.8163540886960992 2.0501102519512773 -0.5200091814722694 1.1399484235778592
1.750841856 0.0467000751660555 -0.173791830406817 -1.134809851687708 1.8163540886960992 2.0501102519512773 -0.5200091814722694 1.1399484235778592
1.750841856 0.0467000751660555 -0.173791830406817 -1.134809851687708 1.8163540886960992 2.0501102519512773 -0.5200091814722694 1.1399484235778592
1.76066589355 0.0467000751660555 -0.173791830406817 -1.134809851687708 1.8163540886960992 2.0501102519512773 -0.5200091814722694 1.1399484235778592
1.76066589355 0.0467000751660555 -0.173791830406817 -1.134809851687708 1.8163540886960992 2.0501102519512773 -0.5200091814722694 1.1399484235778592
1.77073001862 0.0467000751660555 -0.173791830406817 -1.134809851687708 1.8163540886960992 2.0501193828703954 -0.5200091814722694 1.1399484235778592
1.77073001862 0.0467000751660555 -0.173791830406817 -1.134809851687708 1.8163540886960992 2.0501193828703954 -0.5200091814722694 1.1399484235778592
1.78074097633 0.0467000751660555 -0.173791830406817 -1.134809851687708 1.8163540886960992 2.0501193828703954 -0.5200091814722694 1.1399484235778592
1.78074097633 0.0467000751660555 -0.173791830406817 -1.134809851687708 1.8163540886960992 2.0501193828703954 -0.5200091814722694 1.1399484235778592
1.79067993164 0.0467000751660555 -0.173791830406817 -1.134809851687708 1.8163540886960992 2.0501193828703954 -0.5200091814722694 1.1399484235778592
1.79067993164 0.0467000751660555 -0.173791830406817 -1.134809851687708 1.8163540886960992 2.0501193828703954 -0.5200091814722694 1.1399484235778592
1.80061888695 0.0467000751660555 -0.173791830406817 -1.134809851687708 1.8163540886960992 2.0501193828703954 -0.5200091814722694 1.1399484235778592
1.80061888695 0.0467000751660555 -0.173791830406817 -1.134809851687708 1.8163540886960992 2.0501193828703954 -0.5200091814722694 1.1399484235778592
1.81079292297 0.0467000751660555 -0.173791830406817 -1.134809851687708 1.8163540886960992 2.0501102519512773 -0.5200091814722694 1.1399484235778592
1.81079292297 0.0467000751660555 -0.173791830406817 -1.134809851687708 1.8163540886960992 2.0501102519512773 -0.5200091814722694 1.1399484235778592
1.82062005997 0.0467000751660555 -0.173791830406817 -1.134809851687708 1.8163540886960992 2.0501102519512773 -0.5200091814722694 1.1399484235778592
1.82062005997 0.0467000751660555 -0.173791830406817 -1.134809851687708 1.8163540886960992 2.0501102519512773 -0.5200091814722694 1.1399484235778592
1.83066797256 0.0467000751660555 -0.173791830406817 -1.134809851687708 1.8163540886960992 2.0501102519512773 -0.5200091814722694 1.1399484235778592
1.83066797256 0.0467000751660555 -0.173791830406817 -1.134809851687708 1.8163540886960992 2.0501102519512773 -0.5200091814722694 1.1399484235778592
1.84070205688 0.0467000751660555 -0.173791830406817 -1.134809851687708 1.8163540886960992 2.0501102519512773 -0.5200091814722694 1.1399484235778592
1.84070205688 0.0467000751660555 -0.173791830406817 -1.134809851687708 1.8163540886960992 2.0501102519512773 -0.5200091814722694 1.1399484235778592
1.85070705414 0.0467000751660555 -0.173791830406817 -1.134809851687708 1.8163540886960992 2.0501193828703954 -0.5200091814722694 1.1399484235778592
1.85070705414 0.0467000751660555 -0.173791830406817 -1.134809851687708 1.8163540886960992 2.0501193828703954 -0.5200091814722694 1.1399484235778592
1.8605659008 0.0467000751660555 -0.173791830406817 -1.134809851687708 1.8163847687188024 2.0501193828703954 -0.5200091814722694 1.1399484235778592
1.8605659008 0.0467000751660555 -0.173791830406817 -1.134809851687708 1.8163847687188024 2.0501193828703954 -0.5200091814722694 1.1399484235778592
1.87075591087 0.0467000751660555 -0.173791830406817 -1.134809851687708 1.8164461287642084 2.0501102519512773 -0.5200091814722694 1.1399484235778592
1.87075591087 0.0467000751660555 -0.173791830406817 -1.134809851687708 1.8164461287642084 2.0501102519512773 -0.5200091814722694 1.1399484235778592
1.88063883781 0.0467000751660555 -0.173791830406817 -1.134809851687708 1.8164461287642084 2.0501102519512773 -0.5200091814722694 1.1399484235778592
1.88063883781 0.0467000751660555 -0.173791830406817 -1.134809851687708 1.8164461287642084 2.0501102519512773 -0.5200091814722694 1.1399484235778592
1.89076185226 0.0467000751660555 -0.173791830406817 -1.134809851687708 1.8165074888096149 2.0501102519512773 -0.5200091814722694 1.1399484235778592
1.89076185226 0.0467000751660555 -0.173791830406817 -1.134809851687708 1.8165074888096149 2.0501102519512773 -0.5200091814722694 1.1399484235778592
1.90069890022 0.0467000751660555 -0.173791830406817 -1.134809851687708 1.8165074888096149 2.0501102519512773 -0.5200091814722694 1.1399484235778592
1.90069890022 0.0467000751660555 -0.173791830406817 -1.134809851687708 1.8165074888096149 2.0501102519512773 -0.5200091814722694 1.1399484235778592
1.91068696976 0.0467000751660555 -0.173791830406817 -1.134809851687708 1.8165074888096149 2.0501102519512773 -0.5200091814722694 1.1399484235778592
1.91068696976 0.0467000751660555 -0.173791830406817 -1.134809851687708 1.8165074888096149 2.0501102519512773 -0.5200091814722694 1.1399484235778592
1.92060184479 0.0467000751660555 -0.173791830406817 -1.134809851687708 1.8165074888096149 2.0501102519512773 -0.5200091814722694 1.1399484235778592
1.92060184479 0.0467000751660555 -0.173791830406817 -1.134809851687708 1.8165074888096149 2.0501102519512773 -0.5200091814722694 1.1399484235778592
1.93077087402 0.0467000751660555 -0.173791830406817 -1.1348251916990597 1.81664554891178 2.0501102519512773 -0.5200091814722694 1.1399484235778592
1.93077087402 0.0467000751660555 -0.173791830406817 -1.1348251916990597 1.81664554891178 2.0501102519512773 -0.5200091814722694 1.1399484235778592
1.94065284729 0.0467000751660555 -0.173791830406817 -1.1348251916990597 1.8168756490820537 2.0501193828703954 -0.5200091814722694 1.1399484235778592
1.94065284729 0.0467000751660555 -0.173791830406817 -1.1348251916990597 1.8168756490820537 2.0501193828703954 -0.5200091814722694 1.1399484235778592
1.95060300827 0.0467000751660555 -0.173791830406817 -1.1348251916990597 1.8168756490820537 2.0501193828703954 -0.5200091814722694 1.1399484235778592
1.95060300827 0.0467000751660555 -0.173791830406817 -1.1348251916990597 1.8168756490820537 2.0501193828703954 -0.5200091814722694 1.1399484235778592
1.96055293083 0.0467000751660555 -0.173791830406817 -1.1348712117331143 1.8170443892069208 2.0501102519512773 -0.5200091814722694 1.1399484235778592
1.96055293083 0.0467000751660555 -0.173791830406817 -1.1348712117331143 1.8170443892069208 2.0501102519512773 -0.5200091814722694 1.1399484235778592
1.97066688538 0.0467000751660555 -0.173791830406817 -1.1349479117898724 1.817059729218273 2.0501102519512773 -0.5200091814722694 1.1399484235778592
1.97066688538 0.0467000751660555 -0.173791830406817 -1.1349479117898724 1.817059729218273 2.0501102519512773 -0.5200091814722694 1.1399484235778592
1.98063087463 0.0467000751660555 -0.173791830406817 -1.1349479117898724 1.817059729218273 2.0501102519512773 -0.5200091814722694 1.1399484235778592
1.98063087463 0.0467000751660555 -0.173791830406817 -1.1349479117898724 1.817059729218273 2.0501102519512773 -0.5200091814722694 1.1399484235778592
1.99063587189 0.0467000751660555 -0.173791830406817 -1.1349479117898724 1.817059729218273 2.0501102519512773 -0.5200091814722694 1.1399484235778592
1.99063587189 0.0467000751660555 -0.173791830406817 -1.1349479117898724 1.817059729218273 2.0501102519512773 -0.5200091814722694 1.1399484235778592
2.00060105324 0.0467000751660555 -0.173791830406817 -1.1349479117898724 1.817059729218273 2.0501102519512773 -0.5200091814722694 1.1399484235778592
2.00060105324 0.0467000751660555 -0.173791830406817 -1.1349479117898724 1.817059729218273 2.0501102519512773 -0.5200091814722694 1.1399484235778592
2.01075291634 0.0467000751660555 -0.173791830406817 -1.1349939318239273 1.817059729218273 2.0501102519512773 -0.5200091814722694 1.1399484235778592
2.01075291634 0.0467000751660555 -0.173791830406817 -1.1349939318239273 1.817059729218273 2.0501102519512773 -0.5200091814722694 1.1399484235778592
2.02070093155 0.0467000751660555 -0.173791830406817 -1.1350246118466305 1.817059729218273 2.0501193828703954 -0.5200091814722694 1.1399484235778592
2.02070093155 0.0467000751660555 -0.173791830406817 -1.1350246118466305 1.817059729218273 2.0501193828703954 -0.5200091814722694 1.1399484235778592
2.03082203865 0.0467000751660555 -0.173791830406817 -1.135039951857982 1.817059729218273 2.0501102519512773 -0.5200091814722694 1.1399484235778592
2.03082203865 0.0467000751660555 -0.173791830406817 -1.135039951857982 1.817059729218273 2.0501102519512773 -0.5200091814722694 1.1399484235778592
2.04060006142 0.0467000751660555 -0.173791830406817 -1.135039951857982 1.817059729218273 2.0501102519512773 -0.5200091814722694 1.1399484235778592
2.04060006142 0.0467000751660555 -0.173791830406817 -1.135039951857982 1.817059729218273 2.0501102519512773 -0.5200091814722694 1.1399484235778592
2.05063796043 0.0467000751660555 -0.173791830406817 -1.135039951857982 1.817059729218273 2.0501102519512773 -0.5200091814722694 1.1399484235778592
2.05063796043 0.0467000751660555 -0.173791830406817 -1.135039951857982 1.817059729218273 2.0501102519512773 -0.5200091814722694 1.1399484235778592
2.06064605713 0.0467000751660555 -0.173791830406817 -1.1350552918693335 1.817059729218273 2.0501102519512773 -0.5200091814722694 1.1399484235778592
2.06064605713 0.0467000751660555 -0.173791830406817 -1.1350552918693335 1.817059729218273 2.0501102519512773 -0.5200091814722694 1.1399484235778592
2.07069683075 0.0467000751660555 -0.173791830406817 -1.1350552918693335 1.817059729218273 2.0501102519512773 -0.5200091814722694 1.1399484235778592
2.07069683075 0.0467000751660555 -0.173791830406817 -1.1350552918693335 1.817059729218273 2.0501102519512773 -0.5200091814722694 1.1399484235778592
2.08072805405 0.0467000751660555 -0.173791830406817 -1.1350552918693335 1.817059729218273 2.0501102519512773 -0.5200091814722694 1.1399484235778592
2.08072805405 0.0467000751660555 -0.173791830406817 -1.1350552918693335 1.817059729218273 2.0501102519512773 -0.5200091814722694 1.1399484235778592
2.09076499939 0.0467000751660555 -0.173791830406817 -1.1352240319942013 1.817059729218273 2.0501102519512773 -0.5200091814722694 1.1399484235778592
2.09076499939 0.0467000751660555 -0.173791830406817 -1.1352240319942013 1.817059729218273 2.0501102519512773 -0.5200091814722694 1.1399484235778592
2.10076999664 0.0467000751660555 -0.173791830406817 -1.1352240319942013 1.817059729218273 2.0501102519512773 -0.5200091814722694 1.1399484235778592
2.10076999664 0.0467000751660555 -0.173791830406817 -1.1352240319942013 1.817059729218273 2.0501102519512773 -0.5200091814722694 1.1399484235778592
2.11081290245 0.0467000751660555 -0.173791830406817 -1.1354234521417723 1.817059729218273 2.0501102519512773 -0.5200091814722694 1.1399484235778592
2.11081290245 0.0467000751660555 -0.173791830406817 -1.1354234521417723 1.817059729218273 2.0501102519512773 -0.5200091814722694 1.1399484235778592
2.12062287331 0.0467000751660555 -0.173791830406817 -1.1354234521417723 1.817059729218273 2.0501102519512773 -0.5200091814722694 1.1399484235778592
2.12062287331 0.0467000751660555 -0.173791830406817 -1.1354234521417723 1.817059729218273 2.0501102519512773 -0.5200091814722694 1.1399484235778592
2.13057994843 0.0467000751660555 -0.173791830406817 -1.1354234521417723 1.817059729218273 2.0501102519512773 -0.5200091814722694 1.1399484235778592
2.13057994843 0.0467000751660555 -0.173791830406817 -1.1354234521417723 1.817059729218273 2.0501102519512773 -0.5200091814722694 1.1399484235778592
2.1407020092 0.0467000751660555 -0.173791830406817 -1.1354234521417723 1.817059729218273 2.0501102519512773 -0.5200091814722694 1.1399484235778592
2.1407020092 0.0467000751660555 -0.173791830406817 -1.1354234521417723 1.817059729218273 2.0501102519512773 -0.5200091814722694 1.1399484235778592
2.1508140564 0.0467000751660555 -0.173791830406817 -1.1354234521417723 1.817059729218273 2.0501102519512773 -0.5200091814722694 1.1399484235778592
2.1508140564 0.0467000751660555 -0.173791830406817 -1.1354234521417723 1.817059729218273 2.0501102519512773 -0.5200091814722694 1.1399484235778592
2.16082000732 0.0467000751660555 -0.173791830406817 -1.1354234521417723 1.817059729218273 2.0501102519512773 -0.5200091814722694 1.1399484235778592
2.16082000732 0.0467000751660555 -0.173791830406817 -1.1354234521417723 1.817059729218273 2.0501102519512773 -0.5200091814722694 1.1399484235778592
2.17079687119 0.0467000751660555 -0.173791830406817 -1.1354234521417723 1.817059729218273 2.0501102519512773 -0.5200091814722694 1.1399484235778592
2.17079687119 0.0467000751660555 -0.173791830406817 -1.1354234521417723 1.817059729218273 2.0501102519512773 -0.5200091814722694 1.1399484235778592
2.18073797226 0.0467000751660555 -0.173791830406817 -1.1354234521417723 1.817059729218273 2.0501102519512773 -0.5200091814722694 1.1399484235778592
2.18073797226 0.0467000751660555 -0.173791830406817 -1.1354234521417723 1.817059729218273 2.0501102519512773 -0.5200091814722694 1.1399484235778592
2.1907119751 0.0467000751660555 -0.173791830406817 -1.1354234521417723 1.817059729218273 2.0501102519512773 -0.5200091814722694 1.1399484235778592
2.1907119751 0.0467000751660555 -0.173791830406817 -1.1354234521417723 1.817059729218273 2.0501102519512773 -0.5200091814722694 1.1399484235778592
2.20071101189 0.0467000751660555 -0.173791830406817 -1.1354234521417723 1.817059729218273 2.0501102519512773 -0.5200091814722694 1.1399484235778592
2.20071101189 0.0467000751660555 -0.173791830406817 -1.1354234521417723 1.817059729218273 2.0501102519512773 -0.5200091814722694 1.1399484235778592
2.21043395996 0.0467154151774071 -0.173791830406817 -1.136880753220175 1.8170750692296245 2.0501193828703954 -0.5200091814722694 1.1399484235778592
2.21043395996 0.0467154151774071 -0.173791830406817 -1.136880753220175 1.8170750692296245 2.0501193828703954 -0.5200091814722694 1.1399484235778592
2.22037291527 0.0467460952001103 -0.173791830406817 -1.1390130147980486 1.8173511894339536 2.0501102519512773 -0.5200091814722694 1.1399484235778592
2.22037291527 0.0467460952001103 -0.173791830406817 -1.1390130147980486 1.8173511894339536 2.0501102519512773 -0.5200091814722694 1.1399484235778592
2.23060393333 0.0467460952001103 -0.173791830406817 -1.1390130147980486 1.8173511894339536 2.0501102519512773 -0.5200091814722694 1.1399484235778592
2.23060393333 0.0467460952001103 -0.173791830406817 -1.1390130147980486 1.8173511894339536 2.0501102519512773 -0.5200091814722694 1.1399484235778592
2.24046397209 0.0467614352114619 -0.1737764903954654 -1.140424295842397 1.8179801298993696 2.0501102519512773 -0.5200091814722694 1.1399484235778592
2.24046397209 0.0467614352114619 -0.1737764903954654 -1.140424295842397 1.8179801298993696 2.0501102519512773 -0.5200091814722694 1.1399484235778592
2.25073385239 0.0467614352114619 -0.1737764903954654 -1.140424295842397 1.8179801298993696 2.0501102519512773 -0.5200091814722694 1.1399484235778592
2.25073385239 0.0467614352114619 -0.1737764903954654 -1.140424295842397 1.8179801298993696 2.0501102519512773 -0.5200091814722694 1.1399484235778592
2.26070284843 0.0468227952568684 -0.1737764903954654 -1.1416821767732286 1.8187931505010049 2.0501102519512773 -0.5200091814722694 1.1399484235778592
2.26070284843 0.0468227952568684 -0.1737764903954654 -1.1416821767732286 1.8187931505010049 2.0501102519512773 -0.5200091814722694 1.1399484235778592
2.27079486847 0.0468227952568684 -0.1737764903954654 -1.1416821767732286 1.8187931505010049 2.0501102519512773 -0.5200091814722694 1.1399484235778592
2.27079486847 0.0468227952568684 -0.1737764903954654 -1.1416821767732286 1.8187931505010049 2.0501102519512773 -0.5200091814722694 1.1399484235778592
2.28064894676 0.0468227952568684 -0.1737764903954654 -1.1416821767732286 1.8187931505010049 2.0501102519512773 -0.5200091814722694 1.1399484235778592
2.28064894676 0.0468227952568684 -0.1737764903954654 -1.1416821767732286 1.8187931505010049 2.0501102519512773 -0.5200091814722694 1.1399484235778592
2.29063391685 0.0468994953136265 -0.1737458103727623 -1.1431241378402797 1.8195448110572336 2.0501102519512773 -0.5200091814722694 1.1399484235778592
2.29063391685 0.0468994953136265 -0.1737458103727623 -1.1431241378402797 1.8195448110572336 2.0501102519512773 -0.5200091814722694 1.1399484235778592
2.3006029129 0.0469761953703846 -0.1737458103727623 -1.1446581389754409 1.820265791590759 2.0501102519512773 -0.5200091814722694 1.1399484235778592
2.3006029129 0.0469761953703846 -0.1737458103727623 -1.1446581389754409 1.820265791590759 2.0501102519512773 -0.5200091814722694 1.1399484235778592
2.31071400642 0.0470682354384941 -0.1737458103727623 -1.146437580292227 1.821002112135636 2.0501102519512773 -0.5200091814722694 1.1399484235778592
2.31071400642 0.0470682354384941 -0.1737458103727623 -1.146437580292227 1.821002112135636 2.0501102519512773 -0.5200091814722694 1.1399484235778592
2.32063698769 0.0470682354384941 -0.1737458103727623 -1.146437580292227 1.821002112135636 2.0501102519512773 -0.5200091814722694 1.1399484235778592
2.32063698769 0.0470682354384941 -0.1737458103727623 -1.146437580292227 1.821002112135636 2.0501102519512773 -0.5200091814722694 1.1399484235778592
2.33072900772 0.0471602755066038 -0.1737304703614107 -1.1483857617338815 1.8217844527145683 2.0501193828703954 -0.5200091814722694 1.1399484235778592
2.33072900772 0.0471602755066038 -0.1737304703614107 -1.1483857617338815 1.8217844527145683 2.0501193828703954 -0.5200091814722694 1.1399484235778592
2.34080600739 0.0471602755066038 -0.1737304703614107 -1.1483857617338815 1.8217844527145683 2.0501193828703954 -0.5200091814722694 1.1399484235778592
2.34080600739 0.0471602755066038 -0.1737304703614107 -1.1483857617338815 1.8217844527145683 2.0501193828703954 -0.5200091814722694 1.1399484235778592
2.35080003738 0.0471602755066038 -0.1737304703614107 -1.1483857617338815 1.8217844527145683 2.0501193828703954 -0.5200091814722694 1.1399484235778592
2.35080003738 0.0471602755066038 -0.1737304703614107 -1.1483857617338815 1.8217844527145683 2.0501193828703954 -0.5200091814722694 1.1399484235778592
2.36077094078 0.0471602755066038 -0.1737304703614107 -1.1483857617338815 1.8217844527145683 2.0501193828703954 -0.5200091814722694 1.1399484235778592
2.36077094078 0.0471602755066038 -0.1737304703614107 -1.1483857617338815 1.8217844527145683 2.0501193828703954 -0.5200091814722694 1.1399484235778592
2.37083506584 0.0473136756201199 -0.1737304703614107 -1.1507634634933808 1.8226741733729617 2.0501193828703954 -0.5200091814722694 1.1399484235778592
2.37083506584 0.0473136756201199 -0.1737304703614107 -1.1507634634933808 1.8226741733729617 2.0501193828703954 -0.5200091814722694 1.1399484235778592
2.38044190407 0.047543775790394 -0.1737151303500591 -1.1531565052642316 1.8235792340427064 2.0501102519512773 -0.5200091814722694 1.1399484235778592
2.38044190407 0.047543775790394 -0.1737151303500591 -1.1531565052642316 1.8235792340427064 2.0501102519512773 -0.5200091814722694 1.1399484235778592
2.39074206352 0.0478659160287779 -0.1732395899981592 -1.1558870272848178 1.824422934667045 2.0501011210321587 -0.5200091814722694 1.1399484235778592
2.39074206352 0.0478659160287779 -0.1732395899981592 -1.1558870272848178 1.824422934667045 2.0501011210321587 -0.5200091814722694 1.1399484235778592
2.4007358551 0.0478659160287779 -0.1732395899981592 -1.1558870272848178 1.824422934667045 2.0501011210321587 -0.5200091814722694 1.1399484235778592
2.4007358551 0.0478659160287779 -0.1732395899981592 -1.1558870272848178 1.824422934667045 2.0501011210321587 -0.5200091814722694 1.1399484235778592
2.41074299812 0.0478659160287779 -0.1732395899981592 -1.1558870272848178 1.824422934667045 2.0501011210321587 -0.5200091814722694 1.1399484235778592
2.41074299812 0.0478659160287779 -0.1732395899981592 -1.1558870272848178 1.824422934667045 2.0501011210321587 -0.5200091814722694 1.1399484235778592
2.42071485519 0.0482647563239197 -0.1727793896576109 -1.1582493890329657 1.8252052752459769 2.050128513789514 -0.5200091814722694 1.1399484235778592
2.42071485519 0.0482647563239197 -0.1727793896576109 -1.1582493890329657 1.8252052752459769 2.050128513789514 -0.5200091814722694 1.1399484235778592
2.43082284927 0.0482647563239197 -0.1727793896576109 -1.1582493890329657 1.8252052752459769 2.050128513789514 -0.5200091814722694 1.1399484235778592
2.43082284927 0.0482647563239197 -0.1727793896576109 -1.1582493890329657 1.8252052752459769 2.050128513789514 -0.5200091814722694 1.1399484235778592
2.44063997269 0.0482647563239197 -0.1727793896576109 -1.1582493890329657 1.8252052752459769 2.050128513789514 -0.5200091814722694 1.1399484235778592
2.44063997269 0.0482647563239197 -0.1727793896576109 -1.1582493890329657 1.8252052752459769 2.050128513789514 -0.5200091814722694 1.1399484235778592
2.45077896118 0.0482647563239197 -0.1727793896576109 -1.1582493890329657 1.8252052752459769 2.050128513789514 -0.5200091814722694 1.1399484235778592
2.45077896118 0.0482647563239197 -0.1727793896576109 -1.1582493890329657 1.8252052752459769 2.050128513789514 -0.5200091814722694 1.1399484235778592
2.46072006226 0.0482647563239197 -0.1727793896576109 -1.1582493890329657 1.8252052752459769 2.050128513789514 -0.5200091814722694 1.1399484235778592
2.46072006226 0.0482647563239197 -0.1727793896576109 -1.1582493890329657 1.8252052752459769 2.050128513789514 -0.5200091814722694 1.1399484235778592
2.47060489655 0.0482647563239197 -0.1727793896576109 -1.1582493890329657 1.8252052752459769 2.050128513789514 -0.5200091814722694 1.1399484235778592
2.47060489655 0.0482647563239197 -0.1727793896576109 -1.1582493890329657 1.8252052752459769 2.050128513789514 -0.5200091814722694 1.1399484235778592
2.48077201843 0.0482647563239197 -0.1727793896576109 -1.1582493890329657 1.8252052752459769 2.050128513789514 -0.5200091814722694 1.1399484235778592
2.48077201843 0.0482647563239197 -0.1727793896576109 -1.1582493890329657 1.8252052752459769 2.050128513789514 -0.5200091814722694 1.1399484235778592
2.49075198174 0.0482647563239197 -0.1727793896576109 -1.1582493890329657 1.8252052752459769 2.050128513789514 -0.5200091814722694 1.1399484235778592
2.49075198174 0.0482647563239197 -0.1727793896576109 -1.1582493890329657 1.8252052752459769 2.050128513789514 -0.5200091814722694 1.1399484235778592
2.50075006485 0.0506577980947706 -0.1698647875008053 -1.170291297943978 1.827291516789796 2.050137644708632 -0.5200091814722694 1.1399484235778592
2.50075006485 0.0506577980947706 -0.1698647875008053 -1.170291297943978 1.827291516789796 2.050137644708632 -0.5200091814722694 1.1399484235778592
2.51081800461 0.0506577980947706 -0.1698647875008053 -1.170291297943978 1.827291516789796 2.050137644708632 -0.5200091814722694 1.1399484235778592
2.51081800461 0.0506577980947706 -0.1698647875008053 -1.170291297943978 1.827291516789796 2.050137644708632 -0.5200091814722694 1.1399484235778592
2.52069687843 0.0514094586509994 -0.1690824469218733 -1.1738501805775514 1.8276443370508828 2.0501467756277503 -0.5200091814722694 1.1399484235778592
2.52069687843 0.0514094586509994 -0.1690824469218733 -1.1738501805775514 1.8276443370508828 2.0501467756277503 -0.5200091814722694 1.1399484235778592
2.53063392639 0.0522684992866894 -0.1681620462407768 -1.1777312034495082 1.8278284171871024 2.0501467756277503 -0.5200091814722694 1.1399484235778592
2.53063392639 0.0522684992866894 -0.1681620462407768 -1.1777312034495082 1.8278284171871024 2.0501467756277503 -0.5200091814722694 1.1399484235778592
2.54055190086 0.0522684992866894 -0.1681620462407768 -1.1777312034495082 1.8278284171871024 2.0501467756277503 -0.5200091814722694 1.1399484235778592
2.54055190086 0.0522684992866894 -0.1681620462407768 -1.1777312034495082 1.8278284171871024 2.0501467756277503 -0.5200091814722694 1.1399484235778592
2.55077791214 0.0522684992866894 -0.1681620462407768 -1.1777312034495082 1.8278284171871024 2.0501467756277503 -0.5200091814722694 1.1399484235778592
2.55077791214 0.0522684992866894 -0.1681620462407768 -1.1777312034495082 1.8278284171871024 2.0501467756277503 -0.5200091814722694 1.1399484235778592
2.56072998047 0.0522684992866894 -0.1681620462407768 -1.1777312034495082 1.8278284171871024 2.0501467756277503 -0.5200091814722694 1.1399484235778592
2.56072998047 0.0522684992866894 -0.1681620462407768 -1.1777312034495082 1.8278284171871024 2.0501467756277503 -0.5200091814722694 1.1399484235778592
2.57076096535 0.0532195799904892 -0.1673950456731963 -1.18165824635552 1.827981817300618 2.0501467756277503 -0.5200091814722694 1.1399484235778592
2.57076096535 0.0532195799904892 -0.1673950456731963 -1.18165824635552 1.827981817300618 2.0501467756277503 -0.5200091814722694 1.1399484235778592
2.58071088791 0.0532195799904892 -0.1673950456731963 -1.18165824635552 1.827981817300618 2.0501467756277503 -0.5200091814722694 1.1399484235778592
2.58071088791 0.0532195799904892 -0.1673950456731963 -1.18165824635552 1.827981817300618 2.0501467756277503 -0.5200091814722694 1.1399484235778592
2.59060192108 0.0544161008759147 -0.1666433851169675 -1.185922769511267 1.8280124973233207 2.050128513789514 -0.5200091814722694 1.1399484235778592
2.59060192108 0.0544161008759147 -0.1666433851169675 -1.185922769511267 1.8280124973233207 2.050128513789514 -0.5200091814722694 1.1399484235778592
2.60058689117 0.0555819417386369 -0.1659377445947935 -1.1903100127578272 1.828027837334673 2.050137644708632 -0.5200091814722694 1.1399484235778592
2.60058689117 0.0555819417386369 -0.1659377445947935 -1.1903100127578272 1.828027837334673 2.050137644708632 -0.5200091814722694 1.1399484235778592
2.61097502708 0.0569778827716331 -0.1653548241634324 -1.1950347362541225 1.828027837334673 2.050165037465987 -0.5200091814722694 1.1399484235778592
2.61097502708 0.0569778827716331 -0.1653548241634324 -1.1950347362541225 1.828027837334673 2.050165037465987 -0.5200091814722694 1.1399484235778592
2.6205830574 0.0569778827716331 -0.1653548241634324 -1.1950347362541225 1.828027837334673 2.050165037465987 -0.5200091814722694 1.1399484235778592
2.6205830574 0.0569778827716331 -0.1653548241634324 -1.1950347362541225 1.828027837334673 2.050165037465987 -0.5200091814722694 1.1399484235778592
2.63081693649 0.0569778827716331 -0.1653548241634324 -1.1950347362541225 1.828027837334673 2.050165037465987 -0.5200091814722694 1.1399484235778592
2.63081693649 0.0569778827716331 -0.1653548241634324 -1.1950347362541225 1.828027837334673 2.050165037465987 -0.5200091814722694 1.1399484235778592
2.64073991776 0.0569778827716331 -0.1653548241634324 -1.1950347362541225 1.828027837334673 2.050165037465987 -0.5200091814722694 1.1399484235778592
2.64073991776 0.0569778827716331 -0.1653548241634324 -1.1950347362541225 1.828027837334673 2.050165037465987 -0.5200091814722694 1.1399484235778592
2.65093183517 0.0569778827716331 -0.1653548241634324 -1.1950347362541225 1.828027837334673 2.050165037465987 -0.5200091814722694 1.1399484235778592
2.65093183517 0.0569778827716331 -0.1653548241634324 -1.1950347362541225 1.828027837334673 2.050165037465987 -0.5200091814722694 1.1399484235778592
2.66072583199 0.059570344690055 -0.1646491836412585 -1.2055273040186227 1.828027837334673 2.0501193828703954 -0.5200091814722694 1.1399484235778592
2.66072583199 0.059570344690055 -0.1646491836412585 -1.2055273040186227 1.828027837334673 2.0501193828703954 -0.5200091814722694 1.1399484235778592
2.67080903053 0.059570344690055 -0.1646491836412585 -1.2055273040186227 1.828027837334673 2.0501193828703954 -0.5200091814722694 1.1399484235778592
2.67080903053 0.059570344690055 -0.1646491836412585 -1.2055273040186227 1.828027837334673 2.0501193828703954 -0.5200091814722694 1.1399484235778592
2.6806640625 0.0610123057571063 -0.1643730634369295 -1.2112184482300694 1.8280431773460244 2.050165037465987 -0.5200091814722694 1.1399484235778592
2.6806640625 0.0610123057571063 -0.1643730634369295 -1.2112184482300694 1.8280431773460244 2.050165037465987 -0.5200091814722694 1.1399484235778592
2.69080996513 0.0610123057571063 -0.1643730634369295 -1.2112184482300694 1.8280431773460244 2.050165037465987 -0.5200091814722694 1.1399484235778592
2.69080996513 0.0610123057571063 -0.1643730634369295 -1.2112184482300694 1.8280431773460244 2.050165037465987 -0.5200091814722694 1.1399484235778592
2.70058202744 0.06266902698308 -0.1640202431758425 -1.2171243526004387 1.828058517357376 2.050165037465987 -0.5200091814722694 1.1399484235778592
2.70058202744 0.06266902698308 -0.1640202431758425 -1.2171243526004387 1.828058517357376 2.050165037465987 -0.5200091814722694 1.1399484235778592
2.71084499359 0.06266902698308 -0.1640202431758425 -1.2171243526004387 1.828058517357376 2.050165037465987 -0.5200091814722694 1.1399484235778592
2.71084499359 0.06266902698308 -0.1640202431758425 -1.2171243526004387 1.828058517357376 2.050165037465987 -0.5200091814722694 1.1399484235778592
2.72066402435 0.06266902698308 -0.1640202431758425 -1.2171243526004387 1.828058517357376 2.050165037465987 -0.5200091814722694 1.1399484235778592
2.72066402435 0.06266902698308 -0.1640202431758425 -1.2171243526004387 1.828058517357376 2.050165037465987 -0.5200091814722694 1.1399484235778592
2.73075985909 0.0642797281749989 -0.1635753828466459 -1.2230149169594562 1.828058517357376 2.0501467756277503 -0.5200091814722694 1.1399484235778592
2.73075985909 0.0642797281749989 -0.1635753828466459 -1.2230149169594562 1.828058517357376 2.0501467756277503 -0.5200091814722694 1.1399484235778592
2.74074006081 0.065997809446379 -0.1628083822790655 -1.229335001636319 1.828073857368728 2.0501011210321587 -0.5200091814722694 1.1399484235778592
2.74074006081 0.065997809446379 -0.1628083822790655 -1.229335001636319 1.828073857368728 2.0501011210321587 -0.5200091814722694 1.1399484235778592
2.75079989433 0.0676698706837041 -0.1618419615639141 -1.2356090662791268 1.8281198774027827 2.0501741683851056 -0.5200091814722694 1.1399484235778592
2.75079989433 0.0676698706837041 -0.1618419615639141 -1.2356090662791268 1.8281198774027827 2.0501741683851056 -0.5200091814722694 1.1399484235778592
2.76055383682 0.0676698706837041 -0.1618419615639141 -1.2356090662791268 1.8281198774027827 2.0501741683851056 -0.5200091814722694 1.1399484235778592
2.76055383682 0.0676698706837041 -0.1618419615639141 -1.2356090662791268 1.8281198774027827 2.0501741683851056 -0.5200091814722694 1.1399484235778592
2.770788908 0.069710092193468 -0.1604920405649726 -1.241913810944638 1.828165897436837 2.050165037465987 -0.5200091814722694 1.1399484235778592
2.770788908 0.069710092193468 -0.1604920405649726 -1.241913810944638 1.828165897436837 2.050165037465987 -0.5200091814722694 1.1399484235778592
2.78060603142 0.069710092193468 -0.1604920405649726 -1.241913810944638 1.828165897436837 2.050165037465987 -0.5200091814722694 1.1399484235778592
2.78060603142 0.069710092193468 -0.1604920405649726 -1.241913810944638 1.828165897436837 2.050165037465987 -0.5200091814722694 1.1399484235778592
2.79076385498 0.069710092193468 -0.1604920405649726 -1.241913810944638 1.828165897436837 2.050165037465987 -0.5200091814722694 1.1399484235778592
2.79076385498 0.069710092193468 -0.1604920405649726 -1.241913810944638 1.828165897436837 2.050165037465987 -0.5200091814722694 1.1399484235778592
2.80093193054 0.069710092193468 -0.1604920405649726 -1.241913810944638 1.828165897436837 2.050165037465987 -0.5200091814722694 1.1399484235778592
2.80093193054 0.069710092193468 -0.1604920405649726 -1.241913810944638 1.828165897436837 2.050165037465987 -0.5200091814722694 1.1399484235778592
2.81040406227 0.0722105140437802 -0.1592341596341407 -1.2480498154852813 1.828242597493596 2.050137644708632 -0.5200091814722694 1.1399484235778592
2.81040406227 0.0722105140437802 -0.1592341596341407 -1.2480498154852813 1.828242597493596 2.050137644708632 -0.5200091814722694 1.1399484235778592
2.82035303116 0.0746649158600376 -0.1580529787600669 -1.254446600218902 1.828257937504947 2.050155906546869 -0.5200091814722694 1.1399484235778592
2.82035303116 0.0746649158600376 -0.1580529787600669 -1.254446600218902 1.828257937504947 2.050155906546869 -0.5200091814722694 1.1399484235778592
2.83073496819 0.0768892175060209 -0.1567490777951801 -1.2608587249638743 1.8282732775162989 2.0501741683851056 -0.5200091814722694 1.1399484235778592
2.83073496819 0.0768892175060209 -0.1567490777951801 -1.2608587249638743 1.8282732775162989 2.0501741683851056 -0.5200091814722694 1.1399484235778592
2.84067392349 0.0768892175060209 -0.1567490777951801 -1.2608587249638743 1.8282732775162989 2.0501741683851056 -0.5200091814722694 1.1399484235778592
2.84067392349 0.0768892175060209 -0.1567490777951801 -1.2608587249638743 1.8282732775162989 2.0501741683851056 -0.5200091814722694 1.1399484235778592
2.85079097748 0.0768892175060209 -0.1567490777951801 -1.2608587249638743 1.8282732775162989 2.0501741683851056 -0.5200091814722694 1.1399484235778592
2.85079097748 0.0768892175060209 -0.1567490777951801 -1.2608587249638743 1.8282732775162989 2.0501741683851056 -0.5200091814722694 1.1399484235778592
2.8607070446 0.0768892175060209 -0.1567490777951801 -1.2608587249638743 1.8282732775162989 2.0501741683851056 -0.5200091814722694 1.1399484235778592
2.8607070446 0.0768892175060209 -0.1567490777951801 -1.2608587249638743 1.8282732775162989 2.0501741683851056 -0.5200091814722694 1.1399484235778592
2.87092804909 0.0768892175060209 -0.1567490777951801 -1.2608587249638743 1.8282732775162989 2.0501741683851056 -0.5200091814722694 1.1399484235778592
2.87092804909 0.0768892175060209 -0.1567490777951801 -1.2608587249638743 1.8282732775162989 2.0501741683851056 -0.5200091814722694 1.1399484235778592
2.88120889664 0.0791135191520042 -0.1555065368756998 -1.267454929845066 1.8282732775162989 2.0501467756277503 -0.5200091814722694 1.1399484235778592
2.88120889664 0.0791135191520042 -0.1555065368756998 -1.267454929845066 1.8282732775162989 2.0501467756277503 -0.5200091814722694 1.1399484235778592
2.89062094688 0.0791135191520042 -0.1555065368756998 -1.267454929845066 1.8282732775162989 2.0501467756277503 -0.5200091814722694 1.1399484235778592
2.89062094688 0.0791135191520042 -0.1555065368756998 -1.267454929845066 1.8282732775162989 2.0501467756277503 -0.5200091814722694 1.1399484235778592
2.90067505836 0.0791135191520042 -0.1555065368756998 -1.267454929845066 1.8282732775162989 2.0501467756277503 -0.5200091814722694 1.1399484235778592
2.90067505836 0.0791135191520042 -0.1555065368756998 -1.267454929845066 1.8282732775162989 2.0501467756277503 -0.5200091814722694 1.1399484235778592
2.91071391106 0.0791135191520042 -0.1555065368756998 -1.267454929845066 1.8282732775162989 2.0501467756277503 -0.5200091814722694 1.1399484235778592
2.91071391106 0.0791135191520042 -0.1555065368756998 -1.267454929845066 1.8282732775162989 2.0501467756277503 -0.5200091814722694 1.1399484235778592
2.92054104805 0.0791135191520042 -0.1555065368756998 -1.267454929845066 1.8282732775162989 2.0501467756277503 -0.5200091814722694 1.1399484235778592
2.92054104805 0.0791135191520042 -0.1555065368756998 -1.267454929845066 1.8282732775162989 2.0501467756277503 -0.5200091814722694 1.1399484235778592
2.93058800697 0.0791135191520042 -0.1555065368756998 -1.267454929845066 1.8282732775162989 2.0501467756277503 -0.5200091814722694 1.1399484235778592
2.93058800697 0.0791135191520042 -0.1555065368756998 -1.267454929845066 1.8282732775162989 2.0501467756277503 -0.5200091814722694 1.1399484235778592
2.94056987762 0.0791135191520042 -0.1555065368756998 -1.267454929845066 1.8282732775162989 2.0501467756277503 -0.5200091814722694 1.1399484235778592
2.94056987762 0.0791135191520042 -0.1555065368756998 -1.267454929845066 1.8282732775162989 2.0501467756277503 -0.5200091814722694 1.1399484235778592
2.95077896118 0.0812151007071746 -0.1542639959562196 -1.2741124947716638 1.8282732775162989 2.0501011210321587 -0.5200091814722694 1.1399484235778592
2.95077896118 0.0812151007071746 -0.1542639959562196 -1.2741124947716638 1.8282732775162989 2.0501011210321587 -0.5200091814722694 1.1399484235778592
2.96076202393 0.0812151007071746 -0.1542639959562196 -1.2741124947716638 1.8282732775162989 2.0501011210321587 -0.5200091814722694 1.1399484235778592
2.96076202393 0.0812151007071746 -0.1542639959562196 -1.2741124947716638 1.8282732775162989 2.0501011210321587 -0.5200091814722694 1.1399484235778592
2.9706890583 0.0812151007071746 -0.1542639959562196 -1.2741124947716638 1.8282732775162989 2.0501011210321587 -0.5200091814722694 1.1399484235778592
2.9706890583 0.0812151007071746 -0.1542639959562196 -1.2741124947716638 1.8282732775162989 2.0501011210321587 -0.5200091814722694 1.1399484235778592
2.98072695732 0.0812151007071746 -0.1542639959562196 -1.2741124947716638 1.8282732775162989 2.0501011210321587 -0.5200091814722694 1.1399484235778592
2.98072695732 0.0812151007071746 -0.1542639959562196 -1.2741124947716638 1.8282732775162989 2.0501011210321587 -0.5200091814722694 1.1399484235778592
2.99080085754 0.0812151007071746 -0.1542639959562196 -1.2741124947716638 1.8282732775162989 2.0501011210321587 -0.5200091814722694 1.1399484235778592
2.99080085754 0.0812151007071746 -0.1542639959562196 -1.2741124947716638 1.8282732775162989 2.0501011210321587 -0.5200091814722694 1.1399484235778592
3.00074195862 0.0812151007071746 -0.1542639959562196 -1.2741124947716638 1.8282732775162989 2.0501011210321587 -0.5200091814722694 1.1399484235778592
3.00074195862 0.0812151007071746 -0.1542639959562196 -1.2741124947716638 1.8282732775162989 2.0501011210321587 -0.5200091814722694 1.1399484235778592
3.01084184647 0.0812151007071746 -0.1542639959562196 -1.2741124947716638 1.8282732775162989 2.0501011210321587 -0.5200091814722694 1.1399484235778592
3.01084184647 0.0812151007071746 -0.1542639959562196 -1.2741124947716638 1.8282732775162989 2.0501011210321587 -0.5200091814722694 1.1399484235778592
3.02076292038 0.0812151007071746 -0.1542639959562196 -1.2741124947716638 1.8282732775162989 2.0501011210321587 -0.5200091814722694 1.1399484235778592
3.02076292038 0.0812151007071746 -0.1542639959562196 -1.2741124947716638 1.8282732775162989 2.0501011210321587 -0.5200091814722694 1.1399484235778592
3.03066301346 0.0812151007071746 -0.1542639959562196 -1.2741124947716638 1.8282732775162989 2.0501011210321587 -0.5200091814722694 1.1399484235778592
3.03066301346 0.0812151007071746 -0.1542639959562196 -1.2741124947716638 1.8282732775162989 2.0501011210321587 -0.5200091814722694 1.1399484235778592
3.0407409668 0.0832093021828836 -0.1532822352297166 -1.281000159868536 1.8282886175276505 2.0501741683851056 -0.5200091814722694 1.1399484235778592
3.0407409668 0.0832093021828836 -0.1532822352297166 -1.281000159868536 1.8282886175276505 2.0501741683851056 -0.5200091814722694 1.1399484235778592
3.05146598816 0.0912474681311263 -0.1488949919831566 -1.3109898820609305 1.8282886175276505 2.050192430223342 -0.5200091814722694 1.1399484235778592
3.05146598816 0.0912474681311263 -0.1488949919831566 -1.3109898820609305 1.8282886175276505 2.050192430223342 -0.5200091814722694 1.1399484235778592
3.06052803993 0.0912474681311263 -0.1488949919831566 -1.3109898820609305 1.8282886175276505 2.050192430223342 -0.5200091814722694 1.1399484235778592
3.06052803993 0.0912474681311263 -0.1488949919831566 -1.3109898820609305 1.8282886175276505 2.050192430223342 -0.5200091814722694 1.1399484235778592
3.07075595856 0.0959415116047186 -0.1449986290998481 -1.3339538790542882 1.828303957539002 2.050238084818934 -0.5200091814722694 1.1399484235778592
3.07075595856 0.0959415116047186 -0.1449986290998481 -1.3339538790542882 1.828303957539002 2.050238084818934 -0.5200091814722694 1.1399484235778592
3.08062291145 0.0974755127398793 -0.143510647998742 -1.3413937845598185 1.828303957539002 2.0502289538998157 -0.5200091814722694 1.1399484235778592
3.08062291145 0.0974755127398793 -0.143510647998742 -1.3413937845598185 1.828303957539002 2.0502289538998157 -0.5200091814722694 1.1399484235778592
3.09059286118 0.098702713648008 -0.1419766468635813 -1.3487569900085905 1.828303957539002 2.0501741683851056 -0.5200091814722694 1.1399484235778592
3.09059286118 0.098702713648008 -0.1419766468635813 -1.3487569900085905 1.828303957539002 2.0501741683851056 -0.5200091814722694 1.1399484235778592
3.10064983368 0.0995924343064013 -0.1404426457284204 -1.3560434954006044 1.828303957539002 2.0502015611424604 -0.5200091814722694 1.1399484235778592
3.10064983368 0.0995924343064013 -0.1404426457284204 -1.3560434954006044 1.828303957539002 2.0502015611424604 -0.5200091814722694 1.1399484235778592
3.11059093475 0.1004361349307398 -0.1389393246159628 -1.363498740917486 1.828303957539002 2.0502654775762887 -0.5200091814722694 1.1399484235778592
3.11059093475 0.1004361349307398 -0.1389393246159628 -1.363498740917486 1.828303957539002 2.0502654775762887 -0.5200091814722694 1.1399484235778592
3.12065887451 0.1004361349307398 -0.1389393246159628 -1.363498740917486 1.828303957539002 2.0502654775762887 -0.5200091814722694 1.1399484235778592
3.12065887451 0.1004361349307398 -0.1389393246159628 -1.363498740917486 1.828303957539002 2.0502654775762887 -0.5200091814722694 1.1399484235778592
3.13069701195 0.1004361349307398 -0.1389393246159628 -1.363498740917486 1.828303957539002 2.0502654775762887 -0.5200091814722694 1.1399484235778592
3.13069701195 0.1004361349307398 -0.1389393246159628 -1.363498740917486 1.828303957539002 2.0502654775762887 -0.5200091814722694 1.1399484235778592
3.14073300362 0.1004361349307398 -0.1389393246159628 -1.363498740917486 1.828303957539002 2.0502654775762887 -0.5200091814722694 1.1399484235778592
3.14073300362 0.1004361349307398 -0.1389393246159628 -1.363498740917486 1.828303957539002 2.0502654775762887 -0.5200091814722694 1.1399484235778592
3.1506319046 0.1012798355550783 -0.1376354236510761 -1.370831266343555 1.828303957539002 2.0502106920615786 -0.5200091814722694 1.1399484235778592
3.1506319046 0.1012798355550783 -0.1376354236510761 -1.370831266343555 1.828303957539002 2.0502106920615786 -0.5200091814722694 1.1399484235778592
3.16072297096 0.1020468361226587 -0.1363928827315958 -1.377949031610701 1.828303957539002 2.0501011210321587 -0.5200091814722694 1.1399484235778592
3.16072297096 0.1020468361226587 -0.1363928827315958 -1.377949031610701 1.828303957539002 2.0501011210321587 -0.5200091814722694 1.1399484235778592
3.17077898979 0.1020468361226587 -0.1363928827315958 -1.377949031610701 1.828303957539002 2.0501011210321587 -0.5200091814722694 1.1399484235778592
3.17077898979 0.1020468361226587 -0.1363928827315958 -1.377949031610701 1.828303957539002 2.0501011210321587 -0.5200091814722694 1.1399484235778592
3.18061494827 0.1020468361226587 -0.1363928827315958 -1.377949031610701 1.828303957539002 2.0501011210321587 -0.5200091814722694 1.1399484235778592
3.18061494827 0.1020468361226587 -0.1363928827315958 -1.377949031610701 1.828303957539002 2.0501011210321587 -0.5200091814722694 1.1399484235778592
3.19082403183 0.1020468361226587 -0.1363928827315958 -1.377949031610701 1.828303957539002 2.0501011210321587 -0.5200091814722694 1.1399484235778592
3.19082403183 0.1020468361226587 -0.1363928827315958 -1.377949031610701 1.828303957539002 2.0501011210321587 -0.5200091814722694 1.1399484235778592
3.20073699951 0.1027064566107777 -0.1353190819369832 -1.3848827167416282 1.8282732775162989 2.050274608495407 -0.5200091814722694 1.1399484235778592
3.20073699951 0.1027064566107777 -0.1353190819369832 -1.3848827167416282 1.8282732775162989 2.050274608495407 -0.5200091814722694 1.1399484235778592
3.21071791649 0.1027064566107777 -0.1353190819369832 -1.3848827167416282 1.8282732775162989 2.050274608495407 -0.5200091814722694 1.1399484235778592
3.21071791649 0.1027064566107777 -0.1353190819369832 -1.3848827167416282 1.8282732775162989 2.050274608495407 -0.5200091814722694 1.1399484235778592
3.22068595886 0.1027064566107777 -0.1353190819369832 -1.3848827167416282 1.8282732775162989 2.050274608495407 -0.5200091814722694 1.1399484235778592
3.22068595886 0.1027064566107777 -0.1353190819369832 -1.3848827167416282 1.8282732775162989 2.050274608495407 -0.5200091814722694 1.1399484235778592
3.23080301285 0.1027064566107777 -0.1353190819369832 -1.3848827167416282 1.8282732775162989 2.050274608495407 -0.5200091814722694 1.1399484235778592
3.23080301285 0.1027064566107777 -0.1353190819369832 -1.3848827167416282 1.8282732775162989 2.050274608495407 -0.5200091814722694 1.1399484235778592
3.2406270504 0.1031973369740292 -0.1343526612218319 -1.3918317418839068 1.8282119174708924 2.05025634665717 -0.5200091814722694 1.1399484235778592
3.2406270504 0.1031973369740292 -0.1343526612218319 -1.3918317418839068 1.8282119174708924 2.05025634665717 -0.5200091814722694 1.1399484235778592
3.25081706047 0.1031973369740292 -0.1343526612218319 -1.3918317418839068 1.8282119174708924 2.05025634665717 -0.5200091814722694 1.1399484235778592
3.25081706047 0.1031973369740292 -0.1343526612218319 -1.3918317418839068 1.8282119174708924 2.05025634665717 -0.5200091814722694 1.1399484235778592
3.26060700417 0.1031973369740292 -0.1343526612218319 -1.3918317418839068 1.8282119174708924 2.05025634665717 -0.5200091814722694 1.1399484235778592
3.26060700417 0.1031973369740292 -0.1343526612218319 -1.3918317418839068 1.8282119174708924 2.05025634665717 -0.5200091814722694 1.1399484235778592
3.27066898346 0.1031973369740292 -0.1343526612218319 -1.3918317418839068 1.8282119174708924 2.05025634665717 -0.5200091814722694 1.1399484235778592
3.27066898346 0.1031973369740292 -0.1343526612218319 -1.3918317418839068 1.8282119174708924 2.05025634665717 -0.5200091814722694 1.1399484235778592
3.28072094917 0.1031973369740292 -0.1343526612218319 -1.3918317418839068 1.8282119174708924 2.05025634665717 -0.5200091814722694 1.1399484235778592
3.28072094917 0.1031973369740292 -0.1343526612218319 -1.3918317418839068 1.8282119174708924 2.05025634665717 -0.5200091814722694 1.1399484235778592
3.29072785378 0.1031973369740292 -0.1343526612218319 -1.3918317418839068 1.8282119174708924 2.05025634665717 -0.5200091814722694 1.1399484235778592
3.29072785378 0.1031973369740292 -0.1343526612218319 -1.3918317418839068 1.8282119174708924 2.05025634665717 -0.5200091814722694 1.1399484235778592
3.30071783066 0.1038876374848518 -0.1324351598028808 -1.4050088116349384 1.8279971573119695 2.0503111321718803 -0.5200091814722694 1.1399484235778592
3.30071783066 0.1038876374848518 -0.1324351598028808 -1.4050088116349384 1.8279971573119695 2.0503111321718803 -0.5200091814722694 1.1399484235778592
3.31047987938 0.1052528984951448 -0.1258389549216892 -1.4285864090823603 1.8275062769487185 2.050329394010117 -0.5200091814722694 1.1399484235778592
3.31047987938 0.1052528984951448 -0.1258389549216892 -1.4285864090823603 1.8275062769487185 2.050329394010117 -0.5200091814722694 1.1399484235778592
3.32051992416 0.1052528984951448 -0.1258389549216892 -1.4285864090823603 1.8275062769487185 2.050329394010117 -0.5200091814722694 1.1399484235778592
3.32051992416 0.1052528984951448 -0.1258389549216892 -1.4285864090823603 1.8275062769487185 2.050329394010117 -0.5200091814722694 1.1399484235778592
3.33099102974 0.1055443587108255 -0.1236606733097609 -1.434246873271104 1.827153456687631 2.050247215738052 -0.5200091814722694 1.1399484235778592
3.33099102974 0.1055443587108255 -0.1236606733097609 -1.434246873271104 1.827153456687631 2.050247215738052 -0.5200091814722694 1.1399484235778592
3.34061694145 0.1055443587108255 -0.1236606733097609 -1.434246873271104 1.827153456687631 2.050247215738052 -0.5200091814722694 1.1399484235778592
3.34061694145 0.1055443587108255 -0.1236606733097609 -1.434246873271104 1.827153456687631 2.050247215738052 -0.5200091814722694 1.1399484235778592
3.35061788559 0.1055443587108255 -0.1236606733097609 -1.434246873271104 1.827153456687631 2.050247215738052 -0.5200091814722694 1.1399484235778592
3.35061788559 0.1055443587108255 -0.1236606733097609 -1.434246873271104 1.827153456687631 2.050247215738052 -0.5200091814722694 1.1399484235778592
3.36067986488 0.1055443587108255 -0.1236606733097609 -1.434246873271104 1.827153456687631 2.050247215738052 -0.5200091814722694 1.1399484235778592
3.36067986488 0.1055443587108255 -0.1236606733097609 -1.434246873271104 1.827153456687631 2.050247215738052 -0.5200091814722694 1.1399484235778592
3.37069487572 0.1055443587108255 -0.1236606733097609 -1.434246873271104 1.827153456687631 2.050247215738052 -0.5200091814722694 1.1399484235778592
3.37069487572 0.1055443587108255 -0.1236606733097609 -1.434246873271104 1.827153456687631 2.050247215738052 -0.5200091814722694 1.1399484235778592
3.38067793846 0.1055443587108255 -0.1236606733097609 -1.434246873271104 1.827153456687631 2.050247215738052 -0.5200091814722694 1.1399484235778592
3.38067793846 0.1055443587108255 -0.1236606733097609 -1.434246873271104 1.827153456687631 2.050247215738052 -0.5200091814722694 1.1399484235778592
3.39082694054 0.1055443587108255 -0.1236606733097609 -1.434246873271104 1.827153456687631 2.050247215738052 -0.5200091814722694 1.1399484235778592
3.39082694054 0.1055443587108255 -0.1236606733097609 -1.434246873271104 1.827153456687631 2.050247215738052 -0.5200091814722694 1.1399484235778592
3.40062689781 0.1057591188697479 -0.1218658919816226 -1.4396005372328151 1.82666257632438 2.0501011210321587 -0.5200091814722694 1.1399484235778592
3.40062689781 0.1057591188697479 -0.1218658919816226 -1.4396005372328151 1.82666257632438 2.0501011210321587 -0.5200091814722694 1.1399484235778592
3.41177105904 0.1059125189832641 -0.1180308891437205 -1.4501544650427218 1.8250518751324607 2.050292870333644 -0.5200091814722694 1.1399484235778592
3.41177105904 0.1059125189832641 -0.1180308891437205 -1.4501544650427218 1.8250518751324607 2.050292870333644 -0.5200091814722694 1.1399484235778592
3.42049193382 0.1059278589946157 -0.1160980477134178 -1.455078608686588 1.823686614122168 2.050128513789514 -0.5200091814722694 1.1399484235778592
3.42049193382 0.1059278589946157 -0.1160980477134178 -1.455078608686588 1.823686614122168 2.050128513789514 -0.5200091814722694 1.1399484235778592
3.43059301376 0.1059431990059673 -0.1140118061695992 -1.459542551989906 1.821968532850788 2.050356786767472 -0.5200091814722694 1.1399484235778592
3.43059301376 0.1059431990059673 -0.1140118061695992 -1.459542551989906 1.821968532850788 2.050356786767472 -0.5200091814722694 1.1399484235778592
3.4407119751 0.1059431990059673 -0.1140118061695992 -1.459542551989906 1.821968532850788 2.050356786767472 -0.5200091814722694 1.1399484235778592
3.4407119751 0.1059431990059673 -0.1140118061695992 -1.459542551989906 1.821968532850788 2.050356786767472 -0.5200091814722694 1.1399484235778592
3.45077800751 0.1059431990059673 -0.1140118061695992 -1.459542551989906 1.821968532850788 2.050356786767472 -0.5200091814722694 1.1399484235778592
3.45077800751 0.1059431990059673 -0.1140118061695992 -1.459542551989906 1.821968532850788 2.050356786767472 -0.5200091814722694 1.1399484235778592
3.46048498154 0.1059431990059673 -0.1140118061695992 -1.459542551989906 1.821968532850788 2.050356786767472 -0.5200091814722694 1.1399484235778592
3.46048498154 0.1059431990059673 -0.1140118061695992 -1.459542551989906 1.821968532850788 2.050356786767472 -0.5200091814722694 1.1399484235778592
3.47059488297 0.1059431990059673 -0.1140118061695992 -1.459542551989906 1.821968532850788 2.050356786767472 -0.5200091814722694 1.1399484235778592
3.47059488297 0.1059431990059673 -0.1140118061695992 -1.459542551989906 1.821968532850788 2.050356786767472 -0.5200091814722694 1.1399484235778592
3.48071599007 0.1059431990059673 -0.1140118061695992 -1.459542551989906 1.821968532850788 2.050356786767472 -0.5200091814722694 1.1399484235778592
3.48071599007 0.1059431990059673 -0.1140118061695992 -1.459542551989906 1.821968532850788 2.050356786767472 -0.5200091814722694 1.1399484235778592
3.49079585075 0.1059431990059673 -0.1140118061695992 -1.459542551989906 1.821968532850788 2.050356786767472 -0.5200091814722694 1.1399484235778592
3.49079585075 0.1059431990059673 -0.1140118061695992 -1.459542551989906 1.821968532850788 2.050356786767472 -0.5200091814722694 1.1399484235778592
3.50050497055 0.1059585390173189 -0.1080905617878783 -1.47264292168418 1.8137462867663257 2.0502015611424604 -0.5200091814722694 1.1399484235778592
3.50050497055 0.1059585390173189 -0.1080905617878783 -1.47264292168418 1.8137462867663257 2.0502015611424604 -0.5200091814722694 1.1399484235778592
3.51068496704 0.1059585390173189 -0.1062497604256853 -1.4770301649307398 1.8100186640078848 2.05036591768659 -0.5200091814722694 1.1399484235778592
3.51068496704 0.1059585390173189 -0.1062497604256853 -1.4770301649307398 1.8100186640078848 2.05036591768659 -0.5200091814722694 1.1399484235778592
3.52070188522 0.1059585390173189 -0.1062497604256853 -1.4770301649307398 1.8100186640078848 2.05036591768659 -0.5200091814722694 1.1399484235778592
3.52070188522 0.1059585390173189 -0.1062497604256853 -1.4770301649307398 1.8100186640078848 2.05036591768659 -0.5200091814722694 1.1399484235778592
3.53104901314 0.1059585390173189 -0.1062497604256853 -1.4770301649307398 1.8100186640078848 2.05036591768659 -0.5200091814722694 1.1399484235778592
3.53104901314 0.1059585390173189 -0.1062497604256853 -1.4770301649307398 1.8100186640078848 2.05036591768659 -0.5200091814722694 1.1399484235778592
3.5404920578 0.1059585390173189 -0.1062497604256853 -1.4770301649307398 1.8100186640078848 2.05036591768659 -0.5200091814722694 1.1399484235778592
3.5404920578 0.1059585390173189 -0.1062497604256853 -1.4770301649307398 1.8100186640078848 2.05036591768659 -0.5200091814722694 1.1399484235778592
3.55076098442 0.1059585390173189 -0.1062497604256853 -1.4770301649307398 1.8100186640078848 2.05036591768659 -0.5200091814722694 1.1399484235778592
3.55076098442 0.1059585390173189 -0.1062497604256853 -1.4770301649307398 1.8100186640078848 2.05036591768659 -0.5200091814722694 1.1399484235778592
3.56060004234 0.1059585390173189 -0.1029209779623863 -1.4856512513103437 1.8015816577645 2.0501011210321587 -0.5200091814722694 1.1399484235778592
3.56060004234 0.1059585390173189 -0.1029209779623863 -1.4856512513103437 1.8015816577645 2.0501011210321587 -0.5200091814722694 1.1399484235778592
3.57077288628 0.1059738790286703 -0.1017858171223673 -1.4897777143639264 1.7965961540752275 2.0504024413630635 -0.5200091814722694 1.1399484235778592
3.57077288628 0.1059738790286703 -0.1017858171223673 -1.4897777143639264 1.7965961540752275 2.0504024413630635 -0.5200091814722694 1.1399484235778592
3.5808339119 0.1059738790286703 -0.1017858171223673 -1.4897777143639264 1.7965961540752275 2.0504024413630635 -0.5200091814722694 1.1399484235778592
3.5808339119 0.1059738790286703 -0.1017858171223673 -1.4897777143639264 1.7965961540752275 2.0504024413630635 -0.5200091814722694 1.1399484235778592
3.59087491035 0.1059738790286703 -0.1006659962936998 -1.494134277587783 1.7910123899432415 2.050338524929235 -0.5200091814722694 1.1399484235778592
3.59087491035 0.1059738790286703 -0.1006659962936998 -1.494134277587783 1.7910123899432415 2.050338524929235 -0.5200091814722694 1.1399484235778592
3.60047483444 0.1059738790286703 -0.1006659962936998 -1.494134277587783 1.7910123899432415 2.050338524929235 -0.5200091814722694 1.1399484235778592
3.60047483444 0.1059738790286703 -0.1006659962936998 -1.494134277587783 1.7910123899432415 2.050338524929235 -0.5200091814722694 1.1399484235778592
3.61077904701 0.1059738790286703 -0.1006659962936998 -1.494134277587783 1.7910123899432415 2.050338524929235 -0.5200091814722694 1.1399484235778592
3.61077904701 0.1059738790286703 -0.1006659962936998 -1.494134277587783 1.7910123899432415 2.050338524929235 -0.5200091814722694 1.1399484235778592
3.62072396278 0.1059738790286703 -0.1006659962936998 -1.494134277587783 1.7910123899432415 2.050338524929235 -0.5200091814722694 1.1399484235778592
3.62072396278 0.1059738790286703 -0.1006659962936998 -1.494134277587783 1.7910123899432415 2.050338524929235 -0.5200091814722694 1.1399484235778592
3.63080406189 0.1061272791421865 -0.0985797547498811 -1.5018809833203457 1.7786636808051972 2.0504115722821816 -0.5200091814722694 1.1399484235778592
3.63080406189 0.1061272791421865 -0.0985797547498811 -1.5018809833203457 1.7786636808051972 2.0504115722821816 -0.5200091814722694 1.1399484235778592
3.64079093933 0.1061272791421865 -0.0985797547498811 -1.5018809833203457 1.7786636808051972 2.0504115722821816 -0.5200091814722694 1.1399484235778592
3.64079093933 0.1061272791421865 -0.0985797547498811 -1.5018809833203457 1.7786636808051972 2.0504115722821816 -0.5200091814722694 1.1399484235778592
3.65063095093 0.1061272791421865 -0.0985797547498811 -1.5018809833203457 1.7786636808051972 2.0504115722821816 -0.5200091814722694 1.1399484235778592
3.65063095093 0.1061272791421865 -0.0985797547498811 -1.5018809833203457 1.7786636808051972 2.0504115722821816 -0.5200091814722694 1.1399484235778592
3.66071987152 0.106265339244351 -0.0971684737055331 -1.5053631658971605 1.7720981559467088 2.0503750486057086 -0.5200091814722694 1.1399484235778592
3.66071987152 0.106265339244351 -0.0971684737055331 -1.5053631658971605 1.7720981559467088 2.0503750486057086 -0.5200091814722694 1.1399484235778592
3.67064189911 0.106265339244351 -0.0971684737055331 -1.5053631658971605 1.7720981559467088 2.0503750486057086 -0.5200091814722694 1.1399484235778592
3.67064189911 0.106265339244351 -0.0971684737055331 -1.5053631658971605 1.7720981559467088 2.0503750486057086 -0.5200091814722694 1.1399484235778592
3.68069791794 0.106265339244351 -0.0971684737055331 -1.5053631658971605 1.7720981559467088 2.0503750486057086 -0.5200091814722694 1.1399484235778592
3.68069791794 0.106265339244351 -0.0971684737055331 -1.5053631658971605 1.7720981559467088 2.0503750486057086 -0.5200091814722694 1.1399484235778592
3.69060492516 0.106265339244351 -0.0971684737055331 -1.5053631658971605 1.7720981559467088 2.0503750486057086 -0.5200091814722694 1.1399484235778592
3.69060492516 0.106265339244351 -0.0971684737055331 -1.5053631658971605 1.7720981559467088 2.0503750486057086 -0.5200091814722694 1.1399484235778592
3.70070099831 0.106265339244351 -0.0971684737055331 -1.5053631658971605 1.7720981559467088 2.0503750486057086 -0.5200091814722694 1.1399484235778592
3.70070099831 0.106265339244351 -0.0971684737055331 -1.5053631658971605 1.7720981559467088 2.0503750486057086 -0.5200091814722694 1.1399484235778592
3.71079397202 0.106265339244351 -0.0971684737055331 -1.5053631658971605 1.7720981559467088 2.0503750486057086 -0.5200091814722694 1.1399484235778592
3.71079397202 0.106265339244351 -0.0971684737055331 -1.5053631658971605 1.7720981559467088 2.0503750486057086 -0.5200091814722694 1.1399484235778592
3.72065591812 0.106587479483 -0.0946527118439 -1.51263433128 1.75801602553 2.05026547758 -0.520009181472 1.13994842358
3.72065591812 0.106587479483 -0.0946527118439 -1.51263433128 1.75801602553 2.05026547758 -0.520009181472 1.13994842358
3.73041987419 0.1065874794827348 -0.0946527118438693 -1.512634331277823 1.7580160255259325 2.0502654775762887 -0.5200091814722694 1.1399484235778592
3.73041987419 0.1065874794827348 -0.0946527118438693 -1.512634331277823 1.7580160255259325 2.0502654775762887 -0.5200091814722694 1.1399484235778592
3.74105906487 0.1072010799367992 -0.0926891903908635 -1.5203963770217368 1.7424765940267528 2.0502289538998157 -0.5200091814722694 1.1399484235778592
3.74105906487 0.1072010799367992 -0.0926891903908635 -1.5203963770217368 1.7424765940267528 2.0502289538998157 -0.5200091814722694 1.1399484235778592
3.75045585632 0.1075385601865345 -0.0917994697324702 -1.5244308000072098 1.734668528248784 2.050091990113041 -0.5200091814722694 1.1399484235778592
3.75045585632 0.1075385601865345 -0.0917994697324702 -1.5244308000072098 1.734668528248784 2.050091990113041 -0.5200091814722694 1.1399484235778592
3.76032805443 0.1075385601865345 -0.0917994697324702 -1.5244308000072098 1.734668528248784 2.050091990113041 -0.5200091814722694 1.1399484235778592
3.76032805443 0.1075385601865345 -0.0917994697324702 -1.5244308000072098 1.734668528248784 2.050091990113041 -0.5200091814722694 1.1399484235778592
3.77060604095 0.1075385601865345 -0.0917994697324702 -1.5244308000072098 1.734668528248784 2.050091990113041 -0.5200091814722694 1.1399484235778592
3.77060604095 0.1075385601865345 -0.0917994697324702 -1.5244308000072098 1.734668528248784 2.050091990113041 -0.5200091814722694 1.1399484235778592
3.78059983253 0.1075385601865345 -0.0917994697324702 -1.5244308000072098 1.734668528248784 2.050091990113041 -0.5200091814722694 1.1399484235778592
3.78059983253 0.1075385601865345 -0.0917994697324702 -1.5244308000072098 1.734668528248784 2.050091990113041 -0.5200091814722694 1.1399484235778592
3.79079890251 0.1075385601865345 -0.0917994697324702 -1.5244308000072098 1.734668528248784 2.050091990113041 -0.5200091814722694 1.1399484235778592
3.79079890251 0.1075385601865345 -0.0917994697324702 -1.5244308000072098 1.734668528248784 2.050091990113041 -0.5200091814722694 1.1399484235778592
3.80080986023 0.1075385601865345 -0.0917994697324702 -1.5244308000072098 1.734668528248784 2.050091990113041 -0.5200091814722694 1.1399484235778592
3.80080986023 0.1075385601865345 -0.0917994697324702 -1.5244308000072098 1.734668528248784 2.050091990113041 -0.5200091814722694 1.1399484235778592
3.8103890419 0.1086430410038503 -0.0913699494146251 -1.5381907901896024 1.7101245100862108 2.0501102519512773 -0.5200091814722694 1.1399484235778592
3.8103890419 0.1086430410038503 -0.0913699494146251 -1.5381907901896024 1.7101245100862108 2.0501102519512773 -0.5200091814722694 1.1399484235778592
3.8206820488 0.1086430410038503 -0.0913699494146251 -1.5381907901896024 1.7101245100862108 2.0501102519512773 -0.5200091814722694 1.1399484235778592
3.8206820488 0.1086430410038503 -0.0913699494146251 -1.5381907901896024 1.7101245100862108 2.0501102519512773 -0.5200091814722694 1.1399484235778592
3.83081483841 0.1090265412876405 -0.0913392693919219 -1.5430075537540076 1.7019636240471552 2.0504024413630635 -0.5200091814722694 1.1399484235778592
3.83081483841 0.1090265412876405 -0.0913392693919219 -1.5430075537540076 1.7019636240471552 2.0504024413630635 -0.5200091814722694 1.1399484235778592
3.84073090553 0.1090265412876405 -0.0913392693919219 -1.5430075537540076 1.7019636240471552 2.0504024413630635 -0.5200091814722694 1.1399484235778592
3.84073090553 0.1090265412876405 -0.0913392693919219 -1.5430075537540076 1.7019636240471552 2.0504024413630635 -0.5200091814722694 1.1399484235778592
3.85078001022 0.1090265412876405 -0.0913392693919219 -1.5430075537540076 1.7019636240471552 2.0504024413630635 -0.5200091814722694 1.1399484235778592
3.85078001022 0.1090265412876405 -0.0913392693919219 -1.5430075537540076 1.7019636240471552 2.0504024413630635 -0.5200091814722694 1.1399484235778592
3.86062383652 0.1090265412876405 -0.0913392693919219 -1.5430075537540076 1.7019636240471552 2.0504024413630635 -0.5200091814722694 1.1399484235778592
3.86062383652 0.1090265412876405 -0.0913392693919219 -1.5430075537540076 1.7019636240471552 2.0504024413630635 -0.5200091814722694 1.1399484235778592
3.87078595161 0.1093793615487274 -0.0913239293805703 -1.5479316973978738 1.6937873979967475 2.0503750486057086 -0.5200091814722694 1.1399484235778592
3.87078595161 0.1093793615487274 -0.0913239293805703 -1.5479316973978738 1.6937873979967475 2.0503750486057086 -0.5200091814722694 1.1399484235778592
3.88080096245 0.1093793615487274 -0.0913239293805703 -1.5479316973978738 1.6937873979967475 2.0503750486057086 -0.5200091814722694 1.1399484235778592
3.88080096245 0.1093793615487274 -0.0913239293805703 -1.5479316973978738 1.6937873979967475 2.0503750486057086 -0.5200091814722694 1.1399484235778592
3.89078593254 0.1097321818098144 -0.0912779093465155 -1.552549040814708 1.6854270918101213 2.050183299304224 -0.5200091814722694 1.1399484235778592
3.89078593254 0.1097321818098144 -0.0912779093465155 -1.552549040814708 1.6854270918101213 2.050183299304224 -0.5200091814722694 1.1399484235778592
3.90078496933 0.1101617021276594 -0.0912318893124606 -1.5575192044926292 1.6769133855099787 2.050356786767472 -0.5200091814722694 1.1399484235778592
3.90078496933 0.1101617021276594 -0.0912318893124606 -1.5575192044926292 1.6769133855099787 2.050356786767472 -0.5200091814722694 1.1399484235778592
3.91081404686 0.1106525824909109 -0.0912318893124606 -1.5622132479662212 1.6684303592325391 2.0503841795248268 -0.5200091814722694 1.1399484235778592
3.91081404686 0.1106525824909109 -0.0912318893124606 -1.5622132479662212 1.6684303592325391 2.0503841795248268 -0.5200091814722694 1.1399484235778592
