riccardo-csl/Motion-Planning-for-TIAGo-Manipulator/T3_G_7/head_scan/head_scan/tiago_traiettorie_SG/4a-4b/place_4b_rep1.txt
time arm_1_joint arm_2_joint arm_3_joint arm_4_joint arm_5_joint arm_6_joint arm_7_joint
3.57967710495 0.0466540551320006 -0.2198118644616423 -1.103623608609888 1.906261895227876 2.0501102519512773 -0.5200183123913877 1.1399575544969776
3.58014893532 0.0466540551320006 -0.2198118644616423 -1.103623608609888 1.906261895227876 2.0501102519512773 -0.5200183123913877 1.1399575544969776
3.58014893532 0.0466540551320006 -0.2198118644616423 -1.103623608609888 1.906261895227876 2.0501102519512773 -0.5200183123913877 1.1399575544969776
3.59042406082 0.0466540551320006 -0.2198118644616423 -1.103623608609888 1.906261895227876 2.0501102519512773 -0.5200183123913877 1.1399575544969776
3.59042406082 0.0466540551320006 -0.2198118644616423 -1.103623608609888 1.906261895227876 2.0501102519512773 -0.5200183123913877 1.1399575544969776
3.6005449295 0.0466540551320006 -0.2198118644616423 -1.103623608609888 1.906261895227876 2.0501102519512773 -0.5200183123913877 1.1399575544969776
3.6005449295 0.0466540551320006 -0.2198118644616423 -1.103623608609888 1.906261895227876 2.0501102519512773 -0.5200183123913877 1.1399575544969776
3.61034107208 0.0466540551320006 -0.2198118644616423 -1.103623608609888 1.906261895227876 2.0501102519512773 -0.5200183123913877 1.1399575544969776
3.61034107208 0.0466540551320006 -0.2198118644616423 -1.103623608609888 1.906261895227876 2.0501102519512773 -0.5200183123913877 1.1399575544969776
3.62052106857 0.0466540551320006 -0.2198118644616423 -1.103623608609888 1.906261895227876 2.0501102519512773 -0.5200183123913877 1.1399575544969776
3.62052106857 0.0466540551320006 -0.2198118644616423 -1.103623608609888 1.906261895227876 2.0501102519512773 -0.5200183123913877 1.1399575544969776
3.63051199913 0.0466540551320006 -0.2198118644616423 -1.103623608609888 1.906261895227876 2.0501102519512773 -0.5200183123913877 1.1399575544969776
3.63051199913 0.0466540551320006 -0.2198118644616423 -1.103623608609888 1.906261895227876 2.0501102519512773 -0.5200183123913877 1.1399575544969776
3.64059305191 0.0466540551320006 -0.2198118644616423 -1.103623608609888 1.906261895227876 2.0501102519512773 -0.5200183123913877 1.1399575544969776
3.64059305191 0.0466540551320006 -0.2198118644616423 -1.103623608609888 1.906261895227876 2.0501102519512773 -0.5200183123913877 1.1399575544969776
3.65051913261 0.0466540551320006 -0.2198118644616423 -1.103623608609888 1.906261895227876 2.0501102519512773 -0.5200183123913877 1.1399575544969776
3.65051913261 0.0466540551320006 -0.2198118644616423 -1.103623608609888 1.906261895227876 2.0501102519512773 -0.5200183123913877 1.1399575544969776
3.66054105759 0.0466540551320006 -0.2198118644616423 -1.103623608609888 1.906261895227876 2.0501102519512773 -0.5200183123913877 1.1399575544969776
3.66054105759 0.0466540551320006 -0.2198118644616423 -1.103623608609888 1.906261895227876 2.0501102519512773 -0.5200183123913877 1.1399575544969776
3.67041301727 0.0466540551320006 -0.2198118644616423 -1.103623608609888 1.906261895227876 2.0501102519512773 -0.5200183123913877 1.1399575544969776
3.67041301727 0.0466540551320006 -0.2198118644616423 -1.103623608609888 1.906261895227876 2.0501102519512773 -0.5200183123913877 1.1399575544969776
3.68051600456 0.0466540551320006 -0.2198118644616423 -1.103623608609888 1.906261895227876 2.0501102519512773 -0.5200183123913877 1.1399575544969776
3.68051600456 0.0466540551320006 -0.2198118644616423 -1.103623608609888 1.906261895227876 2.0501102519512773 -0.5200183123913877 1.1399575544969776
3.69038295746 0.0466540551320006 -0.2198118644616423 -1.103623608609888 1.906261895227876 2.0501102519512773 -0.5200183123913877 1.1399575544969776
3.69038295746 0.0466540551320006 -0.2198118644616423 -1.103623608609888 1.906261895227876 2.0501102519512773 -0.5200183123913877 1.1399575544969776
3.70055198669 0.0466540551320006 -0.2198118644616423 -1.103623608609888 1.906261895227876 2.0501102519512773 -0.5200183123913877 1.1399575544969776
3.70055198669 0.0466540551320006 -0.2198118644616423 -1.103623608609888 1.906261895227876 2.0501102519512773 -0.5200183123913877 1.1399575544969776
3.71053290367 0.0466540551320006 -0.2198118644616423 -1.103623608609888 1.906261895227876 2.0501102519512773 -0.5200183123913877 1.1399575544969776
3.71053290367 0.0466540551320006 -0.2198118644616423 -1.103623608609888 1.906261895227876 2.0501102519512773 -0.5200183123913877 1.1399575544969776
3.72051095963 0.0466540551320006 -0.2198118644616423 -1.103623608609888 1.906261895227876 2.0501102519512773 -0.5200183123913877 1.1399575544969776
3.72051095963 0.0466540551320006 -0.2198118644616423 -1.103623608609888 1.906261895227876 2.0501102519512773 -0.5200183123913877 1.1399575544969776
3.7304880619 0.0466540551320006 -0.2198118644616423 -1.103623608609888 1.906261895227876 2.0501102519512773 -0.5200183123913877 1.1399575544969776
3.7304880619 0.0466540551320006 -0.2198118644616423 -1.103623608609888 1.906261895227876 2.0501102519512773 -0.5200183123913877 1.1399575544969776
3.74053406715 0.0466540551320006 -0.2198118644616423 -1.103623608609888 1.906261895227876 2.0501102519512773 -0.5200183123913877 1.1399575544969776
3.74053406715 0.0466540551320006 -0.2198118644616423 -1.103623608609888 1.906261895227876 2.0501102519512773 -0.5200183123913877 1.1399575544969776
3.75038194656 0.0466540551320006 -0.2198118644616423 -1.103623608609888 1.906261895227876 2.0501102519512773 -0.5200183123913877 1.1399575544969776
3.75038194656 0.0466540551320006 -0.2198118644616423 -1.103623608609888 1.906261895227876 2.0501102519512773 -0.5200183123913877 1.1399575544969776
3.76036906242 0.0466540551320006 -0.2198118644616423 -1.103623608609888 1.906261895227876 2.0501102519512773 -0.5200183123913877 1.1399575544969776
3.76036906242 0.0466540551320006 -0.2198118644616423 -1.103623608609888 1.906261895227876 2.0501102519512773 -0.5200183123913877 1.1399575544969776
3.770373106 0.0466540551320006 -0.2198118644616423 -1.103623608609888 1.906261895227876 2.0501102519512773 -0.5200183123913877 1.1399575544969776
3.770373106 0.0466540551320006 -0.2198118644616423 -1.103623608609888 1.906261895227876 2.0501102519512773 -0.5200183123913877 1.1399575544969776
3.78010797501 0.0466540551320006 -0.2198118644616423 -1.103623608609888 1.906261895227876 2.0501102519512773 -0.5200183123913877 1.1399575544969776
3.78010797501 0.0466540551320006 -0.2198118644616423 -1.103623608609888 1.906261895227876 2.0501102519512773 -0.5200183123913877 1.1399575544969776
3.7903110981 0.0466540551320006 -0.2198118644616423 -1.103623608609888 1.906261895227876 2.0501102519512773 -0.5200183123913877 1.1399575544969776
3.7903110981 0.0466540551320006 -0.2198118644616423 -1.103623608609888 1.906261895227876 2.0501102519512773 -0.5200183123913877 1.1399575544969776
3.800303936 0.0466540551320006 -0.2198118644616423 -1.103623608609888 1.906261895227876 2.0501102519512773 -0.5200183123913877 1.1399575544969776
3.800303936 0.0466540551320006 -0.2198118644616423 -1.103623608609888 1.906261895227876 2.0501102519512773 -0.5200183123913877 1.1399575544969776
3.81052899361 0.0466540551320006 -0.2198118644616423 -1.103623608609888 1.906261895227876 2.0501102519512773 -0.5200183123913877 1.1399575544969776
3.81052899361 0.0466540551320006 -0.2198118644616423 -1.103623608609888 1.906261895227876 2.0501102519512773 -0.5200183123913877 1.1399575544969776
3.82029008865 0.0466540551320006 -0.2198118644616423 -1.103623608609888 1.906261895227876 2.0501102519512773 -0.5200183123913877 1.1399575544969776
3.82029008865 0.0466540551320006 -0.2198118644616423 -1.103623608609888 1.906261895227876 2.0501102519512773 -0.5200183123913877 1.1399575544969776
3.83046793938 0.0466540551320006 -0.2198118644616423 -1.103623608609888 1.906261895227876 2.0501102519512773 -0.5200183123913877 1.1399575544969776
3.83046793938 0.0466540551320006 -0.2198118644616423 -1.103623608609888 1.906261895227876 2.0501102519512773 -0.5200183123913877 1.1399575544969776
3.84046912193 0.0466540551320006 -0.2198118644616423 -1.103623608609888 1.906261895227876 2.0501102519512773 -0.5200183123913877 1.1399575544969776
3.84046912193 0.0466540551320006 -0.2198118644616423 -1.103623608609888 1.906261895227876 2.0501102519512773 -0.5200183123913877 1.1399575544969776
3.85048007965 0.0466540551320006 -0.2198118644616423 -1.103623608609888 1.906261895227876 2.0501102519512773 -0.5200183123913877 1.1399575544969776
3.85048007965 0.0466540551320006 -0.2198118644616423 -1.103623608609888 1.906261895227876 2.0501102519512773 -0.5200183123913877 1.1399575544969776
3.86054110527 0.0466540551320006 -0.2198118644616423 -1.103623608609888 1.906261895227876 2.0501102519512773 -0.5200183123913877 1.1399575544969776
3.86054110527 0.0466540551320006 -0.2198118644616423 -1.103623608609888 1.906261895227876 2.0501102519512773 -0.5200183123913877 1.1399575544969776
3.87049508095 0.0466540551320006 -0.2198118644616423 -1.103623608609888 1.906261895227876 2.0501102519512773 -0.5200183123913877 1.1399575544969776
3.87049508095 0.0466540551320006 -0.2198118644616423 -1.103623608609888 1.906261895227876 2.0501102519512773 -0.5200183123913877 1.1399575544969776
3.88052511215 0.0466540551320006 -0.2198118644616423 -1.103623608609888 1.906261895227876 2.0501102519512773 -0.5200183123913877 1.1399575544969776
3.88052511215 0.0466540551320006 -0.2198118644616423 -1.103623608609888 1.906261895227876 2.0501102519512773 -0.5200183123913877 1.1399575544969776
3.89052009583 0.0466540551320006 -0.2198118644616423 -1.103623608609888 1.906261895227876 2.0501102519512773 -0.5200183123913877 1.1399575544969776
3.89052009583 0.0466540551320006 -0.2198118644616423 -1.103623608609888 1.906261895227876 2.0501102519512773 -0.5200183123913877 1.1399575544969776
3.9004740715 0.0466540551320006 -0.2198118644616423 -1.103623608609888 1.906261895227876 2.0501102519512773 -0.5200183123913877 1.1399575544969776
3.9004740715 0.0466540551320006 -0.2198118644616423 -1.103623608609888 1.906261895227876 2.0501102519512773 -0.5200183123913877 1.1399575544969776
3.91051411629 0.0466540551320006 -0.2198118644616423 -1.103623608609888 1.906261895227876 2.0501102519512773 -0.5200183123913877 1.1399575544969776
3.91051411629 0.0466540551320006 -0.2198118644616423 -1.103623608609888 1.906261895227876 2.0501102519512773 -0.5200183123913877 1.1399575544969776
3.92056107521 0.0466540551320006 -0.2198118644616423 -1.103623608609888 1.906261895227876 2.0501102519512773 -0.5200183123913877 1.1399575544969776
3.92056107521 0.0466540551320006 -0.2198118644616423 -1.103623608609888 1.906261895227876 2.0501102519512773 -0.5200183123913877 1.1399575544969776
3.93054509163 0.0466540551320006 -0.2198118644616423 -1.103623608609888 1.906261895227876 2.0501102519512773 -0.5200183123913877 1.1399575544969776
3.93054509163 0.0466540551320006 -0.2198118644616423 -1.103623608609888 1.906261895227876 2.0501102519512773 -0.5200183123913877 1.1399575544969776
3.9405040741 0.0466540551320006 -0.2198118644616423 -1.103623608609888 1.906261895227876 2.0501102519512773 -0.5200183123913877 1.1399575544969776
3.9405040741 0.0466540551320006 -0.2198118644616423 -1.103623608609888 1.906261895227876 2.0501102519512773 -0.5200183123913877 1.1399575544969776
3.95052790642 0.0466540551320006 -0.2198118644616423 -1.103623608609888 1.906261895227876 2.0501102519512773 -0.5200183123913877 1.1399575544969776
3.95052790642 0.0466540551320006 -0.2198118644616423 -1.103623608609888 1.906261895227876 2.0501102519512773 -0.5200183123913877 1.1399575544969776
3.96046710014 0.0466540551320006 -0.2198118644616423 -1.103623608609888 1.906261895227876 2.0501102519512773 -0.5200183123913877 1.1399575544969776
3.96046710014 0.0466540551320006 -0.2198118644616423 -1.103623608609888 1.906261895227876 2.0501102519512773 -0.5200183123913877 1.1399575544969776
3.97053599358 0.0466540551320006 -0.2198118644616423 -1.103623608609888 1.906261895227876 2.0501102519512773 -0.5200183123913877 1.1399575544969776
3.97053599358 0.0466540551320006 -0.2198118644616423 -1.103623608609888 1.906261895227876 2.0501102519512773 -0.5200183123913877 1.1399575544969776
3.98056602478 0.0466540551320006 -0.2198118644616423 -1.103623608609888 1.906261895227876 2.0501102519512773 -0.5200183123913877 1.1399575544969776
3.98056602478 0.0466540551320006 -0.2198118644616423 -1.103623608609888 1.906261895227876 2.0501102519512773 -0.5200183123913877 1.1399575544969776
3.99037694931 0.0466540551320006 -0.2198118644616423 -1.103623608609888 1.906261895227876 2.0501102519512773 -0.5200183123913877 1.1399575544969776
3.99037694931 0.0466540551320006 -0.2198118644616423 -1.103623608609888 1.906261895227876 2.0501102519512773 -0.5200183123913877 1.1399575544969776
4.00055408478 0.0466540551320006 -0.2198118644616423 -1.103623608609888 1.906261895227876 2.0501102519512773 -0.5200183123913877 1.1399575544969776
4.00055408478 0.0466540551320006 -0.2198118644616423 -1.103623608609888 1.906261895227876 2.0501102519512773 -0.5200183123913877 1.1399575544969776
4.01056313515 0.0466540551320006 -0.2198118644616423 -1.103623608609888 1.906261895227876 2.0501102519512773 -0.5200183123913877 1.1399575544969776
4.01056313515 0.0466540551320006 -0.2198118644616423 -1.103623608609888 1.906261895227876 2.0501102519512773 -0.5200183123913877 1.1399575544969776
4.02055001259 0.0466540551320006 -0.2198118644616423 -1.103623608609888 1.906261895227876 2.0501102519512773 -0.5200183123913877 1.1399575544969776
4.02055001259 0.0466540551320006 -0.2198118644616423 -1.103623608609888 1.906261895227876 2.0501102519512773 -0.5200183123913877 1.1399575544969776
4.03058099747 0.0466540551320006 -0.2198118644616423 -1.103623608609888 1.906261895227876 2.0501102519512773 -0.5200183123913877 1.1399575544969776
4.03058099747 0.0466540551320006 -0.2198118644616423 -1.103623608609888 1.906261895227876 2.0501102519512773 -0.5200183123913877 1.1399575544969776
4.04054307938 0.0466540551320006 -0.2198118644616423 -1.103623608609888 1.906261895227876 2.0501102519512773 -0.5200183123913877 1.1399575544969776
4.04054307938 0.0466540551320006 -0.2198118644616423 -1.103623608609888 1.906261895227876 2.0501102519512773 -0.5200183123913877 1.1399575544969776
4.05050301552 0.0466540551320006 -0.2198118644616423 -1.103623608609888 1.906261895227876 2.0501102519512773 -0.5200183123913877 1.1399575544969776
4.05050301552 0.0466540551320006 -0.2198118644616423 -1.103623608609888 1.906261895227876 2.0501102519512773 -0.5200183123913877 1.1399575544969776
4.06040000916 0.0466540551320006 -0.2198118644616423 -1.103623608609888 1.906261895227876 2.0501102519512773 -0.5200183123913877 1.1399575544969776
4.06040000916 0.0466540551320006 -0.2198118644616423 -1.103623608609888 1.906261895227876 2.0501102519512773 -0.5200183123913877 1.1399575544969776
4.07051301003 0.0466540551320006 -0.2198118644616423 -1.103623608609888 1.906261895227876 2.0501102519512773 -0.5200183123913877 1.1399575544969776
4.07051301003 0.0466540551320006 -0.2198118644616423 -1.103623608609888 1.906261895227876 2.0501102519512773 -0.5200183123913877 1.1399575544969776
4.08055400848 0.0466540551320006 -0.2198118644616423 -1.103623608609888 1.906261895227876 2.0501102519512773 -0.5200183123913877 1.1399575544969776
4.08055400848 0.0466540551320006 -0.2198118644616423 -1.103623608609888 1.906261895227876 2.0501102519512773 -0.5200183123913877 1.1399575544969776
4.09049201012 0.0466540551320006 -0.2198118644616423 -1.103623608609888 1.906261895227876 2.0501102519512773 -0.5200183123913877 1.1399575544969776
4.09049201012 0.0466540551320006 -0.2198118644616423 -1.103623608609888 1.906261895227876 2.0501102519512773 -0.5200183123913877 1.1399575544969776
4.10055112839 0.0466540551320006 -0.2198118644616423 -1.103623608609888 1.906261895227876 2.0501102519512773 -0.5200183123913877 1.1399575544969776
4.10055112839 0.0466540551320006 -0.2198118644616423 -1.103623608609888 1.906261895227876 2.0501102519512773 -0.5200183123913877 1.1399575544969776
4.11041998863 0.0466540551320006 -0.2198118644616423 -1.103623608609888 1.906261895227876 2.0501102519512773 -0.5200183123913877 1.1399575544969776
4.11041998863 0.0466540551320006 -0.2198118644616423 -1.103623608609888 1.906261895227876 2.0501102519512773 -0.5200183123913877 1.1399575544969776
4.1206510067 0.0466540551320006 -0.2198118644616423 -1.103623608609888 1.906261895227876 2.0501102519512773 -0.5200183123913877 1.1399575544969776
4.1206510067 0.0466540551320006 -0.2198118644616423 -1.103623608609888 1.906261895227876 2.0501102519512773 -0.5200183123913877 1.1399575544969776
4.13053202629 0.0466540551320006 -0.2198118644616423 -1.103623608609888 1.906261895227876 2.0501102519512773 -0.5200183123913877 1.1399575544969776
4.13053202629 0.0466540551320006 -0.2198118644616423 -1.103623608609888 1.906261895227876 2.0501102519512773 -0.5200183123913877 1.1399575544969776
4.14042496681 0.0466540551320006 -0.2198118644616423 -1.103623608609888 1.906261895227876 2.0501102519512773 -0.5200183123913877 1.1399575544969776
4.14042496681 0.0466540551320006 -0.2198118644616423 -1.103623608609888 1.906261895227876 2.0501102519512773 -0.5200183123913877 1.1399575544969776
4.15051007271 0.0466540551320006 -0.2198118644616423 -1.103623608609888 1.906261895227876 2.0501102519512773 -0.5200183123913877 1.1399575544969776
4.15051007271 0.0466540551320006 -0.2198118644616423 -1.103623608609888 1.906261895227876 2.0501102519512773 -0.5200183123913877 1.1399575544969776
4.16057491302 0.0466540551320006 -0.2198118644616423 -1.103623608609888 1.906261895227876 2.0501102519512773 -0.5200183123913877 1.1399575544969776
4.16057491302 0.0466540551320006 -0.2198118644616423 -1.103623608609888 1.906261895227876 2.0501102519512773 -0.5200183123913877 1.1399575544969776
4.17058801651 0.0466540551320006 -0.2198118644616423 -1.103623608609888 1.906261895227876 2.0501102519512773 -0.5200183123913877 1.1399575544969776
4.17058801651 0.0466540551320006 -0.2198118644616423 -1.103623608609888 1.906261895227876 2.0501102519512773 -0.5200183123913877 1.1399575544969776
4.18055295944 0.0466540551320006 -0.2198118644616423 -1.103623608609888 1.906261895227876 2.0501102519512773 -0.5200183123913877 1.1399575544969776
4.18055295944 0.0466540551320006 -0.2198118644616423 -1.103623608609888 1.906261895227876 2.0501102519512773 -0.5200183123913877 1.1399575544969776
4.19050192833 0.0466540551320006 -0.2198118644616423 -1.103623608609888 1.906261895227876 2.0501102519512773 -0.5200183123913877 1.1399575544969776
4.19050192833 0.0466540551320006 -0.2198118644616423 -1.103623608609888 1.906261895227876 2.0501102519512773 -0.5200183123913877 1.1399575544969776
4.20052099228 0.0466540551320006 -0.2198118644616423 -1.103623608609888 1.906261895227876 2.0501102519512773 -0.5200183123913877 1.1399575544969776
4.20052099228 0.0466540551320006 -0.2198118644616423 -1.103623608609888 1.906261895227876 2.0501102519512773 -0.5200183123913877 1.1399575544969776
4.21049809456 0.0466540551320006 -0.2198118644616423 -1.103623608609888 1.906261895227876 2.0501102519512773 -0.5200183123913877 1.1399575544969776
4.21049809456 0.0466540551320006 -0.2198118644616423 -1.103623608609888 1.906261895227876 2.0501102519512773 -0.5200183123913877 1.1399575544969776
4.22054195404 0.0466540551320006 -0.2198118644616423 -1.103623608609888 1.906261895227876 2.0501102519512773 -0.5200183123913877 1.1399575544969776
4.22054195404 0.0466540551320006 -0.2198118644616423 -1.103623608609888 1.906261895227876 2.0501102519512773 -0.5200183123913877 1.1399575544969776
4.23036503792 0.0466540551320006 -0.2198118644616423 -1.103623608609888 1.906261895227876 2.0501102519512773 -0.5200183123913877 1.1399575544969776
4.23036503792 0.0466540551320006 -0.2198118644616423 -1.103623608609888 1.906261895227876 2.0501102519512773 -0.5200183123913877 1.1399575544969776
4.24036002159 0.0466540551320006 -0.2198118644616423 -1.103623608609888 1.906261895227876 2.0501102519512773 -0.5200183123913877 1.1399575544969776
4.24036002159 0.0466540551320006 -0.2198118644616423 -1.103623608609888 1.906261895227876 2.0501102519512773 -0.5200183123913877 1.1399575544969776
4.25031495094 0.0466540551320006 -0.2198118644616423 -1.103623608609888 1.906261895227876 2.0501102519512773 -0.5200183123913877 1.1399575544969776
4.25031495094 0.0466540551320006 -0.2198118644616423 -1.103623608609888 1.906261895227876 2.0501102519512773 -0.5200183123913877 1.1399575544969776
4.26049804688 0.0466540551320006 -0.2198118644616423 -1.103623608609888 1.906261895227876 2.0501102519512773 -0.5200183123913877 1.1399575544969776
4.26049804688 0.0466540551320006 -0.2198118644616423 -1.103623608609888 1.906261895227876 2.0501102519512773 -0.5200183123913877 1.1399575544969776
4.27052593231 0.0466540551320006 -0.2198118644616423 -1.103623608609888 1.906261895227876 2.0501102519512773 -0.5200183123913877 1.1399575544969776
4.27052593231 0.0466540551320006 -0.2198118644616423 -1.103623608609888 1.906261895227876 2.0501102519512773 -0.5200183123913877 1.1399575544969776
4.28052711487 0.0466540551320006 -0.2198118644616423 -1.103623608609888 1.906261895227876 2.0501102519512773 -0.5200183123913877 1.1399575544969776
4.28052711487 0.0466540551320006 -0.2198118644616423 -1.103623608609888 1.906261895227876 2.0501102519512773 -0.5200183123913877 1.1399575544969776
4.29049611092 0.0466540551320006 -0.2198118644616423 -1.103623608609888 1.906261895227876 2.0501102519512773 -0.5200183123913877 1.1399575544969776
4.29049611092 0.0466540551320006 -0.2198118644616423 -1.103623608609888 1.906261895227876 2.0501102519512773 -0.5200183123913877 1.1399575544969776
4.300385952 0.0466540551320006 -0.2198118644616423 -1.103623608609888 1.906261895227876 2.0501102519512773 -0.5200183123913877 1.1399575544969776
4.300385952 0.0466540551320006 -0.2198118644616423 -1.103623608609888 1.906261895227876 2.0501102519512773 -0.5200183123913877 1.1399575544969776
4.31010508537 0.0466540551320006 -0.2198118644616423 -1.103623608609888 1.906261895227876 2.0501102519512773 -0.5200183123913877 1.1399575544969776
4.31010508537 0.0466540551320006 -0.2198118644616423 -1.103623608609888 1.906261895227876 2.0501102519512773 -0.5200183123913877 1.1399575544969776
4.32047796249 0.0466540551320006 -0.2198118644616423 -1.103623608609888 1.906261895227876 2.0501102519512773 -0.5200183123913877 1.1399575544969776
4.32047796249 0.0466540551320006 -0.2198118644616423 -1.103623608609888 1.906261895227876 2.0501102519512773 -0.5200183123913877 1.1399575544969776
4.33048295975 0.0466540551320006 -0.2198118644616423 -1.103623608609888 1.906261895227876 2.0501102519512773 -0.5200183123913877 1.1399575544969776
4.33048295975 0.0466540551320006 -0.2198118644616423 -1.103623608609888 1.906261895227876 2.0501102519512773 -0.5200183123913877 1.1399575544969776
4.34015202522 0.0466540551320006 -0.2197965244502907 -1.1062007305169583 1.9068141356365336 2.0501102519512773 -0.5200183123913877 1.1399575544969776
4.34015202522 0.0466540551320006 -0.2197965244502907 -1.1062007305169583 1.9068141356365336 2.0501102519512773 -0.5200183123913877 1.1399575544969776
4.35013198853 0.0466540551320006 -0.2197965244502907 -1.1062007305169583 1.9068141356365336 2.0501102519512773 -0.5200183123913877 1.1399575544969776
4.35013198853 0.0466540551320006 -0.2197965244502907 -1.1062007305169583 1.9068141356365336 2.0501102519512773 -0.5200183123913877 1.1399575544969776
4.36013793945 0.0466540551320006 -0.2197965244502907 -1.1062007305169583 1.9068141356365336 2.0501102519512773 -0.5200183123913877 1.1399575544969776
4.36013793945 0.0466540551320006 -0.2197965244502907 -1.1062007305169583 1.9068141356365336 2.0501102519512773 -0.5200183123913877 1.1399575544969776
4.37030291557 0.0466540551320006 -0.2197965244502907 -1.1062007305169583 1.9068141356365336 2.0501102519512773 -0.5200183123913877 1.1399575544969776
4.37030291557 0.0466540551320006 -0.2197965244502907 -1.1062007305169583 1.9068141356365336 2.0501102519512773 -0.5200183123913877 1.1399575544969776
4.38050198555 0.0466540551320006 -0.2197965244502907 -1.1062007305169583 1.9068141356365336 2.0501102519512773 -0.5200183123913877 1.1399575544969776
4.38050198555 0.0466540551320006 -0.2197965244502907 -1.1062007305169583 1.9068141356365336 2.0501102519512773 -0.5200183123913877 1.1399575544969776
4.39039301872 0.0466540551320006 -0.2197965244502907 -1.1062007305169583 1.9068141356365336 2.0501102519512773 -0.5200183123913877 1.1399575544969776
4.39039301872 0.0466540551320006 -0.2197965244502907 -1.1062007305169583 1.9068141356365336 2.0501102519512773 -0.5200183123913877 1.1399575544969776
4.40055608749 0.0466540551320006 -0.2197965244502907 -1.1062007305169583 1.9068141356365336 2.0501102519512773 -0.5200183123913877 1.1399575544969776
4.40055608749 0.0466540551320006 -0.2197965244502907 -1.1062007305169583 1.9068141356365336 2.0501102519512773 -0.5200183123913877 1.1399575544969776
4.41054391861 0.0466540551320006 -0.2197965244502907 -1.1062007305169583 1.9068141356365336 2.0501102519512773 -0.5200183123913877 1.1399575544969776
4.41054391861 0.0466540551320006 -0.2197965244502907 -1.1062007305169583 1.9068141356365336 2.0501102519512773 -0.5200183123913877 1.1399575544969776
4.42033696175 0.0466540551320006 -0.2197505044162358 -1.1088545524807865 1.9075964762154656 2.0501102519512773 -0.5200183123913877 1.1399575544969776
4.42033696175 0.0466540551320006 -0.2197505044162358 -1.1088545524807865 1.9075964762154656 2.0501102519512773 -0.5200183123913877 1.1399575544969776
4.43044495583 0.0466540551320006 -0.2194743842119069 -1.1121986749554371 1.9087469770668364 2.0501102519512773 -0.5200183123913877 1.1399575544969776
4.43044495583 0.0466540551320006 -0.2194743842119069 -1.1121986749554371 1.9087469770668364 2.0501102519512773 -0.5200183123913877 1.1399575544969776
4.44033002853 0.0466540551320006 -0.2194743842119069 -1.1121986749554371 1.9087469770668364 2.0501102519512773 -0.5200183123913877 1.1399575544969776
4.44033002853 0.0466540551320006 -0.2194743842119069 -1.1121986749554371 1.9087469770668364 2.0501102519512773 -0.5200183123913877 1.1399575544969776
4.4502620697 0.0466540551320006 -0.2194743842119069 -1.1121986749554371 1.9087469770668364 2.0501102519512773 -0.5200183123913877 1.1399575544969776
4.4502620697 0.0466540551320006 -0.2194743842119069 -1.1121986749554371 1.9087469770668364 2.0501102519512773 -0.5200183123913877 1.1399575544969776
4.46051311493 0.0466540551320006 -0.2194743842119069 -1.1121986749554371 1.9087469770668364 2.0501102519512773 -0.5200183123913877 1.1399575544969776
4.46051311493 0.0466540551320006 -0.2194743842119069 -1.1121986749554371 1.9087469770668364 2.0501102519512773 -0.5200183123913877 1.1399575544969776
4.47051906586 0.0466540551320006 -0.2194743842119069 -1.1121986749554371 1.9087469770668364 2.0501102519512773 -0.5200183123913877 1.1399575544969776
4.47051906586 0.0466540551320006 -0.2194743842119069 -1.1121986749554371 1.9087469770668364 2.0501102519512773 -0.5200183123913877 1.1399575544969776
4.48053503036 0.0466540551320006 -0.2194743842119069 -1.1121986749554371 1.9087469770668364 2.0501102519512773 -0.5200183123913877 1.1399575544969776
4.48053503036 0.0466540551320006 -0.2194743842119069 -1.1121986749554371 1.9087469770668364 2.0501102519512773 -0.5200183123913877 1.1399575544969776
4.4904859066 0.0466540551320006 -0.2194743842119069 -1.1121986749554371 1.9087469770668364 2.0501102519512773 -0.5200183123913877 1.1399575544969776
4.4904859066 0.0466540551320006 -0.2194743842119069 -1.1121986749554371 1.9087469770668364 2.0501102519512773 -0.5200183123913877 1.1399575544969776
4.50031113625 0.0466540551320006 -0.2194743842119069 -1.1121986749554371 1.9087469770668364 2.0501102519512773 -0.5200183123913877 1.1399575544969776
4.50031113625 0.0466540551320006 -0.2194743842119069 -1.1121986749554371 1.9087469770668364 2.0501102519512773 -0.5200183123913877 1.1399575544969776
4.51037311554 0.0466540551320006 -0.2193209840983908 -1.1144076365900688 1.9094526175890103 2.0501102519512773 -0.5200183123913877 1.1399575544969776
4.51037311554 0.0466540551320006 -0.2193209840983908 -1.1144076365900688 1.9094526175890103 2.0501102519512773 -0.5200183123913877 1.1399575544969776
4.52052307129 0.0466540551320006 -0.2193209840983908 -1.1144076365900688 1.9094526175890103 2.0501102519512773 -0.5200183123913877 1.1399575544969776
4.52052307129 0.0466540551320006 -0.2193209840983908 -1.1144076365900688 1.9094526175890103 2.0501102519512773 -0.5200183123913877 1.1399575544969776
4.53050899506 0.0466540551320006 -0.2193209840983908 -1.1144076365900688 1.9094526175890103 2.0501102519512773 -0.5200183123913877 1.1399575544969776
4.53050899506 0.0466540551320006 -0.2193209840983908 -1.1144076365900688 1.9094526175890103 2.0501102519512773 -0.5200183123913877 1.1399575544969776
4.54041790962 0.0466693951433522 -0.2187687436897329 -1.126464885512433 1.912796740063661 2.0501102519512773 -0.5200183123913877 1.1399575544969776
4.54041790962 0.0466693951433522 -0.2187687436897329 -1.126464885512433 1.912796740063661 2.0501102519512773 -0.5200183123913877 1.1399575544969776
4.55021309853 0.0466693951433522 -0.2187687436897329 -1.126464885512433 1.912796740063661 2.0501102519512773 -0.5200183123913877 1.1399575544969776
4.55021309853 0.0466693951433522 -0.2187687436897329 -1.126464885512433 1.912796740063661 2.0501102519512773 -0.5200183123913877 1.1399575544969776
4.56202197075 0.0467000751660555 -0.2144428604885793 -1.143937158441915 1.9190247846724144 2.0501102519512773 -0.5200183123913877 1.1399575544969776
4.56202197075 0.0467000751660555 -0.2144428604885793 -1.143937158441915 1.9190247846724144 2.0501102519512773 -0.5200183123913877 1.1399575544969776
4.57005596161 0.0467000751660555 -0.2144428604885793 -1.143937158441915 1.9190247846724144 2.0501102519512773 -0.5200183123913877 1.1399575544969776
4.57005596161 0.0467000751660555 -0.2144428604885793 -1.143937158441915 1.9190247846724144 2.0501102519512773 -0.5200183123913877 1.1399575544969776
4.58004903793 0.0473443556428232 -0.1945315257541917 -1.1729757999305097 1.928965112028256 2.0501467756277503 -0.5200183123913877 1.1399575544969776
4.58004903793 0.0473443556428232 -0.1945315257541917 -1.1729757999305097 1.928965112028256 2.0501467756277503 -0.5200183123913877 1.1399575544969776
4.59016394615 0.0483414563806776 -0.1889784416449094 -1.1811366859695651 1.930299693015846 2.050128513789514 -0.5200183123913877 1.1399575544969776
4.59016394615 0.0483414563806776 -0.1889784416449094 -1.1811366859695651 1.930299693015846 2.050128513789514 -0.5200183123913877 1.1399575544969776
4.60040211678 0.0483414563806776 -0.1889784416449094 -1.1811366859695651 1.930299693015846 2.050128513789514 -0.5200183123913877 1.1399575544969776
4.60040211678 0.0483414563806776 -0.1889784416449094 -1.1811366859695651 1.930299693015846 2.050128513789514 -0.5200183123913877 1.1399575544969776
4.61049699783 0.0483414563806776 -0.1889784416449094 -1.1811366859695651 1.930299693015846 2.050128513789514 -0.5200183123913877 1.1399575544969776
4.61049699783 0.0483414563806776 -0.1889784416449094 -1.1811366859695651 1.930299693015846 2.050128513789514 -0.5200183123913877 1.1399575544969776
4.62054109573 0.0483414563806776 -0.1889784416449094 -1.1811366859695651 1.930299693015846 2.050128513789514 -0.5200183123913877 1.1399575544969776
4.62054109573 0.0483414563806776 -0.1889784416449094 -1.1811366859695651 1.930299693015846 2.050128513789514 -0.5200183123913877 1.1399575544969776
4.63050794601 0.0483414563806776 -0.1889784416449094 -1.1811366859695651 1.930299693015846 2.050128513789514 -0.5200183123913877 1.1399575544969776
4.63050794601 0.0483414563806776 -0.1889784416449094 -1.1811366859695651 1.930299693015846 2.050128513789514 -0.5200183123913877 1.1399575544969776
4.64050912857 0.0483414563806776 -0.1889784416449094 -1.1811366859695651 1.930299693015846 2.050128513789514 -0.5200183123913877 1.1399575544969776
4.64050912857 0.0483414563806776 -0.1889784416449094 -1.1811366859695651 1.930299693015846 2.050128513789514 -0.5200183123913877 1.1399575544969776
4.65055298805 0.0483414563806776 -0.1889784416449094 -1.1811366859695651 1.930299693015846 2.050128513789514 -0.5200183123913877 1.1399575544969776
4.65055298805 0.0483414563806776 -0.1889784416449094 -1.1811366859695651 1.930299693015846 2.050128513789514 -0.5200183123913877 1.1399575544969776
4.66041207314 0.0483414563806776 -0.1889784416449094 -1.1811366859695651 1.930299693015846 2.050128513789514 -0.5200183123913877 1.1399575544969776
4.66041207314 0.0483414563806776 -0.1889784416449094 -1.1811366859695651 1.930299693015846 2.050128513789514 -0.5200183123913877 1.1399575544969776
4.67053508759 0.0491544769823128 -0.1858950993632361 -1.1856313092955866 1.9310973736061297 2.0501102519512773 -0.5200183123913877 1.1399575544969776
4.67053508759 0.0491544769823128 -0.1858950993632361 -1.1856313092955866 1.9310973736061297 2.0501102519512773 -0.5200183123913877 1.1399575544969776
4.68031001091 0.0491544769823128 -0.1858950993632361 -1.1856313092955866 1.9310973736061297 2.0501102519512773 -0.5200183123913877 1.1399575544969776
4.68031001091 0.0491544769823128 -0.1858950993632361 -1.1856313092955866 1.9310973736061297 2.0501102519512773 -0.5200183123913877 1.1399575544969776
4.69040298462 0.0491544769823128 -0.1858950993632361 -1.1856313092955866 1.9310973736061297 2.0501102519512773 -0.5200183123913877 1.1399575544969776
4.69040298462 0.0491544769823128 -0.1858950993632361 -1.1856313092955866 1.9310973736061297 2.0501102519512773 -0.5200183123913877 1.1399575544969776
4.70054912567 0.0491544769823128 -0.1858950993632361 -1.1856313092955866 1.9310973736061297 2.0501102519512773 -0.5200183123913877 1.1399575544969776
4.70054912567 0.0491544769823128 -0.1858950993632361 -1.1856313092955866 1.9310973736061297 2.0501102519512773 -0.5200183123913877 1.1399575544969776
4.71047711372 0.0491544769823128 -0.1858950993632361 -1.1856313092955866 1.9310973736061297 2.0501102519512773 -0.5200183123913877 1.1399575544969776
4.71047711372 0.0491544769823128 -0.1858950993632361 -1.1856313092955866 1.9310973736061297 2.0501102519512773 -0.5200183123913877 1.1399575544969776
4.72055411339 0.0491544769823128 -0.1858950993632361 -1.1856313092955866 1.9310973736061297 2.0501102519512773 -0.5200183123913877 1.1399575544969776
4.72055411339 0.0491544769823128 -0.1858950993632361 -1.1856313092955866 1.9310973736061297 2.0501102519512773 -0.5200183123913877 1.1399575544969776
4.7304289341 0.0491544769823128 -0.1858950993632361 -1.1856313092955866 1.9310973736061297 2.0501102519512773 -0.5200183123913877 1.1399575544969776
4.7304289341 0.0491544769823128 -0.1858950993632361 -1.1856313092955866 1.9310973736061297 2.0501102519512773 -0.5200183123913877 1.1399575544969776
4.74051809311 0.0491544769823128 -0.1858950993632361 -1.1856313092955866 1.9310973736061297 2.0501102519512773 -0.5200183123913877 1.1399575544969776
4.74051809311 0.0491544769823128 -0.1858950993632361 -1.1856313092955866 1.9310973736061297 2.0501102519512773 -0.5200183123913877 1.1399575544969776
4.75054812431 0.0491544769823128 -0.1858950993632361 -1.1856313092955866 1.9310973736061297 2.0501102519512773 -0.5200183123913877 1.1399575544969776
4.75054812431 0.0491544769823128 -0.1858950993632361 -1.1856313092955866 1.9310973736061297 2.0501102519512773 -0.5200183123913877 1.1399575544969776
4.76033592224 0.0491544769823128 -0.1858950993632361 -1.1856313092955866 1.9310973736061297 2.0501102519512773 -0.5200183123913877 1.1399575544969776
4.76033592224 0.0491544769823128 -0.1858950993632361 -1.1856313092955866 1.9310973736061297 2.0501102519512773 -0.5200183123913877 1.1399575544969776
4.77036213875 0.0491544769823128 -0.1858950993632361 -1.1856313092955866 1.9310973736061297 2.0501102519512773 -0.5200183123913877 1.1399575544969776
4.77036213875 0.0491544769823128 -0.1858950993632361 -1.1856313092955866 1.9310973736061297 2.0501102519512773 -0.5200183123913877 1.1399575544969776
4.78055810928 0.0499368175612448 -0.1831032172972433 -1.1897424323378176 1.9319410742304683 2.050192430223342 -0.5200183123913877 1.1399575544969776
4.78055810928 0.0499368175612448 -0.1831032172972433 -1.1897424323378176 1.9319410742304683 2.050192430223342 -0.5200183123913877 1.1399575544969776
4.79049611092 0.0499368175612448 -0.1831032172972433 -1.1897424323378176 1.9319410742304683 2.050192430223342 -0.5200183123913877 1.1399575544969776
4.79049611092 0.0499368175612448 -0.1831032172972433 -1.1897424323378176 1.9319410742304683 2.050192430223342 -0.5200183123913877 1.1399575544969776
4.80058407784 0.0499368175612448 -0.1831032172972433 -1.1897424323378176 1.9319410742304683 2.050192430223342 -0.5200183123913877 1.1399575544969776
4.80058407784 0.0499368175612448 -0.1831032172972433 -1.1897424323378176 1.9319410742304683 2.050192430223342 -0.5200183123913877 1.1399575544969776
4.8105340004 0.0499368175612448 -0.1831032172972433 -1.1897424323378176 1.9319410742304683 2.050192430223342 -0.5200183123913877 1.1399575544969776
4.8105340004 0.0499368175612448 -0.1831032172972433 -1.1897424323378176 1.9319410742304683 2.050192430223342 -0.5200183123913877 1.1399575544969776
4.82057905197 0.0499368175612448 -0.1831032172972433 -1.1897424323378176 1.9319410742304683 2.050192430223342 -0.5200183123913877 1.1399575544969776
4.82057905197 0.0499368175612448 -0.1831032172972433 -1.1897424323378176 1.9319410742304683 2.050192430223342 -0.5200183123913877 1.1399575544969776
4.83057999611 0.0499368175612448 -0.1831032172972433 -1.1897424323378176 1.9319410742304683 2.050192430223342 -0.5200183123913877 1.1399575544969776
4.83057999611 0.0499368175612448 -0.1831032172972433 -1.1897424323378176 1.9319410742304683 2.050192430223342 -0.5200183123913877 1.1399575544969776
4.84061002731 0.0499368175612448 -0.1831032172972433 -1.1897424323378176 1.9319410742304683 2.050192430223342 -0.5200183123913877 1.1399575544969776
4.84061002731 0.0499368175612448 -0.1831032172972433 -1.1897424323378176 1.9319410742304683 2.050192430223342 -0.5200183123913877 1.1399575544969776
4.85048794746 0.0499368175612448 -0.1831032172972433 -1.1897424323378176 1.9319410742304683 2.050192430223342 -0.5200183123913877 1.1399575544969776
4.85048794746 0.0499368175612448 -0.1831032172972433 -1.1897424323378176 1.9319410742304683 2.050192430223342 -0.5200183123913877 1.1399575544969776
4.86037492752 0.0499368175612448 -0.1831032172972433 -1.1897424323378176 1.9319410742304683 2.050192430223342 -0.5200183123913877 1.1399575544969776
4.86037492752 0.0499368175612448 -0.1831032172972433 -1.1897424323378176 1.9319410742304683 2.050192430223342 -0.5200183123913877 1.1399575544969776
4.87054204941 0.0499368175612448 -0.1831032172972433 -1.1897424323378176 1.9319410742304683 2.050192430223342 -0.5200183123913877 1.1399575544969776
4.87054204941 0.0499368175612448 -0.1831032172972433 -1.1897424323378176 1.9319410742304683 2.050192430223342 -0.5200183123913877 1.1399575544969776
4.88036108017 0.0499368175612448 -0.1831032172972433 -1.1897424323378176 1.9319410742304683 2.050192430223342 -0.5200183123913877 1.1399575544969776
4.88036108017 0.0499368175612448 -0.1831032172972433 -1.1897424323378176 1.9319410742304683 2.050192430223342 -0.5200183123913877 1.1399575544969776
4.89047598839 0.0499368175612448 -0.1831032172972433 -1.1897424323378176 1.9319410742304683 2.050192430223342 -0.5200183123913877 1.1399575544969776
4.89047598839 0.0499368175612448 -0.1831032172972433 -1.1897424323378176 1.9319410742304683 2.050192430223342 -0.5200183123913877 1.1399575544969776
4.90060210228 0.0499368175612448 -0.1831032172972433 -1.1897424323378176 1.9319410742304683 2.050192430223342 -0.5200183123913877 1.1399575544969776
4.90060210228 0.0499368175612448 -0.1831032172972433 -1.1897424323378176 1.9319410742304683 2.050192430223342 -0.5200183123913877 1.1399575544969776
4.91042304039 0.0499368175612448 -0.1831032172972433 -1.1897424323378176 1.9319410742304683 2.050192430223342 -0.5200183123913877 1.1399575544969776
4.91042304039 0.0499368175612448 -0.1831032172972433 -1.1897424323378176 1.9319410742304683 2.050192430223342 -0.5200183123913877 1.1399575544969776
4.92055797577 0.0499368175612448 -0.1831032172972433 -1.1897424323378176 1.9319410742304683 2.050192430223342 -0.5200183123913877 1.1399575544969776
4.92055797577 0.0499368175612448 -0.1831032172972433 -1.1897424323378176 1.9319410742304683 2.050192430223342 -0.5200183123913877 1.1399575544969776
4.93054294586 0.0499368175612448 -0.1831032172972433 -1.1897424323378176 1.9319410742304683 2.050192430223342 -0.5200183123913877 1.1399575544969776
4.93054294586 0.0499368175612448 -0.1831032172972433 -1.1897424323378176 1.9319410742304683 2.050192430223342 -0.5200183123913877 1.1399575544969776
4.94068002701 0.0499368175612448 -0.1831032172972433 -1.1897424323378176 1.9319410742304683 2.050192430223342 -0.5200183123913877 1.1399575544969776
4.94068002701 0.0499368175612448 -0.1831032172972433 -1.1897424323378176 1.9319410742304683 2.050192430223342 -0.5200183123913877 1.1399575544969776
4.95045590401 0.0499368175612448 -0.1831032172972433 -1.1897424323378176 1.9319410742304683 2.050192430223342 -0.5200183123913877 1.1399575544969776
4.95045590401 0.0499368175612448 -0.1831032172972433 -1.1897424323378176 1.9319410742304683 2.050192430223342 -0.5200183123913877 1.1399575544969776
4.96016597748 0.0553058215343078 -0.1623021619044624 -1.2216036359151083 1.9396417599289757 2.0503111321718803 -0.5200183123913877 1.1399575544969776
4.96016597748 0.0553058215343078 -0.1623021619044624 -1.2216036359151083 1.9396417599289757 2.0503111321718803 -0.5200183123913877 1.1399575544969776
4.97039604187 0.0553058215343078 -0.1623021619044624 -1.2216036359151083 1.9396417599289757 2.0503111321718803 -0.5200183123913877 1.1399575544969776
4.97039604187 0.0553058215343078 -0.1623021619044624 -1.2216036359151083 1.9396417599289757 2.0503111321718803 -0.5200183123913877 1.1399575544969776
4.98030900955 0.0553058215343078 -0.1623021619044624 -1.2216036359151083 1.9396417599289757 2.0503111321718803 -0.5200183123913877 1.1399575544969776
4.98030900955 0.0553058215343078 -0.1623021619044624 -1.2216036359151083 1.9396417599289757 2.0503111321718803 -0.5200183123913877 1.1399575544969776
4.99038505554 0.0553058215343078 -0.1623021619044624 -1.2216036359151083 1.9396417599289757 2.0503111321718803 -0.5200183123913877 1.1399575544969776
4.99038505554 0.0553058215343078 -0.1623021619044624 -1.2216036359151083 1.9396417599289757 2.0503111321718803 -0.5200183123913877 1.1399575544969776
5.00054907799 0.0553058215343078 -0.1623021619044624 -1.2216036359151083 1.9396417599289757 2.0503111321718803 -0.5200183123913877 1.1399575544969776
5.00054907799 0.0553058215343078 -0.1623021619044624 -1.2216036359151083 1.9396417599289757 2.0503111321718803 -0.5200183123913877 1.1399575544969776
5.01042699814 0.0553058215343078 -0.1623021619044624 -1.2216036359151083 1.9396417599289757 2.0503111321718803 -0.5200183123913877 1.1399575544969776
5.01042699814 0.0553058215343078 -0.1623021619044624 -1.2216036359151083 1.9396417599289757 2.0503111321718803 -0.5200183123913877 1.1399575544969776
5.02053999901 0.0553058215343078 -0.1623021619044624 -1.2216036359151083 1.9396417599289757 2.0503111321718803 -0.5200183123913877 1.1399575544969776
5.02053999901 0.0553058215343078 -0.1623021619044624 -1.2216036359151083 1.9396417599289757 2.0503111321718803 -0.5200183123913877 1.1399575544969776
5.03034591675 0.0553058215343078 -0.1623021619044624 -1.2216036359151083 1.9396417599289757 2.0503111321718803 -0.5200183123913877 1.1399575544969776
5.03034591675 0.0553058215343078 -0.1623021619044624 -1.2216036359151083 1.9396417599289757 2.0503111321718803 -0.5200183123913877 1.1399575544969776
5.04036712646 0.0553058215343078 -0.1623021619044624 -1.2216036359151083 1.9396417599289757 2.0503111321718803 -0.5200183123913877 1.1399575544969776
5.04036712646 0.0553058215343078 -0.1623021619044624 -1.2216036359151083 1.9396417599289757 2.0503111321718803 -0.5200183123913877 1.1399575544969776
5.05050992966 0.0553058215343078 -0.1623021619044624 -1.2216036359151083 1.9396417599289757 2.0503111321718803 -0.5200183123913877 1.1399575544969776
5.05050992966 0.0553058215343078 -0.1623021619044624 -1.2216036359151083 1.9396417599289757 2.0503111321718803 -0.5200183123913877 1.1399575544969776
5.06020212173 0.0592328644403196 -0.152208434435104 -1.2434938321138536 1.9421728618019911 2.0504207032013 -0.5200183123913877 1.1399575544969776
5.06020212173 0.0592328644403196 -0.152208434435104 -1.2434938321138536 1.9421728618019911 2.0504207032013 -0.5200183123913877 1.1399575544969776
5.0704600811 0.0592328644403196 -0.152208434435104 -1.2434938321138536 1.9421728618019911 2.0504207032013 -0.5200183123913877 1.1399575544969776
5.0704600811 0.0592328644403196 -0.152208434435104 -1.2434938321138536 1.9421728618019911 2.0504207032013 -0.5200183123913877 1.1399575544969776
5.08054208755 0.0592328644403196 -0.152208434435104 -1.2434938321138536 1.9421728618019911 2.0504207032013 -0.5200183123913877 1.1399575544969776
5.08054208755 0.0592328644403196 -0.152208434435104 -1.2434938321138536 1.9421728618019911 2.0504207032013 -0.5200183123913877 1.1399575544969776
5.09049010277 0.0592328644403196 -0.152208434435104 -1.2434938321138536 1.9421728618019911 2.0504207032013 -0.5200183123913877 1.1399575544969776
5.09049010277 0.0592328644403196 -0.152208434435104 -1.2434938321138536 1.9421728618019911 2.0504207032013 -0.5200183123913877 1.1399575544969776
5.10038805008 0.0621321265857736 -0.1468087504393379 -1.259539483987636 1.942648402153891 2.050073728274804 -0.5200183123913877 1.1399575544969776
5.10038805008 0.0621321265857736 -0.1468087504393379 -1.259539483987636 1.942648402153891 2.050073728274804 -0.5200183123913877 1.1399575544969776
5.11035108566 0.0621321265857736 -0.1468087504393379 -1.259539483987636 1.942648402153891 2.050073728274804 -0.5200183123913877 1.1399575544969776
5.11035108566 0.0621321265857736 -0.1468087504393379 -1.259539483987636 1.942648402153891 2.050073728274804 -0.5200183123913877 1.1399575544969776
5.12038207054 0.0621321265857736 -0.1468087504393379 -1.259539483987636 1.942648402153891 2.050073728274804 -0.5200183123913877 1.1399575544969776
5.12038207054 0.0621321265857736 -0.1468087504393379 -1.259539483987636 1.942648402153891 2.050073728274804 -0.5200183123913877 1.1399575544969776
5.13048195839 0.0621321265857736 -0.1468087504393379 -1.259539483987636 1.942648402153891 2.050073728274804 -0.5200183123913877 1.1399575544969776
5.13048195839 0.0621321265857736 -0.1468087504393379 -1.259539483987636 1.942648402153891 2.050073728274804 -0.5200183123913877 1.1399575544969776
5.1405479908 0.0621321265857736 -0.1468087504393379 -1.259539483987636 1.942648402153891 2.050073728274804 -0.5200183123913877 1.1399575544969776
5.1405479908 0.0621321265857736 -0.1468087504393379 -1.259539483987636 1.942648402153891 2.050073728274804 -0.5200183123913877 1.1399575544969776
5.1505279541 0.0621321265857736 -0.1468087504393379 -1.259539483987636 1.942648402153891 2.050073728274804 -0.5200183123913877 1.1399575544969776
5.1505279541 0.0621321265857736 -0.1468087504393379 -1.259539483987636 1.942648402153891 2.050073728274804 -0.5200183123913877 1.1399575544969776
5.16040802002 0.0621321265857736 -0.1468087504393379 -1.259539483987636 1.942648402153891 2.050073728274804 -0.5200183123913877 1.1399575544969776
5.16040802002 0.0621321265857736 -0.1468087504393379 -1.259539483987636 1.942648402153891 2.050073728274804 -0.5200183123913877 1.1399575544969776
5.17049694061 0.0621321265857736 -0.1468087504393379 -1.259539483987636 1.942648402153891 2.050073728274804 -0.5200183123913877 1.1399575544969776
5.17049694061 0.0621321265857736 -0.1468087504393379 -1.259539483987636 1.942648402153891 2.050073728274804 -0.5200183123913877 1.1399575544969776
5.18053603172 0.0621321265857736 -0.1468087504393379 -1.259539483987636 1.942648402153891 2.050073728274804 -0.5200183123913877 1.1399575544969776
5.18053603172 0.0621321265857736 -0.1468087504393379 -1.259539483987636 1.942648402153891 2.050073728274804 -0.5200183123913877 1.1399575544969776
5.19052410126 0.0621321265857736 -0.1468087504393379 -1.259539483987636 1.942648402153891 2.050073728274804 -0.5200183123913877 1.1399575544969776
5.19052410126 0.0621321265857736 -0.1468087504393379 -1.259539483987636 1.942648402153891 2.050073728274804 -0.5200183123913877 1.1399575544969776
5.20032691956 0.0621321265857736 -0.1468087504393379 -1.259539483987636 1.942648402153891 2.050073728274804 -0.5200183123913877 1.1399575544969776
5.20032691956 0.0621321265857736 -0.1468087504393379 -1.259539483987636 1.942648402153891 2.050073728274804 -0.5200183123913877 1.1399575544969776
5.21047997475 0.0621321265857736 -0.1468087504393379 -1.259539483987636 1.942648402153891 2.050073728274804 -0.5200183123913877 1.1399575544969776
5.21047997475 0.0621321265857736 -0.1468087504393379 -1.259539483987636 1.942648402153891 2.050073728274804 -0.5200183123913877 1.1399575544969776
5.22052097321 0.0621321265857736 -0.1468087504393379 -1.259539483987636 1.942648402153891 2.050073728274804 -0.5200183123913877 1.1399575544969776
5.22052097321 0.0621321265857736 -0.1468087504393379 -1.259539483987636 1.942648402153891 2.050073728274804 -0.5200183123913877 1.1399575544969776
5.23037195206 0.0621321265857736 -0.1468087504393379 -1.259539483987636 1.942648402153891 2.050073728274804 -0.5200183123913877 1.1399575544969776
5.23037195206 0.0621321265857736 -0.1468087504393379 -1.259539483987636 1.942648402153891 2.050073728274804 -0.5200183123913877 1.1399575544969776
5.24048495293 0.0621321265857736 -0.1468087504393379 -1.259539483987636 1.942648402153891 2.050073728274804 -0.5200183123913877 1.1399575544969776
5.24048495293 0.0621321265857736 -0.1468087504393379 -1.259539483987636 1.942648402153891 2.050073728274804 -0.5200183123913877 1.1399575544969776
5.25059008598 0.0621321265857736 -0.1468087504393379 -1.259539483987636 1.942648402153891 2.050073728274804 -0.5200183123913877 1.1399575544969776
5.25059008598 0.0621321265857736 -0.1468087504393379 -1.259539483987636 1.942648402153891 2.050073728274804 -0.5200183123913877 1.1399575544969776
5.26026892662 0.0621321265857736 -0.1468087504393379 -1.259539483987636 1.942648402153891 2.050073728274804 -0.5200183123913877 1.1399575544969776
5.26026892662 0.0621321265857736 -0.1468087504393379 -1.259539483987636 1.942648402153891 2.050073728274804 -0.5200183123913877 1.1399575544969776
5.27049803734 0.0621321265857736 -0.1468087504393379 -1.259539483987636 1.942648402153891 2.050073728274804 -0.5200183123913877 1.1399575544969776
5.27049803734 0.0621321265857736 -0.1468087504393379 -1.259539483987636 1.942648402153891 2.050073728274804 -0.5200183123913877 1.1399575544969776
5.28067994118 0.0621321265857736 -0.1468087504393379 -1.259539483987636 1.942648402153891 2.050073728274804 -0.5200183123913877 1.1399575544969776
5.28067994118 0.0621321265857736 -0.1468087504393379 -1.259539483987636 1.942648402153891 2.050073728274804 -0.5200183123913877 1.1399575544969776
5.2904779911 0.0621321265857736 -0.1468087504393379 -1.259539483987636 1.942648402153891 2.050073728274804 -0.5200183123913877 1.1399575544969776
5.2904779911 0.0621321265857736 -0.1468087504393379 -1.259539483987636 1.942648402153891 2.050073728274804 -0.5200183123913877 1.1399575544969776
5.30059599876 0.0621321265857736 -0.1468087504393379 -1.259539483987636 1.942648402153891 2.050073728274804 -0.5200183123913877 1.1399575544969776
5.30059599876 0.0621321265857736 -0.1468087504393379 -1.259539483987636 1.942648402153891 2.050073728274804 -0.5200183123913877 1.1399575544969776
5.31048297882 0.0621321265857736 -0.1468087504393379 -1.259539483987636 1.942648402153891 2.050073728274804 -0.5200183123913877 1.1399575544969776
5.31048297882 0.0621321265857736 -0.1468087504393379 -1.259539483987636 1.942648402153891 2.050073728274804 -0.5200183123913877 1.1399575544969776
5.32061600685 0.0621321265857736 -0.1468087504393379 -1.259539483987636 1.942648402153891 2.050073728274804 -0.5200183123913877 1.1399575544969776
5.32061600685 0.0621321265857736 -0.1468087504393379 -1.259539483987636 1.942648402153891 2.050073728274804 -0.5200183123913877 1.1399575544969776
5.33056902885 0.0621321265857736 -0.1468087504393379 -1.259539483987636 1.942648402153891 2.050073728274804 -0.5200183123913877 1.1399575544969776
5.33056902885 0.0621321265857736 -0.1468087504393379 -1.259539483987636 1.942648402153891 2.050073728274804 -0.5200183123913877 1.1399575544969776
5.34065508842 0.0621321265857736 -0.1468087504393379 -1.259539483987636 1.942648402153891 2.050073728274804 -0.5200183123913877 1.1399575544969776
5.34065508842 0.0621321265857736 -0.1468087504393379 -1.259539483987636 1.942648402153891 2.050073728274804 -0.5200183123913877 1.1399575544969776
5.3503921032 0.0621321265857736 -0.1468087504393379 -1.259539483987636 1.942648402153891 2.050073728274804 -0.5200183123913877 1.1399575544969776
5.3503921032 0.0621321265857736 -0.1468087504393379 -1.259539483987636 1.942648402153891 2.050073728274804 -0.5200183123913877 1.1399575544969776
5.36037611961 0.0621321265857736 -0.1468087504393379 -1.259539483987636 1.942648402153891 2.050073728274804 -0.5200183123913877 1.1399575544969776
5.36037611961 0.0621321265857736 -0.1468087504393379 -1.259539483987636 1.942648402153891 2.050073728274804 -0.5200183123913877 1.1399575544969776
5.37048602104 0.0621321265857736 -0.1468087504393379 -1.259539483987636 1.942648402153891 2.050073728274804 -0.5200183123913877 1.1399575544969776
5.37048602104 0.0621321265857736 -0.1468087504393379 -1.259539483987636 1.942648402153891 2.050073728274804 -0.5200183123913877 1.1399575544969776
5.38010501862 0.0621321265857736 -0.1468087504393379 -1.259539483987636 1.942648402153891 2.050073728274804 -0.5200183123913877 1.1399575544969776
5.38010501862 0.0621321265857736 -0.1468087504393379 -1.259539483987636 1.942648402153891 2.050073728274804 -0.5200183123913877 1.1399575544969776
5.3902759552 0.0621321265857736 -0.1468087504393379 -1.259539483987636 1.942648402153891 2.050073728274804 -0.5200183123913877 1.1399575544969776
5.3902759552 0.0621321265857736 -0.1468087504393379 -1.259539483987636 1.942648402153891 2.050073728274804 -0.5200183123913877 1.1399575544969776
5.40031599998 0.0621321265857736 -0.1468087504393379 -1.259539483987636 1.942648402153891 2.050073728274804 -0.5200183123913877 1.1399575544969776
5.40031599998 0.0621321265857736 -0.1468087504393379 -1.259539483987636 1.942648402153891 2.050073728274804 -0.5200183123913877 1.1399575544969776
5.4102730751 0.0621321265857736 -0.1468087504393379 -1.259539483987636 1.942648402153891 2.050073728274804 -0.5200183123913877 1.1399575544969776
5.4102730751 0.0621321265857736 -0.1468087504393379 -1.259539483987636 1.942648402153891 2.050073728274804 -0.5200183123913877 1.1399575544969776
5.42052197456 0.0621321265857736 -0.1468087504393379 -1.259539483987636 1.942648402153891 2.050073728274804 -0.5200183123913877 1.1399575544969776
5.42052197456 0.0621321265857736 -0.1468087504393379 -1.259539483987636 1.942648402153891 2.050073728274804 -0.5200183123913877 1.1399575544969776
5.43051099777 0.0621321265857736 -0.1468087504393379 -1.259539483987636 1.942648402153891 2.050073728274804 -0.5200183123913877 1.1399575544969776
5.43051099777 0.0621321265857736 -0.1468087504393379 -1.259539483987636 1.942648402153891 2.050073728274804 -0.5200183123913877 1.1399575544969776
5.44053196907 0.0621321265857736 -0.1468087504393379 -1.259539483987636 1.942648402153891 2.050073728274804 -0.5200183123913877 1.1399575544969776
5.44053196907 0.0621321265857736 -0.1468087504393379 -1.259539483987636 1.942648402153891 2.050073728274804 -0.5200183123913877 1.1399575544969776
5.45054411888 0.0621321265857736 -0.1468087504393379 -1.259539483987636 1.942648402153891 2.050073728274804 -0.5200183123913877 1.1399575544969776
5.45054411888 0.0621321265857736 -0.1468087504393379 -1.259539483987636 1.942648402153891 2.050073728274804 -0.5200183123913877 1.1399575544969776
5.46034097672 0.0621321265857736 -0.1468087504393379 -1.259539483987636 1.942648402153891 2.050073728274804 -0.5200183123913877 1.1399575544969776
5.46034097672 0.0621321265857736 -0.1468087504393379 -1.259539483987636 1.942648402153891 2.050073728274804 -0.5200183123913877 1.1399575544969776
5.47069406509 0.0621321265857736 -0.1468087504393379 -1.259539483987636 1.942648402153891 2.050073728274804 -0.5200183123913877 1.1399575544969776
5.47069406509 0.0621321265857736 -0.1468087504393379 -1.259539483987636 1.942648402153891 2.050073728274804 -0.5200183123913877 1.1399575544969776
5.48052597046 0.0621321265857736 -0.1468087504393379 -1.259539483987636 1.942648402153891 2.050073728274804 -0.5200183123913877 1.1399575544969776
5.48052597046 0.0621321265857736 -0.1468087504393379 -1.259539483987636 1.942648402153891 2.050073728274804 -0.5200183123913877 1.1399575544969776
5.49050712585 0.0621321265857736 -0.1468087504393379 -1.259539483987636 1.942648402153891 2.050073728274804 -0.5200183123913877 1.1399575544969776
5.49050712585 0.0621321265857736 -0.1468087504393379 -1.259539483987636 1.942648402153891 2.050073728274804 -0.5200183123913877 1.1399575544969776
5.50069212914 0.0621321265857736 -0.1468087504393379 -1.259539483987636 1.942648402153891 2.050073728274804 -0.5200183123913877 1.1399575544969776
5.50069212914 0.0621321265857736 -0.1468087504393379 -1.259539483987636 1.942648402153891 2.050073728274804 -0.5200183123913877 1.1399575544969776
5.51050209999 0.0621321265857736 -0.1468087504393379 -1.259539483987636 1.942648402153891 2.050073728274804 -0.5200183123913877 1.1399575544969776
5.51050209999 0.0621321265857736 -0.1468087504393379 -1.259539483987636 1.942648402153891 2.050073728274804 -0.5200183123913877 1.1399575544969776
5.52059197426 0.0621321265857736 -0.1468087504393379 -1.259539483987636 1.942648402153891 2.050073728274804 -0.5200183123913877 1.1399575544969776
5.52059197426 0.0621321265857736 -0.1468087504393379 -1.259539483987636 1.942648402153891 2.050073728274804 -0.5200183123913877 1.1399575544969776
5.53049492836 0.0621321265857736 -0.1468087504393379 -1.259539483987636 1.942648402153891 2.050073728274804 -0.5200183123913877 1.1399575544969776
5.53049492836 0.0621321265857736 -0.1468087504393379 -1.259539483987636 1.942648402153891 2.050073728274804 -0.5200183123913877 1.1399575544969776
5.54059290886 0.0621321265857736 -0.1468087504393379 -1.259539483987636 1.942648402153891 2.050073728274804 -0.5200183123913877 1.1399575544969776
5.54059290886 0.0621321265857736 -0.1468087504393379 -1.259539483987636 1.942648402153891 2.050073728274804 -0.5200183123913877 1.1399575544969776
5.55057501793 0.0621321265857736 -0.1468087504393379 -1.259539483987636 1.942648402153891 2.050073728274804 -0.5200183123913877 1.1399575544969776
5.55057501793 0.0621321265857736 -0.1468087504393379 -1.259539483987636 1.942648402153891 2.050073728274804 -0.5200183123913877 1.1399575544969776
5.56060409546 0.0621321265857736 -0.1468087504393379 -1.259539483987636 1.942648402153891 2.050073728274804 -0.5200183123913877 1.1399575544969776
5.56060409546 0.0621321265857736 -0.1468087504393379 -1.259539483987636 1.942648402153891 2.050073728274804 -0.5200183123913877 1.1399575544969776
5.57050299644 0.0621321265857736 -0.1468087504393379 -1.259539483987636 1.942648402153891 2.050073728274804 -0.5200183123913877 1.1399575544969776
5.57050299644 0.0621321265857736 -0.1468087504393379 -1.259539483987636 1.942648402153891 2.050073728274804 -0.5200183123913877 1.1399575544969776
5.58060312271 0.0621321265857736 -0.1468087504393379 -1.259539483987636 1.942648402153891 2.050073728274804 -0.5200183123913877 1.1399575544969776
5.58060312271 0.0621321265857736 -0.1468087504393379 -1.259539483987636 1.942648402153891 2.050073728274804 -0.5200183123913877 1.1399575544969776
5.59066009521 0.0621321265857736 -0.1468087504393379 -1.259539483987636 1.942648402153891 2.050073728274804 -0.5200183123913877 1.1399575544969776
5.59066009521 0.0621321265857736 -0.1468087504393379 -1.259539483987636 1.942648402153891 2.050073728274804 -0.5200183123913877 1.1399575544969776
5.60037994385 0.0621321265857736 -0.1468087504393379 -1.259539483987636 1.942648402153891 2.050073728274804 -0.5200183123913877 1.1399575544969776
5.60037994385 0.0621321265857736 -0.1468087504393379 -1.259539483987636 1.942648402153891 2.050073728274804 -0.5200183123913877 1.1399575544969776
5.61055707932 0.0621321265857736 -0.1468087504393379 -1.259539483987636 1.942648402153891 2.050073728274804 -0.5200183123913877 1.1399575544969776
5.61055707932 0.0621321265857736 -0.1468087504393379 -1.259539483987636 1.942648402153891 2.050073728274804 -0.5200183123913877 1.1399575544969776
5.62056899071 0.0621321265857736 -0.1468087504393379 -1.259539483987636 1.942648402153891 2.050073728274804 -0.5200183123913877 1.1399575544969776
5.62056899071 0.0621321265857736 -0.1468087504393379 -1.259539483987636 1.942648402153891 2.050073728274804 -0.5200183123913877 1.1399575544969776
5.63054299355 0.0621321265857736 -0.1468087504393379 -1.259539483987636 1.942648402153891 2.050073728274804 -0.5200183123913877 1.1399575544969776
5.63054299355 0.0621321265857736 -0.1468087504393379 -1.259539483987636 1.942648402153891 2.050073728274804 -0.5200183123913877 1.1399575544969776
5.64053797722 0.0621321265857736 -0.1468087504393379 -1.259539483987636 1.942648402153891 2.050073728274804 -0.5200183123913877 1.1399575544969776
5.64053797722 0.0621321265857736 -0.1468087504393379 -1.259539483987636 1.942648402153891 2.050073728274804 -0.5200183123913877 1.1399575544969776
5.65049695969 0.0621321265857736 -0.1468087504393379 -1.259539483987636 1.942648402153891 2.050073728274804 -0.5200183123913877 1.1399575544969776
5.65049695969 0.0621321265857736 -0.1468087504393379 -1.259539483987636 1.942648402153891 2.050073728274804 -0.5200183123913877 1.1399575544969776
5.6604719162 0.0621321265857736 -0.1468087504393379 -1.259539483987636 1.942648402153891 2.050073728274804 -0.5200183123913877 1.1399575544969776
5.6604719162 0.0621321265857736 -0.1468087504393379 -1.259539483987636 1.942648402153891 2.050073728274804 -0.5200183123913877 1.1399575544969776
5.67045998573 0.0621321265857736 -0.1468087504393379 -1.259539483987636 1.942648402153891 2.050073728274804 -0.5200183123913877 1.1399575544969776
5.67045998573 0.0621321265857736 -0.1468087504393379 -1.259539483987636 1.942648402153891 2.050073728274804 -0.5200183123913877 1.1399575544969776
5.68054890633 0.0621321265857736 -0.1468087504393379 -1.259539483987636 1.942648402153891 2.050073728274804 -0.5200183123913877 1.1399575544969776
5.68054890633 0.0621321265857736 -0.1468087504393379 -1.259539483987636 1.942648402153891 2.050073728274804 -0.5200183123913877 1.1399575544969776
5.69057011604 0.0621321265857736 -0.1468087504393379 -1.259539483987636 1.942648402153891 2.050073728274804 -0.5200183123913877 1.1399575544969776
5.69057011604 0.0621321265857736 -0.1468087504393379 -1.259539483987636 1.942648402153891 2.050073728274804 -0.5200183123913877 1.1399575544969776
5.70055198669 0.0621321265857736 -0.1468087504393379 -1.259539483987636 1.942648402153891 2.050073728274804 -0.5200183123913877 1.1399575544969776
5.70055198669 0.0621321265857736 -0.1468087504393379 -1.259539483987636 1.942648402153891 2.050073728274804 -0.5200183123913877 1.1399575544969776
5.71054196358 0.0621321265857736 -0.1468087504393379 -1.259539483987636 1.942648402153891 2.050073728274804 -0.5200183123913877 1.1399575544969776
5.71054196358 0.0621321265857736 -0.1468087504393379 -1.259539483987636 1.942648402153891 2.050073728274804 -0.5200183123913877 1.1399575544969776
5.7204220295 0.0621321265857736 -0.1468087504393379 -1.259539483987636 1.942648402153891 2.050073728274804 -0.5200183123913877 1.1399575544969776
5.7204220295 0.0621321265857736 -0.1468087504393379 -1.259539483987636 1.942648402153891 2.050073728274804 -0.5200183123913877 1.1399575544969776
5.73050093651 0.0621321265857736 -0.1468087504393379 -1.259539483987636 1.942648402153891 2.050073728274804 -0.5200183123913877 1.1399575544969776
5.73050093651 0.0621321265857736 -0.1468087504393379 -1.259539483987636 1.942648402153891 2.050073728274804 -0.5200183123913877 1.1399575544969776
5.74054908752 0.0621321265857736 -0.1468087504393379 -1.259539483987636 1.942648402153891 2.050073728274804 -0.5200183123913877 1.1399575544969776
5.74054908752 0.0621321265857736 -0.1468087504393379 -1.259539483987636 1.942648402153891 2.050073728274804 -0.5200183123913877 1.1399575544969776
5.75043797493 0.0621321265857736 -0.1468087504393379 -1.259539483987636 1.942648402153891 2.050073728274804 -0.5200183123913877 1.1399575544969776
5.75043797493 0.0621321265857736 -0.1468087504393379 -1.259539483987636 1.942648402153891 2.050073728274804 -0.5200183123913877 1.1399575544969776
5.76055812836 0.0621321265857736 -0.1468087504393379 -1.259539483987636 1.942648402153891 2.050073728274804 -0.5200183123913877 1.1399575544969776
5.76055812836 0.0621321265857736 -0.1468087504393379 -1.259539483987636 1.942648402153891 2.050073728274804 -0.5200183123913877 1.1399575544969776
5.77051711082 0.0621321265857736 -0.1468087504393379 -1.259539483987636 1.942648402153891 2.050073728274804 -0.5200183123913877 1.1399575544969776
5.77051711082 0.0621321265857736 -0.1468087504393379 -1.259539483987636 1.942648402153891 2.050073728274804 -0.5200183123913877 1.1399575544969776
5.78063011169 0.0621321265857736 -0.1468087504393379 -1.259539483987636 1.942648402153891 2.050073728274804 -0.5200183123913877 1.1399575544969776
5.78063011169 0.0621321265857736 -0.1468087504393379 -1.259539483987636 1.942648402153891 2.050073728274804 -0.5200183123913877 1.1399575544969776
5.79039502144 0.0621321265857736 -0.1468087504393379 -1.259539483987636 1.942648402153891 2.050073728274804 -0.5200183123913877 1.1399575544969776
5.79039502144 0.0621321265857736 -0.1468087504393379 -1.259539483987636 1.942648402153891 2.050073728274804 -0.5200183123913877 1.1399575544969776
5.80058002472 0.0621321265857736 -0.1468087504393379 -1.259539483987636 1.942648402153891 2.050073728274804 -0.5200183123913877 1.1399575544969776
5.80058002472 0.0621321265857736 -0.1468087504393379 -1.259539483987636 1.942648402153891 2.050073728274804 -0.5200183123913877 1.1399575544969776
5.8104801178 0.0621321265857736 -0.1468087504393379 -1.259539483987636 1.942648402153891 2.050073728274804 -0.5200183123913877 1.1399575544969776
5.8104801178 0.0621321265857736 -0.1468087504393379 -1.259539483987636 1.942648402153891 2.050073728274804 -0.5200183123913877 1.1399575544969776
5.82055306435 0.0621321265857736 -0.1468087504393379 -1.259539483987636 1.942648402153891 2.050073728274804 -0.5200183123913877 1.1399575544969776
5.82055306435 0.0621321265857736 -0.1468087504393379 -1.259539483987636 1.942648402153891 2.050073728274804 -0.5200183123913877 1.1399575544969776
5.83052301407 0.0621321265857736 -0.1468087504393379 -1.259539483987636 1.942648402153891 2.050073728274804 -0.5200183123913877 1.1399575544969776
5.83052301407 0.0621321265857736 -0.1468087504393379 -1.259539483987636 1.942648402153891 2.050073728274804 -0.5200183123913877 1.1399575544969776
5.84046506882 0.0621321265857736 -0.1468087504393379 -1.259539483987636 1.942648402153891 2.050073728274804 -0.5200183123913877 1.1399575544969776
5.84046506882 0.0621321265857736 -0.1468087504393379 -1.259539483987636 1.942648402153891 2.050073728274804 -0.5200183123913877 1.1399575544969776
5.85042691231 0.0621321265857736 -0.1468087504393379 -1.259539483987636 1.942648402153891 2.050073728274804 -0.5200183123913877 1.1399575544969776
5.85042691231 0.0621321265857736 -0.1468087504393379 -1.259539483987636 1.942648402153891 2.050073728274804 -0.5200183123913877 1.1399575544969776
5.86052894592 0.0621321265857736 -0.1468087504393379 -1.259539483987636 1.942648402153891 2.050073728274804 -0.5200183123913877 1.1399575544969776
5.86052894592 0.0621321265857736 -0.1468087504393379 -1.259539483987636 1.942648402153891 2.050073728274804 -0.5200183123913877 1.1399575544969776
5.87048196793 0.0621321265857736 -0.1468087504393379 -1.259539483987636 1.942648402153891 2.050073728274804 -0.5200183123913877 1.1399575544969776
5.87048196793 0.0621321265857736 -0.1468087504393379 -1.259539483987636 1.942648402153891 2.050073728274804 -0.5200183123913877 1.1399575544969776
5.88054394722 0.0621321265857736 -0.1468087504393379 -1.259539483987636 1.942648402153891 2.050073728274804 -0.5200183123913877 1.1399575544969776
5.88054394722 0.0621321265857736 -0.1468087504393379 -1.259539483987636 1.942648402153891 2.050073728274804 -0.5200183123913877 1.1399575544969776
5.89058208466 0.0621321265857736 -0.1468087504393379 -1.259539483987636 1.942648402153891 2.050073728274804 -0.5200183123913877 1.1399575544969776
5.89058208466 0.0621321265857736 -0.1468087504393379 -1.259539483987636 1.942648402153891 2.050073728274804 -0.5200183123913877 1.1399575544969776
5.90040302277 0.0621321265857736 -0.1468087504393379 -1.259539483987636 1.942648402153891 2.050073728274804 -0.5200183123913877 1.1399575544969776
5.90040302277 0.0621321265857736 -0.1468087504393379 -1.259539483987636 1.942648402153891 2.050073728274804 -0.5200183123913877 1.1399575544969776
5.91032910347 0.0621321265857736 -0.1468087504393379 -1.259539483987636 1.942648402153891 2.050073728274804 -0.5200183123913877 1.1399575544969776
5.91032910347 0.0621321265857736 -0.1468087504393379 -1.259539483987636 1.942648402153891 2.050073728274804 -0.5200183123913877 1.1399575544969776
5.92047190666 0.0742660755648958 -0.1129840254090414 -1.3945315838817898 1.93987186009925 2.0500645973556857 -0.5200183123913877 1.1399575544969776
5.92047190666 0.0742660755648958 -0.1129840254090414 -1.3945315838817898 1.93987186009925 2.0500645973556857 -0.5200183123913877 1.1399575544969776
5.93035912514 0.0742660755648958 -0.1129840254090414 -1.3945315838817898 1.93987186009925 2.0500645973556857 -0.5200183123913877 1.1399575544969776
5.93035912514 0.0742660755648958 -0.1129840254090414 -1.3945315838817898 1.93987186009925 2.0500645973556857 -0.5200183123913877 1.1399575544969776
5.940513134 0.0742660755648958 -0.1129840254090414 -1.3945315838817898 1.93987186009925 2.0500645973556857 -0.5200183123913877 1.1399575544969776
5.940513134 0.0742660755648958 -0.1129840254090414 -1.3945315838817898 1.93987186009925 2.0500645973556857 -0.5200183123913877 1.1399575544969776
5.95053792 0.0742660755648958 -0.1129840254090414 -1.3945315838817898 1.93987186009925 2.0500645973556857 -0.5200183123913877 1.1399575544969776
5.95053792 0.0742660755648958 -0.1129840254090414 -1.3945315838817898 1.93987186009925 2.0500645973556857 -0.5200183123913877 1.1399575544969776
5.96055102348 0.0742660755648958 -0.1129840254090414 -1.3945315838817898 1.93987186009925 2.0500645973556857 -0.5200183123913877 1.1399575544969776
5.96055102348 0.0742660755648958 -0.1129840254090414 -1.3945315838817898 1.93987186009925 2.0500645973556857 -0.5200183123913877 1.1399575544969776
5.97052812576 0.0742660755648958 -0.1129840254090414 -1.3945315838817898 1.93987186009925 2.0500645973556857 -0.5200183123913877 1.1399575544969776
5.97052812576 0.0742660755648958 -0.1129840254090414 -1.3945315838817898 1.93987186009925 2.0500645973556857 -0.5200183123913877 1.1399575544969776
5.98056101799 0.0742660755648958 -0.1129840254090414 -1.3945315838817898 1.93987186009925 2.0500645973556857 -0.5200183123913877 1.1399575544969776
5.98056101799 0.0742660755648958 -0.1129840254090414 -1.3945315838817898 1.93987186009925 2.0500645973556857 -0.5200183123913877 1.1399575544969776
5.99054098129 0.0742660755648958 -0.1129840254090414 -1.3945315838817898 1.93987186009925 2.0500645973556857 -0.5200183123913877 1.1399575544969776
5.99054098129 0.0742660755648958 -0.1129840254090414 -1.3945315838817898 1.93987186009925 2.0500645973556857 -0.5200183123913877 1.1399575544969776
6.00055193901 0.0742660755648958 -0.1129840254090414 -1.3945315838817898 1.93987186009925 2.0500645973556857 -0.5200183123913877 1.1399575544969776
6.00055193901 0.0742660755648958 -0.1129840254090414 -1.3945315838817898 1.93987186009925 2.0500645973556857 -0.5200183123913877 1.1399575544969776
6.01048994064 0.0742660755648958 -0.1129840254090414 -1.3945315838817898 1.93987186009925 2.0500645973556857 -0.5200183123913877 1.1399575544969776
6.01048994064 0.0742660755648958 -0.1129840254090414 -1.3945315838817898 1.93987186009925 2.0500645973556857 -0.5200183123913877 1.1399575544969776
6.02057003975 0.0742660755648958 -0.1129840254090414 -1.3945315838817898 1.93987186009925 2.0500645973556857 -0.5200183123913877 1.1399575544969776
6.02057003975 0.0742660755648958 -0.1129840254090414 -1.3945315838817898 1.93987186009925 2.0500645973556857 -0.5200183123913877 1.1399575544969776
6.03041291237 0.0742660755648958 -0.1129840254090414 -1.3945315838817898 1.93987186009925 2.0500645973556857 -0.5200183123913877 1.1399575544969776
6.03041291237 0.0742660755648958 -0.1129840254090414 -1.3945315838817898 1.93987186009925 2.0500645973556857 -0.5200183123913877 1.1399575544969776
6.04052591324 0.0742660755648958 -0.1129840254090414 -1.3945315838817898 1.93987186009925 2.0500645973556857 -0.5200183123913877 1.1399575544969776
6.04052591324 0.0742660755648958 -0.1129840254090414 -1.3945315838817898 1.93987186009925 2.0500645973556857 -0.5200183123913877 1.1399575544969776
6.05053901672 0.0742660755648958 -0.1129840254090414 -1.3945315838817898 1.93987186009925 2.0500645973556857 -0.5200183123913877 1.1399575544969776
6.05053901672 0.0742660755648958 -0.1129840254090414 -1.3945315838817898 1.93987186009925 2.0500645973556857 -0.5200183123913877 1.1399575544969776
6.06037211418 0.0742660755648958 -0.1129840254090414 -1.3945315838817898 1.93987186009925 2.0500645973556857 -0.5200183123913877 1.1399575544969776
6.06037211418 0.0742660755648958 -0.1129840254090414 -1.3945315838817898 1.93987186009925 2.0500645973556857 -0.5200183123913877 1.1399575544969776
6.07052898407 0.0742660755648958 -0.1129840254090414 -1.3945315838817898 1.93987186009925 2.0500645973556857 -0.5200183123913877 1.1399575544969776
6.07052898407 0.0742660755648958 -0.1129840254090414 -1.3945315838817898 1.93987186009925 2.0500645973556857 -0.5200183123913877 1.1399575544969776
6.0805580616 0.0742660755648958 -0.1129840254090414 -1.3945315838817898 1.93987186009925 2.0500645973556857 -0.5200183123913877 1.1399575544969776
6.0805580616 0.0742660755648958 -0.1129840254090414 -1.3945315838817898 1.93987186009925 2.0500645973556857 -0.5200183123913877 1.1399575544969776
6.09052205086 0.0742660755648958 -0.1129840254090414 -1.3945315838817898 1.93987186009925 2.0500645973556857 -0.5200183123913877 1.1399575544969776
6.09052205086 0.0742660755648958 -0.1129840254090414 -1.3945315838817898 1.93987186009925 2.0500645973556857 -0.5200183123913877 1.1399575544969776
6.10051298141 0.0742660755648958 -0.1129840254090414 -1.3945315838817898 1.93987186009925 2.0500645973556857 -0.5200183123913877 1.1399575544969776
6.10051298141 0.0742660755648958 -0.1129840254090414 -1.3945315838817898 1.93987186009925 2.0500645973556857 -0.5200183123913877 1.1399575544969776
6.11049509048 0.0742660755648958 -0.1129840254090414 -1.3945315838817898 1.93987186009925 2.0500645973556857 -0.5200183123913877 1.1399575544969776
6.11049509048 0.0742660755648958 -0.1129840254090414 -1.3945315838817898 1.93987186009925 2.0500645973556857 -0.5200183123913877 1.1399575544969776
6.1205830574 0.0742660755648958 -0.1129840254090414 -1.3945315838817898 1.93987186009925 2.0500645973556857 -0.5200183123913877 1.1399575544969776
6.1205830574 0.0742660755648958 -0.1129840254090414 -1.3945315838817898 1.93987186009925 2.0500645973556857 -0.5200183123913877 1.1399575544969776
6.13036513329 0.0742660755648958 -0.1129840254090414 -1.3945315838817898 1.93987186009925 2.0500645973556857 -0.5200183123913877 1.1399575544969776
6.13036513329 0.0742660755648958 -0.1129840254090414 -1.3945315838817898 1.93987186009925 2.0500645973556857 -0.5200183123913877 1.1399575544969776
6.14039707184 0.0742660755648958 -0.1129840254090414 -1.3945315838817898 1.93987186009925 2.0500645973556857 -0.5200183123913877 1.1399575544969776
6.14039707184 0.0742660755648958 -0.1129840254090414 -1.3945315838817898 1.93987186009925 2.0500645973556857 -0.5200183123913877 1.1399575544969776
6.15059399605 0.0742660755648958 -0.1129840254090414 -1.3945315838817898 1.93987186009925 2.0500645973556857 -0.5200183123913877 1.1399575544969776
6.15059399605 0.0742660755648958 -0.1129840254090414 -1.3945315838817898 1.93987186009925 2.0500645973556857 -0.5200183123913877 1.1399575544969776
6.16037392616 0.0742660755648958 -0.1129840254090414 -1.3945315838817898 1.93987186009925 2.0500645973556857 -0.5200183123913877 1.1399575544969776
6.16037392616 0.0742660755648958 -0.1129840254090414 -1.3945315838817898 1.93987186009925 2.0500645973556857 -0.5200183123913877 1.1399575544969776
6.17049002647 0.0742660755648958 -0.1129840254090414 -1.3945315838817898 1.93987186009925 2.0500645973556857 -0.5200183123913877 1.1399575544969776
6.17049002647 0.0742660755648958 -0.1129840254090414 -1.3945315838817898 1.93987186009925 2.0500645973556857 -0.5200183123913877 1.1399575544969776
6.18033909798 0.0742660755648958 -0.1129840254090414 -1.3945315838817898 1.93987186009925 2.0500645973556857 -0.5200183123913877 1.1399575544969776
6.18033909798 0.0742660755648958 -0.1129840254090414 -1.3945315838817898 1.93987186009925 2.0500645973556857 -0.5200183123913877 1.1399575544969776
6.19046711922 0.0742660755648958 -0.1129840254090414 -1.3945315838817898 1.93987186009925 2.0500645973556857 -0.5200183123913877 1.1399575544969776
6.19046711922 0.0742660755648958 -0.1129840254090414 -1.3945315838817898 1.93987186009925 2.0500645973556857 -0.5200183123913877 1.1399575544969776
6.20029902458 0.0742660755648958 -0.1129840254090414 -1.3945315838817898 1.93987186009925 2.0500645973556857 -0.5200183123913877 1.1399575544969776
6.20029902458 0.0742660755648958 -0.1129840254090414 -1.3945315838817898 1.93987186009925 2.0500645973556857 -0.5200183123913877 1.1399575544969776
6.21050190926 0.0742660755648958 -0.1129840254090414 -1.3945315838817898 1.93987186009925 2.0500645973556857 -0.5200183123913877 1.1399575544969776
6.21050190926 0.0742660755648958 -0.1129840254090414 -1.3945315838817898 1.93987186009925 2.0500645973556857 -0.5200183123913877 1.1399575544969776
6.22052812576 0.0742660755648958 -0.1129840254090414 -1.3945315838817898 1.93987186009925 2.0500645973556857 -0.5200183123913877 1.1399575544969776
6.22052812576 0.0742660755648958 -0.1129840254090414 -1.3945315838817898 1.93987186009925 2.0500645973556857 -0.5200183123913877 1.1399575544969776
6.23047494888 0.0742660755648958 -0.1129840254090414 -1.3945315838817898 1.93987186009925 2.0500645973556857 -0.5200183123913877 1.1399575544969776
6.23047494888 0.0742660755648958 -0.1129840254090414 -1.3945315838817898 1.93987186009925 2.0500645973556857 -0.5200183123913877 1.1399575544969776
6.24049091339 0.0742660755648958 -0.1129840254090414 -1.3945315838817898 1.93987186009925 2.0500645973556857 -0.5200183123913877 1.1399575544969776
6.24049091339 0.0742660755648958 -0.1129840254090414 -1.3945315838817898 1.93987186009925 2.0500645973556857 -0.5200183123913877 1.1399575544969776
6.25029110909 0.0742660755648958 -0.1129840254090414 -1.3945315838817898 1.93987186009925 2.0500645973556857 -0.5200183123913877 1.1399575544969776
6.25029110909 0.0742660755648958 -0.1129840254090414 -1.3945315838817898 1.93987186009925 2.0500645973556857 -0.5200183123913877 1.1399575544969776
6.2604970932 0.0742660755648958 -0.1129840254090414 -1.3945315838817898 1.93987186009925 2.0500645973556857 -0.5200183123913877 1.1399575544969776
6.2604970932 0.0742660755648958 -0.1129840254090414 -1.3945315838817898 1.93987186009925 2.0500645973556857 -0.5200183123913877 1.1399575544969776
6.27065491676 0.0751404562119375 -0.1104682635473776 -1.4051161917143995 1.9386753392138243 2.050028073679212 -0.5200183123913877 1.1399575544969776
6.27065491676 0.0751404562119375 -0.1104682635473776 -1.4051161917143995 1.9386753392138243 2.050028073679212 -0.5200183123913877 1.1399575544969776
6.28056192398 0.0751404562119375 -0.1104682635473776 -1.4051161917143995 1.9386753392138243 2.050028073679212 -0.5200183123913877 1.1399575544969776
6.28056192398 0.0751404562119375 -0.1104682635473776 -1.4051161917143995 1.9386753392138243 2.050028073679212 -0.5200183123913877 1.1399575544969776
6.29041194916 0.0751404562119375 -0.1104682635473776 -1.4051161917143995 1.9386753392138243 2.050028073679212 -0.5200183123913877 1.1399575544969776
6.29041194916 0.0751404562119375 -0.1104682635473776 -1.4051161917143995 1.9386753392138243 2.050028073679212 -0.5200183123913877 1.1399575544969776
6.30053591728 0.0751404562119375 -0.1104682635473776 -1.4051161917143995 1.9386753392138243 2.050028073679212 -0.5200183123913877 1.1399575544969776
6.30053591728 0.0751404562119375 -0.1104682635473776 -1.4051161917143995 1.9386753392138243 2.050028073679212 -0.5200183123913877 1.1399575544969776
6.31042790413 0.0751404562119375 -0.1104682635473776 -1.4051161917143995 1.9386753392138243 2.050028073679212 -0.5200183123913877 1.1399575544969776
6.31042790413 0.0751404562119375 -0.1104682635473776 -1.4051161917143995 1.9386753392138243 2.050028073679212 -0.5200183123913877 1.1399575544969776
6.32051205635 0.0751404562119375 -0.1104682635473776 -1.4051161917143995 1.9386753392138243 2.050028073679212 -0.5200183123913877 1.1399575544969776
6.32051205635 0.0751404562119375 -0.1104682635473776 -1.4051161917143995 1.9386753392138243 2.050028073679212 -0.5200183123913877 1.1399575544969776
6.33051490784 0.0751404562119375 -0.1104682635473776 -1.4051161917143995 1.9386753392138243 2.050028073679212 -0.5200183123913877 1.1399575544969776
6.33051490784 0.0751404562119375 -0.1104682635473776 -1.4051161917143995 1.9386753392138243 2.050028073679212 -0.5200183123913877 1.1399575544969776
6.34046602249 0.0751404562119375 -0.1104682635473776 -1.4051161917143995 1.9386753392138243 2.050028073679212 -0.5200183123913877 1.1399575544969776
6.34046602249 0.0751404562119375 -0.1104682635473776 -1.4051161917143995 1.9386753392138243 2.050028073679212 -0.5200183123913877 1.1399575544969776
6.35035800934 0.0751404562119375 -0.1104682635473776 -1.4051161917143995 1.9386753392138243 2.050028073679212 -0.5200183123913877 1.1399575544969776
6.35035800934 0.0751404562119375 -0.1104682635473776 -1.4051161917143995 1.9386753392138243 2.050028073679212 -0.5200183123913877 1.1399575544969776
6.36050891876 0.0751404562119375 -0.1104682635473776 -1.4051161917143995 1.9386753392138243 2.050028073679212 -0.5200183123913877 1.1399575544969776
6.36050891876 0.0751404562119375 -0.1104682635473776 -1.4051161917143995 1.9386753392138243 2.050028073679212 -0.5200183123913877 1.1399575544969776
6.37054896355 0.0751404562119375 -0.1104682635473776 -1.4051161917143995 1.9386753392138243 2.050028073679212 -0.5200183123913877 1.1399575544969776
6.37054896355 0.0751404562119375 -0.1104682635473776 -1.4051161917143995 1.9386753392138243 2.050028073679212 -0.5200183123913877 1.1399575544969776
6.38056492805 0.0751404562119375 -0.1104682635473776 -1.4051161917143995 1.9386753392138243 2.050028073679212 -0.5200183123913877 1.1399575544969776
6.38056492805 0.0751404562119375 -0.1104682635473776 -1.4051161917143995 1.9386753392138243 2.050028073679212 -0.5200183123913877 1.1399575544969776
6.39053297043 0.0751404562119375 -0.1104682635473776 -1.4051161917143995 1.9386753392138243 2.050028073679212 -0.5200183123913877 1.1399575544969776
6.39053297043 0.0751404562119375 -0.1104682635473776 -1.4051161917143995 1.9386753392138243 2.050028073679212 -0.5200183123913877 1.1399575544969776
6.40035891533 0.0751404562119375 -0.1104682635473776 -1.4051161917143995 1.9386753392138243 2.050028073679212 -0.5200183123913877 1.1399575544969776
6.40035891533 0.0751404562119375 -0.1104682635473776 -1.4051161917143995 1.9386753392138243 2.050028073679212 -0.5200183123913877 1.1399575544969776
6.41060495377 0.0751404562119375 -0.1104682635473776 -1.4051161917143995 1.9386753392138243 2.050028073679212 -0.5200183123913877 1.1399575544969776
6.41060495377 0.0751404562119375 -0.1104682635473776 -1.4051161917143995 1.9386753392138243 2.050028073679212 -0.5200183123913877 1.1399575544969776
6.42031502724 0.0751404562119375 -0.1104682635473776 -1.4051161917143995 1.9386753392138243 2.050028073679212 -0.5200183123913877 1.1399575544969776
6.42031502724 0.0751404562119375 -0.1104682635473776 -1.4051161917143995 1.9386753392138243 2.050028073679212 -0.5200183123913877 1.1399575544969776
6.43051505089 0.0751404562119375 -0.1104682635473776 -1.4051161917143995 1.9386753392138243 2.050028073679212 -0.5200183123913877 1.1399575544969776
6.43051505089 0.0751404562119375 -0.1104682635473776 -1.4051161917143995 1.9386753392138243 2.050028073679212 -0.5200183123913877 1.1399575544969776
6.44057297707 0.0751404562119375 -0.1104682635473776 -1.4051161917143995 1.9386753392138243 2.050028073679212 -0.5200183123913877 1.1399575544969776
6.44057297707 0.0751404562119375 -0.1104682635473776 -1.4051161917143995 1.9386753392138243 2.050028073679212 -0.5200183123913877 1.1399575544969776
6.45040202141 0.0751404562119375 -0.1104682635473776 -1.4051161917143995 1.9386753392138243 2.050028073679212 -0.5200183123913877 1.1399575544969776
6.45040202141 0.0751404562119375 -0.1104682635473776 -1.4051161917143995 1.9386753392138243 2.050028073679212 -0.5200183123913877 1.1399575544969776
6.46040797234 0.0751404562119375 -0.1104682635473776 -1.4051161917143995 1.9386753392138243 2.050028073679212 -0.5200183123913877 1.1399575544969776
6.46040797234 0.0751404562119375 -0.1104682635473776 -1.4051161917143995 1.9386753392138243 2.050028073679212 -0.5200183123913877 1.1399575544969776
6.47053813934 0.0751404562119375 -0.1104682635473776 -1.4051161917143995 1.9386753392138243 2.050028073679212 -0.5200183123913877 1.1399575544969776
6.47053813934 0.0751404562119375 -0.1104682635473776 -1.4051161917143995 1.9386753392138243 2.050028073679212 -0.5200183123913877 1.1399575544969776
6.48058700562 0.0751404562119375 -0.1104682635473776 -1.4051161917143995 1.9386753392138243 2.050028073679212 -0.5200183123913877 1.1399575544969776
6.48058700562 0.0751404562119375 -0.1104682635473776 -1.4051161917143995 1.9386753392138243 2.050028073679212 -0.5200183123913877 1.1399575544969776
6.49053311348 0.0751404562119375 -0.1104682635473776 -1.4051161917143995 1.9386753392138243 2.050028073679212 -0.5200183123913877 1.1399575544969776
6.49053311348 0.0751404562119375 -0.1104682635473776 -1.4051161917143995 1.9386753392138243 2.050028073679212 -0.5200183123913877 1.1399575544969776
6.50044298172 0.0751404562119375 -0.1104682635473776 -1.4051161917143995 1.9386753392138243 2.050028073679212 -0.5200183123913877 1.1399575544969776
6.50044298172 0.0751404562119375 -0.1104682635473776 -1.4051161917143995 1.9386753392138243 2.050028073679212 -0.5200183123913877 1.1399575544969776
6.51051807404 0.0751404562119375 -0.1104682635473776 -1.4051161917143995 1.9386753392138243 2.050028073679212 -0.5200183123913877 1.1399575544969776
6.51051807404 0.0751404562119375 -0.1104682635473776 -1.4051161917143995 1.9386753392138243 2.050028073679212 -0.5200183123913877 1.1399575544969776
6.52052211761 0.0751404562119375 -0.1104682635473776 -1.4051161917143995 1.9386753392138243 2.050028073679212 -0.5200183123913877 1.1399575544969776
6.52052211761 0.0751404562119375 -0.1104682635473776 -1.4051161917143995 1.9386753392138243 2.050028073679212 -0.5200183123913877 1.1399575544969776
6.5303580761 0.0751404562119375 -0.1104682635473776 -1.4051161917143995 1.9386753392138243 2.050028073679212 -0.5200183123913877 1.1399575544969776
6.5303580761 0.0751404562119375 -0.1104682635473776 -1.4051161917143995 1.9386753392138243 2.050028073679212 -0.5200183123913877 1.1399575544969776
6.54051995277 0.0751404562119375 -0.1104682635473776 -1.4051161917143995 1.9386753392138243 2.050028073679212 -0.5200183123913877 1.1399575544969776
6.54051995277 0.0751404562119375 -0.1104682635473776 -1.4051161917143995 1.9386753392138243 2.050028073679212 -0.5200183123913877 1.1399575544969776
6.55051207542 0.0751404562119375 -0.1104682635473776 -1.4051161917143995 1.9386753392138243 2.050028073679212 -0.5200183123913877 1.1399575544969776
6.55051207542 0.0751404562119375 -0.1104682635473776 -1.4051161917143995 1.9386753392138243 2.050028073679212 -0.5200183123913877 1.1399575544969776
6.56054210663 0.0751404562119375 -0.1104682635473776 -1.4051161917143995 1.9386753392138243 2.050028073679212 -0.5200183123913877 1.1399575544969776
6.56054210663 0.0751404562119375 -0.1104682635473776 -1.4051161917143995 1.9386753392138243 2.050028073679212 -0.5200183123913877 1.1399575544969776
6.57051491737 0.0751404562119375 -0.1104682635473776 -1.4051161917143995 1.9386753392138243 2.050028073679212 -0.5200183123913877 1.1399575544969776
6.57051491737 0.0751404562119375 -0.1104682635473776 -1.4051161917143995 1.9386753392138243 2.050028073679212 -0.5200183123913877 1.1399575544969776
6.58053207397 0.0751404562119375 -0.1104682635473776 -1.4051161917143995 1.9386753392138243 2.050028073679212 -0.5200183123913877 1.1399575544969776
6.58053207397 0.0751404562119375 -0.1104682635473776 -1.4051161917143995 1.9386753392138243 2.050028073679212 -0.5200183123913877 1.1399575544969776
6.59039711952 0.0751404562119375 -0.1104682635473776 -1.4051161917143995 1.9386753392138243 2.050028073679212 -0.5200183123913877 1.1399575544969776
6.59039711952 0.0751404562119375 -0.1104682635473776 -1.4051161917143995 1.9386753392138243 2.050028073679212 -0.5200183123913877 1.1399575544969776
6.60056304932 0.0751404562119375 -0.1104682635473776 -1.4051161917143995 1.9386753392138243 2.050028073679212 -0.5200183123913877 1.1399575544969776
6.60056304932 0.0751404562119375 -0.1104682635473776 -1.4051161917143995 1.9386753392138243 2.050028073679212 -0.5200183123913877 1.1399575544969776
6.61053109169 0.0779169982665787 -0.1021693174061574 -1.4367012750873611 1.933996635751584 2.050028073679212 -0.5200183123913877 1.1399575544969776
6.61053109169 0.0779169982665787 -0.1021693174061574 -1.4367012750873611 1.933996635751584 2.050028073679212 -0.5200183123913877 1.1399575544969776
6.62056899071 0.0783004985503689 -0.0996535555444936 -1.446503542341039 1.9320024342758748 2.050028073679212 -0.5200183123913877 1.1399575544969776
6.62056899071 0.0783004985503689 -0.0996535555444936 -1.446503542341039 1.9320024342758748 2.050028073679212 -0.5200183123913877 1.1399575544969776
6.63058304787 0.0783004985503689 -0.0996535555444936 -1.446503542341039 1.9320024342758748 2.050028073679212 -0.5200183123913877 1.1399575544969776
6.63058304787 0.0783004985503689 -0.0996535555444936 -1.446503542341039 1.9320024342758748 2.050028073679212 -0.5200183123913877 1.1399575544969776
6.64052700996 0.0783004985503689 -0.0996535555444936 -1.446503542341039 1.9320024342758748 2.050028073679212 -0.5200183123913877 1.1399575544969776
6.64052700996 0.0783004985503689 -0.0996535555444936 -1.446503542341039 1.9320024342758748 2.050028073679212 -0.5200183123913877 1.1399575544969776
6.65055608749 0.0783004985503689 -0.0996535555444936 -1.446503542341039 1.9320024342758748 2.050028073679212 -0.5200183123913877 1.1399575544969776
6.65055608749 0.0783004985503689 -0.0996535555444936 -1.446503542341039 1.9320024342758748 2.050028073679212 -0.5200183123913877 1.1399575544969776
6.66061306 0.0783004985503689 -0.0996535555444936 -1.446503542341039 1.9320024342758748 2.050028073679212 -0.5200183123913877 1.1399575544969776
6.66061306 0.0783004985503689 -0.0996535555444936 -1.446503542341039 1.9320024342758748 2.050028073679212 -0.5200183123913877 1.1399575544969776
6.67054510117 0.0783004985503689 -0.0996535555444936 -1.446503542341039 1.9320024342758748 2.050028073679212 -0.5200183123913877 1.1399575544969776
6.67054510117 0.0783004985503689 -0.0996535555444936 -1.446503542341039 1.9320024342758748 2.050028073679212 -0.5200183123913877 1.1399575544969776
6.68040513992 0.0783004985503689 -0.0996535555444936 -1.446503542341039 1.9320024342758748 2.050028073679212 -0.5200183123913877 1.1399575544969776
6.68040513992 0.0783004985503689 -0.0996535555444936 -1.446503542341039 1.9320024342758748 2.050028073679212 -0.5200183123913877 1.1399575544969776
6.69049692154 0.0783004985503689 -0.0996535555444936 -1.446503542341039 1.9320024342758748 2.050028073679212 -0.5200183123913877 1.1399575544969776
6.69049692154 0.0783004985503689 -0.0996535555444936 -1.446503542341039 1.9320024342758748 2.050028073679212 -0.5200183123913877 1.1399575544969776
6.70056009293 0.0783004985503689 -0.0996535555444936 -1.446503542341039 1.9320024342758748 2.050028073679212 -0.5200183123913877 1.1399575544969776
6.70056009293 0.0783004985503689 -0.0996535555444936 -1.446503542341039 1.9320024342758748 2.050028073679212 -0.5200183123913877 1.1399575544969776
6.71034693718 0.0783004985503689 -0.0996535555444936 -1.446503542341039 1.9320024342758748 2.050028073679212 -0.5200183123913877 1.1399575544969776
6.71034693718 0.0783004985503689 -0.0996535555444936 -1.446503542341039 1.9320024342758748 2.050028073679212 -0.5200183123913877 1.1399575544969776
6.7203309536 0.0783004985503689 -0.0996535555444936 -1.446503542341039 1.9320024342758748 2.050028073679212 -0.5200183123913877 1.1399575544969776
6.7203309536 0.0783004985503689 -0.0996535555444936 -1.446503542341039 1.9320024342758748 2.050028073679212 -0.5200183123913877 1.1399575544969776
6.73049998283 0.0783004985503689 -0.0996535555444936 -1.446503542341039 1.9320024342758748 2.050028073679212 -0.5200183123913877 1.1399575544969776
6.73049998283 0.0783004985503689 -0.0996535555444936 -1.446503542341039 1.9320024342758748 2.050028073679212 -0.5200183123913877 1.1399575544969776
6.74052810669 0.0783004985503689 -0.0996535555444936 -1.446503542341039 1.9320024342758748 2.050028073679212 -0.5200183123913877 1.1399575544969776
6.74052810669 0.0783004985503689 -0.0996535555444936 -1.446503542341039 1.9320024342758748 2.050028073679212 -0.5200183123913877 1.1399575544969776
6.75054192543 0.0783004985503689 -0.0996535555444936 -1.446503542341039 1.9320024342758748 2.050028073679212 -0.5200183123913877 1.1399575544969776
6.75054192543 0.0783004985503689 -0.0996535555444936 -1.446503542341039 1.9320024342758748 2.050028073679212 -0.5200183123913877 1.1399575544969776
6.76055002213 0.0783004985503689 -0.0996535555444936 -1.446503542341039 1.9320024342758748 2.050028073679212 -0.5200183123913877 1.1399575544969776
6.76055002213 0.0783004985503689 -0.0996535555444936 -1.446503542341039 1.9320024342758748 2.050028073679212 -0.5200183123913877 1.1399575544969776
6.77054095268 0.0783004985503689 -0.0996535555444936 -1.446503542341039 1.9320024342758748 2.050028073679212 -0.5200183123913877 1.1399575544969776
6.77054095268 0.0783004985503689 -0.0996535555444936 -1.446503542341039 1.9320024342758748 2.050028073679212 -0.5200183123913877 1.1399575544969776
6.78041601181 0.0783004985503689 -0.0996535555444936 -1.446503542341039 1.9320024342758748 2.050028073679212 -0.5200183123913877 1.1399575544969776
6.78041601181 0.0783004985503689 -0.0996535555444936 -1.446503542341039 1.9320024342758748 2.050028073679212 -0.5200183123913877 1.1399575544969776
6.79052591324 0.0783004985503689 -0.0996535555444936 -1.446503542341039 1.9320024342758748 2.050028073679212 -0.5200183123913877 1.1399575544969776
6.79052591324 0.0783004985503689 -0.0996535555444936 -1.446503542341039 1.9320024342758748 2.050028073679212 -0.5200183123913877 1.1399575544969776
6.80056095123 0.0783004985503689 -0.0996535555444936 -1.446503542341039 1.9320024342758748 2.050028073679212 -0.5200183123913877 1.1399575544969776
6.80056095123 0.0783004985503689 -0.0996535555444936 -1.446503542341039 1.9320024342758748 2.050028073679212 -0.5200183123913877 1.1399575544969776
6.81051898003 0.0783004985503689 -0.0996535555444936 -1.446503542341039 1.9320024342758748 2.050028073679212 -0.5200183123913877 1.1399575544969776
6.81051898003 0.0783004985503689 -0.0996535555444936 -1.446503542341039 1.9320024342758748 2.050028073679212 -0.5200183123913877 1.1399575544969776
6.8205640316 0.0783004985503689 -0.0996535555444936 -1.446503542341039 1.9320024342758748 2.050028073679212 -0.5200183123913877 1.1399575544969776
6.8205640316 0.0783004985503689 -0.0996535555444936 -1.446503542341039 1.9320024342758748 2.050028073679212 -0.5200183123913877 1.1399575544969776
6.83052492142 0.0783004985503689 -0.0996535555444936 -1.446503542341039 1.9320024342758748 2.050028073679212 -0.5200183123913877 1.1399575544969776
6.83052492142 0.0783004985503689 -0.0996535555444936 -1.446503542341039 1.9320024342758748 2.050028073679212 -0.5200183123913877 1.1399575544969776
6.84060811996 0.0783004985503689 -0.0996535555444936 -1.446503542341039 1.9320024342758748 2.050028073679212 -0.5200183123913877 1.1399575544969776
6.84060811996 0.0783004985503689 -0.0996535555444936 -1.446503542341039 1.9320024342758748 2.050028073679212 -0.5200183123913877 1.1399575544969776
6.8504691124 0.0783004985503689 -0.0996535555444936 -1.446503542341039 1.9320024342758748 2.050028073679212 -0.5200183123913877 1.1399575544969776
6.8504691124 0.0783004985503689 -0.0996535555444936 -1.446503542341039 1.9320024342758748 2.050028073679212 -0.5200183123913877 1.1399575544969776
6.8605260849 0.0783004985503689 -0.0996535555444936 -1.446503542341039 1.9320024342758748 2.050028073679212 -0.5200183123913877 1.1399575544969776
6.8605260849 0.0783004985503689 -0.0996535555444936 -1.446503542341039 1.9320024342758748 2.050028073679212 -0.5200183123913877 1.1399575544969776
6.87053203583 0.0783004985503689 -0.0996535555444936 -1.446503542341039 1.9320024342758748 2.050028073679212 -0.5200183123913877 1.1399575544969776
6.87053203583 0.0783004985503689 -0.0996535555444936 -1.446503542341039 1.9320024342758748 2.050028073679212 -0.5200183123913877 1.1399575544969776
6.8805949688 0.0783004985503689 -0.0996535555444936 -1.446503542341039 1.9320024342758748 2.050028073679212 -0.5200183123913877 1.1399575544969776
6.8805949688 0.0783004985503689 -0.0996535555444936 -1.446503542341039 1.9320024342758748 2.050028073679212 -0.5200183123913877 1.1399575544969776
6.89052295685 0.0783004985503689 -0.0996535555444936 -1.446503542341039 1.9320024342758748 2.050028073679212 -0.5200183123913877 1.1399575544969776
6.89052295685 0.0783004985503689 -0.0996535555444936 -1.446503542341039 1.9320024342758748 2.050028073679212 -0.5200183123913877 1.1399575544969776
6.90058493614 0.0783004985503689 -0.0996535555444936 -1.446503542341039 1.9320024342758748 2.050028073679212 -0.5200183123913877 1.1399575544969776
6.90058493614 0.0783004985503689 -0.0996535555444936 -1.446503542341039 1.9320024342758748 2.050028073679212 -0.5200183123913877 1.1399575544969776
6.91056203842 0.0783004985503689 -0.0996535555444936 -1.446503542341039 1.9320024342758748 2.050028073679212 -0.5200183123913877 1.1399575544969776
6.91056203842 0.0783004985503689 -0.0996535555444936 -1.446503542341039 1.9320024342758748 2.050028073679212 -0.5200183123913877 1.1399575544969776
6.92061305046 0.0783004985503689 -0.0996535555444936 -1.446503542341039 1.9320024342758748 2.050028073679212 -0.5200183123913877 1.1399575544969776
