riccardo-csl/Motion-Planning-for-TIAGo-Manipulator/T3_G_7/head_scan/head_scan/tiago_traiettorie_SG/4a-3b/place_3b_rep1.txt
time arm_1_joint arm_2_joint arm_3_joint arm_4_joint arm_5_joint arm_6_joint arm_7_joint
0.719336032867 0.0468994953136265 -0.2976470820597033 -1.2013394809196336 1.871348029391615 2.0501102519512773 -0.5200228778509468 1.1399621199565368
0.729443073273 0.0468994953136265 -0.2976470820597033 -1.2013394809196336 1.871348029391615 2.0501102519512773 -0.5200228778509468 1.1399621199565368
0.729443073273 0.0468994953136265 -0.2976470820597033 -1.2013394809196336 1.871348029391615 2.0501102519512773 -0.5200228778509468 1.1399621199565368
0.739495038986 0.0468994953136265 -0.2976470820597033 -1.2013394809196336 1.871348029391615 2.0501102519512773 -0.5200228778509468 1.1399621199565368
0.739495038986 0.0468994953136265 -0.2976470820597033 -1.2013394809196336 1.871348029391615 2.0501102519512773 -0.5200228778509468 1.1399621199565368
0.749356985092 0.0468994953136265 -0.2976470820597033 -1.2013394809196336 1.871348029391615 2.0501102519512773 -0.5200228778509468 1.1399621199565368
0.749356985092 0.0468994953136265 -0.2976470820597033 -1.2013394809196336 1.871348029391615 2.0501102519512773 -0.5200228778509468 1.1399621199565368
0.759407997131 0.0468994953136265 -0.2976470820597033 -1.2013394809196336 1.871348029391615 2.0501102519512773 -0.5200228778509468 1.1399621199565368
0.759407997131 0.0468994953136265 -0.2976470820597033 -1.2013394809196336 1.871348029391615 2.0501102519512773 -0.5200228778509468 1.1399621199565368
0.769464015961 0.0468841553022749 -0.2976470820597033 -1.2013394809196336 1.871348029391615 2.0501102519512773 -0.5200228778509468 1.1399621199565368
0.769464015961 0.0468841553022749 -0.2976470820597033 -1.2013394809196336 1.871348029391615 2.0501102519512773 -0.5200228778509468 1.1399621199565368
0.77937912941 0.0468841553022749 -0.2976470820597033 -1.2013394809196336 1.871348029391615 2.0501102519512773 -0.5200228778509468 1.1399621199565368
0.77937912941 0.0468841553022749 -0.2976470820597033 -1.2013394809196336 1.871348029391615 2.0501102519512773 -0.5200228778509468 1.1399621199565368
0.789361000061 0.0468841553022749 -0.2976470820597033 -1.2013394809196336 1.871348029391615 2.0501102519512773 -0.5200228778509468 1.1399621199565368
0.789361000061 0.0468841553022749 -0.2976470820597033 -1.2013394809196336 1.871348029391615 2.0501102519512773 -0.5200228778509468 1.1399621199565368
0.799339056015 0.0468841553022749 -0.2976470820597033 -1.2013394809196336 1.871348029391615 2.0501102519512773 -0.5200228778509468 1.1399621199565368
0.799339056015 0.0468841553022749 -0.2976470820597033 -1.2013394809196336 1.871348029391615 2.0501102519512773 -0.5200228778509468 1.1399621199565368
0.809513092041 0.0468841553022749 -0.2976470820597033 -1.2013394809196336 1.8713326893802635 2.0501102519512773 -0.5200228778509468 1.1399621199565368
0.809513092041 0.0468841553022749 -0.2976470820597033 -1.2013394809196336 1.8713326893802635 2.0501102519512773 -0.5200228778509468 1.1399621199565368
0.819511175156 0.0468841553022749 -0.2976470820597033 -1.2013394809196336 1.8713326893802635 2.0501102519512773 -0.5200228778509468 1.1399621199565368
0.819511175156 0.0468841553022749 -0.2976470820597033 -1.2013394809196336 1.8713326893802635 2.0501102519512773 -0.5200228778509468 1.1399621199565368
0.829555988312 0.0468841553022749 -0.2976470820597033 -1.2013394809196336 1.8713326893802635 2.0501102519512773 -0.5200228778509468 1.1399621199565368
0.829555988312 0.0468841553022749 -0.2976470820597033 -1.2013394809196336 1.8713326893802635 2.0501102519512773 -0.5200228778509468 1.1399621199565368
0.839472055435 0.0468841553022749 -0.2976470820597033 -1.2013394809196336 1.8713326893802635 2.0501102519512773 -0.5200228778509468 1.1399621199565368
0.839472055435 0.0468841553022749 -0.2976470820597033 -1.2013394809196336 1.8713326893802635 2.0501102519512773 -0.5200228778509468 1.1399621199565368
0.849294185638 0.0468841553022749 -0.2976470820597033 -1.2013394809196336 1.8713326893802635 2.0501102519512773 -0.5200228778509468 1.1399621199565368
0.849294185638 0.0468841553022749 -0.2976470820597033 -1.2013394809196336 1.8713326893802635 2.0501102519512773 -0.5200228778509468 1.1399621199565368
0.859462022781 0.0468841553022749 -0.2976470820597033 -1.2013394809196336 1.8713326893802635 2.0501102519512773 -0.5200228778509468 1.1399621199565368
0.859462022781 0.0468841553022749 -0.2976470820597033 -1.2013394809196336 1.8713326893802635 2.0501102519512773 -0.5200228778509468 1.1399621199565368
0.869397163391 0.0468841553022749 -0.2976470820597033 -1.2013394809196336 1.8713326893802635 2.0501102519512773 -0.5200228778509468 1.1399621199565368
0.869397163391 0.0468841553022749 -0.2976470820597033 -1.2013394809196336 1.8713326893802635 2.0501102519512773 -0.5200228778509468 1.1399621199565368
0.879502058029 0.0468841553022749 -0.2976470820597033 -1.2013394809196336 1.8712559893235048 2.0501102519512773 -0.5200228778509468 1.1399621199565368
0.879502058029 0.0468841553022749 -0.2976470820597033 -1.2013394809196336 1.8712559893235048 2.0501102519512773 -0.5200228778509468 1.1399621199565368
0.889137983322 0.0468841553022749 -0.2976470820597033 -1.2013394809196336 1.8712559893235048 2.0501102519512773 -0.5200228778509468 1.1399621199565368
0.889137983322 0.0468841553022749 -0.2976470820597033 -1.2013394809196336 1.8712559893235048 2.0501102519512773 -0.5200228778509468 1.1399621199565368
0.899247169495 0.0468841553022749 -0.2976470820597033 -1.2013394809196336 1.8712559893235048 2.0501102519512773 -0.5200228778509468 1.1399621199565368
0.899247169495 0.0468841553022749 -0.2976470820597033 -1.2013394809196336 1.8712559893235048 2.0501102519512773 -0.5200228778509468 1.1399621199565368
0.909368038177 0.0468841553022749 -0.2976470820597033 -1.2013394809196336 1.8712559893235048 2.0501102519512773 -0.5200228778509468 1.1399621199565368
0.909368038177 0.0468841553022749 -0.2976470820597033 -1.2013394809196336 1.8712559893235048 2.0501102519512773 -0.5200228778509468 1.1399621199565368
0.919466018677 0.0468841553022749 -0.2976470820597033 -1.2013394809196336 1.8712559893235048 2.0501102519512773 -0.5200228778509468 1.1399621199565368
0.919466018677 0.0468841553022749 -0.2976470820597033 -1.2013394809196336 1.8712559893235048 2.0501102519512773 -0.5200228778509468 1.1399621199565368
0.929323196411 0.0468841553022749 -0.2976470820597033 -1.2013394809196336 1.8712559893235048 2.0501102519512773 -0.5200228778509468 1.1399621199565368
0.929323196411 0.0468841553022749 -0.2976470820597033 -1.2013394809196336 1.8712559893235048 2.0501102519512773 -0.5200228778509468 1.1399621199565368
0.93936419487 0.0468841553022749 -0.2976470820597033 -1.2013394809196336 1.8712099692894504 2.0501102519512773 -0.5200228778509468 1.1399621199565368
0.93936419487 0.0468841553022749 -0.2976470820597033 -1.2013394809196336 1.8712099692894504 2.0501102519512773 -0.5200228778509468 1.1399621199565368
0.949398040771 0.0468841553022749 -0.2976470820597033 -1.2013394809196336 1.8712099692894504 2.0501102519512773 -0.5200228778509468 1.1399621199565368
0.949398040771 0.0468841553022749 -0.2976470820597033 -1.2013394809196336 1.8712099692894504 2.0501102519512773 -0.5200228778509468 1.1399621199565368
0.959311962128 0.0468841553022749 -0.2976470820597033 -1.2013394809196336 1.8711946292780992 2.0501102519512773 -0.5200228778509468 1.1399621199565368
0.959311962128 0.0468841553022749 -0.2976470820597033 -1.2013394809196336 1.8711946292780992 2.0501102519512773 -0.5200228778509468 1.1399621199565368
0.969082117081 0.0468841553022749 -0.2976470820597033 -1.2013394809196336 1.8711946292780992 2.0501102519512773 -0.5200228778509468 1.1399621199565368
0.969082117081 0.0468841553022749 -0.2976470820597033 -1.2013394809196336 1.8711946292780992 2.0501102519512773 -0.5200228778509468 1.1399621199565368
0.979079008102 0.0468841553022749 -0.2976470820597033 -1.2013394809196336 1.8711946292780992 2.0501102519512773 -0.5200228778509468 1.1399621199565368
0.979079008102 0.0468841553022749 -0.2976470820597033 -1.2013394809196336 1.8711946292780992 2.0501102519512773 -0.5200228778509468 1.1399621199565368
0.989210128784 0.0468841553022749 -0.2976470820597033 -1.2013394809196336 1.8711946292780992 2.0501102519512773 -0.5200228778509468 1.1399621199565368
0.989210128784 0.0468841553022749 -0.2976470820597033 -1.2013394809196336 1.8711946292780992 2.0501102519512773 -0.5200228778509468 1.1399621199565368
0.999279975891 0.0468841553022749 -0.2976470820597033 -1.2013394809196336 1.8711946292780992 2.0501102519512773 -0.5200228778509468 1.1399621199565368
0.999279975891 0.0468841553022749 -0.2976470820597033 -1.2013394809196336 1.8711946292780992 2.0501102519512773 -0.5200228778509468 1.1399621199565368
1.00940012932 0.0468841553022749 -0.2976470820597033 -1.2013394809196336 1.8711946292780992 2.0501102519512773 -0.5200228778509468 1.1399621199565368
1.00940012932 0.0468841553022749 -0.2976470820597033 -1.2013394809196336 1.8711946292780992 2.0501102519512773 -0.5200228778509468 1.1399621199565368
1.01939201355 0.0468841553022749 -0.2976470820597033 -1.2013394809196336 1.8711946292780992 2.0501102519512773 -0.5200228778509468 1.1399621199565368
1.01939201355 0.0468841553022749 -0.2976470820597033 -1.2013394809196336 1.8711946292780992 2.0501102519512773 -0.5200228778509468 1.1399621199565368
1.02941417694 0.0468841553022749 -0.2976470820597033 -1.2013394809196336 1.8711946292780992 2.0501102519512773 -0.5200228778509468 1.1399621199565368
1.02941417694 0.0468841553022749 -0.2976470820597033 -1.2013394809196336 1.8711946292780992 2.0501102519512773 -0.5200228778509468 1.1399621199565368
1.03956604004 0.0468841553022749 -0.2976470820597033 -1.2013394809196336 1.8711946292780992 2.0501102519512773 -0.5200228778509468 1.1399621199565368
1.03956604004 0.0468841553022749 -0.2976470820597033 -1.2013394809196336 1.8711946292780992 2.0501102519512773 -0.5200228778509468 1.1399621199565368
1.04928398132 0.0468841553022749 -0.2976470820597033 -1.2013394809196336 1.8711946292780992 2.0501102519512773 -0.5200228778509468 1.1399621199565368
1.04928398132 0.0468841553022749 -0.2976470820597033 -1.2013394809196336 1.8711946292780992 2.0501102519512773 -0.5200228778509468 1.1399621199565368
1.05940508842 0.0468841553022749 -0.2976470820597033 -1.2013394809196336 1.8711946292780992 2.0501102519512773 -0.5200228778509468 1.1399621199565368
1.05940508842 0.0468841553022749 -0.2976470820597033 -1.2013394809196336 1.8711946292780992 2.0501102519512773 -0.5200228778509468 1.1399621199565368
1.0693731308 0.0468841553022749 -0.2976470820597033 -1.2013394809196336 1.8711946292780992 2.0501102519512773 -0.5200228778509468 1.1399621199565368
1.0693731308 0.0468841553022749 -0.2976470820597033 -1.2013394809196336 1.8711946292780992 2.0501102519512773 -0.5200228778509468 1.1399621199565368
1.07947206497 0.0468841553022749 -0.2976470820597033 -1.2013394809196336 1.8711946292780992 2.0501102519512773 -0.5200228778509468 1.1399621199565368
1.07947206497 0.0468841553022749 -0.2976470820597033 -1.2013394809196336 1.8711946292780992 2.0501102519512773 -0.5200228778509468 1.1399621199565368
1.08931708336 0.0468841553022749 -0.2976470820597033 -1.2013394809196336 1.8711946292780992 2.0501102519512773 -0.5200228778509468 1.1399621199565368
1.08931708336 0.0468841553022749 -0.2976470820597033 -1.2013394809196336 1.8711946292780992 2.0501102519512773 -0.5200228778509468 1.1399621199565368
1.09951305389 0.0468841553022749 -0.2976470820597033 -1.2013394809196336 1.8711946292780992 2.0501102519512773 -0.5200228778509468 1.1399621199565368
1.09951305389 0.0468841553022749 -0.2976470820597033 -1.2013394809196336 1.8711946292780992 2.0501102519512773 -0.5200228778509468 1.1399621199565368
1.10975503922 0.0468841553022749 -0.2976470820597033 -1.2013394809196336 1.8711946292780992 2.0501102519512773 -0.5200228778509468 1.1399621199565368
1.10975503922 0.0468841553022749 -0.2976470820597033 -1.2013394809196336 1.8711946292780992 2.0501102519512773 -0.5200228778509468 1.1399621199565368
1.11924219131 0.0468841553022749 -0.2976470820597033 -1.2013394809196336 1.8711946292780992 2.0501102519512773 -0.5200228778509468 1.1399621199565368
1.11924219131 0.0468841553022749 -0.2976470820597033 -1.2013394809196336 1.8711946292780992 2.0501102519512773 -0.5200228778509468 1.1399621199565368
1.12939119339 0.0468841553022749 -0.2976470820597033 -1.2013394809196336 1.8711946292780992 2.0501102519512773 -0.5200228778509468 1.1399621199565368
1.12939119339 0.0468841553022749 -0.2976470820597033 -1.2013394809196336 1.8711946292780992 2.0501102519512773 -0.5200228778509468 1.1399621199565368
1.13952803612 0.0468841553022749 -0.2976470820597033 -1.2013394809196336 1.8711946292780992 2.0501102519512773 -0.5200228778509468 1.1399621199565368
1.13952803612 0.0468841553022749 -0.2976470820597033 -1.2013394809196336 1.8711946292780992 2.0501102519512773 -0.5200228778509468 1.1399621199565368
1.1494011879 0.0468841553022749 -0.2976470820597033 -1.2013394809196336 1.8711946292780992 2.0501102519512773 -0.5200228778509468 1.1399621199565368
1.1494011879 0.0468841553022749 -0.2976470820597033 -1.2013394809196336 1.8711946292780992 2.0501102519512773 -0.5200228778509468 1.1399621199565368
1.15933418274 0.0468841553022749 -0.2976470820597033 -1.2013394809196336 1.8711946292780992 2.0501102519512773 -0.5200228778509468 1.1399621199565368
1.15933418274 0.0468841553022749 -0.2976470820597033 -1.2013394809196336 1.8711946292780992 2.0501102519512773 -0.5200228778509468 1.1399621199565368
1.16938400269 0.0468841553022749 -0.2976470820597033 -1.2013394809196336 1.8711946292780992 2.0501102519512773 -0.5200228778509468 1.1399621199565368
1.16938400269 0.0468841553022749 -0.2976470820597033 -1.2013394809196336 1.8711946292780992 2.0501102519512773 -0.5200228778509468 1.1399621199565368
1.17939209938 0.0468841553022749 -0.2976470820597033 -1.2013394809196336 1.8711946292780992 2.0501102519512773 -0.5200228778509468 1.1399621199565368
1.17939209938 0.0468841553022749 -0.2976470820597033 -1.2013394809196336 1.8711946292780992 2.0501102519512773 -0.5200228778509468 1.1399621199565368
1.18941807747 0.0468841553022749 -0.2976470820597033 -1.2013394809196336 1.8711946292780992 2.0501102519512773 -0.5200228778509468 1.1399621199565368
1.18941807747 0.0468841553022749 -0.2976470820597033 -1.2013394809196336 1.8711946292780992 2.0501102519512773 -0.5200228778509468 1.1399621199565368
1.19960713387 0.0468841553022749 -0.2976470820597033 -1.2013394809196336 1.8711946292780992 2.0501102519512773 -0.5200228778509468 1.1399621199565368
1.19960713387 0.0468841553022749 -0.2976470820597033 -1.2013394809196336 1.8711946292780992 2.0501102519512773 -0.5200228778509468 1.1399621199565368
1.20950698853 0.0468841553022749 -0.2976470820597033 -1.2013394809196336 1.8711946292780992 2.0501102519512773 -0.5200228778509468 1.1399621199565368
1.20950698853 0.0468841553022749 -0.2976470820597033 -1.2013394809196336 1.8711946292780992 2.0501102519512773 -0.5200228778509468 1.1399621199565368
1.21954298019 0.0468841553022749 -0.2976470820597033 -1.2013394809196336 1.8711946292780992 2.0501102519512773 -0.5200228778509468 1.1399621199565368
1.21954298019 0.0468841553022749 -0.2976470820597033 -1.2013394809196336 1.8711946292780992 2.0501102519512773 -0.5200228778509468 1.1399621199565368
1.22956299782 0.0468841553022749 -0.2976470820597033 -1.2013394809196336 1.8711946292780992 2.0501102519512773 -0.5200228778509468 1.1399621199565368
1.22956299782 0.0468841553022749 -0.2976470820597033 -1.2013394809196336 1.8711946292780992 2.0501102519512773 -0.5200228778509468 1.1399621199565368
1.23937797546 0.0468841553022749 -0.2976470820597033 -1.2013394809196336 1.8711946292780992 2.0501102519512773 -0.5200228778509468 1.1399621199565368
1.23937797546 0.0468841553022749 -0.2976470820597033 -1.2013394809196336 1.8711946292780992 2.0501102519512773 -0.5200228778509468 1.1399621199565368
1.24942111969 0.0468841553022749 -0.2976470820597033 -1.2013394809196336 1.8711946292780992 2.0501102519512773 -0.5200228778509468 1.1399621199565368
1.24942111969 0.0468841553022749 -0.2976470820597033 -1.2013394809196336 1.8711946292780992 2.0501102519512773 -0.5200228778509468 1.1399621199565368
1.25954914093 0.0468841553022749 -0.2976470820597033 -1.2013394809196336 1.8711946292780992 2.0501102519512773 -0.5200228778509468 1.1399621199565368
1.25954914093 0.0468841553022749 -0.2976470820597033 -1.2013394809196336 1.8711946292780992 2.0501102519512773 -0.5200228778509468 1.1399621199565368
1.26949596405 0.0468841553022749 -0.2976470820597033 -1.2013394809196336 1.8711946292780992 2.0501102519512773 -0.5200228778509468 1.1399621199565368
1.26949596405 0.0468841553022749 -0.2976470820597033 -1.2013394809196336 1.8711946292780992 2.0501102519512773 -0.5200228778509468 1.1399621199565368
1.2795779705 0.0468841553022749 -0.2976470820597033 -1.2013394809196336 1.8711946292780992 2.0501102519512773 -0.5200228778509468 1.1399621199565368
1.2795779705 0.0468841553022749 -0.2976470820597033 -1.2013394809196336 1.8711946292780992 2.0501102519512773 -0.5200228778509468 1.1399621199565368
1.28955006599 0.0468841553022749 -0.2976470820597033 -1.2013394809196336 1.8711946292780992 2.0501102519512773 -0.5200228778509468 1.1399621199565368
1.28955006599 0.0468841553022749 -0.2976470820597033 -1.2013394809196336 1.8711946292780992 2.0501102519512773 -0.5200228778509468 1.1399621199565368
1.29956197739 0.0468841553022749 -0.2976470820597033 -1.2013394809196336 1.8711946292780992 2.0501102519512773 -0.5200228778509468 1.1399621199565368
1.29956197739 0.0468841553022749 -0.2976470820597033 -1.2013394809196336 1.8711946292780992 2.0501102519512773 -0.5200228778509468 1.1399621199565368
1.30958914757 0.0468841553022749 -0.2976470820597033 -1.2013394809196336 1.8711946292780992 2.0501102519512773 -0.5200228778509468 1.1399621199565368
1.30958914757 0.0468841553022749 -0.2976470820597033 -1.2013394809196336 1.8711946292780992 2.0501102519512773 -0.5200228778509468 1.1399621199565368
1.31957507133 0.0468841553022749 -0.2976470820597033 -1.2013394809196336 1.8711946292780992 2.0501102519512773 -0.5200228778509468 1.1399621199565368
1.31957507133 0.0468841553022749 -0.2976470820597033 -1.2013394809196336 1.8711946292780992 2.0501102519512773 -0.5200228778509468 1.1399621199565368
1.32956600189 0.0468841553022749 -0.2976470820597033 -1.2013394809196336 1.8711946292780992 2.0501102519512773 -0.5200228778509468 1.1399621199565368
1.32956600189 0.0468841553022749 -0.2976470820597033 -1.2013394809196336 1.8711946292780992 2.0501102519512773 -0.5200228778509468 1.1399621199565368
1.33952307701 0.0468841553022749 -0.2976470820597033 -1.2013394809196336 1.8711946292780992 2.0501102519512773 -0.5200228778509468 1.1399621199565368
1.33952307701 0.0468841553022749 -0.2976470820597033 -1.2013394809196336 1.8711946292780992 2.0501102519512773 -0.5200228778509468 1.1399621199565368
1.34945106506 0.0468841553022749 -0.2976470820597033 -1.2013394809196336 1.8711946292780992 2.0501102519512773 -0.5200228778509468 1.1399621199565368
1.34945106506 0.0468841553022749 -0.2976470820597033 -1.2013394809196336 1.8711946292780992 2.0501102519512773 -0.5200228778509468 1.1399621199565368
1.35951209068 0.0468841553022749 -0.2976470820597033 -1.2013394809196336 1.8711946292780992 2.0501102519512773 -0.5200228778509468 1.1399621199565368
1.35951209068 0.0468841553022749 -0.2976470820597033 -1.2013394809196336 1.8711946292780992 2.0501102519512773 -0.5200228778509468 1.1399621199565368
1.3693561554 0.0468841553022749 -0.2976470820597033 -1.2013394809196336 1.8711946292780992 2.0501102519512773 -0.5200228778509468 1.1399621199565368
1.3693561554 0.0468841553022749 -0.2976470820597033 -1.2013394809196336 1.8711946292780992 2.0501102519512773 -0.5200228778509468 1.1399621199565368
1.37946915627 0.0468841553022749 -0.2976470820597033 -1.2013394809196336 1.8711946292780992 2.0501102519512773 -0.5200228778509468 1.1399621199565368
1.37946915627 0.0468841553022749 -0.2976470820597033 -1.2013394809196336 1.8711946292780992 2.0501102519512773 -0.5200228778509468 1.1399621199565368
1.38916802406 0.0468841553022749 -0.2976470820597033 -1.2012627808628755 1.8711946292780992 2.0501102519512773 -0.5200228778509468 1.1399621199565368
1.38916802406 0.0468841553022749 -0.2976470820597033 -1.2012627808628755 1.8711946292780992 2.0501102519512773 -0.5200228778509468 1.1399621199565368
1.39912199974 0.0468841553022749 -0.2976470820597033 -1.198900419114728 1.8710565691759344 2.0501102519512773 -0.5200228778509468 1.1399621199565368
1.39912199974 0.0468841553022749 -0.2976470820597033 -1.198900419114728 1.8710565691759344 2.0501102519512773 -0.5200228778509468 1.1399621199565368
1.40903019905 0.0468841553022749 -0.2976470820597033 -1.1977805982860603 1.8703662686651124 2.0501102519512773 -0.5200228778509468 1.1399621199565368
1.40903019905 0.0468841553022749 -0.2976470820597033 -1.1977805982860603 1.8703662686651124 2.0501102519512773 -0.5200228778509468 1.1399621199565368
1.41905713081 0.0468841553022749 -0.2976470820597033 -1.1977805982860603 1.8703662686651124 2.0501102519512773 -0.5200228778509468 1.1399621199565368
1.41905713081 0.0468841553022749 -0.2976470820597033 -1.1977805982860603 1.8703662686651124 2.0501102519512773 -0.5200228778509468 1.1399621199565368
1.429033041 0.0468841553022749 -0.2976470820597033 -1.1977805982860603 1.8703662686651124 2.0501102519512773 -0.5200228778509468 1.1399621199565368
1.429033041 0.0468841553022749 -0.2976470820597033 -1.1977805982860603 1.8703662686651124 2.0501102519512773 -0.5200228778509468 1.1399621199565368
1.43942308426 0.0468841553022749 -0.2976470820597033 -1.1977805982860603 1.8703662686651124 2.0501102519512773 -0.5200228778509468 1.1399621199565368
1.43942308426 0.0468841553022749 -0.2976470820597033 -1.1977805982860603 1.8703662686651124 2.0501102519512773 -0.5200228778509468 1.1399621199565368
1.44945812225 0.0468841553022749 -0.2976470820597033 -1.1977805982860603 1.8703662686651124 2.0501102519512773 -0.5200228778509468 1.1399621199565368
1.44945812225 0.0468841553022749 -0.2976470820597033 -1.1977805982860603 1.8703662686651124 2.0501102519512773 -0.5200228778509468 1.1399621199565368
1.45949411392 0.0468841553022749 -0.2976470820597033 -1.1977805982860603 1.8703662686651124 2.0501102519512773 -0.5200228778509468 1.1399621199565368
1.45949411392 0.0468841553022749 -0.2976470820597033 -1.1977805982860603 1.8703662686651124 2.0501102519512773 -0.5200228778509468 1.1399621199565368
1.4694890976 0.0468841553022749 -0.2976470820597033 -1.1977805982860603 1.8703662686651124 2.0501102519512773 -0.5200228778509468 1.1399621199565368
1.4694890976 0.0468841553022749 -0.2976470820597033 -1.1977805982860603 1.8703662686651124 2.0501102519512773 -0.5200228778509468 1.1399621199565368
1.47936010361 0.0468841553022749 -0.2976470820597033 -1.1977805982860603 1.8703662686651124 2.0501102519512773 -0.5200228778509468 1.1399621199565368
1.47936010361 0.0468841553022749 -0.2976470820597033 -1.1977805982860603 1.8703662686651124 2.0501102519512773 -0.5200228778509468 1.1399621199565368
1.48951005936 0.0468841553022749 -0.2976470820597033 -1.1977805982860603 1.8703662686651124 2.0501102519512773 -0.5200228778509468 1.1399621199565368
1.48951005936 0.0468841553022749 -0.2976470820597033 -1.1977805982860603 1.8703662686651124 2.0501102519512773 -0.5200228778509468 1.1399621199565368
1.49935317039 0.0468841553022749 -0.2976470820597033 -1.1977805982860603 1.8703662686651124 2.0501102519512773 -0.5200228778509468 1.1399621199565368
1.49935317039 0.0468841553022749 -0.2976470820597033 -1.1977805982860603 1.8703662686651124 2.0501102519512773 -0.5200228778509468 1.1399621199565368
1.50947904587 0.0468841553022749 -0.2976470820597033 -1.1977805982860603 1.8703662686651124 2.0501102519512773 -0.5200228778509468 1.1399621199565368
1.50947904587 0.0468841553022749 -0.2976470820597033 -1.1977805982860603 1.8703662686651124 2.0501102519512773 -0.5200228778509468 1.1399621199565368
1.51949810982 0.0468841553022749 -0.2976470820597033 -1.1977805982860603 1.8703662686651124 2.0501102519512773 -0.5200228778509468 1.1399621199565368
1.51949810982 0.0468841553022749 -0.2976470820597033 -1.1977805982860603 1.8703662686651124 2.0501102519512773 -0.5200228778509468 1.1399621199565368
1.52949404716 0.0468841553022749 -0.2976470820597033 -1.1977805982860603 1.8703662686651124 2.0501102519512773 -0.5200228778509468 1.1399621199565368
1.52949404716 0.0468841553022749 -0.2976470820597033 -1.1977805982860603 1.8703662686651124 2.0501102519512773 -0.5200228778509468 1.1399621199565368
1.53952598572 0.0468841553022749 -0.2976470820597033 -1.1977805982860603 1.8703662686651124 2.0501102519512773 -0.5200228778509468 1.1399621199565368
1.53952598572 0.0468841553022749 -0.2976470820597033 -1.1977805982860603 1.8703662686651124 2.0501102519512773 -0.5200228778509468 1.1399621199565368
1.54931902885 0.0468841553022749 -0.2976470820597033 -1.1977805982860603 1.8703662686651124 2.0501102519512773 -0.5200228778509468 1.1399621199565368
1.54931902885 0.0468841553022749 -0.2976470820597033 -1.1977805982860603 1.8703662686651124 2.0501102519512773 -0.5200228778509468 1.1399621199565368
1.55952310562 0.0468841553022749 -0.2976470820597033 -1.1977805982860603 1.8703662686651124 2.0501102519512773 -0.5200228778509468 1.1399621199565368
1.55952310562 0.0468841553022749 -0.2976470820597033 -1.1977805982860603 1.8703662686651124 2.0501102519512773 -0.5200228778509468 1.1399621199565368
1.56950902939 0.0468841553022749 -0.2976470820597033 -1.1977805982860603 1.8703662686651124 2.0501102519512773 -0.5200228778509468 1.1399621199565368
1.56950902939 0.0468841553022749 -0.2976470820597033 -1.1977805982860603 1.8703662686651124 2.0501102519512773 -0.5200228778509468 1.1399621199565368
1.57930707932 0.0468841553022749 -0.2976470820597033 -1.1977805982860603 1.8703662686651124 2.0501102519512773 -0.5200228778509468 1.1399621199565368
1.57930707932 0.0468841553022749 -0.2976470820597033 -1.1977805982860603 1.8703662686651124 2.0501102519512773 -0.5200228778509468 1.1399621199565368
1.58941102028 0.0468841553022749 -0.2976470820597033 -1.1977805982860603 1.8703662686651124 2.0501102519512773 -0.5200228778509468 1.1399621199565368
1.58941102028 0.0468841553022749 -0.2976470820597033 -1.1977805982860603 1.8703662686651124 2.0501102519512773 -0.5200228778509468 1.1399621199565368
1.59949398041 0.0468841553022749 -0.2976470820597033 -1.1977805982860603 1.8703662686651124 2.0501102519512773 -0.5200228778509468 1.1399621199565368
1.59949398041 0.0468841553022749 -0.2976470820597033 -1.1977805982860603 1.8703662686651124 2.0501102519512773 -0.5200228778509468 1.1399621199565368
1.60940599442 0.0468841553022749 -0.2976470820597033 -1.1977805982860603 1.8703662686651124 2.0501102519512773 -0.5200228778509468 1.1399621199565368
1.60940599442 0.0468841553022749 -0.2976470820597033 -1.1977805982860603 1.8703662686651124 2.0501102519512773 -0.5200228778509468 1.1399621199565368
1.61949300766 0.0468841553022749 -0.2976470820597033 -1.1977805982860603 1.8703662686651124 2.0501102519512773 -0.5200228778509468 1.1399621199565368
1.61949300766 0.0468841553022749 -0.2976470820597033 -1.1977805982860603 1.8703662686651124 2.0501102519512773 -0.5200228778509468 1.1399621199565368
1.62941813469 0.0468841553022749 -0.2976470820597033 -1.1977805982860603 1.8703662686651124 2.0501102519512773 -0.5200228778509468 1.1399621199565368
1.62941813469 0.0468841553022749 -0.2976470820597033 -1.1977805982860603 1.8703662686651124 2.0501102519512773 -0.5200228778509468 1.1399621199565368
1.63944101334 0.0468841553022749 -0.2976470820597033 -1.1977805982860603 1.8703662686651124 2.0501102519512773 -0.5200228778509468 1.1399621199565368
1.63944101334 0.0468841553022749 -0.2976470820597033 -1.1977805982860603 1.8703662686651124 2.0501102519512773 -0.5200228778509468 1.1399621199565368
1.64947509766 0.0468841553022749 -0.2976470820597033 -1.1977805982860603 1.8703662686651124 2.0501102519512773 -0.5200228778509468 1.1399621199565368
1.64947509766 0.0468841553022749 -0.2976470820597033 -1.1977805982860603 1.8703662686651124 2.0501102519512773 -0.5200228778509468 1.1399621199565368
1.65938615799 0.0468841553022749 -0.2976470820597033 -1.1973970980022703 1.869660628142938 2.0501102519512773 -0.5200228778509468 1.1399621199565368
1.65938615799 0.0468841553022749 -0.2976470820597033 -1.1973970980022703 1.869660628142938 2.0501102519512773 -0.5200228778509468 1.1399621199565368
1.669080019 0.0468841553022749 -0.2976470820597033 -1.1973970980022703 1.869660628142938 2.0501102519512773 -0.5200228778509468 1.1399621199565368
1.669080019 0.0468841553022749 -0.2976470820597033 -1.1973970980022703 1.869660628142938 2.0501102519512773 -0.5200228778509468 1.1399621199565368
1.67945408821 0.0468841553022749 -0.2976470820597033 -1.1973970980022703 1.869660628142938 2.0501102519512773 -0.5200228778509468 1.1399621199565368
1.67945408821 0.0468841553022749 -0.2976470820597033 -1.1973970980022703 1.869660628142938 2.0501102519512773 -0.5200228778509468 1.1399621199565368
1.68909311295 0.0468841553022749 -0.297616402037 -1.197412438013622 1.869660628142938 2.0501102519512773 -0.5200228778509468 1.1399621199565368
1.68909311295 0.0468841553022749 -0.297616402037 -1.197412438013622 1.869660628142938 2.0501102519512773 -0.5200228778509468 1.1399621199565368
1.69911909103 0.0468841553022749 -0.297616402037 -1.197412438013622 1.869660628142938 2.0501102519512773 -0.5200228778509468 1.1399621199565368
1.69911909103 0.0468841553022749 -0.297616402037 -1.197412438013622 1.869660628142938 2.0501102519512773 -0.5200228778509468 1.1399621199565368
1.70927119255 0.0468841553022749 -0.297616402037 -1.197412438013622 1.869660628142938 2.0501102519512773 -0.5200228778509468 1.1399621199565368
1.70927119255 0.0468841553022749 -0.297616402037 -1.197412438013622 1.869660628142938 2.0501102519512773 -0.5200228778509468 1.1399621199565368
1.71932005882 0.0468841553022749 -0.2973556218440228 -1.1974584580476766 1.869660628142938 2.0501102519512773 -0.5200228778509468 1.1399621199565368
1.71932005882 0.0468841553022749 -0.2973556218440228 -1.1974584580476766 1.869660628142938 2.0501102519512773 -0.5200228778509468 1.1399621199565368
1.72935414314 0.0468841553022749 -0.2973556218440228 -1.1974584580476766 1.869660628142938 2.0501102519512773 -0.5200228778509468 1.1399621199565368
1.72935414314 0.0468841553022749 -0.2973556218440228 -1.1974584580476766 1.869660628142938 2.0501102519512773 -0.5200228778509468 1.1399621199565368
1.73943519592 0.0468841553022749 -0.2973556218440228 -1.1974584580476766 1.869660628142938 2.0501102519512773 -0.5200228778509468 1.1399621199565368
1.73943519592 0.0468841553022749 -0.2973556218440228 -1.1974584580476766 1.869660628142938 2.0501102519512773 -0.5200228778509468 1.1399621199565368
1.74907302856 0.0468841553022749 -0.2924007981774533 -1.1974584580476766 1.869706648176993 2.0501102519512773 -0.5200228778509468 1.1399621199565368
1.74907302856 0.0468841553022749 -0.2924007981774533 -1.1974584580476766 1.869706648176993 2.0501102519512773 -0.5200228778509468 1.1399621199565368
1.75929903984 0.0468841553022749 -0.2924007981774533 -1.1974584580476766 1.869706648176993 2.0501102519512773 -0.5200228778509468 1.1399621199565368
1.75929903984 0.0468841553022749 -0.2924007981774533 -1.1974584580476766 1.869706648176993 2.0501102519512773 -0.5200228778509468 1.1399621199565368
1.76907515526 0.0468841553022749 -0.2906980569174247 -1.1974584580476766 1.8697219881883445 2.0501102519512773 -0.5200228778509468 1.1399621199565368
1.76907515526 0.0468841553022749 -0.2906980569174247 -1.1974584580476766 1.8697219881883445 2.0501102519512773 -0.5200228778509468 1.1399621199565368
1.77942609787 0.0468841553022749 -0.2906980569174247 -1.1974584580476766 1.8697219881883445 2.0501102519512773 -0.5200228778509468 1.1399621199565368
1.77942609787 0.0468841553022749 -0.2906980569174247 -1.1974584580476766 1.8697219881883445 2.0501102519512773 -0.5200228778509468 1.1399621199565368
1.78936004639 0.0468994953136265 -0.2861574135573486 -1.1976271981725444 1.8703202486310573 2.0501102519512773 -0.5200228778509468 1.1399621199565368
1.78936004639 0.0468994953136265 -0.2861574135573486 -1.1976271981725444 1.8703202486310573 2.0501102519512773 -0.5200228778509468 1.1399621199565368
1.79954719543 0.0469761953704 -0.280098109073 -1.1976578782 1.87116394926 2.05011025195 -0.520022877851 1.13996211996
1.79954719543 0.0469761953703846 -0.2800981090734633 -1.1976578781952476 1.871163949255396 2.0501102519512773 -0.5200228778509468 1.1399621199565368
1.80906701088 0.0469761953703846 -0.2800981090734633 -1.1976578781952476 1.871163949255396 2.0501102519512773 -0.5200228778509468 1.1399621199565368
1.80906701088 0.0469761953703846 -0.2800981090734633 -1.1976578781952476 1.871163949255396 2.0501102519512773 -0.5200228778509468 1.1399621199565368
1.81920003891 0.0469761953703846 -0.2800981090734633 -1.1976578781952476 1.871163949255396 2.0501102519512773 -0.5200228778509468 1.1399621199565368
1.81920003891 0.0469761953703846 -0.2800981090734633 -1.1976578781952476 1.871163949255396 2.0501102519512773 -0.5200228778509468 1.1399621199565368
1.82926011086 0.0469761953703846 -0.2800981090734633 -1.1976578781952476 1.871163949255396 2.0501102519512773 -0.5200228778509468 1.1399621199565368
1.82926011086 0.0469761953703846 -0.2800981090734633 -1.1976578781952476 1.871163949255396 2.0501102519512773 -0.5200228778509468 1.1399621199565368
1.83942604065 0.0469761953703846 -0.2800981090734633 -1.1976578781952476 1.871163949255396 2.0501102519512773 -0.5200228778509468 1.1399621199565368
1.83942604065 0.0469761953703846 -0.2800981090734633 -1.1976578781952476 1.871163949255396 2.0501102519512773 -0.5200228778509468 1.1399621199565368
1.84945011139 0.0469761953703846 -0.2800981090734633 -1.1976578781952476 1.871163949255396 2.0501102519512773 -0.5200228778509468 1.1399621199565368
1.84945011139 0.0469761953703846 -0.2800981090734633 -1.1976578781952476 1.871163949255396 2.0501102519512773 -0.5200228778509468 1.1399621199565368
1.85932517052 0.0470528954271424 -0.2767693266101643 -1.1976885582179508 1.8716548296186477 2.0501102519512773 -0.5200228778509468 1.1399621199565368
1.85932517052 0.0470528954271424 -0.2767693266101643 -1.1976885582179508 1.8716548296186477 2.0501102519512773 -0.5200228778509468 1.1399621199565368
1.86936903 0.0470528954271424 -0.2767693266101643 -1.1976885582179508 1.8716548296186477 2.0501102519512773 -0.5200228778509468 1.1399621199565368
1.86936903 0.0470528954271424 -0.2767693266101643 -1.1976885582179508 1.8716548296186477 2.0501102519512773 -0.5200228778509468 1.1399621199565368
1.87946414948 0.0470528954271424 -0.2767693266101643 -1.1976885582179508 1.8716548296186477 2.0501102519512773 -0.5200228778509468 1.1399621199565368
1.87946414948 0.0470528954271424 -0.2767693266101643 -1.1976885582179508 1.8716548296186477 2.0501102519512773 -0.5200228778509468 1.1399621199565368
1.88927912712 0.0470528954271424 -0.2731490839311847 -1.1977345782520057 1.8718849297889213 2.0501102519512773 -0.5200228778509468 1.1399621199565368
1.88927912712 0.0470528954271424 -0.2731490839311847 -1.1977345782520057 1.8718849297889213 2.0501102519512773 -0.5200228778509468 1.1399621199565368
1.89947605133 0.0470528954271424 -0.2731490839311847 -1.1977345782520057 1.8718849297889213 2.0501102519512773 -0.5200228778509468 1.1399621199565368
1.89947605133 0.0470528954271424 -0.2731490839311847 -1.1977345782520057 1.8718849297889213 2.0501102519512773 -0.5200228778509468 1.1399621199565368
1.90928196907 0.0470528954271424 -0.2731490839311847 -1.1977345782520057 1.8718849297889213 2.0501102519512773 -0.5200228778509468 1.1399621199565368
1.90928196907 0.0470528954271424 -0.2731490839311847 -1.1977345782520057 1.8718849297889213 2.0501102519512773 -0.5200228778509468 1.1399621199565368
1.9192609787 0.0470528954271424 -0.2731490839311847 -1.1977345782520057 1.8718849297889213 2.0501102519512773 -0.5200228778509468 1.1399621199565368
1.9192609787 0.0470528954271424 -0.2731490839311847 -1.1977345782520057 1.8718849297889213 2.0501102519512773 -0.5200228778509468 1.1399621199565368
1.92928910255 0.0470528954271424 -0.2731490839311847 -1.1977345782520057 1.8718849297889213 2.0501102519512773 -0.5200228778509468 1.1399621199565368
1.92928910255 0.0470528954271424 -0.2731490839311847 -1.1977345782520057 1.8718849297889213 2.0501102519512773 -0.5200228778509468 1.1399621199565368
1.93950104713 0.0470528954271424 -0.2731490839311847 -1.1977345782520057 1.8718849297889213 2.0501102519512773 -0.5200228778509468 1.1399621199565368
1.93950104713 0.0470528954271424 -0.2731490839311847 -1.1977345782520057 1.8718849297889213 2.0501102519512773 -0.5200228778509468 1.1399621199565368
1.94939804077 0.0470528954271424 -0.2731490839311847 -1.1977345782520057 1.8718849297889213 2.0501102519512773 -0.5200228778509468 1.1399621199565368
1.94939804077 0.0470528954271424 -0.2731490839311847 -1.1977345782520057 1.8718849297889213 2.0501102519512773 -0.5200228778509468 1.1399621199565368
1.95946907997 0.0470528954271424 -0.2731490839311847 -1.1977345782520057 1.8718849297889213 2.0501102519512773 -0.5200228778509468 1.1399621199565368
1.95946907997 0.0470528954271424 -0.2731490839311847 -1.1977345782520057 1.8718849297889213 2.0501102519512773 -0.5200228778509468 1.1399621199565368
1.96948003769 0.0470528954271424 -0.2731490839311847 -1.1977345782520057 1.8718849297889213 2.0501102519512773 -0.5200228778509468 1.1399621199565368
1.96948003769 0.0470528954271424 -0.2731490839311847 -1.1977345782520057 1.8718849297889213 2.0501102519512773 -0.5200228778509468 1.1399621199565368
1.97928500175 0.0470528954271424 -0.2731490839311847 -1.1977345782520057 1.8718849297889213 2.0501102519512773 -0.5200228778509468 1.1399621199565368
1.97928500175 0.0470528954271424 -0.2731490839311847 -1.1977345782520057 1.8718849297889213 2.0501102519512773 -0.5200228778509468 1.1399621199565368
1.98937606812 0.0470528954271424 -0.2731490839311847 -1.1977345782520057 1.8718849297889213 2.0501102519512773 -0.5200228778509468 1.1399621199565368
1.98937606812 0.0470528954271424 -0.2731490839311847 -1.1977345782520057 1.8718849297889213 2.0501102519512773 -0.5200228778509468 1.1399621199565368
1.99947309494 0.0470528954271424 -0.2731490839311847 -1.1977345782520057 1.8718849297889213 2.0501102519512773 -0.5200228778509468 1.1399621199565368
1.99947309494 0.0470528954271424 -0.2731490839311847 -1.1977345782520057 1.8718849297889213 2.0501102519512773 -0.5200228778509468 1.1399621199565368
2.00939297676 0.0470528954271424 -0.2731490839311847 -1.1977345782520057 1.8718849297889213 2.0501102519512773 -0.5200228778509468 1.1399621199565368
2.00939297676 0.0470528954271424 -0.2731490839311847 -1.1977345782520057 1.8718849297889213 2.0501102519512773 -0.5200228778509468 1.1399621199565368
2.01936197281 0.0470528954271424 -0.2731490839311847 -1.1977345782520057 1.8718849297889213 2.0501102519512773 -0.5200228778509468 1.1399621199565368
2.01936197281 0.0470528954271424 -0.2731490839311847 -1.1977345782520057 1.8718849297889213 2.0501102519512773 -0.5200228778509468 1.1399621199565368
2.0293970108 0.0470528954271424 -0.2731490839311847 -1.1977345782520057 1.8718849297889213 2.0501102519512773 -0.5200228778509468 1.1399621199565368
2.0293970108 0.0470528954271424 -0.2731490839311847 -1.1977345782520057 1.8718849297889213 2.0501102519512773 -0.5200228778509468 1.1399621199565368
2.03939008713 0.0470528954271424 -0.2731490839311847 -1.1977345782520057 1.8718849297889213 2.0501102519512773 -0.5200228778509468 1.1399621199565368
2.03939008713 0.0470528954271424 -0.2731490839311847 -1.1977345782520057 1.8718849297889213 2.0501102519512773 -0.5200228778509468 1.1399621199565368
2.04941010475 0.0470528954271424 -0.2731490839311847 -1.1977345782520057 1.8718849297889213 2.0501102519512773 -0.5200228778509468 1.1399621199565368
2.04941010475 0.0470528954271424 -0.2731490839311847 -1.1977345782520057 1.8718849297889213 2.0501102519512773 -0.5200228778509468 1.1399621199565368
2.05947613716 0.0470528954271424 -0.2731490839311847 -1.1977345782520057 1.8718849297889213 2.0501102519512773 -0.5200228778509468 1.1399621199565368
2.05947613716 0.0470528954271424 -0.2731490839311847 -1.1977345782520057 1.8718849297889213 2.0501102519512773 -0.5200228778509468 1.1399621199565368
2.0695130825 0.0470528954271424 -0.2731490839311847 -1.1977345782520057 1.8718849297889213 2.0501102519512773 -0.5200228778509468 1.1399621199565368
2.0695130825 0.0470528954271424 -0.2731490839311847 -1.1977345782520057 1.8718849297889213 2.0501102519512773 -0.5200228778509468 1.1399621199565368
2.07953310013 0.0470528954271424 -0.2731490839311847 -1.1977345782520057 1.8718849297889213 2.0501102519512773 -0.5200228778509468 1.1399621199565368
2.07953310013 0.0470528954271424 -0.2731490839311847 -1.1977345782520057 1.8718849297889213 2.0501102519512773 -0.5200228778509468 1.1399621199565368
2.08944702148 0.0470528954271424 -0.2731490839311847 -1.1977345782520057 1.8718849297889213 2.0501102519512773 -0.5200228778509468 1.1399621199565368
2.08944702148 0.0470528954271424 -0.2731490839311847 -1.1977345782520057 1.8718849297889213 2.0501102519512773 -0.5200228778509468 1.1399621199565368
2.09942817688 0.0470528954271424 -0.2731490839311847 -1.1977345782520057 1.8718849297889213 2.0501102519512773 -0.5200228778509468 1.1399621199565368
2.09942817688 0.0470528954271424 -0.2731490839311847 -1.1977345782520057 1.8718849297889213 2.0501102519512773 -0.5200228778509468 1.1399621199565368
2.1094250679 0.0470528954271424 -0.2731490839311847 -1.1977345782520057 1.8718849297889213 2.0501102519512773 -0.5200228778509468 1.1399621199565368
2.1094250679 0.0470528954271424 -0.2731490839311847 -1.1977345782520057 1.8718849297889213 2.0501102519512773 -0.5200228778509468 1.1399621199565368
2.11947512627 0.0470528954271424 -0.2731490839311847 -1.1977345782520057 1.8718849297889213 2.0501102519512773 -0.5200228778509468 1.1399621199565368
2.11947512627 0.0470528954271424 -0.2731490839311847 -1.1977345782520057 1.8718849297889213 2.0501102519512773 -0.5200228778509468 1.1399621199565368
2.12936019897 0.0470528954271424 -0.2731490839311847 -1.1977345782520057 1.8718849297889213 2.0501102519512773 -0.5200228778509468 1.1399621199565368
2.12936019897 0.0470528954271424 -0.2731490839311847 -1.1977345782520057 1.8718849297889213 2.0501102519512773 -0.5200228778509468 1.1399621199565368
2.13954496384 0.0470528954271424 -0.2731490839311847 -1.1977345782520057 1.8718849297889213 2.0501102519512773 -0.5200228778509468 1.1399621199565368
2.13954496384 0.0470528954271424 -0.2731490839311847 -1.1977345782520057 1.8718849297889213 2.0501102519512773 -0.5200228778509468 1.1399621199565368
2.14950108528 0.0470528954271424 -0.2731490839311847 -1.1977345782520057 1.8718849297889213 2.0501102519512773 -0.5200228778509468 1.1399621199565368
2.14950108528 0.0470528954271424 -0.2731490839311847 -1.1977345782520057 1.8718849297889213 2.0501102519512773 -0.5200228778509468 1.1399621199565368
2.1596121788 0.0470528954271424 -0.2731490839311847 -1.1977345782520057 1.8718849297889213 2.0501102519512773 -0.5200228778509468 1.1399621199565368
2.1596121788 0.0470528954271424 -0.2731490839311847 -1.1977345782520057 1.8718849297889213 2.0501102519512773 -0.5200228778509468 1.1399621199565368
2.16950798035 0.0470528954271424 -0.2731490839311847 -1.1977345782520057 1.8718849297889213 2.0501102519512773 -0.5200228778509468 1.1399621199565368
2.16950798035 0.0470528954271424 -0.2731490839311847 -1.1977345782520057 1.8718849297889213 2.0501102519512773 -0.5200228778509468 1.1399621199565368
2.17951703072 0.0470528954271424 -0.2731490839311847 -1.1977345782520057 1.8718849297889213 2.0501102519512773 -0.5200228778509468 1.1399621199565368
2.17951703072 0.0470528954271424 -0.2731490839311847 -1.1977345782520057 1.8718849297889213 2.0501102519512773 -0.5200228778509468 1.1399621199565368
2.18955302238 0.0470528954271424 -0.2731490839311847 -1.1977345782520057 1.8718849297889213 2.0501102519512773 -0.5200228778509468 1.1399621199565368
2.18955302238 0.0470528954271424 -0.2731490839311847 -1.1977345782520057 1.8718849297889213 2.0501102519512773 -0.5200228778509468 1.1399621199565368
2.1993970871 0.0470528954271424 -0.2731490839311847 -1.1977345782520057 1.8718849297889213 2.0501102519512773 -0.5200228778509468 1.1399621199565368
2.1993970871 0.0470528954271424 -0.2731490839311847 -1.1977345782520057 1.8718849297889213 2.0501102519512773 -0.5200228778509468 1.1399621199565368
2.20919513702 0.0470528954271424 -0.2731490839311847 -1.1977345782520057 1.8718849297889213 2.0501102519512773 -0.5200228778509468 1.1399621199565368
2.20919513702 0.0470528954271424 -0.2731490839311847 -1.1977345782520057 1.8718849297889213 2.0501102519512773 -0.5200228778509468 1.1399621199565368
2.21932601929 0.0470528954271424 -0.2731490839311847 -1.1977345782520057 1.8718849297889213 2.0501102519512773 -0.5200228778509468 1.1399621199565368
2.21932601929 0.0470528954271424 -0.2731490839311847 -1.1977345782520057 1.8718849297889213 2.0501102519512773 -0.5200228778509468 1.1399621199565368
2.22940802574 0.0470528954271424 -0.2731490839311847 -1.1977345782520057 1.8718849297889213 2.0501102519512773 -0.5200228778509468 1.1399621199565368
2.22940802574 0.0470528954271424 -0.2731490839311847 -1.1977345782520057 1.8718849297889213 2.0501102519512773 -0.5200228778509468 1.1399621199565368
2.239331007 0.0470528954271424 -0.2731490839311847 -1.1977345782520057 1.8718849297889213 2.0501102519512773 -0.5200228778509468 1.1399621199565368
2.239331007 0.0470528954271424 -0.2731490839311847 -1.1977345782520057 1.8718849297889213 2.0501102519512773 -0.5200228778509468 1.1399621199565368
2.24940109253 0.0470528954271424 -0.2731490839311847 -1.1977345782520057 1.8718849297889213 2.0501102519512773 -0.5200228778509468 1.1399621199565368
2.24940109253 0.0470528954271424 -0.2731490839311847 -1.1977345782520057 1.8718849297889213 2.0501102519512773 -0.5200228778509468 1.1399621199565368
2.25941896439 0.0470528954271424 -0.2731490839311847 -1.1977345782520057 1.8718849297889213 2.0501102519512773 -0.5200228778509468 1.1399621199565368
2.25941896439 0.0470528954271424 -0.2731490839311847 -1.1977345782520057 1.8718849297889213 2.0501102519512773 -0.5200228778509468 1.1399621199565368
2.26926517487 0.0470528954271424 -0.2731490839311847 -1.1977345782520057 1.8718849297889213 2.0501102519512773 -0.5200228778509468 1.1399621199565368
2.26926517487 0.0470528954271424 -0.2731490839311847 -1.1977345782520057 1.8718849297889213 2.0501102519512773 -0.5200228778509468 1.1399621199565368
2.27938699722 0.0470528954271424 -0.2731490839311847 -1.1977345782520057 1.8718849297889213 2.0501102519512773 -0.5200228778509468 1.1399621199565368
2.27938699722 0.0470528954271424 -0.2731490839311847 -1.1977345782520057 1.8718849297889213 2.0501102519512773 -0.5200228778509468 1.1399621199565368
2.28935003281 0.0470528954271424 -0.2731490839311847 -1.1977345782520057 1.8718849297889213 2.0501102519512773 -0.5200228778509468 1.1399621199565368
2.28935003281 0.0470528954271424 -0.2731490839311847 -1.1977345782520057 1.8718849297889213 2.0501102519512773 -0.5200228778509468 1.1399621199565368
2.29947304726 0.0470528954271424 -0.2731490839311847 -1.1977345782520057 1.8718849297889213 2.0501102519512773 -0.5200228778509468 1.1399621199565368
2.29947304726 0.0470528954271424 -0.2731490839311847 -1.1977345782520057 1.8718849297889213 2.0501102519512773 -0.5200228778509468 1.1399621199565368
2.30941796303 0.0470528954271424 -0.2731490839311847 -1.1977345782520057 1.8718849297889213 2.0501102519512773 -0.5200228778509468 1.1399621199565368
2.30941796303 0.0470528954271424 -0.2731490839311847 -1.1977345782520057 1.8718849297889213 2.0501102519512773 -0.5200228778509468 1.1399621199565368
2.31949710846 0.0470528954271424 -0.2731490839311847 -1.1977345782520057 1.8718849297889213 2.0501102519512773 -0.5200228778509468 1.1399621199565368
2.31949710846 0.0470528954271424 -0.2731490839311847 -1.1977345782520057 1.8718849297889213 2.0501102519512773 -0.5200228778509468 1.1399621199565368
2.32940506935 0.0470528954271424 -0.2731490839311847 -1.1977345782520057 1.8718849297889213 2.0501102519512773 -0.5200228778509468 1.1399621199565368
2.32940506935 0.0470528954271424 -0.2731490839311847 -1.1977345782520057 1.8718849297889213 2.0501102519512773 -0.5200228778509468 1.1399621199565368
2.33950996399 0.0470528954271424 -0.2731490839311847 -1.1977345782520057 1.8718849297889213 2.0501102519512773 -0.5200228778509468 1.1399621199565368
2.33950996399 0.0470528954271424 -0.2731490839311847 -1.1977345782520057 1.8718849297889213 2.0501102519512773 -0.5200228778509468 1.1399621199565368
2.34941601753 0.0470528954271424 -0.2731490839311847 -1.1977345782520057 1.8718849297889213 2.0501102519512773 -0.5200228778509468 1.1399621199565368
2.34941601753 0.0470528954271424 -0.2731490839311847 -1.1977345782520057 1.8718849297889213 2.0501102519512773 -0.5200228778509468 1.1399621199565368
2.35939717293 0.0470528954271424 -0.2731490839311847 -1.1977345782520057 1.8718849297889213 2.0501102519512773 -0.5200228778509468 1.1399621199565368
2.35939717293 0.0470528954271424 -0.2731490839311847 -1.1977345782520057 1.8718849297889213 2.0501102519512773 -0.5200228778509468 1.1399621199565368
2.36926603317 0.0470528954271424 -0.2731490839311847 -1.1977345782520057 1.8718849297889213 2.0501102519512773 -0.5200228778509468 1.1399621199565368
2.36926603317 0.0470528954271424 -0.2731490839311847 -1.1977345782520057 1.8718849297889213 2.0501102519512773 -0.5200228778509468 1.1399621199565368
2.37949109077 0.0470528954271424 -0.2731490839311847 -1.1977345782520057 1.8718849297889213 2.0501102519512773 -0.5200228778509468 1.1399621199565368
2.37949109077 0.0470528954271424 -0.2731490839311847 -1.1977345782520057 1.8718849297889213 2.0501102519512773 -0.5200228778509468 1.1399621199565368
2.38941502571 0.0470528954271424 -0.2731490839311847 -1.1977345782520057 1.8718849297889213 2.0501102519512773 -0.5200228778509468 1.1399621199565368
2.38941502571 0.0470528954271424 -0.2731490839311847 -1.1977345782520057 1.8718849297889213 2.0501102519512773 -0.5200228778509468 1.1399621199565368
2.39935112 0.0470528954271424 -0.2731490839311847 -1.1977345782520057 1.8718849297889213 2.0501102519512773 -0.5200228778509468 1.1399621199565368
2.39935112 0.0470528954271424 -0.2731490839311847 -1.1977345782520057 1.8718849297889213 2.0501102519512773 -0.5200228778509468 1.1399621199565368
2.40940618515 0.0470528954271424 -0.2731490839311847 -1.1977345782520057 1.8718849297889213 2.0501102519512773 -0.5200228778509468 1.1399621199565368
2.40940618515 0.0470528954271424 -0.2731490839311847 -1.1977345782520057 1.8718849297889213 2.0501102519512773 -0.5200228778509468 1.1399621199565368
2.41925501823 0.0470528954271424 -0.2731490839311847 -1.1977345782520057 1.8718849297889213 2.0501102519512773 -0.5200228778509468 1.1399621199565368
2.41925501823 0.0470528954271424 -0.2731490839311847 -1.1977345782520057 1.8718849297889213 2.0501102519512773 -0.5200228778509468 1.1399621199565368
2.42936611176 0.0470528954271424 -0.2731490839311847 -1.1977345782520057 1.8718849297889213 2.0501102519512773 -0.5200228778509468 1.1399621199565368
2.42936611176 0.0470528954271424 -0.2731490839311847 -1.1977345782520057 1.8718849297889213 2.0501102519512773 -0.5200228778509468 1.1399621199565368
2.43936610222 0.0470528954271424 -0.2731490839311847 -1.1977345782520057 1.8718849297889213 2.0501102519512773 -0.5200228778509468 1.1399621199565368
2.43936610222 0.0470528954271424 -0.2731490839311847 -1.1977345782520057 1.8718849297889213 2.0501102519512773 -0.5200228778509468 1.1399621199565368
2.44933199883 0.0470528954271424 -0.2731490839311847 -1.1977345782520057 1.8718849297889213 2.0501102519512773 -0.5200228778509468 1.1399621199565368
2.44933199883 0.0470528954271424 -0.2731490839311847 -1.1977345782520057 1.8718849297889213 2.0501102519512773 -0.5200228778509468 1.1399621199565368
2.45933914185 0.0470528954271424 -0.2731490839311847 -1.1977345782520057 1.8718849297889213 2.0501102519512773 -0.5200228778509468 1.1399621199565368
2.45933914185 0.0470528954271424 -0.2731490839311847 -1.1977345782520057 1.8718849297889213 2.0501102519512773 -0.5200228778509468 1.1399621199565368
2.46941804886 0.0470528954271424 -0.2731490839311847 -1.1977345782520057 1.8718849297889213 2.0501102519512773 -0.5200228778509468 1.1399621199565368
2.46941804886 0.0470528954271424 -0.2731490839311847 -1.1977345782520057 1.8718849297889213 2.0501102519512773 -0.5200228778509468 1.1399621199565368
2.4795050621 0.0470528954271424 -0.2731490839311847 -1.1977345782520057 1.8718849297889213 2.0501102519512773 -0.5200228778509468 1.1399621199565368
2.4795050621 0.0470528954271424 -0.2731490839311847 -1.1977345782520057 1.8718849297889213 2.0501102519512773 -0.5200228778509468 1.1399621199565368
2.48949217796 0.0470528954271424 -0.2731490839311847 -1.1977345782520057 1.8718849297889213 2.0501102519512773 -0.5200228778509468 1.1399621199565368
2.48949217796 0.0470528954271424 -0.2731490839311847 -1.1977345782520057 1.8718849297889213 2.0501102519512773 -0.5200228778509468 1.1399621199565368
2.49952101707 0.0470528954271424 -0.2731490839311847 -1.1977345782520057 1.8718849297889213 2.0501102519512773 -0.5200228778509468 1.1399621199565368
2.49952101707 0.0470528954271424 -0.2731490839311847 -1.1977345782520057 1.8718849297889213 2.0501102519512773 -0.5200228778509468 1.1399621199565368
2.50930309296 0.0470528954271424 -0.2731490839311847 -1.1977345782520057 1.8718849297889213 2.0501102519512773 -0.5200228778509468 1.1399621199565368
2.50930309296 0.0470528954271424 -0.2731490839311847 -1.1977345782520057 1.8718849297889213 2.0501102519512773 -0.5200228778509468 1.1399621199565368
2.51949501038 0.0470528954271424 -0.2731490839311847 -1.1977345782520057 1.8718849297889213 2.0501102519512773 -0.5200228778509468 1.1399621199565368
2.51949501038 0.0470528954271424 -0.2731490839311847 -1.1977345782520057 1.8718849297889213 2.0501102519512773 -0.5200228778509468 1.1399621199565368
2.52949213982 0.0470528954271424 -0.2731490839311847 -1.1977345782520057 1.8718849297889213 2.0501102519512773 -0.5200228778509468 1.1399621199565368
2.52949213982 0.0470528954271424 -0.2731490839311847 -1.1977345782520057 1.8718849297889213 2.0501102519512773 -0.5200228778509468 1.1399621199565368
2.53932714462 0.0470528954271424 -0.2731490839311847 -1.1977345782520057 1.8718849297889213 2.0501102519512773 -0.5200228778509468 1.1399621199565368
2.53932714462 0.0470528954271424 -0.2731490839311847 -1.1977345782520057 1.8718849297889213 2.0501102519512773 -0.5200228778509468 1.1399621199565368
2.54948806763 0.0470528954271424 -0.2731490839311847 -1.1977345782520057 1.8718849297889213 2.0501102519512773 -0.5200228778509468 1.1399621199565368
2.54948806763 0.0470528954271424 -0.2731490839311847 -1.1977345782520057 1.8718849297889213 2.0501102519512773 -0.5200228778509468 1.1399621199565368
2.55936217308 0.0470528954271424 -0.2731490839311847 -1.1977345782520057 1.8718849297889213 2.0501102519512773 -0.5200228778509468 1.1399621199565368
2.55936217308 0.0470528954271424 -0.2731490839311847 -1.1977345782520057 1.8718849297889213 2.0501102519512773 -0.5200228778509468 1.1399621199565368
2.5694770813 0.0470528954271424 -0.2731490839311847 -1.1977345782520057 1.8718849297889213 2.0501102519512773 -0.5200228778509468 1.1399621199565368
2.5694770813 0.0470528954271424 -0.2731490839311847 -1.1977345782520057 1.8718849297889213 2.0501102519512773 -0.5200228778509468 1.1399621199565368
2.5792901516 0.0470528954271424 -0.2731490839311847 -1.1977345782520057 1.8718849297889213 2.0501102519512773 -0.5200228778509468 1.1399621199565368
2.5792901516 0.0470528954271424 -0.2731490839311847 -1.1977345782520057 1.8718849297889213 2.0501102519512773 -0.5200228778509468 1.1399621199565368
2.58948111534 0.0470528954271424 -0.2731490839311847 -1.1977345782520057 1.8718849297889213 2.0501102519512773 -0.5200228778509468 1.1399621199565368
2.58948111534 0.0470528954271424 -0.2731490839311847 -1.1977345782520057 1.8718849297889213 2.0501102519512773 -0.5200228778509468 1.1399621199565368
2.59950518608 0.0470528954271424 -0.2731490839311847 -1.1977345782520057 1.8718849297889213 2.0501102519512773 -0.5200228778509468 1.1399621199565368
2.59950518608 0.0470528954271424 -0.2731490839311847 -1.1977345782520057 1.8718849297889213 2.0501102519512773 -0.5200228778509468 1.1399621199565368
2.60942697525 0.0470528954271424 -0.2731490839311847 -1.1977345782520057 1.8718849297889213 2.0501102519512773 -0.5200228778509468 1.1399621199565368
2.60942697525 0.0470528954271424 -0.2731490839311847 -1.1977345782520057 1.8718849297889213 2.0501102519512773 -0.5200228778509468 1.1399621199565368
2.61950302124 0.0470528954271424 -0.2731490839311847 -1.1977345782520057 1.8718849297889213 2.0501102519512773 -0.5200228778509468 1.1399621199565368
2.61950302124 0.0470528954271424 -0.2731490839311847 -1.1977345782520057 1.8718849297889213 2.0501102519512773 -0.5200228778509468 1.1399621199565368
2.62951111794 0.0470528954271424 -0.2731490839311847 -1.1977345782520057 1.8718849297889213 2.0501102519512773 -0.5200228778509468 1.1399621199565368
2.62951111794 0.0470528954271424 -0.2731490839311847 -1.1977345782520057 1.8718849297889213 2.0501102519512773 -0.5200228778509468 1.1399621199565368
2.63949608803 0.0470528954271424 -0.2731490839311847 -1.1977345782520057 1.8718849297889213 2.0501102519512773 -0.5200228778509468 1.1399621199565368
2.63949608803 0.0470528954271424 -0.2731490839311847 -1.1977345782520057 1.8718849297889213 2.0501102519512773 -0.5200228778509468 1.1399621199565368
2.64941501617 0.0470528954271424 -0.2731490839311847 -1.1977345782520057 1.8718849297889213 2.0501102519512773 -0.5200228778509468 1.1399621199565368
2.64941501617 0.0470528954271424 -0.2731490839311847 -1.1977345782520057 1.8718849297889213 2.0501102519512773 -0.5200228778509468 1.1399621199565368
2.65953207016 0.0470528954271424 -0.2731490839311847 -1.1977345782520057 1.8718849297889213 2.0501102519512773 -0.5200228778509468 1.1399621199565368
2.65953207016 0.0470528954271424 -0.2731490839311847 -1.1977345782520057 1.8718849297889213 2.0501102519512773 -0.5200228778509468 1.1399621199565368
2.66911315918 0.0470528954271424 -0.2731490839311847 -1.1977345782520057 1.8718849297889213 2.0501102519512773 -0.5200228778509468 1.1399621199565368
2.66911315918 0.0470528954271424 -0.2731490839311847 -1.1977345782520057 1.8718849297889213 2.0501102519512773 -0.5200228778509468 1.1399621199565368
2.67927503586 0.0470528954271424 -0.2731490839311847 -1.1977345782520057 1.8718849297889213 2.0501102519512773 -0.5200228778509468 1.1399621199565368
2.67927503586 0.0470528954271424 -0.2731490839311847 -1.1977345782520057 1.8718849297889213 2.0501102519512773 -0.5200228778509468 1.1399621199565368
2.6893901825 0.0470528954271424 -0.2731490839311847 -1.1977345782520057 1.8718849297889213 2.0501102519512773 -0.5200228778509468 1.1399621199565368
2.6893901825 0.0470528954271424 -0.2731490839311847 -1.1977345782520057 1.8718849297889213 2.0501102519512773 -0.5200228778509468 1.1399621199565368
2.69937419891 0.0470528954271424 -0.2731490839311847 -1.1977345782520057 1.8718849297889213 2.0501102519512773 -0.5200228778509468 1.1399621199565368
2.69937419891 0.0470528954271424 -0.2731490839311847 -1.1977345782520057 1.8718849297889213 2.0501102519512773 -0.5200228778509468 1.1399621199565368
2.70940613747 0.0470528954271424 -0.2731490839311847 -1.1977345782520057 1.8718849297889213 2.0501102519512773 -0.5200228778509468 1.1399621199565368
2.70940613747 0.0470528954271424 -0.2731490839311847 -1.1977345782520057 1.8718849297889213 2.0501102519512773 -0.5200228778509468 1.1399621199565368
2.71940112114 0.0470528954271424 -0.2731490839311847 -1.1977345782520057 1.8718849297889213 2.0501102519512773 -0.5200228778509468 1.1399621199565368
2.71940112114 0.0470528954271424 -0.2731490839311847 -1.1977345782520057 1.8718849297889213 2.0501102519512773 -0.5200228778509468 1.1399621199565368
2.72939705849 0.0470528954271424 -0.2731490839311847 -1.1977345782520057 1.8718849297889213 2.0501102519512773 -0.5200228778509468 1.1399621199565368
2.72939705849 0.0470528954271424 -0.2731490839311847 -1.1977345782520057 1.8718849297889213 2.0501102519512773 -0.5200228778509468 1.1399621199565368
2.73952198029 0.0470528954271424 -0.2731490839311847 -1.1977345782520057 1.8718849297889213 2.0501102519512773 -0.5200228778509468 1.1399621199565368
2.73952198029 0.0470528954271424 -0.2731490839311847 -1.1977345782520057 1.8718849297889213 2.0501102519512773 -0.5200228778509468 1.1399621199565368
2.74945306778 0.0470528954271424 -0.2731490839311847 -1.1977345782520057 1.8718849297889213 2.0501102519512773 -0.5200228778509468 1.1399621199565368
2.74945306778 0.0470528954271424 -0.2731490839311847 -1.1977345782520057 1.8718849297889213 2.0501102519512773 -0.5200228778509468 1.1399621199565368
2.75954198837 0.0470528954271424 -0.2731490839311847 -1.1977345782520057 1.8718849297889213 2.0501102519512773 -0.5200228778509468 1.1399621199565368
2.75954198837 0.0470528954271424 -0.2731490839311847 -1.1977345782520057 1.8718849297889213 2.0501102519512773 -0.5200228778509468 1.1399621199565368
2.76942801476 0.0470528954271424 -0.2731490839311847 -1.1977345782520057 1.8718849297889213 2.0501102519512773 -0.5200228778509468 1.1399621199565368
2.76942801476 0.0470528954271424 -0.2731490839311847 -1.1977345782520057 1.8718849297889213 2.0501102519512773 -0.5200228778509468 1.1399621199565368
2.77933907509 0.0470528954271424 -0.2731490839311847 -1.1977345782520057 1.8718849297889213 2.0501102519512773 -0.5200228778509468 1.1399621199565368
2.77933907509 0.0470528954271424 -0.2731490839311847 -1.1977345782520057 1.8718849297889213 2.0501102519512773 -0.5200228778509468 1.1399621199565368
2.78948307037 0.0470528954271424 -0.2731490839311847 -1.1977345782520057 1.8718849297889213 2.0501102519512773 -0.5200228778509468 1.1399621199565368
2.78948307037 0.0470528954271424 -0.2731490839311847 -1.1977345782520057 1.8718849297889213 2.0501102519512773 -0.5200228778509468 1.1399621199565368
2.79937005043 0.0470528954271424 -0.2731490839311847 -1.1977345782520057 1.8718849297889213 2.0501102519512773 -0.5200228778509468 1.1399621199565368
2.79937005043 0.0470528954271424 -0.2731490839311847 -1.1977345782520057 1.8718849297889213 2.0501102519512773 -0.5200228778509468 1.1399621199565368
2.80949616432 0.0470528954271424 -0.2731490839311847 -1.1977345782520057 1.8718849297889213 2.0501102519512773 -0.5200228778509468 1.1399621199565368
2.80949616432 0.0470528954271424 -0.2731490839311847 -1.1977345782520057 1.8718849297889213 2.0501102519512773 -0.5200228778509468 1.1399621199565368
2.81951618195 0.0470528954271424 -0.2731490839311847 -1.1977345782520057 1.8718849297889213 2.0501102519512773 -0.5200228778509468 1.1399621199565368
2.81951618195 0.0470528954271424 -0.2731490839311847 -1.1977345782520057 1.8718849297889213 2.0501102519512773 -0.5200228778509468 1.1399621199565368
2.82929706573 0.0470528954271424 -0.2731490839311847 -1.1977345782520057 1.8718849297889213 2.0501102519512773 -0.5200228778509468 1.1399621199565368
2.82929706573 0.0470528954271424 -0.2731490839311847 -1.1977345782520057 1.8718849297889213 2.0501102519512773 -0.5200228778509468 1.1399621199565368
2.83945298195 0.0470528954271424 -0.2731490839311847 -1.1977345782520057 1.8718849297889213 2.0501102519512773 -0.5200228778509468 1.1399621199565368
2.83945298195 0.0470528954271424 -0.2731490839311847 -1.1977345782520057 1.8718849297889213 2.0501102519512773 -0.5200228778509468 1.1399621199565368
2.8493950367 0.0470528954271424 -0.2731490839311847 -1.1977345782520057 1.8718849297889213 2.0501102519512773 -0.5200228778509468 1.1399621199565368
2.8493950367 0.0470528954271424 -0.2731490839311847 -1.1977345782520057 1.8718849297889213 2.0501102519512773 -0.5200228778509468 1.1399621199565368
2.85950803757 0.0470528954271424 -0.2731490839311847 -1.1977345782520057 1.8718849297889213 2.0501102519512773 -0.5200228778509468 1.1399621199565368
2.85950803757 0.0470528954271424 -0.2731490839311847 -1.1977345782520057 1.8718849297889213 2.0501102519512773 -0.5200228778509468 1.1399621199565368
2.86950016022 0.0470528954271424 -0.2731490839311847 -1.1977345782520057 1.8718849297889213 2.0501102519512773 -0.5200228778509468 1.1399621199565368
2.86950016022 0.0470528954271424 -0.2731490839311847 -1.1977345782520057 1.8718849297889213 2.0501102519512773 -0.5200228778509468 1.1399621199565368
2.87942504883 0.0470528954271424 -0.2731490839311847 -1.1977345782520057 1.8718849297889213 2.0501102519512773 -0.5200228778509468 1.1399621199565368
2.87942504883 0.0470528954271424 -0.2731490839311847 -1.1977345782520057 1.8718849297889213 2.0501102519512773 -0.5200228778509468 1.1399621199565368
2.8895111084 0.0470528954271424 -0.2731490839311847 -1.1977345782520057 1.8718849297889213 2.0501102519512773 -0.5200228778509468 1.1399621199565368
2.8895111084 0.0470528954271424 -0.2731490839311847 -1.1977345782520057 1.8718849297889213 2.0501102519512773 -0.5200228778509468 1.1399621199565368
2.89947605133 0.0470528954271424 -0.2731490839311847 -1.1977345782520057 1.8718849297889213 2.0501102519512773 -0.5200228778509468 1.1399621199565368
2.89947605133 0.0470528954271424 -0.2731490839311847 -1.1977345782520057 1.8718849297889213 2.0501102519512773 -0.5200228778509468 1.1399621199565368
2.90939116478 0.0470528954271424 -0.2731490839311847 -1.1977345782520057 1.8718849297889213 2.0501102519512773 -0.5200228778509468 1.1399621199565368
2.90939116478 0.0470528954271424 -0.2731490839311847 -1.1977345782520057 1.8718849297889213 2.0501102519512773 -0.5200228778509468 1.1399621199565368
2.9194881916 0.0470528954271424 -0.2731490839311847 -1.1977345782520057 1.8718849297889213 2.0501102519512773 -0.5200228778509468 1.1399621199565368
2.9194881916 0.0470528954271424 -0.2731490839311847 -1.1977345782520057 1.8718849297889213 2.0501102519512773 -0.5200228778509468 1.1399621199565368
2.92948102951 0.0470528954271424 -0.2731490839311847 -1.1977345782520057 1.8718849297889213 2.0501102519512773 -0.5200228778509468 1.1399621199565368
2.92948102951 0.0470528954271424 -0.2731490839311847 -1.1977345782520057 1.8718849297889213 2.0501102519512773 -0.5200228778509468 1.1399621199565368
2.93940114975 0.0470528954271424 -0.2731490839311847 -1.1977345782520057 1.8718849297889213 2.0501102519512773 -0.5200228778509468 1.1399621199565368
2.93940114975 0.0470528954271424 -0.2731490839311847 -1.1977345782520057 1.8718849297889213 2.0501102519512773 -0.5200228778509468 1.1399621199565368
2.94941711426 0.0470528954271424 -0.2731490839311847 -1.1977345782520057 1.8718849297889213 2.0501102519512773 -0.5200228778509468 1.1399621199565368
2.94941711426 0.0470528954271424 -0.2731490839311847 -1.1977345782520057 1.8718849297889213 2.0501102519512773 -0.5200228778509468 1.1399621199565368
2.95949101448 0.0470528954271424 -0.2731490839311847 -1.1977345782520057 1.8718849297889213 2.0501102519512773 -0.5200228778509468 1.1399621199565368
2.95949101448 0.0470528954271424 -0.2731490839311847 -1.1977345782520057 1.8718849297889213 2.0501102519512773 -0.5200228778509468 1.1399621199565368
2.96953105927 0.0470528954271424 -0.2731490839311847 -1.1977345782520057 1.8718849297889213 2.0501102519512773 -0.5200228778509468 1.1399621199565368
2.96953105927 0.0470528954271424 -0.2731490839311847 -1.1977345782520057 1.8718849297889213 2.0501102519512773 -0.5200228778509468 1.1399621199565368
2.97950410843 0.0470528954271424 -0.2731490839311847 -1.1977345782520057 1.8718849297889213 2.0501102519512773 -0.5200228778509468 1.1399621199565368
2.97950410843 0.0470528954271424 -0.2731490839311847 -1.1977345782520057 1.8718849297889213 2.0501102519512773 -0.5200228778509468 1.1399621199565368
2.98944306374 0.0470528954271424 -0.2731490839311847 -1.1977345782520057 1.8718849297889213 2.0501102519512773 -0.5200228778509468 1.1399621199565368
2.98944306374 0.0470528954271424 -0.2731490839311847 -1.1977345782520057 1.8718849297889213 2.0501102519512773 -0.5200228778509468 1.1399621199565368
2.99946403503 0.0470528954271424 -0.2731490839311847 -1.1977345782520057 1.8718849297889213 2.0501102519512773 -0.5200228778509468 1.1399621199565368
2.99946403503 0.0470528954271424 -0.2731490839311847 -1.1977345782520057 1.8718849297889213 2.0501102519512773 -0.5200228778509468 1.1399621199565368
3.00944900513 0.0470528954271424 -0.2731490839311847 -1.1977345782520057 1.8718849297889213 2.0501102519512773 -0.5200228778509468 1.1399621199565368
3.00944900513 0.0470528954271424 -0.2731490839311847 -1.1977345782520057 1.8718849297889213 2.0501102519512773 -0.5200228778509468 1.1399621199565368
3.01950407028 0.0470528954271424 -0.2731490839311847 -1.1977345782520057 1.8718849297889213 2.0501102519512773 -0.5200228778509468 1.1399621199565368
3.01950407028 0.0470528954271424 -0.2731490839311847 -1.1977345782520057 1.8718849297889213 2.0501102519512773 -0.5200228778509468 1.1399621199565368
3.02937412262 0.0470528954271424 -0.2731490839311847 -1.1977345782520057 1.8718849297889213 2.0501102519512773 -0.5200228778509468 1.1399621199565368
3.02937412262 0.0470528954271424 -0.2731490839311847 -1.1977345782520057 1.8718849297889213 2.0501102519512773 -0.5200228778509468 1.1399621199565368
3.03951096535 0.0470528954271424 -0.2731490839311847 -1.1977345782520057 1.8718849297889213 2.0501102519512773 -0.5200228778509468 1.1399621199565368
3.03951096535 0.0470528954271424 -0.2731490839311847 -1.1977345782520057 1.8718849297889213 2.0501102519512773 -0.5200228778509468 1.1399621199565368
3.04930305481 0.0470528954271424 -0.2731490839311847 -1.1977345782520057 1.8718849297889213 2.0501102519512773 -0.5200228778509468 1.1399621199565368
3.04930305481 0.0470528954271424 -0.2731490839311847 -1.1977345782520057 1.8718849297889213 2.0501102519512773 -0.5200228778509468 1.1399621199565368
3.05957603455 0.0470528954271424 -0.2731490839311847 -1.1977345782520057 1.8718849297889213 2.0501102519512773 -0.5200228778509468 1.1399621199565368
3.05957603455 0.0470528954271424 -0.2731490839311847 -1.1977345782520057 1.8718849297889213 2.0501102519512773 -0.5200228778509468 1.1399621199565368
3.06940507889 0.0470528954271424 -0.2731490839311847 -1.1977345782520057 1.8718849297889213 2.0501102519512773 -0.5200228778509468 1.1399621199565368
3.06940507889 0.0470528954271424 -0.2731490839311847 -1.1977345782520057 1.8718849297889213 2.0501102519512773 -0.5200228778509468 1.1399621199565368
3.0794839859 0.0470528954271424 -0.2731490839311847 -1.1977345782520057 1.8718849297889213 2.0501102519512773 -0.5200228778509468 1.1399621199565368
3.0794839859 0.0470528954271424 -0.2731490839311847 -1.1977345782520057 1.8718849297889213 2.0501102519512773 -0.5200228778509468 1.1399621199565368
3.08944416046 0.0470528954271424 -0.2731490839311847 -1.1977345782520057 1.8718849297889213 2.0501102519512773 -0.5200228778509468 1.1399621199565368
3.08944416046 0.0470528954271424 -0.2731490839311847 -1.1977345782520057 1.8718849297889213 2.0501102519512773 -0.5200228778509468 1.1399621199565368
3.09939408302 0.0470528954271424 -0.2731490839311847 -1.1977345782520057 1.8718849297889213 2.0501102519512773 -0.5200228778509468 1.1399621199565368
3.09939408302 0.0470528954271424 -0.2731490839311847 -1.1977345782520057 1.8718849297889213 2.0501102519512773 -0.5200228778509468 1.1399621199565368
3.10925412178 0.0470528954271424 -0.2731490839311847 -1.1977345782520057 1.8718849297889213 2.0501102519512773 -0.5200228778509468 1.1399621199565368
3.10925412178 0.0470528954271424 -0.2731490839311847 -1.1977345782520057 1.8718849297889213 2.0501102519512773 -0.5200228778509468 1.1399621199565368
3.11946415901 0.0470528954271424 -0.2731490839311847 -1.1977345782520057 1.8718849297889213 2.0501102519512773 -0.5200228778509468 1.1399621199565368
3.11946415901 0.0470528954271424 -0.2731490839311847 -1.1977345782520057 1.8718849297889213 2.0501102519512773 -0.5200228778509468 1.1399621199565368
3.12936711311 0.0470528954271424 -0.2731490839311847 -1.1977345782520057 1.8718849297889213 2.0501102519512773 -0.5200228778509468 1.1399621199565368
3.12936711311 0.0470528954271424 -0.2731490839311847 -1.1977345782520057 1.8718849297889213 2.0501102519512773 -0.5200228778509468 1.1399621199565368
3.13945007324 0.0470528954271424 -0.2731490839311847 -1.1977345782520057 1.8718849297889213 2.0501102519512773 -0.5200228778509468 1.1399621199565368
3.13945007324 0.0470528954271424 -0.2731490839311847 -1.1977345782520057 1.8718849297889213 2.0501102519512773 -0.5200228778509468 1.1399621199565368
3.14939904213 0.0470528954271424 -0.2731490839311847 -1.1977345782520057 1.8718849297889213 2.0501102519512773 -0.5200228778509468 1.1399621199565368
3.14939904213 0.0470528954271424 -0.2731490839311847 -1.1977345782520057 1.8718849297889213 2.0501102519512773 -0.5200228778509468 1.1399621199565368
3.15931606293 0.0470528954271424 -0.2731490839311847 -1.1977345782520057 1.8718849297889213 2.0501102519512773 -0.5200228778509468 1.1399621199565368
3.15931606293 0.0470528954271424 -0.2731490839311847 -1.1977345782520057 1.8718849297889213 2.0501102519512773 -0.5200228778509468 1.1399621199565368
3.16938114166 0.0470528954271424 -0.2731490839311847 -1.1977345782520057 1.8718849297889213 2.0501102519512773 -0.5200228778509468 1.1399621199565368
3.16938114166 0.0470528954271424 -0.2731490839311847 -1.1977345782520057 1.8718849297889213 2.0501102519512773 -0.5200228778509468 1.1399621199565368
3.17947816849 0.0470528954271424 -0.2731490839311847 -1.1977345782520057 1.8718849297889213 2.0501102519512773 -0.5200228778509468 1.1399621199565368
3.17947816849 0.0470528954271424 -0.2731490839311847 -1.1977345782520057 1.8718849297889213 2.0501102519512773 -0.5200228778509468 1.1399621199565368
3.18932104111 0.0470528954271424 -0.2731490839311847 -1.1977345782520057 1.8718849297889213 2.0501102519512773 -0.5200228778509468 1.1399621199565368
3.18932104111 0.0470528954271424 -0.2731490839311847 -1.1977345782520057 1.8718849297889213 2.0501102519512773 -0.5200228778509468 1.1399621199565368
3.19949412346 0.0470528954271424 -0.2731490839311847 -1.1977345782520057 1.8718849297889213 2.0501102519512773 -0.5200228778509468 1.1399621199565368
3.19949412346 0.0470528954271424 -0.2731490839311847 -1.1977345782520057 1.8718849297889213 2.0501102519512773 -0.5200228778509468 1.1399621199565368
3.20943117142 0.0470528954271424 -0.2731490839311847 -1.1977345782520057 1.8718849297889213 2.0501102519512773 -0.5200228778509468 1.1399621199565368
3.20943117142 0.0470528954271424 -0.2731490839311847 -1.1977345782520057 1.8718849297889213 2.0501102519512773 -0.5200228778509468 1.1399621199565368
3.2194890976 0.0470528954271424 -0.2731490839311847 -1.1977345782520057 1.8718849297889213 2.0501102519512773 -0.5200228778509468 1.1399621199565368
3.2194890976 0.0470528954271424 -0.2731490839311847 -1.1977345782520057 1.8718849297889213 2.0501102519512773 -0.5200228778509468 1.1399621199565368
3.22949719429 0.0470528954271424 -0.2731490839311847 -1.1977345782520057 1.8718849297889213 2.0501102519512773 -0.5200228778509468 1.1399621199565368
3.22949719429 0.0470528954271424 -0.2731490839311847 -1.1977345782520057 1.8718849297889213 2.0501102519512773 -0.5200228778509468 1.1399621199565368
3.23950219154 0.0470528954271424 -0.2731490839311847 -1.1977345782520057 1.8718849297889213 2.0501102519512773 -0.5200228778509468 1.1399621199565368
3.23950219154 0.0470528954271424 -0.2731490839311847 -1.1977345782520057 1.8718849297889213 2.0501102519512773 -0.5200228778509468 1.1399621199565368
3.24940419197 0.0470528954271424 -0.2731490839311847 -1.1977345782520057 1.8718849297889213 2.0501102519512773 -0.5200228778509468 1.1399621199565368
3.24940419197 0.0470528954271424 -0.2731490839311847 -1.1977345782520057 1.8718849297889213 2.0501102519512773 -0.5200228778509468 1.1399621199565368
3.25951910019 0.0470528954271424 -0.2731490839311847 -1.1977345782520057 1.8718849297889213 2.0501102519512773 -0.5200228778509468 1.1399621199565368
3.25951910019 0.0470528954271424 -0.2731490839311847 -1.1977345782520057 1.8718849297889213 2.0501102519512773 -0.5200228778509468 1.1399621199565368
3.26941800117 0.0470528954271424 -0.2731490839311847 -1.1977345782520057 1.8718849297889213 2.0501102519512773 -0.5200228778509468 1.1399621199565368
3.26941800117 0.0470528954271424 -0.2731490839311847 -1.1977345782520057 1.8718849297889213 2.0501102519512773 -0.5200228778509468 1.1399621199565368
3.27950310707 0.0470528954271424 -0.2731490839311847 -1.1977345782520057 1.8718849297889213 2.0501102519512773 -0.5200228778509468 1.1399621199565368
3.27950310707 0.0470528954271424 -0.2731490839311847 -1.1977345782520057 1.8718849297889213 2.0501102519512773 -0.5200228778509468 1.1399621199565368
3.28939318657 0.0470528954271424 -0.2731490839311847 -1.1977345782520057 1.8718849297889213 2.0501102519512773 -0.5200228778509468 1.1399621199565368
3.28939318657 0.0470528954271424 -0.2731490839311847 -1.1977345782520057 1.8718849297889213 2.0501102519512773 -0.5200228778509468 1.1399621199565368
3.29948401451 0.0470528954271424 -0.2731490839311847 -1.1977345782520057 1.8718849297889213 2.0501102519512773 -0.5200228778509468 1.1399621199565368
3.29948401451 0.0470528954271424 -0.2731490839311847 -1.1977345782520057 1.8718849297889213 2.0501102519512773 -0.5200228778509468 1.1399621199565368
3.30945897102 0.0470528954271424 -0.2731490839311847 -1.1977345782520057 1.8718849297889213 2.0501102519512773 -0.5200228778509468 1.1399621199565368
3.30945897102 0.0470528954271424 -0.2731490839311847 -1.1977345782520057 1.8718849297889213 2.0501102519512773 -0.5200228778509468 1.1399621199565368
3.31942415237 0.0470528954271424 -0.2731490839311847 -1.1977345782520057 1.8718849297889213 2.0501102519512773 -0.5200228778509468 1.1399621199565368
3.31942415237 0.0470528954271424 -0.2731490839311847 -1.1977345782520057 1.8718849297889213 2.0501102519512773 -0.5200228778509468 1.1399621199565368
3.32924604416 0.0470528954271424 -0.2731490839311847 -1.1977345782520057 1.8718849297889213 2.0501102519512773 -0.5200228778509468 1.1399621199565368
3.32924604416 0.0470528954271424 -0.2731490839311847 -1.1977345782520057 1.8718849297889213 2.0501102519512773 -0.5200228778509468 1.1399621199565368
3.33944201469 0.0470528954271424 -0.2731490839311847 -1.1977345782520057 1.8718849297889213 2.0501102519512773 -0.5200228778509468 1.1399621199565368
3.33944201469 0.0470528954271424 -0.2731490839311847 -1.1977345782520057 1.8718849297889213 2.0501102519512773 -0.5200228778509468 1.1399621199565368
3.34941911697 0.0470528954271424 -0.2731490839311847 -1.1977345782520057 1.8718849297889213 2.0501102519512773 -0.5200228778509468 1.1399621199565368
3.34941911697 0.0470528954271424 -0.2731490839311847 -1.1977345782520057 1.8718849297889213 2.0501102519512773 -0.5200228778509468 1.1399621199565368
3.35950517654 0.0470528954271424 -0.2731490839311847 -1.1977345782520057 1.8718849297889213 2.0501102519512773 -0.5200228778509468 1.1399621199565368
3.35950517654 0.0470528954271424 -0.2731490839311847 -1.1977345782520057 1.8718849297889213 2.0501102519512773 -0.5200228778509468 1.1399621199565368
3.36955499649 0.0470528954271424 -0.2731490839311847 -1.1977345782520057 1.8718849297889213 2.0501102519512773 -0.5200228778509468 1.1399621199565368
3.36955499649 0.0470528954271424 -0.2731490839311847 -1.1977345782520057 1.8718849297889213 2.0501102519512773 -0.5200228778509468 1.1399621199565368
3.37935113907 0.0470528954271424 -0.2731490839311847 -1.1977345782520057 1.8718849297889213 2.0501102519512773 -0.5200228778509468 1.1399621199565368
3.37935113907 0.0470528954271424 -0.2731490839311847 -1.1977345782520057 1.8718849297889213 2.0501102519512773 -0.5200228778509468 1.1399621199565368
3.38948917389 0.0470528954271424 -0.2731490839311847 -1.1977345782520057 1.8718849297889213 2.0501102519512773 -0.5200228778509468 1.1399621199565368
3.38948917389 0.0470528954271424 -0.2731490839311847 -1.1977345782520057 1.8718849297889213 2.0501102519512773 -0.5200228778509468 1.1399621199565368
3.39952111244 0.0470528954271424 -0.2731490839311847 -1.1977345782520057 1.8718849297889213 2.0501102519512773 -0.5200228778509468 1.1399621199565368
3.39952111244 0.0470528954271424 -0.2731490839311847 -1.1977345782520057 1.8718849297889213 2.0501102519512773 -0.5200228778509468 1.1399621199565368
3.409304142 0.0470528954271424 -0.2731490839311847 -1.1977345782520057 1.8718849297889213 2.0501102519512773 -0.5200228778509468 1.1399621199565368
3.409304142 0.0470528954271424 -0.2731490839311847 -1.1977345782520057 1.8718849297889213 2.0501102519512773 -0.5200228778509468 1.1399621199565368
3.41948509216 0.0470528954271424 -0.2731490839311847 -1.1977345782520057 1.8718849297889213 2.0501102519512773 -0.5200228778509468 1.1399621199565368
3.41948509216 0.0470528954271424 -0.2731490839311847 -1.1977345782520057 1.8718849297889213 2.0501102519512773 -0.5200228778509468 1.1399621199565368
3.42936706543 0.0470528954271424 -0.2731490839311847 -1.1977345782520057 1.8718849297889213 2.0501102519512773 -0.5200228778509468 1.1399621199565368
3.42936706543 0.0470528954271424 -0.2731490839311847 -1.1977345782520057 1.8718849297889213 2.0501102519512773 -0.5200228778509468 1.1399621199565368
3.43948817253 0.0470528954271424 -0.2731490839311847 -1.1977345782520057 1.8718849297889213 2.0501102519512773 -0.5200228778509468 1.1399621199565368
3.43948817253 0.0470528954271424 -0.2731490839311847 -1.1977345782520057 1.8718849297889213 2.0501102519512773 -0.5200228778509468 1.1399621199565368
3.44928002357 0.0470528954271424 -0.2731490839311847 -1.1977345782520057 1.8718849297889213 2.0501102519512773 -0.5200228778509468 1.1399621199565368
3.44928002357 0.0470528954271424 -0.2731490839311847 -1.1977345782520057 1.8718849297889213 2.0501102519512773 -0.5200228778509468 1.1399621199565368
3.45943307877 0.0470528954271424 -0.2731490839311847 -1.1977345782520057 1.8718849297889213 2.0501102519512773 -0.5200228778509468 1.1399621199565368
3.45943307877 0.0470528954271424 -0.2731490839311847 -1.1977345782520057 1.8718849297889213 2.0501102519512773 -0.5200228778509468 1.1399621199565368
3.4694070816 0.0470528954271424 -0.2731490839311847 -1.1977345782520057 1.8718849297889213 2.0501102519512773 -0.5200228778509468 1.1399621199565368
3.4694070816 0.0470528954271424 -0.2731490839311847 -1.1977345782520057 1.8718849297889213 2.0501102519512773 -0.5200228778509468 1.1399621199565368
3.47939896584 0.0470528954271424 -0.2731490839311847 -1.1977345782520057 1.8718849297889213 2.0501102519512773 -0.5200228778509468 1.1399621199565368
3.47939896584 0.0470528954271424 -0.2731490839311847 -1.1977345782520057 1.8718849297889213 2.0501102519512773 -0.5200228778509468 1.1399621199565368
3.48949503899 0.0470528954271424 -0.2731490839311847 -1.1977345782520057 1.8718849297889213 2.0501102519512773 -0.5200228778509468 1.1399621199565368
3.48949503899 0.0470528954271424 -0.2731490839311847 -1.1977345782520057 1.8718849297889213 2.0501102519512773 -0.5200228778509468 1.1399621199565368
3.49930715561 0.0470528954271424 -0.2731490839311847 -1.1977345782520057 1.8718849297889213 2.0501102519512773 -0.5200228778509468 1.1399621199565368
3.49930715561 0.0470528954271424 -0.2731490839311847 -1.1977345782520057 1.8718849297889213 2.0501102519512773 -0.5200228778509468 1.1399621199565368
3.50940799713 0.0470528954271424 -0.2731490839311847 -1.1977345782520057 1.8718849297889213 2.0501102519512773 -0.5200228778509468 1.1399621199565368
3.50940799713 0.0470528954271424 -0.2731490839311847 -1.1977345782520057 1.8718849297889213 2.0501102519512773 -0.5200228778509468 1.1399621199565368
3.51952600479 0.0470528954271424 -0.2731490839311847 -1.1977345782520057 1.8718849297889213 2.0501102519512773 -0.5200228778509468 1.1399621199565368
3.51952600479 0.0470528954271424 -0.2731490839311847 -1.1977345782520057 1.8718849297889213 2.0501102519512773 -0.5200228778509468 1.1399621199565368
3.5293571949 0.0470528954271424 -0.2731490839311847 -1.1977345782520057 1.8718849297889213 2.0501102519512773 -0.5200228778509468 1.1399621199565368
3.5293571949 0.0470528954271424 -0.2731490839311847 -1.1977345782520057 1.8718849297889213 2.0501102519512773 -0.5200228778509468 1.1399621199565368
3.53931808472 0.0470528954271424 -0.2731490839311847 -1.1977345782520057 1.8718849297889213 2.0501102519512773 -0.5200228778509468 1.1399621199565368
3.53931808472 0.0470528954271424 -0.2731490839311847 -1.1977345782520057 1.8718849297889213 2.0501102519512773 -0.5200228778509468 1.1399621199565368
3.54947400093 0.0470528954271424 -0.2731490839311847 -1.1977345782520057 1.8718849297889213 2.0501102519512773 -0.5200228778509468 1.1399621199565368
3.54947400093 0.0470528954271424 -0.2731490839311847 -1.1977345782520057 1.8718849297889213 2.0501102519512773 -0.5200228778509468 1.1399621199565368
3.55951905251 0.0470528954271424 -0.2731490839311847 -1.1977345782520057 1.8718849297889213 2.0501102519512773 -0.5200228778509468 1.1399621199565368
3.55951905251 0.0470528954271424 -0.2731490839311847 -1.1977345782520057 1.8718849297889213 2.0501102519512773 -0.5200228778509468 1.1399621199565368
3.5694231987 0.0470528954271424 -0.2731490839311847 -1.1977345782520057 1.8718849297889213 2.0501102519512773 -0.5200228778509468 1.1399621199565368
3.5694231987 0.0470528954271424 -0.2731490839311847 -1.1977345782520057 1.8718849297889213 2.0501102519512773 -0.5200228778509468 1.1399621199565368
3.57948517799 0.0470528954271424 -0.2731490839311847 -1.1977345782520057 1.8718849297889213 2.0501102519512773 -0.5200228778509468 1.1399621199565368
3.57948517799 0.0470528954271424 -0.2731490839311847 -1.1977345782520057 1.8718849297889213 2.0501102519512773 -0.5200228778509468 1.1399621199565368
3.58949398994 0.0470528954271424 -0.2731490839311847 -1.1977345782520057 1.8718849297889213 2.0501102519512773 -0.5200228778509468 1.1399621199565368
3.58949398994 0.0470528954271424 -0.2731490839311847 -1.1977345782520057 1.8718849297889213 2.0501102519512773 -0.5200228778509468 1.1399621199565368
3.59950113297 0.0470528954271424 -0.2731490839311847 -1.1977345782520057 1.8718849297889213 2.0501102519512773 -0.5200228778509468 1.1399621199565368
3.59950113297 0.0470528954271424 -0.2731490839311847 -1.1977345782520057 1.8718849297889213 2.0501102519512773 -0.5200228778509468 1.1399621199565368
3.60940313339 0.0470528954271424 -0.2731490839311847 -1.1977345782520057 1.8718849297889213 2.0501102519512773 -0.5200228778509468 1.1399621199565368
3.60940313339 0.0470528954271424 -0.2731490839311847 -1.1977345782520057 1.8718849297889213 2.0501102519512773 -0.5200228778509468 1.1399621199565368
3.61949205399 0.0470528954271424 -0.2731490839311847 -1.1977345782520057 1.8718849297889213 2.0501102519512773 -0.5200228778509468 1.1399621199565368
3.61949205399 0.0470528954271424 -0.2731490839311847 -1.1977345782520057 1.8718849297889213 2.0501102519512773 -0.5200228778509468 1.1399621199565368
3.62938404083 0.0470528954271424 -0.2731490839311847 -1.1977345782520057 1.8718849297889213 2.0501102519512773 -0.5200228778509468 1.1399621199565368
3.62938404083 0.0470528954271424 -0.2731490839311847 -1.1977345782520057 1.8718849297889213 2.0501102519512773 -0.5200228778509468 1.1399621199565368
3.63951706886 0.0470528954271424 -0.2731490839311847 -1.1977345782520057 1.8718849297889213 2.0501102519512773 -0.5200228778509468 1.1399621199565368
3.63951706886 0.0470528954271424 -0.2731490839311847 -1.1977345782520057 1.8718849297889213 2.0501102519512773 -0.5200228778509468 1.1399621199565368
3.64949917793 0.0470528954271424 -0.2731490839311847 -1.1977345782520057 1.8718849297889213 2.0501102519512773 -0.5200228778509468 1.1399621199565368
3.64949917793 0.0470528954271424 -0.2731490839311847 -1.1977345782520057 1.8718849297889213 2.0501102519512773 -0.5200228778509468 1.1399621199565368
3.65946507454 0.0470528954271424 -0.2731490839311847 -1.1977345782520057 1.8718849297889213 2.0501102519512773 -0.5200228778509468 1.1399621199565368
3.65946507454 0.0470528954271424 -0.2731490839311847 -1.1977345782520057 1.8718849297889213 2.0501102519512773 -0.5200228778509468 1.1399621199565368
3.66928005219 0.0470528954271424 -0.2731490839311847 -1.1977345782520057 1.8718849297889213 2.0501102519512773 -0.5200228778509468 1.1399621199565368
3.66928005219 0.0470528954271424 -0.2731490839311847 -1.1977345782520057 1.8718849297889213 2.0501102519512773 -0.5200228778509468 1.1399621199565368
3.67945599556 0.0470528954271424 -0.2731490839311847 -1.1977345782520057 1.8718849297889213 2.0501102519512773 -0.5200228778509468 1.1399621199565368
3.67945599556 0.0470528954271424 -0.2731490839311847 -1.1977345782520057 1.8718849297889213 2.0501102519512773 -0.5200228778509468 1.1399621199565368
3.6893761158 0.0470528954271424 -0.2731490839311847 -1.1977345782520057 1.8718849297889213 2.0501102519512773 -0.5200228778509468 1.1399621199565368
3.6893761158 0.0470528954271424 -0.2731490839311847 -1.1977345782520057 1.8718849297889213 2.0501102519512773 -0.5200228778509468 1.1399621199565368
3.69946312904 0.0470528954271424 -0.2731490839311847 -1.1977345782520057 1.8718849297889213 2.0501102519512773 -0.5200228778509468 1.1399621199565368
3.69946312904 0.0470528954271424 -0.2731490839311847 -1.1977345782520057 1.8718849297889213 2.0501102519512773 -0.5200228778509468 1.1399621199565368
3.70941710472 0.0470528954271424 -0.2731490839311847 -1.1977345782520057 1.8718849297889213 2.0501102519512773 -0.5200228778509468 1.1399621199565368
3.70941710472 0.0470528954271424 -0.2731490839311847 -1.1977345782520057 1.8718849297889213 2.0501102519512773 -0.5200228778509468 1.1399621199565368
3.71946907043 0.0470528954271424 -0.2731490839311847 -1.1977345782520057 1.8718849297889213 2.0501102519512773 -0.5200228778509468 1.1399621199565368
3.71946907043 0.0470528954271424 -0.2731490839311847 -1.1977345782520057 1.8718849297889213 2.0501102519512773 -0.5200228778509468 1.1399621199565368
3.72941613197 0.0470528954271424 -0.2731490839311847 -1.1977345782520057 1.8718849297889213 2.0501102519512773 -0.5200228778509468 1.1399621199565368
3.72941613197 0.0470528954271424 -0.2731490839311847 -1.1977345782520057 1.8718849297889213 2.0501102519512773 -0.5200228778509468 1.1399621199565368
3.73951411247 0.0470528954271424 -0.2731490839311847 -1.1977345782520057 1.8718849297889213 2.0501102519512773 -0.5200228778509468 1.1399621199565368
3.73951411247 0.0470528954271424 -0.2731490839311847 -1.1977345782520057 1.8718849297889213 2.0501102519512773 -0.5200228778509468 1.1399621199565368
3.74933099747 0.0470528954271424 -0.2731490839311847 -1.1977345782520057 1.8718849297889213 2.0501102519512773 -0.5200228778509468 1.1399621199565368
3.74933099747 0.0470528954271424 -0.2731490839311847 -1.1977345782520057 1.8718849297889213 2.0501102519512773 -0.5200228778509468 1.1399621199565368
3.75935101509 0.0470528954271424 -0.2731490839311847 -1.1977345782520057 1.8718849297889213 2.0501102519512773 -0.5200228778509468 1.1399621199565368
3.75935101509 0.0470528954271424 -0.2731490839311847 -1.1977345782520057 1.8718849297889213 2.0501102519512773 -0.5200228778509468 1.1399621199565368
3.76939916611 0.0470528954271424 -0.2731490839311847 -1.1977345782520057 1.8718849297889213 2.0501102519512773 -0.5200228778509468 1.1399621199565368
3.76939916611 0.0470528954271424 -0.2731490839311847 -1.1977345782520057 1.8718849297889213 2.0501102519512773 -0.5200228778509468 1.1399621199565368
3.77931213379 0.0470528954271424 -0.2731490839311847 -1.1977345782520057 1.8718849297889213 2.0501102519512773 -0.5200228778509468 1.1399621199565368
3.77931213379 0.0470528954271424 -0.2731490839311847 -1.1977345782520057 1.8718849297889213 2.0501102519512773 -0.5200228778509468 1.1399621199565368
3.78941297531 0.0470528954271424 -0.2731490839311847 -1.1977345782520057 1.8718849297889213 2.0501102519512773 -0.5200228778509468 1.1399621199565368
3.78941297531 0.0470528954271424 -0.2731490839311847 -1.1977345782520057 1.8718849297889213 2.0501102519512773 -0.5200228778509468 1.1399621199565368
3.79950118065 0.0470528954271424 -0.2731490839311847 -1.1977345782520057 1.8718849297889213 2.0501102519512773 -0.5200228778509468 1.1399621199565368
3.79950118065 0.0470528954271424 -0.2731490839311847 -1.1977345782520057 1.8718849297889213 2.0501102519512773 -0.5200228778509468 1.1399621199565368
3.80930399895 0.0470528954271424 -0.2731490839311847 -1.1977345782520057 1.8718849297889213 2.0501102519512773 -0.5200228778509468 1.1399621199565368
3.80930399895 0.0470528954271424 -0.2731490839311847 -1.1977345782520057 1.8718849297889213 2.0501102519512773 -0.5200228778509468 1.1399621199565368
3.81950116158 0.0470528954271424 -0.2731490839311847 -1.1977345782520057 1.8718849297889213 2.0501102519512773 -0.5200228778509468 1.1399621199565368
3.81950116158 0.0470528954271424 -0.2731490839311847 -1.1977345782520057 1.8718849297889213 2.0501102519512773 -0.5200228778509468 1.1399621199565368
3.82944703102 0.0470528954271424 -0.2731490839311847 -1.1977345782520057 1.8718849297889213 2.0501102519512773 -0.5200228778509468 1.1399621199565368
3.82944703102 0.0470528954271424 -0.2731490839311847 -1.1977345782520057 1.8718849297889213 2.0501102519512773 -0.5200228778509468 1.1399621199565368
3.83935713768 0.0470528954271424 -0.2731490839311847 -1.1977345782520057 1.8718849297889213 2.0501102519512773 -0.5200228778509468 1.1399621199565368
3.83935713768 0.0470528954271424 -0.2731490839311847 -1.1977345782520057 1.8718849297889213 2.0501102519512773 -0.5200228778509468 1.1399621199565368
3.84938812256 0.0470528954271424 -0.2731490839311847 -1.1977345782520057 1.8718849297889213 2.0501102519512773 -0.5200228778509468 1.1399621199565368
3.84938812256 0.0470528954271424 -0.2731490839311847 -1.1977345782520057 1.8718849297889213 2.0501102519512773 -0.5200228778509468 1.1399621199565368
3.85950517654 0.0470528954271424 -0.2731490839311847 -1.1977345782520057 1.8718849297889213 2.0501102519512773 -0.5200228778509468 1.1399621199565368
3.85950517654 0.0470528954271424 -0.2731490839311847 -1.1977345782520057 1.8718849297889213 2.0501102519512773 -0.5200228778509468 1.1399621199565368
3.86942100525 0.0470528954271424 -0.2731490839311847 -1.1977345782520057 1.8718849297889213 2.0501102519512773 -0.5200228778509468 1.1399621199565368
3.86942100525 0.0470528954271424 -0.2731490839311847 -1.1977345782520057 1.8718849297889213 2.0501102519512773 -0.5200228778509468 1.1399621199565368
3.87950515747 0.0470528954271424 -0.2731490839311847 -1.1977345782520057 1.8718849297889213 2.0501102519512773 -0.5200228778509468 1.1399621199565368
3.87950515747 0.0470528954271424 -0.2731490839311847 -1.1977345782520057 1.8718849297889213 2.0501102519512773 -0.5200228778509468 1.1399621199565368
3.88938903809 0.0470528954271424 -0.2731490839311847 -1.1977345782520057 1.8718849297889213 2.0501102519512773 -0.5200228778509468 1.1399621199565368
3.88938903809 0.0470528954271424 -0.2731490839311847 -1.1977345782520057 1.8718849297889213 2.0501102519512773 -0.5200228778509468 1.1399621199565368
3.89948701859 0.0470528954271424 -0.2731490839311847 -1.1977345782520057 1.8718849297889213 2.0501102519512773 -0.5200228778509468 1.1399621199565368
3.89948701859 0.0470528954271424 -0.2731490839311847 -1.1977345782520057 1.8718849297889213 2.0501102519512773 -0.5200228778509468 1.1399621199565368
3.90952396393 0.0470528954271424 -0.2731490839311847 -1.1977345782520057 1.8718849297889213 2.0501102519512773 -0.5200228778509468 1.1399621199565368
3.90952396393 0.0470528954271424 -0.2731490839311847 -1.1977345782520057 1.8718849297889213 2.0501102519512773 -0.5200228778509468 1.1399621199565368
3.91947507858 0.0470528954271424 -0.2731490839311847 -1.1977345782520057 1.8718849297889213 2.0501102519512773 -0.5200228778509468 1.1399621199565368
3.91947507858 0.0470528954271424 -0.2731490839311847 -1.1977345782520057 1.8718849297889213 2.0501102519512773 -0.5200228778509468 1.1399621199565368
3.92949604988 0.0470528954271424 -0.2731490839311847 -1.1977345782520057 1.8718849297889213 2.0501102519512773 -0.5200228778509468 1.1399621199565368
3.92949604988 0.0470528954271424 -0.2731490839311847 -1.1977345782520057 1.8718849297889213 2.0501102519512773 -0.5200228778509468 1.1399621199565368
3.93947100639 0.0470528954271424 -0.2731490839311847 -1.1977345782520057 1.8718849297889213 2.0501102519512773 -0.5200228778509468 1.1399621199565368
3.93947100639 0.0470528954271424 -0.2731490839311847 -1.1977345782520057 1.8718849297889213 2.0501102519512773 -0.5200228778509468 1.1399621199565368
3.94940519333 0.0470528954271424 -0.2731490839311847 -1.1977345782520057 1.8718849297889213 2.0501102519512773 -0.5200228778509468 1.1399621199565368
3.94940519333 0.0470528954271424 -0.2731490839311847 -1.1977345782520057 1.8718849297889213 2.0501102519512773 -0.5200228778509468 1.1399621199565368
3.95944714546 0.0470528954271424 -0.2731490839311847 -1.1977345782520057 1.8718849297889213 2.0501102519512773 -0.5200228778509468 1.1399621199565368
3.95944714546 0.0470528954271424 -0.2731490839311847 -1.1977345782520057 1.8718849297889213 2.0501102519512773 -0.5200228778509468 1.1399621199565368
3.96930813789 0.0470528954271424 -0.2731490839311847 -1.1977345782520057 1.8718849297889213 2.0501102519512773 -0.5200228778509468 1.1399621199565368
3.96930813789 0.0470528954271424 -0.2731490839311847 -1.1977345782520057 1.8718849297889213 2.0501102519512773 -0.5200228778509468 1.1399621199565368
3.9794549942 0.0470528954271424 -0.2731490839311847 -1.1977345782520057 1.8718849297889213 2.0501102519512773 -0.5200228778509468 1.1399621199565368
3.9794549942 0.0470528954271424 -0.2731490839311847 -1.1977345782520057 1.8718849297889213 2.0501102519512773 -0.5200228778509468 1.1399621199565368
3.98937916756 0.0470528954271424 -0.2731490839311847 -1.1977345782520057 1.8718849297889213 2.0501102519512773 -0.5200228778509468 1.1399621199565368
3.98937916756 0.0470528954271424 -0.2731490839311847 -1.1977345782520057 1.8718849297889213 2.0501102519512773 -0.5200228778509468 1.1399621199565368
3.99949097633 0.0470528954271424 -0.2731490839311847 -1.1977345782520057 1.8718849297889213 2.0501102519512773 -0.5200228778509468 1.1399621199565368
3.99949097633 0.0470528954271424 -0.2731490839311847 -1.1977345782520057 1.8718849297889213 2.0501102519512773 -0.5200228778509468 1.1399621199565368
4.00940513611 0.0470528954271424 -0.2731490839311847 -1.1977345782520057 1.8718849297889213 2.0501102519512773 -0.5200228778509468 1.1399621199565368
4.00940513611 0.0470528954271424 -0.2731490839311847 -1.1977345782520057 1.8718849297889213 2.0501102519512773 -0.5200228778509468 1.1399621199565368
4.01929211617 0.0470528954271424 -0.2731490839311847 -1.1977345782520057 1.8718849297889213 2.0501102519512773 -0.5200228778509468 1.1399621199565368
4.01929211617 0.0470528954271424 -0.2731490839311847 -1.1977345782520057 1.8718849297889213 2.0501102519512773 -0.5200228778509468 1.1399621199565368
4.02930998802 0.0470528954271424 -0.2731490839311847 -1.1977345782520057 1.8718849297889213 2.0501102519512773 -0.5200228778509468 1.1399621199565368
