riccardo-csl/Motion-Planning-for-TIAGo-Manipulator/T3_G_7/head_scan/head_scan/tiago_traiettorie_SG/4a-3b/place_3b_rep2.txt
time arm_1_joint arm_2_joint arm_3_joint arm_4_joint arm_5_joint arm_6_joint arm_7_joint
0.47058391571 0.0466540551320006 -0.1981364284218196 -1.1595072699637976 1.789984609182684 2.0501102519512773 -0.5200228778509468 1.1399621199565368
0.478500843048 0.0466540551320006 -0.1981364284218196 -1.1595072699637976 1.789984609182684 2.0501102519512773 -0.5200228778509468 1.1399621199565368
0.478500843048 0.0466540551320006 -0.1981364284218196 -1.1595072699637976 1.789984609182684 2.0501102519512773 -0.5200228778509468 1.1399621199565368
0.488623857498 0.0466540551320006 -0.1981364284218196 -1.1595072699637976 1.789984609182684 2.0501102519512773 -0.5200228778509468 1.1399621199565368
0.488623857498 0.0466540551320006 -0.1981364284218196 -1.1595072699637976 1.789984609182684 2.0501102519512773 -0.5200228778509468 1.1399621199565368
0.498523950577 0.0466540551320006 -0.1981364284218196 -1.1595072699637976 1.789984609182684 2.0501102519512773 -0.5200228778509468 1.1399621199565368
0.498523950577 0.0466540551320006 -0.1981364284218196 -1.1595072699637976 1.789984609182684 2.0501102519512773 -0.5200228778509468 1.1399621199565368
0.508540868759 0.0466540551320006 -0.1981364284218196 -1.1595072699637976 1.789984609182684 2.0501102519512773 -0.5200228778509468 1.1399621199565368
0.508540868759 0.0466540551320006 -0.1981364284218196 -1.1595072699637976 1.789984609182684 2.0501102519512773 -0.5200228778509468 1.1399621199565368
0.518507003784 0.0466540551320006 -0.1981364284218196 -1.1595072699637976 1.789984609182684 2.0501102519512773 -0.5200228778509468 1.1399621199565368
0.518507003784 0.0466540551320006 -0.1981364284218196 -1.1595072699637976 1.789984609182684 2.0501102519512773 -0.5200228778509468 1.1399621199565368
0.528746843338 0.0466540551320006 -0.1981364284218196 -1.1595072699637976 1.789984609182684 2.0501102519512773 -0.5200228778509468 1.1399621199565368
0.528746843338 0.0466540551320006 -0.1981364284218196 -1.1595072699637976 1.789984609182684 2.0501102519512773 -0.5200228778509468 1.1399621199565368
0.538709878922 0.0466540551320006 -0.1981364284218196 -1.1595072699637976 1.789984609182684 2.0501102519512773 -0.5200228778509468 1.1399621199565368
0.538709878922 0.0466540551320006 -0.1981364284218196 -1.1595072699637976 1.789984609182684 2.0501102519512773 -0.5200228778509468 1.1399621199565368
0.54888677597 0.0466540551320006 -0.1981364284218196 -1.1595072699637976 1.789984609182684 2.0501102519512773 -0.5200228778509468 1.1399621199565368
0.54888677597 0.0466540551320006 -0.1981364284218196 -1.1595072699637976 1.789984609182684 2.0501102519512773 -0.5200228778509468 1.1399621199565368
0.558892965317 0.0466540551320006 -0.1981364284218196 -1.1595072699637976 1.789984609182684 2.0501102519512773 -0.5200228778509468 1.1399621199565368
0.558892965317 0.0466540551320006 -0.1981364284218196 -1.1595072699637976 1.789984609182684 2.0501102519512773 -0.5200228778509468 1.1399621199565368
0.568771839142 0.0466540551320006 -0.1981364284218196 -1.1595072699637976 1.789984609182684 2.0501102519512773 -0.5200228778509468 1.1399621199565368
0.568771839142 0.0466540551320006 -0.1981364284218196 -1.1595072699637976 1.789984609182684 2.0501102519512773 -0.5200228778509468 1.1399621199565368
0.57877779007 0.0466540551320006 -0.1981364284218196 -1.1595072699637976 1.789984609182684 2.0501102519512773 -0.5200228778509468 1.1399621199565368
0.57877779007 0.0466540551320006 -0.1981364284218196 -1.1595072699637976 1.789984609182684 2.0501102519512773 -0.5200228778509468 1.1399621199565368
0.588973999023 0.0466540551320006 -0.1981364284218196 -1.1595072699637976 1.789984609182684 2.0501102519512773 -0.5200228778509468 1.1399621199565368
0.588973999023 0.0466540551320006 -0.1981364284218196 -1.1595072699637976 1.789984609182684 2.0501102519512773 -0.5200228778509468 1.1399621199565368
0.598828792572 0.0466540551320006 -0.1981364284218196 -1.1595072699637976 1.789984609182684 2.0501102519512773 -0.5200228778509468 1.1399621199565368
0.598828792572 0.0466540551320006 -0.1981364284218196 -1.1595072699637976 1.789984609182684 2.0501102519512773 -0.5200228778509468 1.1399621199565368
0.608920812607 0.0466540551320006 -0.1981364284218196 -1.1595072699637976 1.789984609182684 2.0501102519512773 -0.5200228778509468 1.1399621199565368
0.608920812607 0.0466540551320006 -0.1981364284218196 -1.1595072699637976 1.789984609182684 2.0501102519512773 -0.5200228778509468 1.1399621199565368
0.618824005127 0.0466540551320006 -0.1981364284218196 -1.1595072699637976 1.789984609182684 2.0501102519512773 -0.5200228778509468 1.1399621199565368
0.618824005127 0.0466540551320006 -0.1981364284218196 -1.1595072699637976 1.789984609182684 2.0501102519512773 -0.5200228778509468 1.1399621199565368
0.628737926483 0.0466540551320006 -0.1981364284218196 -1.1595072699637976 1.789984609182684 2.0501102519512773 -0.5200228778509468 1.1399621199565368
0.628737926483 0.0466540551320006 -0.1981364284218196 -1.1595072699637976 1.789984609182684 2.0501102519512773 -0.5200228778509468 1.1399621199565368
0.638879776001 0.0466540551320006 -0.1981364284218196 -1.1595072699637976 1.789984609182684 2.0501102519512773 -0.5200228778509468 1.1399621199565368
0.638879776001 0.0466540551320006 -0.1981364284218196 -1.1595072699637976 1.789984609182684 2.0501102519512773 -0.5200228778509468 1.1399621199565368
0.648993968964 0.0466540551320006 -0.1981364284218196 -1.1595072699637976 1.789984609182684 2.0501102519512773 -0.5200228778509468 1.1399621199565368
0.648993968964 0.0466540551320006 -0.1981364284218196 -1.1595072699637976 1.789984609182684 2.0501102519512773 -0.5200228778509468 1.1399621199565368
0.659232854843 0.0466540551320006 -0.1981364284218196 -1.1595072699637976 1.789984609182684 2.0501102519512773 -0.5200228778509468 1.1399621199565368
0.659232854843 0.0466540551320006 -0.1981364284218196 -1.1595072699637976 1.789984609182684 2.0501102519512773 -0.5200228778509468 1.1399621199565368
0.668955802917 0.0466540551320006 -0.1981364284218196 -1.1595072699637976 1.789984609182684 2.0501102519512773 -0.5200228778509468 1.1399621199565368
0.668955802917 0.0466540551320006 -0.1981364284218196 -1.1595072699637976 1.789984609182684 2.0501102519512773 -0.5200228778509468 1.1399621199565368
0.678869962692 0.0466540551320006 -0.1981364284218196 -1.1595072699637976 1.789984609182684 2.0501011210321587 -0.5200228778509468 1.1399621199565368
0.678869962692 0.0466540551320006 -0.1981364284218196 -1.1595072699637976 1.789984609182684 2.0501011210321587 -0.5200228778509468 1.1399621199565368
0.688944816589 0.0466540551320006 -0.1981364284218196 -1.1595072699637976 1.789984609182684 2.0501011210321587 -0.5200228778509468 1.1399621199565368
0.688944816589 0.0466540551320006 -0.1981364284218196 -1.1595072699637976 1.789984609182684 2.0501011210321587 -0.5200228778509468 1.1399621199565368
0.698906898499 0.0466540551320006 -0.1981364284218196 -1.1595072699637976 1.789984609182684 2.0501102519512773 -0.5200228778509468 1.1399621199565368
0.698906898499 0.0466540551320006 -0.1981364284218196 -1.1595072699637976 1.789984609182684 2.0501102519512773 -0.5200228778509468 1.1399621199565368
0.708845853806 0.0466540551320006 -0.1981364284218196 -1.1595072699637976 1.789984609182684 2.0501102519512773 -0.5200228778509468 1.1399621199565368
0.708845853806 0.0466540551320006 -0.1981364284218196 -1.1595072699637976 1.789984609182684 2.0501102519512773 -0.5200228778509468 1.1399621199565368
0.718954801559 0.0466540551320006 -0.1981364284218196 -1.1595072699637976 1.789984609182684 2.0501102519512773 -0.5200228778509468 1.1399621199565368
0.718954801559 0.0466540551320006 -0.1981364284218196 -1.1595072699637976 1.789984609182684 2.0501102519512773 -0.5200228778509468 1.1399621199565368
0.728972911835 0.0466540551320006 -0.1981364284218196 -1.1595072699637976 1.789984609182684 2.0501102519512773 -0.5200228778509468 1.1399621199565368
0.728972911835 0.0466540551320006 -0.1981364284218196 -1.1595072699637976 1.789984609182684 2.0501102519512773 -0.5200228778509468 1.1399621199565368
0.738876819611 0.0466540551320006 -0.1981364284218196 -1.1595072699637976 1.789984609182684 2.0501102519512773 -0.5200228778509468 1.1399621199565368
0.738876819611 0.0466540551320006 -0.1981364284218196 -1.1595072699637976 1.789984609182684 2.0501102519512773 -0.5200228778509468 1.1399621199565368
0.748909950256 0.0466540551320006 -0.1981364284218196 -1.1595072699637976 1.789984609182684 2.0501102519512773 -0.5200228778509468 1.1399621199565368
0.748909950256 0.0466540551320006 -0.1981364284218196 -1.1595072699637976 1.789984609182684 2.0501102519512773 -0.5200228778509468 1.1399621199565368
0.758930921555 0.0466540551320006 -0.1981364284218196 -1.1595072699637976 1.789984609182684 2.0501011210321587 -0.5200228778509468 1.1399621199565368
0.758930921555 0.0466540551320006 -0.1981364284218196 -1.1595072699637976 1.789984609182684 2.0501011210321587 -0.5200228778509468 1.1399621199565368
0.76898598671 0.0466540551320006 -0.1981364284218196 -1.1595072699637976 1.789984609182684 2.0501011210321587 -0.5200228778509468 1.1399621199565368
0.76898598671 0.0466540551320006 -0.1981364284218196 -1.1595072699637976 1.789984609182684 2.0501011210321587 -0.5200228778509468 1.1399621199565368
0.778860807419 0.0466540551320006 -0.1981364284218196 -1.1595072699637976 1.789984609182684 2.0501102519512773 -0.5200228778509468 1.1399621199565368
0.778860807419 0.0466540551320006 -0.1981364284218196 -1.1595072699637976 1.789984609182684 2.0501102519512773 -0.5200228778509468 1.1399621199565368
0.788886785507 0.0466540551320006 -0.1981364284218196 -1.1595072699637976 1.789984609182684 2.0501102519512773 -0.5200228778509468 1.1399621199565368
0.788886785507 0.0466540551320006 -0.1981364284218196 -1.1595072699637976 1.789984609182684 2.0501102519512773 -0.5200228778509468 1.1399621199565368
0.798582792282 0.0466540551320006 -0.1981364284218196 -1.1595072699637976 1.789984609182684 2.0501102519512773 -0.5200228778509468 1.1399621199565368
0.798582792282 0.0466540551320006 -0.1981364284218196 -1.1595072699637976 1.789984609182684 2.0501102519512773 -0.5200228778509468 1.1399621199565368
0.808761835098 0.0466540551320006 -0.1981364284218196 -1.1595072699637976 1.789984609182684 2.0501102519512773 -0.5200228778509468 1.1399621199565368
0.808761835098 0.0466540551320006 -0.1981364284218196 -1.1595072699637976 1.789984609182684 2.0501102519512773 -0.5200228778509468 1.1399621199565368
0.818723917007 0.0466540551320006 -0.1981364284218196 -1.1595072699637976 1.789984609182684 2.0501102519512773 -0.5200228778509468 1.1399621199565368
0.818723917007 0.0466540551320006 -0.1981364284218196 -1.1595072699637976 1.789984609182684 2.0501102519512773 -0.5200228778509468 1.1399621199565368
0.828925848007 0.0466540551320006 -0.1981364284218196 -1.1595072699637976 1.789984609182684 2.0501102519512773 -0.5200228778509468 1.1399621199565368
0.828925848007 0.0466540551320006 -0.1981364284218196 -1.1595072699637976 1.789984609182684 2.0501102519512773 -0.5200228778509468 1.1399621199565368
0.838907003403 0.0466540551320006 -0.1981364284218196 -1.1595072699637976 1.789984609182684 2.0501102519512773 -0.5200228778509468 1.1399621199565368
0.838907003403 0.0466540551320006 -0.1981364284218196 -1.1595072699637976 1.789984609182684 2.0501102519512773 -0.5200228778509468 1.1399621199565368
0.848957777023 0.0466540551320006 -0.1981364284218196 -1.1595072699637976 1.789984609182684 2.0501102519512773 -0.5200228778509468 1.1399621199565368
0.848957777023 0.0466540551320006 -0.1981364284218196 -1.1595072699637976 1.789984609182684 2.0501102519512773 -0.5200228778509468 1.1399621199565368
0.85876584053 0.0466540551320006 -0.1981364284218196 -1.1595072699637976 1.789984609182684 2.0501102519512773 -0.5200228778509468 1.1399621199565368
0.85876584053 0.0466540551320006 -0.1981364284218196 -1.1595072699637976 1.789984609182684 2.0501102519512773 -0.5200228778509468 1.1399621199565368
0.868953943253 0.0466540551320006 -0.1981364284218196 -1.1595072699637976 1.789984609182684 2.0501102519512773 -0.5200228778509468 1.1399621199565368
0.868953943253 0.0466540551320006 -0.1981364284218196 -1.1595072699637976 1.789984609182684 2.0501102519512773 -0.5200228778509468 1.1399621199565368
0.878804922104 0.0466540551320006 -0.1981364284218196 -1.1595072699637976 1.789984609182684 2.0501102519512773 -0.5200228778509468 1.1399621199565368
0.878804922104 0.0466540551320006 -0.1981364284218196 -1.1595072699637976 1.789984609182684 2.0501102519512773 -0.5200228778509468 1.1399621199565368
0.888951778412 0.0466540551320006 -0.1981364284218196 -1.1595072699637976 1.789984609182684 2.0501102519512773 -0.5200228778509468 1.1399621199565368
0.888951778412 0.0466540551320006 -0.1981364284218196 -1.1595072699637976 1.789984609182684 2.0501102519512773 -0.5200228778509468 1.1399621199565368
0.898970842361 0.0466540551320006 -0.1981364284218196 -1.1595072699637976 1.789984609182684 2.0501102519512773 -0.5200228778509468 1.1399621199565368
0.898970842361 0.0466540551320006 -0.1981364284218196 -1.1595072699637976 1.789984609182684 2.0501102519512773 -0.5200228778509468 1.1399621199565368
0.908936977386 0.0466540551320006 -0.1981364284218196 -1.1595072699637976 1.789984609182684 2.0501102519512773 -0.5200228778509468 1.1399621199565368
0.908936977386 0.0466540551320006 -0.1981364284218196 -1.1595072699637976 1.789984609182684 2.0501102519512773 -0.5200228778509468 1.1399621199565368
0.918813943863 0.0466540551320006 -0.1981364284218196 -1.1595072699637976 1.789984609182684 2.0501102519512773 -0.5200228778509468 1.1399621199565368
0.918813943863 0.0466540551320006 -0.1981364284218196 -1.1595072699637976 1.789984609182684 2.0501102519512773 -0.5200228778509468 1.1399621199565368
0.928912878036 0.0466540551320006 -0.1981364284218196 -1.1595072699637976 1.789984609182684 2.0501102519512773 -0.5200228778509468 1.1399621199565368
0.928912878036 0.0466540551320006 -0.1981364284218196 -1.1595072699637976 1.789984609182684 2.0501102519512773 -0.5200228778509468 1.1399621199565368
0.938879013062 0.0466540551320006 -0.1981364284218196 -1.1595072699637976 1.789984609182684 2.0501102519512773 -0.5200228778509468 1.1399621199565368
0.938879013062 0.0466540551320006 -0.1981364284218196 -1.1595072699637976 1.789984609182684 2.0501102519512773 -0.5200228778509468 1.1399621199565368
0.948858976364 0.0466540551320006 -0.1981364284218196 -1.1595072699637976 1.789984609182684 2.0501102519512773 -0.5200228778509468 1.1399621199565368
0.948858976364 0.0466540551320006 -0.1981364284218196 -1.1595072699637976 1.789984609182684 2.0501102519512773 -0.5200228778509468 1.1399621199565368
0.958842992783 0.0466540551320006 -0.1981364284218196 -1.1595072699637976 1.789984609182684 2.0501102519512773 -0.5200228778509468 1.1399621199565368
0.958842992783 0.0466540551320006 -0.1981364284218196 -1.1595072699637976 1.789984609182684 2.0501102519512773 -0.5200228778509468 1.1399621199565368
0.968926906586 0.0466540551320006 -0.1981364284218196 -1.1595072699637976 1.789984609182684 2.0501102519512773 -0.5200228778509468 1.1399621199565368
0.968926906586 0.0466540551320006 -0.1981364284218196 -1.1595072699637976 1.789984609182684 2.0501102519512773 -0.5200228778509468 1.1399621199565368
0.978783845901 0.0466540551320006 -0.1981364284218196 -1.1595072699637976 1.789984609182684 2.0501102519512773 -0.5200228778509468 1.1399621199565368
0.978783845901 0.0466540551320006 -0.1981364284218196 -1.1595072699637976 1.789984609182684 2.0501102519512773 -0.5200228778509468 1.1399621199565368
0.988981962204 0.0466540551320006 -0.1981364284218196 -1.1595072699637976 1.789984609182684 2.0501102519512773 -0.5200228778509468 1.1399621199565368
0.988981962204 0.0466540551320006 -0.1981364284218196 -1.1595072699637976 1.789984609182684 2.0501102519512773 -0.5200228778509468 1.1399621199565368
0.998991012573 0.0466540551320006 -0.1981364284218196 -1.1595072699637976 1.789984609182684 2.0501102519512773 -0.5200228778509468 1.1399621199565368
0.998991012573 0.0466540551320006 -0.1981364284218196 -1.1595072699637976 1.789984609182684 2.0501102519512773 -0.5200228778509468 1.1399621199565368
1.00898694992 0.0466540551320006 -0.1981364284218196 -1.1595072699637976 1.789984609182684 2.0501102519512773 -0.5200228778509468 1.1399621199565368
1.00898694992 0.0466540551320006 -0.1981364284218196 -1.1595072699637976 1.789984609182684 2.0501102519512773 -0.5200228778509468 1.1399621199565368
1.01888799667 0.0466540551320006 -0.1981364284218196 -1.1595072699637976 1.789984609182684 2.0501102519512773 -0.5200228778509468 1.1399621199565368
1.01888799667 0.0466540551320006 -0.1981364284218196 -1.1595072699637976 1.789984609182684 2.0501102519512773 -0.5200228778509468 1.1399621199565368
1.0288670063 0.0466540551320006 -0.1981364284218196 -1.1595072699637976 1.789984609182684 2.0501102519512773 -0.5200228778509468 1.1399621199565368
1.0288670063 0.0466540551320006 -0.1981364284218196 -1.1595072699637976 1.789984609182684 2.0501102519512773 -0.5200228778509468 1.1399621199565368
1.03853392601 0.0466540551320006 -0.1981364284218196 -1.1595072699637976 1.789984609182684 2.0501102519512773 -0.5200228778509468 1.1399621199565368
1.03853392601 0.0466540551320006 -0.1981364284218196 -1.1595072699637976 1.789984609182684 2.0501102519512773 -0.5200228778509468 1.1399621199565368
1.04872989655 0.0466540551320006 -0.1981364284218196 -1.1595072699637976 1.789984609182684 2.0501102519512773 -0.5200228778509468 1.1399621199565368
1.04872989655 0.0466540551320006 -0.1981364284218196 -1.1595072699637976 1.789984609182684 2.0501102519512773 -0.5200228778509468 1.1399621199565368
1.05882000923 0.0466540551320006 -0.1981364284218196 -1.1595072699637976 1.789984609182684 2.0501102519512773 -0.5200228778509468 1.1399621199565368
1.05882000923 0.0466540551320006 -0.1981364284218196 -1.1595072699637976 1.789984609182684 2.0501102519512773 -0.5200228778509468 1.1399621199565368
1.0688970089 0.0466540551320006 -0.1981364284218196 -1.1595072699637976 1.789984609182684 2.0501102519512773 -0.5200228778509468 1.1399621199565368
1.0688970089 0.0466540551320006 -0.1981364284218196 -1.1595072699637976 1.789984609182684 2.0501102519512773 -0.5200228778509468 1.1399621199565368
1.07886695862 0.0466540551320006 -0.1981364284218196 -1.1595072699637976 1.789984609182684 2.0501102519512773 -0.5200228778509468 1.1399621199565368
1.07886695862 0.0466540551320006 -0.1981364284218196 -1.1595072699637976 1.789984609182684 2.0501102519512773 -0.5200228778509468 1.1399621199565368
1.08881783485 0.0466540551320006 -0.1981364284218196 -1.1595072699637976 1.789984609182684 2.0501102519512773 -0.5200228778509468 1.1399621199565368
1.08881783485 0.0466540551320006 -0.1981364284218196 -1.1595072699637976 1.789984609182684 2.0501102519512773 -0.5200228778509468 1.1399621199565368
1.09886479378 0.0466540551320006 -0.1981364284218196 -1.1595072699637976 1.789984609182684 2.0501102519512773 -0.5200228778509468 1.1399621199565368
1.09886479378 0.0466540551320006 -0.1981364284218196 -1.1595072699637976 1.789984609182684 2.0501102519512773 -0.5200228778509468 1.1399621199565368
1.10895395279 0.0466540551320006 -0.1981364284218196 -1.1595072699637976 1.789984609182684 2.0501102519512773 -0.5200228778509468 1.1399621199565368
1.10895395279 0.0466540551320006 -0.1981364284218196 -1.1595072699637976 1.789984609182684 2.0501102519512773 -0.5200228778509468 1.1399621199565368
1.11879992485 0.0466540551320006 -0.1981364284218196 -1.1595072699637976 1.789984609182684 2.0501102519512773 -0.5200228778509468 1.1399621199565368
1.11879992485 0.0466540551320006 -0.1981364284218196 -1.1595072699637976 1.789984609182684 2.0501102519512773 -0.5200228778509468 1.1399621199565368
1.12895989418 0.0466540551320006 -0.1981364284218196 -1.1595072699637976 1.789984609182684 2.0501102519512773 -0.5200228778509468 1.1399621199565368
1.12895989418 0.0466540551320006 -0.1981364284218196 -1.1595072699637976 1.789984609182684 2.0501102519512773 -0.5200228778509468 1.1399621199565368
1.1389029026 0.0466540551320006 -0.1981364284218196 -1.1595072699637976 1.789984609182684 2.0501102519512773 -0.5200228778509468 1.1399621199565368
1.1389029026 0.0466540551320006 -0.1981364284218196 -1.1595072699637976 1.789984609182684 2.0501102519512773 -0.5200228778509468 1.1399621199565368
1.14898395538 0.0466540551320006 -0.1981364284218196 -1.1595072699637976 1.789984609182684 2.0501102519512773 -0.5200228778509468 1.1399621199565368
1.14898395538 0.0466540551320006 -0.1981364284218196 -1.1595072699637976 1.789984609182684 2.0501102519512773 -0.5200228778509468 1.1399621199565368
1.15884995461 0.0466540551320006 -0.1981364284218196 -1.1595072699637976 1.789984609182684 2.0501102519512773 -0.5200228778509468 1.1399621199565368
1.15884995461 0.0466540551320006 -0.1981364284218196 -1.1595072699637976 1.789984609182684 2.0501102519512773 -0.5200228778509468 1.1399621199565368
1.16892194748 0.0466540551320006 -0.1981364284218196 -1.1595072699637976 1.789984609182684 2.0501102519512773 -0.5200228778509468 1.1399621199565368
1.16892194748 0.0466540551320006 -0.1981364284218196 -1.1595072699637976 1.789984609182684 2.0501102519512773 -0.5200228778509468 1.1399621199565368
1.1802380085 0.0466540551320006 -0.1981364284218196 -1.1595072699637976 1.789984609182684 2.0501102519512773 -0.5200228778509468 1.1399621199565368
1.1802380085 0.0466540551320006 -0.1981364284218196 -1.1595072699637976 1.789984609182684 2.0501102519512773 -0.5200228778509468 1.1399621199565368
1.18854284286 0.0466540551320006 -0.1981364284218196 -1.1595072699637976 1.789984609182684 2.0501102519512773 -0.5200228778509468 1.1399621199565368
1.18854284286 0.0466540551320006 -0.1981364284218196 -1.1595072699637976 1.789984609182684 2.0501102519512773 -0.5200228778509468 1.1399621199565368
1.19881486893 0.0466540551320006 -0.1981364284218196 -1.1595072699637976 1.789984609182684 2.0501102519512773 -0.5200228778509468 1.1399621199565368
1.19881486893 0.0466540551320006 -0.1981364284218196 -1.1595072699637976 1.789984609182684 2.0501102519512773 -0.5200228778509468 1.1399621199565368
1.20894098282 0.0466540551320006 -0.1981364284218196 -1.1595072699637976 1.789984609182684 2.0501102519512773 -0.5200228778509468 1.1399621199565368
1.20894098282 0.0466540551320006 -0.1981364284218196 -1.1595072699637976 1.789984609182684 2.0501102519512773 -0.5200228778509468 1.1399621199565368
1.21878480911 0.0466540551320006 -0.1981364284218196 -1.1595072699637976 1.789984609182684 2.0501102519512773 -0.5200228778509468 1.1399621199565368
1.21878480911 0.0466540551320006 -0.1981364284218196 -1.1595072699637976 1.789984609182684 2.0501102519512773 -0.5200228778509468 1.1399621199565368
1.22888994217 0.0466540551320006 -0.1981364284218196 -1.1595072699637976 1.789984609182684 2.0501102519512773 -0.5200228778509468 1.1399621199565368
1.22888994217 0.0466540551320006 -0.1981364284218196 -1.1595072699637976 1.789984609182684 2.0501102519512773 -0.5200228778509468 1.1399621199565368
1.23891496658 0.0466540551320006 -0.1981364284218196 -1.1595072699637976 1.789984609182684 2.0501102519512773 -0.5200228778509468 1.1399621199565368
1.23891496658 0.0466540551320006 -0.1981364284218196 -1.1595072699637976 1.789984609182684 2.0501102519512773 -0.5200228778509468 1.1399621199565368
1.24888300896 0.0466540551320006 -0.1981364284218196 -1.1595072699637976 1.790030629216739 2.0501102519512773 -0.5200228778509468 1.1399621199565368
1.24888300896 0.0466540551320006 -0.1981364284218196 -1.1595072699637976 1.790030629216739 2.0501102519512773 -0.5200228778509468 1.1399621199565368
1.25889587402 0.0466540551320006 -0.1981364284218196 -1.1595072699637976 1.790030629216739 2.0501102519512773 -0.5200228778509468 1.1399621199565368
1.25889587402 0.0466540551320006 -0.1981364284218196 -1.1595072699637976 1.790030629216739 2.0501102519512773 -0.5200228778509468 1.1399621199565368
1.26901078224 0.0466540551320006 -0.1981364284218196 -1.1595072699637976 1.790030629216739 2.0501102519512773 -0.5200228778509468 1.1399621199565368
1.26901078224 0.0466540551320006 -0.1981364284218196 -1.1595072699637976 1.790030629216739 2.0501102519512773 -0.5200228778509468 1.1399621199565368
1.2789618969 0.0466540551320006 -0.1981364284218196 -1.1595226099751492 1.7901686893189035 2.0501102519512773 -0.5200228778509468 1.1399621199565368
1.2789618969 0.0466540551320006 -0.1981364284218196 -1.1595226099751492 1.7901686893189035 2.0501102519512773 -0.5200228778509468 1.1399621199565368
1.2888379097 0.0466540551320006 -0.1981364284218196 -1.1595226099751492 1.7904141295005291 2.0501102519512773 -0.5200228778509468 1.1399621199565368
1.2888379097 0.0466540551320006 -0.1981364284218196 -1.1595226099751492 1.7904141295005291 2.0501102519512773 -0.5200228778509468 1.1399621199565368
1.29888296127 0.0466540551320006 -0.1981364284218196 -1.1595226099751492 1.7904141295005291 2.0501102519512773 -0.5200228778509468 1.1399621199565368
1.29888296127 0.0466540551320006 -0.1981364284218196 -1.1595226099751492 1.7904141295005291 2.0501102519512773 -0.5200228778509468 1.1399621199565368
1.30888080597 0.0466540551320006 -0.1981364284218196 -1.1595226099751492 1.7904141295005291 2.0501102519512773 -0.5200228778509468 1.1399621199565368
1.30888080597 0.0466540551320006 -0.1981364284218196 -1.1595226099751492 1.7904141295005291 2.0501102519512773 -0.5200228778509468 1.1399621199565368
1.31883478165 0.0466540551320006 -0.1981364284218196 -1.1595839700205557 1.790736269738913 2.0501102519512773 -0.5200228778509468 1.1399621199565368
1.31883478165 0.0466540551320006 -0.1981364284218196 -1.1595839700205557 1.790736269738913 2.0501102519512773 -0.5200228778509468 1.1399621199565368
1.32890582085 0.0466540551320006 -0.1981364284218196 -1.1598140701908295 1.7910737499886482 2.0501102519512773 -0.5200228778509468 1.1399621199565368
1.32890582085 0.0466540551320006 -0.1981364284218196 -1.1598140701908295 1.7910737499886482 2.0501102519512773 -0.5200228778509468 1.1399621199565368
1.33883285522 0.0466540551320006 -0.1981364284218196 -1.1602896105427296 1.7913038501589222 2.0501102519512773 -0.5200228778509468 1.1399621199565368
1.33883285522 0.0466540551320006 -0.1981364284218196 -1.1602896105427296 1.7913038501589222 2.0501102519512773 -0.5200228778509468 1.1399621199565368
1.34894895554 0.0466540551320006 -0.1981364284218196 -1.1602896105427296 1.7913038501589222 2.0501102519512773 -0.5200228778509468 1.1399621199565368
1.34894895554 0.0466540551320006 -0.1981364284218196 -1.1602896105427296 1.7913038501589222 2.0501102519512773 -0.5200228778509468 1.1399621199565368
1.35878300667 0.0466540551320006 -0.1981364284218196 -1.1610719511216616 1.7913652102043287 2.0501102519512773 -0.5200228778509468 1.1399621199565368
1.35878300667 0.0466540551320006 -0.1981364284218196 -1.1610719511216616 1.7913652102043287 2.0501102519512773 -0.5200228778509468 1.1399621199565368
1.36895084381 0.0466540551320006 -0.1981364284218196 -1.1610719511216616 1.7913652102043287 2.0501102519512773 -0.5200228778509468 1.1399621199565368
1.36895084381 0.0466540551320006 -0.1981364284218196 -1.1610719511216616 1.7913652102043287 2.0501102519512773 -0.5200228778509468 1.1399621199565368
1.37882590294 0.0466540551320006 -0.1981364284218196 -1.1610719511216616 1.7913652102043287 2.0501102519512773 -0.5200228778509468 1.1399621199565368
1.37882590294 0.0466540551320006 -0.1981364284218196 -1.1610719511216616 1.7913652102043287 2.0501102519512773 -0.5200228778509468 1.1399621199565368
1.38878583908 0.0466540551320006 -0.1981364284218196 -1.1610719511216616 1.7913652102043287 2.0501102519512773 -0.5200228778509468 1.1399621199565368
1.38878583908 0.0466540551320006 -0.1981364284218196 -1.1610719511216616 1.7913652102043287 2.0501102519512773 -0.5200228778509468 1.1399621199565368
1.39888691902 0.0466540551320006 -0.1981364284218196 -1.1620843918708677 1.7913652102043287 2.0501102519512773 -0.5200228778509468 1.1399621199565368
1.39888691902 0.0466540551320006 -0.1981364284218196 -1.1620843918708677 1.7913652102043287 2.0501102519512773 -0.5200228778509468 1.1399621199565368
1.40895986557 0.0466693951433522 -0.198121088410468 -1.1636950930627863 1.7913805502156803 2.0501102519512773 -0.5200228778509468 1.1399621199565368
1.40895986557 0.0466693951433522 -0.198121088410468 -1.1636950930627863 1.7913805502156803 2.0501102519512773 -0.5200228778509468 1.1399621199565368
1.41887497902 0.0466847351547039 -0.198121088410468 -1.1657046345498474 1.791395890227032 2.0501102519512773 -0.5200228778509468 1.1399621199565368
1.41887497902 0.0466847351547039 -0.198121088410468 -1.1657046345498474 1.791395890227032 2.0501102519512773 -0.5200228778509468 1.1399621199565368
1.42896199226 0.0466847351547039 -0.198121088410468 -1.1657046345498474 1.791395890227032 2.0501102519512773 -0.5200228778509468 1.1399621199565368
1.42896199226 0.0466847351547039 -0.198121088410468 -1.1657046345498474 1.791395890227032 2.0501102519512773 -0.5200228778509468 1.1399621199565368
1.4387819767 0.0466847351547039 -0.1980290483423584 -1.1683737965250272 1.7914572502724384 2.0501102519512773 -0.5200228778509468 1.1399621199565368
1.4387819767 0.0466847351547039 -0.1980290483423584 -1.1683737965250272 1.7914572502724384 2.0501102519512773 -0.5200228778509468 1.1399621199565368
1.44894981384 0.0466847351547039 -0.1980290483423584 -1.1683737965250272 1.7914572502724384 2.0501102519512773 -0.5200228778509468 1.1399621199565368
1.44894981384 0.0466847351547039 -0.1980290483423584 -1.1683737965250272 1.7914572502724384 2.0501102519512773 -0.5200228778509468 1.1399621199565368
1.45886778831 0.0466847351547039 -0.1980290483423584 -1.1683737965250272 1.7914572502724384 2.0501102519512773 -0.5200228778509468 1.1399621199565368
1.45886778831 0.0466847351547039 -0.1980290483423584 -1.1683737965250272 1.7914572502724384 2.0501102519512773 -0.5200228778509468 1.1399621199565368
1.46884489059 0.0466847351547039 -0.1980290483423584 -1.1683737965250272 1.7914572502724384 2.0501102519512773 -0.5200228778509468 1.1399621199565368
1.46884489059 0.0466847351547039 -0.1980290483423584 -1.1683737965250272 1.7914572502724384 2.0501102519512773 -0.5200228778509468 1.1399621199565368
1.47887682915 0.0467000751660555 -0.1976302080472166 -1.1714724788180522 1.7915186103178449 2.0501102519512773 -0.5200228778509468 1.1399621199565368
1.47887682915 0.0467000751660555 -0.1976302080472166 -1.1714724788180522 1.7915186103178449 2.0501102519512773 -0.5200228778509468 1.1399621199565368
1.4889729023 0.0467154151774071 -0.1967865074228781 -1.174647861167835 1.7917640504994707 2.0501102519512773 -0.5200228778509468 1.1399621199565368
1.4889729023 0.0467154151774071 -0.1967865074228781 -1.174647861167835 1.7917640504994707 2.0501102519512773 -0.5200228778509468 1.1399621199565368
1.49877381325 0.0467460952001103 -0.1956053265488042 -1.1782220838127595 1.7922242508400188 2.0501102519512773 -0.5200228778509468 1.1399621199565368
1.49877381325 0.0467460952001103 -0.1956053265488042 -1.1782220838127595 1.7922242508400188 2.0501102519512773 -0.5200228778509468 1.1399621199565368
1.50893592834 0.0467460952001103 -0.1956053265488042 -1.1782220838127595 1.7922242508400188 2.0501102519512773 -0.5200228778509468 1.1399621199565368
1.50893592834 0.0467460952001103 -0.1956053265488042 -1.1782220838127595 1.7922242508400188 2.0501102519512773 -0.5200228778509468 1.1399621199565368
1.51889395714 0.0467921152341652 -0.1940406453909401 -1.1819497065712006 1.7928685313167867 2.0501102519512773 -0.5200228778509468 1.1399621199565368
1.51889395714 0.0467921152341652 -0.1940406453909401 -1.1819497065712006 1.7928685313167867 2.0501102519512773 -0.5200228778509468 1.1399621199565368
1.52874398232 0.0467921152341652 -0.1940406453909401 -1.1819497065712006 1.7928685313167867 2.0501102519512773 -0.5200228778509468 1.1399621199565368
1.52874398232 0.0467921152341652 -0.1940406453909401 -1.1819497065712006 1.7928685313167867 2.0501102519512773 -0.5200228778509468 1.1399621199565368
1.53889083862 0.0467921152341652 -0.1940406453909401 -1.1819497065712006 1.7928685313167867 2.0501102519512773 -0.5200228778509468 1.1399621199565368
1.53889083862 0.0467921152341652 -0.1940406453909401 -1.1819497065712006 1.7928685313167867 2.0501102519512773 -0.5200228778509468 1.1399621199565368
1.54882192612 0.0467921152341652 -0.1940406453909401 -1.1819497065712006 1.7928685313167867 2.0501102519512773 -0.5200228778509468 1.1399621199565368
1.54882192612 0.0467921152341652 -0.1940406453909401 -1.1819497065712006 1.7928685313167867 2.0501102519512773 -0.5200228778509468 1.1399621199565368
1.55887794495 0.0467921152341652 -0.1940406453909401 -1.1819497065712006 1.7928685313167867 2.0501102519512773 -0.5200228778509468 1.1399621199565368
1.55887794495 0.0467921152341652 -0.1940406453909401 -1.1819497065712006 1.7928685313167867 2.0501102519512773 -0.5200228778509468 1.1399621199565368
1.56880688667 0.046960855359033 -0.1905738028254767 -1.189420292099434 1.794341172406541 2.0501102519512773 -0.5200228778509468 1.1399621199565368
1.56880688667 0.046960855359033 -0.1905738028254767 -1.189420292099434 1.794341172406541 2.0501102519512773 -0.5200228778509468 1.1399621199565368
1.57889986038 0.0470068753930878 -0.1889324216108546 -1.192979174733007 1.7954303132125051 2.0501102519512773 -0.5200228778509468 1.1399621199565368
1.57889986038 0.0470068753930878 -0.1889324216108546 -1.192979174733007 1.7954303132125051 2.0501102519512773 -0.5200228778509468 1.1399621199565368
1.58874678612 0.0470068753930878 -0.1889324216108546 -1.192979174733007 1.7954303132125051 2.0501102519512773 -0.5200228778509468 1.1399621199565368
1.58874678612 0.0470068753930878 -0.1889324216108546 -1.192979174733007 1.7954303132125051 2.0501102519512773 -0.5200228778509468 1.1399621199565368
1.59871578217 0.0470068753930878 -0.1889324216108546 -1.192979174733007 1.7954303132125051 2.0501102519512773 -0.5200228778509468 1.1399621199565368
1.59871578217 0.0470068753930878 -0.1889324216108546 -1.192979174733007 1.7954303132125051 2.0501102519512773 -0.5200228778509468 1.1399621199565368
1.60862183571 0.0471142554725489 -0.187582500611913 -1.1965227173552286 1.7967035341546886 2.050155906546869 -0.5200228778509468 1.1399621199565368
1.60862183571 0.0471142554725489 -0.187582500611913 -1.1965227173552286 1.7967035341546886 2.050155906546869 -0.5200228778509468 1.1399621199565368
1.61893892288 0.0471142554725489 -0.187582500611913 -1.1965227173552286 1.7967035341546886 2.050155906546869 -0.5200228778509468 1.1399621199565368
1.61893892288 0.0471142554725489 -0.187582500611913 -1.1965227173552286 1.7967035341546886 2.050155906546869 -0.5200228778509468 1.1399621199565368
1.62896585464 0.0471142554725489 -0.187582500611913 -1.1965227173552286 1.7967035341546886 2.050155906546869 -0.5200228778509468 1.1399621199565368
1.62896585464 0.0471142554725489 -0.187582500611913 -1.1965227173552286 1.7967035341546886 2.050155906546869 -0.5200228778509468 1.1399621199565368
1.63888883591 0.0471142554725489 -0.187582500611913 -1.1965227173552286 1.7967035341546886 2.050155906546869 -0.5200228778509468 1.1399621199565368
1.63888883591 0.0471142554725489 -0.187582500611913 -1.1965227173552286 1.7967035341546886 2.050155906546869 -0.5200228778509468 1.1399621199565368
1.64880180359 0.0474517357222845 -0.1856343191702588 -1.2032109623045295 1.7996027963001426 2.050165037465987 -0.5200228778509468 1.1399621199565368
1.64880180359 0.0474517357222845 -0.1856343191702588 -1.2032109623045295 1.7996027963001426 2.050165037465987 -0.5200228778509468 1.1399621199565368
1.65875387192 0.0474517357222845 -0.1856343191702588 -1.2032109623045295 1.7996027963001426 2.050165037465987 -0.5200228778509468 1.1399621199565368
1.65875387192 0.0474517357222845 -0.1856343191702588 -1.2032109623045295 1.7996027963001426 2.050165037465987 -0.5200228778509468 1.1399621199565368
1.66859984398 0.0476051358358004 -0.1851280987956556 -1.2060488644045777 1.800845337219623 2.0501467756277503 -0.5200228778509468 1.1399621199565368
1.66859984398 0.0476051358358004 -0.1851280987956556 -1.2060488644045777 1.800845337219623 2.0501467756277503 -0.5200228778509468 1.1399621199565368
1.67882585526 0.0477585359493166 -0.1846372184324042 -1.2087947264365153 1.802041858105048 2.0501102519512773 -0.5200228778509468 1.1399621199565368
1.67882585526 0.0477585359493166 -0.1846372184324042 -1.2087947264365153 1.802041858105048 2.0501102519512773 -0.5200228778509468 1.1399621199565368
1.68892788887 0.0477585359493166 -0.1846372184324042 -1.2087947264365153 1.802041858105048 2.0501102519512773 -0.5200228778509468 1.1399621199565368
1.68892788887 0.0477585359493166 -0.1846372184324042 -1.2087947264365153 1.802041858105048 2.0501102519512773 -0.5200228778509468 1.1399621199565368
1.69888281822 0.0477585359493166 -0.1846372184324042 -1.2087947264365153 1.802041858105048 2.0501102519512773 -0.5200228778509468 1.1399621199565368
1.69888281822 0.0477585359493166 -0.1846372184324042 -1.2087947264365153 1.802041858105048 2.0501102519512773 -0.5200228778509468 1.1399621199565368
1.7090678215 0.0477585359493166 -0.1846372184324042 -1.2087947264365153 1.802041858105048 2.0501102519512773 -0.5200228778509468 1.1399621199565368
1.7090678215 0.0477585359493166 -0.1846372184324042 -1.2087947264365153 1.802041858105048 2.0501102519512773 -0.5200228778509468 1.1399621199565368
1.71875691414 0.0479119360628325 -0.1840696380123946 -1.211279808275476 1.8031309989110127 2.050274608495407 -0.5200228778509468 1.1399621199565368
1.71875691414 0.0479119360628325 -0.1840696380123946 -1.211279808275476 1.8031309989110127 2.050274608495407 -0.5200228778509468 1.1399621199565368
1.72891187668 0.0481113562104035 -0.1835634176377916 -1.214010330296062 1.8038366394331864 2.050274608495407 -0.5200228778509468 1.1399621199565368
1.72891187668 0.0481113562104035 -0.1835634176377916 -1.214010330296062 1.8038366394331864 2.050274608495407 -0.5200228778509468 1.1399621199565368
1.73890089989 0.0481113562104035 -0.1835634176377916 -1.214010330296062 1.8038366394331864 2.050274608495407 -0.5200228778509468 1.1399621199565368
1.73890089989 0.0481113562104035 -0.1835634176377916 -1.214010330296062 1.8038366394331864 2.050274608495407 -0.5200228778509468 1.1399621199565368
1.74899697304 0.0482954363466227 -0.1831645773426498 -1.216909592441516 1.804327519796438 2.050238084818934 -0.5200228778509468 1.1399621199565368
1.74899697304 0.0482954363466227 -0.1831645773426498 -1.216909592441516 1.804327519796438 2.050238084818934 -0.5200228778509468 1.1399621199565368
1.75891184807 0.0484181564374357 -0.1829191371610241 -1.2201463348367054 1.8047877201369864 2.050091990113041 -0.5200228778509468 1.1399621199565368
1.75891184807 0.0484181564374357 -0.1829191371610241 -1.2201463348367054 1.8047877201369864 2.050091990113041 -0.5200228778509468 1.1399621199565368
1.76874685287 0.0484181564374357 -0.1829191371610241 -1.2201463348367054 1.8047877201369864 2.050091990113041 -0.5200228778509468 1.1399621199565368
1.76874685287 0.0484181564374357 -0.1829191371610241 -1.2201463348367054 1.8047877201369864 2.050091990113041 -0.5200228778509468 1.1399621199565368
1.77888083458 0.0484181564374357 -0.1829191371610241 -1.2201463348367054 1.8047877201369864 2.050091990113041 -0.5200228778509468 1.1399621199565368
1.77888083458 0.0484181564374357 -0.1829191371610241 -1.2201463348367054 1.8047877201369864 2.050091990113041 -0.5200228778509468 1.1399621199565368
1.78875088692 0.0484181564374357 -0.1829191371610241 -1.2201463348367054 1.8047877201369864 2.050091990113041 -0.5200228778509468 1.1399621199565368
1.78875088692 0.0484181564374357 -0.1829191371610241 -1.2201463348367054 1.8047877201369864 2.050091990113041 -0.5200228778509468 1.1399621199565368
1.79873895645 0.0484795164828421 -0.1825049568545306 -1.2270953599789842 1.8052632604888863 2.0503111321718803 -0.5200228778509468 1.1399621199565368
1.79873895645 0.0484795164828421 -0.1825049568545306 -1.2270953599789842 1.8052632604888863 2.0503111321718803 -0.5200228778509468 1.1399621199565368
1.80893492699 0.0484795164828421 -0.1825049568545306 -1.2270953599789842 1.8052632604888863 2.0503111321718803 -0.5200228778509468 1.1399621199565368
1.80893492699 0.0484795164828421 -0.1825049568545306 -1.2270953599789842 1.8052632604888863 2.0503111321718803 -0.5200228778509468 1.1399621199565368
1.81879782677 0.0485101965055454 -0.18221349663885 -1.2305315225217444 1.8054933606591603 2.050165037465987 -0.5200228778509468 1.1399621199565368
1.81879782677 0.0485101965055454 -0.18221349663885 -1.2305315225217444 1.8054933606591603 2.050165037465987 -0.5200228778509468 1.1399621199565368
1.82873988152 0.0485101965055454 -0.18221349663885 -1.2305315225217444 1.8054933606591603 2.050165037465987 -0.5200228778509468 1.1399621199565368
1.82873988152 0.0485101965055454 -0.18221349663885 -1.2305315225217444 1.8054933606591603 2.050165037465987 -0.5200228778509468 1.1399621199565368
1.83870983124 0.0485562165396002 -0.1816612562301922 -1.2338142849509883 1.8056927808067311 2.050329394010117 -0.5200228778509468 1.1399621199565368
1.83870983124 0.0485562165396002 -0.1816612562301922 -1.2338142849509883 1.8056927808067311 2.050329394010117 -0.5200228778509468 1.1399621199565368
1.84894990921 0.0485562165396002 -0.1816612562301922 -1.2338142849509883 1.8056927808067311 2.050329394010117 -0.5200228778509468 1.1399621199565368
1.84894990921 0.0485562165396002 -0.1816612562301922 -1.2338142849509883 1.8056927808067311 2.050329394010117 -0.5200228778509468 1.1399621199565368
1.85887289047 0.0485562165396002 -0.1816612562301922 -1.2338142849509883 1.8056927808067311 2.050329394010117 -0.5200228778509468 1.1399621199565368
1.85887289047 0.0485562165396002 -0.1816612562301922 -1.2338142849509883 1.8056927808067311 2.050329394010117 -0.5200228778509468 1.1399621199565368
1.86886501312 0.0485562165396002 -0.1816612562301922 -1.2338142849509883 1.8056927808067311 2.050329394010117 -0.5200228778509468 1.1399621199565368
1.86886501312 0.0485562165396002 -0.1816612562301922 -1.2338142849509883 1.8056927808067311 2.050329394010117 -0.5200228778509468 1.1399621199565368
1.87890386581 0.0485715565509518 -0.1808635756399085 -1.2365601469829266 1.806045601067818 2.050393310443945 -0.5200228778509468 1.1399621199565368
1.87890386581 0.0485715565509518 -0.1808635756399085 -1.2365601469829266 1.806045601067818 2.050393310443945 -0.5200228778509468 1.1399621199565368
1.88869190216 0.0487709766985226 -0.1799278349474605 -1.2391065888672934 1.8063370612834984 2.0503020012527617 -0.5200228778509468 1.1399621199565368
1.88869190216 0.0487709766985226 -0.1799278349474605 -1.2391065888672934 1.8063370612834984 2.0503020012527617 -0.5200228778509468 1.1399621199565368
1.89892792702 0.0487709766985226 -0.1799278349474605 -1.2391065888672934 1.8063370612834984 2.0503020012527617 -0.5200228778509468 1.1399621199565368
1.89892792702 0.0487709766985226 -0.1799278349474605 -1.2391065888672934 1.8063370612834984 2.0503020012527617 -0.5200228778509468 1.1399621199565368
1.90893697739 0.0490624369142033 -0.1790687943117704 -1.24174507081977 1.806643861510531 2.0501011210321587 -0.5200228778509468 1.1399621199565368
1.90893697739 0.0490624369142033 -0.1790687943117704 -1.24174507081977 1.806643861510531 2.0501011210321587 -0.5200228778509468 1.1399621199565368
1.91889095306 0.0490624369142033 -0.1790687943117704 -1.24174507081977 1.806643861510531 2.0501011210321587 -0.5200228778509468 1.1399621199565368
1.91889095306 0.0490624369142033 -0.1790687943117704 -1.24174507081977 1.806643861510531 2.0501011210321587 -0.5200228778509468 1.1399621199565368
1.92897987366 0.0490624369142033 -0.1790687943117704 -1.24174507081977 1.806643861510531 2.0501011210321587 -0.5200228778509468 1.1399621199565368
1.92897987366 0.0490624369142033 -0.1790687943117704 -1.24174507081977 1.806643861510531 2.0501011210321587 -0.5200228778509468 1.1399621199565368
1.93876981735 0.0493232171071806 -0.1782250936874319 -1.2444295728063015 1.806904641703508 2.050457226877773 -0.5200228778509468 1.1399621199565368
1.93876981735 0.0493232171071806 -0.1782250936874319 -1.2444295728063015 1.806904641703508 2.050457226877773 -0.5200228778509468 1.1399621199565368
1.94890785217 0.0493232171071806 -0.1782250936874319 -1.2444295728063015 1.806904641703508 2.050457226877773 -0.5200228778509468 1.1399621199565368
1.94890785217 0.0493232171071806 -0.1782250936874319 -1.2444295728063015 1.806904641703508 2.050457226877773 -0.5200228778509468 1.1399621199565368
1.95886898041 0.0493232171071806 -0.1782250936874319 -1.2444295728063015 1.806904641703508 2.050457226877773 -0.5200228778509468 1.1399621199565368
1.95886898041 0.0493232171071806 -0.1782250936874319 -1.2444295728063015 1.806904641703508 2.050457226877773 -0.5200228778509468 1.1399621199565368
1.96878194809 0.0496146773228611 -0.1775347931766095 -1.2472981549290525 1.8071654218964852 2.0504024413630635 -0.5200228778509468 1.1399621199565368
1.96878194809 0.0496146773228611 -0.1775347931766095 -1.2472981549290525 1.8071654218964852 2.0504024413630635 -0.5200228778509468 1.1399621199565368
1.9789288044 0.0496146773228611 -0.1775347931766095 -1.2472981549290525 1.8071654218964852 2.0504024413630635 -0.5200228778509468 1.1399621199565368
1.9789288044 0.0496146773228611 -0.1775347931766095 -1.2472981549290525 1.8071654218964852 2.0504024413630635 -0.5200228778509468 1.1399621199565368
1.98859977722 0.0499061375385418 -0.1768905126998419 -1.2505195573128902 1.8074722221235175 2.0502106920615786 -0.5200228778509468 1.1399621199565368
1.98859977722 0.0499061375385418 -0.1768905126998419 -1.2505195573128902 1.8074722221235175 2.0502106920615786 -0.5200228778509468 1.1399621199565368
1.99888777733 0.0501669177315191 -0.1763382722911841 -1.253894359810244 1.8077636823391985 2.0500828591939224 -0.5200228778509468 1.1399621199565368
1.99888777733 0.0501669177315191 -0.1763382722911841 -1.253894359810244 1.8077636823391985 2.0500828591939224 -0.5200228778509468 1.1399621199565368
2.00860786438 0.0501669177315191 -0.1763382722911841 -1.253894359810244 1.8077636823391985 2.0500828591939224 -0.5200228778509468 1.1399621199565368
2.00860786438 0.0501669177315191 -0.1763382722911841 -1.253894359810244 1.8077636823391985 2.0500828591939224 -0.5200228778509468 1.1399621199565368
2.01852083206 0.0505043979812544 -0.1758320519165809 -1.2574685824551688 1.8080244625321755 2.05047548871601 -0.5200228778509468 1.1399621199565368
2.01852083206 0.0505043979812544 -0.1758320519165809 -1.2574685824551688 1.8080244625321755 2.05047548871601 -0.5200228778509468 1.1399621199565368
2.02891087532 0.0505043979812544 -0.1758320519165809 -1.2574685824551688 1.8080244625321755 2.05047548871601 -0.5200228778509468 1.1399621199565368
2.02891087532 0.0505043979812544 -0.1758320519165809 -1.2574685824551688 1.8080244625321755 2.05047548871601 -0.5200228778509468 1.1399621199565368
2.03875088692 0.0514094586509994 -0.1757246718371197 -1.265568108448818 1.8085306829067789 2.0501741683851056 -0.5200228778509468 1.1399621199565368
2.03875088692 0.0514094586509994 -0.1757246718371197 -1.265568108448818 1.8085306829067789 2.0501741683851056 -0.5200228778509468 1.1399621199565368
2.04886889458 0.0514094586509994 -0.1757246718371197 -1.265568108448818 1.8085306829067789 2.0501741683851056 -0.5200228778509468 1.1399621199565368
2.04886889458 0.0514094586509994 -0.1757246718371197 -1.265568108448818 1.8085306829067789 2.0501741683851056 -0.5200228778509468 1.1399621199565368
2.05884480476 0.0514094586509994 -0.1757246718371197 -1.265568108448818 1.8085306829067789 2.0501741683851056 -0.5200228778509468 1.1399621199565368
2.05884480476 0.0514094586509994 -0.1757246718371197 -1.265568108448818 1.8085306829067789 2.0501741683851056 -0.5200228778509468 1.1399621199565368
2.06891989708 0.0518236389574928 -0.1757246718371197 -1.2697405915364557 1.8088221431224591 2.050466357796892 -0.5200228778509468 1.1399621199565368
2.06891989708 0.0518236389574928 -0.1757246718371197 -1.2697405915364557 1.8088221431224591 2.050466357796892 -0.5200228778509468 1.1399621199565368
2.07880377769 0.0518236389574928 -0.1757246718371197 -1.2697405915364557 1.8088221431224591 2.050466357796892 -0.5200228778509468 1.1399621199565368
2.07880377769 0.0518236389574928 -0.1757246718371197 -1.2697405915364557 1.8088221431224591 2.050466357796892 -0.5200228778509468 1.1399621199565368
2.0888569355 0.052207139241283 -0.1757093318257681 -1.2743272549305864 1.809067583304085 2.050484619635128 -0.5200228778509468 1.1399621199565368
2.0888569355 0.052207139241283 -0.1757093318257681 -1.2743272549305864 1.809067583304085 2.050484619635128 -0.5200228778509468 1.1399621199565368
2.09873700142 0.052207139241283 -0.1757093318257681 -1.2743272549305864 1.809067583304085 2.050484619635128 -0.5200228778509468 1.1399621199565368
2.09873700142 0.052207139241283 -0.1757093318257681 -1.2743272549305864 1.809067583304085 2.050484619635128 -0.5200228778509468 1.1399621199565368
2.10894989967 0.052207139241283 -0.1757093318257681 -1.2743272549305864 1.809067583304085 2.050484619635128 -0.5200228778509468 1.1399621199565368
2.10894989967 0.052207139241283 -0.1757093318257681 -1.2743272549305864 1.809067583304085 2.050484619635128 -0.5200228778509468 1.1399621199565368
2.11879301071 0.052207139241283 -0.1757093318257681 -1.2743272549305864 1.809067583304085 2.050484619635128 -0.5200228778509468 1.1399621199565368
2.11879301071 0.052207139241283 -0.1757093318257681 -1.2743272549305864 1.809067583304085 2.050484619635128 -0.5200228778509468 1.1399621199565368
2.12894392014 0.0525752995137216 -0.1757093318257681 -1.2791286784836398 1.8092209834176007 2.0502654775762887 -0.5200228778509468 1.1399621199565368
2.12894392014 0.0525752995137216 -0.1757093318257681 -1.2791286784836398 1.8092209834176007 2.0502654775762887 -0.5200228778509468 1.1399621199565368
2.13867092133 0.0525752995137216 -0.1757093318257681 -1.2791286784836398 1.8092209834176007 2.0502654775762887 -0.5200228778509468 1.1399621199565368
2.13867092133 0.0525752995137216 -0.1757093318257681 -1.2791286784836398 1.8092209834176007 2.0502654775762887 -0.5200228778509468 1.1399621199565368
2.14869499207 0.0530048198315666 -0.1757093318257681 -1.283976122070748 1.8092516634403044 2.0500645973556857 -0.5200228778509468 1.1399621199565368
2.14869499207 0.0530048198315666 -0.1757093318257681 -1.283976122070748 1.8092516634403044 2.0500645973556857 -0.5200228778509468 1.1399621199565368
2.15885877609 0.0531735599564344 -0.1757093318257681 -1.2893911460778658 1.8092516634403044 2.050521143311601 -0.5200228778509468 1.1399621199565368
2.15885877609 0.0531735599564344 -0.1757093318257681 -1.2893911460778658 1.8092516634403044 2.050521143311601 -0.5200228778509468 1.1399621199565368
2.16898584366 0.0531735599564344 -0.1757093318257681 -1.2893911460778658 1.8092516634403044 2.050521143311601 -0.5200228778509468 1.1399621199565368
2.16898584366 0.0531735599564344 -0.1757093318257681 -1.2893911460778658 1.8092516634403044 2.050521143311601 -0.5200228778509468 1.1399621199565368
2.17879700661 0.0531735599564344 -0.1757093318257681 -1.2893911460778658 1.8092516634403044 2.050521143311601 -0.5200228778509468 1.1399621199565368
2.17879700661 0.0531735599564344 -0.1757093318257681 -1.2893911460778658 1.8092516634403044 2.050521143311601 -0.5200228778509468 1.1399621199565368
2.18899178505 0.0531735599564344 -0.1757093318257681 -1.2893911460778658 1.8092516634403044 2.050521143311601 -0.5200228778509468 1.1399621199565368
2.18899178505 0.0531735599564344 -0.1757093318257681 -1.2893911460778658 1.8092516634403044 2.050521143311601 -0.5200228778509468 1.1399621199565368
2.1989428997 0.0531735599564344 -0.1757093318257681 -1.2893911460778658 1.8092516634403044 2.050521143311601 -0.5200228778509468 1.1399621199565368
2.1989428997 0.0531735599564344 -0.1757093318257681 -1.2893911460778658 1.8092516634403044 2.050521143311601 -0.5200228778509468 1.1399621199565368
2.20895981789 0.0531735599564344 -0.1757093318257681 -1.2893911460778658 1.8092516634403044 2.050521143311601 -0.5200228778509468 1.1399621199565368
2.20895981789 0.0531735599564344 -0.1757093318257681 -1.2893911460778658 1.8092516634403044 2.050521143311601 -0.5200228778509468 1.1399621199565368
2.21895384789 0.0532195799904892 -0.1757093318257681 -1.29486753013039 1.8092516634403044 2.0503750486057086 -0.5200228778509468 1.1399621199565368
2.21895384789 0.0532195799904892 -0.1757093318257681 -1.29486753013039 1.8092516634403044 2.0503750486057086 -0.5200228778509468 1.1399621199565368
2.22896099091 0.05341900013806 -0.1757093318257681 -1.3067406989165349 1.8092516634403044 2.050028073679212 -0.5200228778509468 1.1399621199565368
2.22896099091 0.05341900013806 -0.1757093318257681 -1.3067406989165349 1.8092516634403044 2.050028073679212 -0.5200228778509468 1.1399621199565368
2.23855280876 0.0538331804445535 -0.1756633117917133 -1.318843967872954 1.8092516634403044 2.050028073679212 -0.5200228778509468 1.1399621199565368
2.23855280876 0.0538331804445535 -0.1756633117917133 -1.318843967872954 1.8092516634403044 2.050028073679212 -0.5200228778509468 1.1399621199565368
2.24868392944 0.0538331804445535 -0.1756633117917133 -1.318843967872954 1.8092516634403044 2.050028073679212 -0.5200228778509468 1.1399621199565368
2.24868392944 0.0538331804445535 -0.1756633117917133 -1.318843967872954 1.8092516634403044 2.050028073679212 -0.5200228778509468 1.1399621199565368
2.25887680054 0.0539405605240148 -0.1754945716668456 -1.3252407526065746 1.8092516634403044 2.050028073679212 -0.5200228778509468 1.1399621199565368
2.25887680054 0.0539405605240148 -0.1754945716668456 -1.3252407526065746 1.8092516634403044 2.050028073679212 -0.5200228778509468 1.1399621199565368
2.26890397072 0.0539405605240148 -0.1754945716668456 -1.3252407526065746 1.8092516634403044 2.050028073679212 -0.5200228778509468 1.1399621199565368
2.26890397072 0.0539405605240148 -0.1754945716668456 -1.3252407526065746 1.8092516634403044 2.050028073679212 -0.5200228778509468 1.1399621199565368
2.27887296677 0.0539405605240148 -0.1754945716668456 -1.3252407526065746 1.8092516634403044 2.050028073679212 -0.5200228778509468 1.1399621199565368
2.27887296677 0.0539405605240148 -0.1754945716668456 -1.3252407526065746 1.8092516634403044 2.050028073679212 -0.5200228778509468 1.1399621199565368
2.28895783424 0.0539405605240148 -0.1754945716668456 -1.3252407526065746 1.8092516634403044 2.050028073679212 -0.5200228778509468 1.1399621199565368
2.28895783424 0.0539405605240148 -0.1754945716668456 -1.3252407526065746 1.8092516634403044 2.050028073679212 -0.5200228778509468 1.1399621199565368
2.29893898964 0.0540172605807729 -0.1754332116214391 -1.3316068573174922 1.8092516634403044 2.050037204598331 -0.5200228778509468 1.1399621199565368
2.29893898964 0.0540172605807729 -0.1754332116214391 -1.3316068573174922 1.8092516634403044 2.050037204598331 -0.5200228778509468 1.1399621199565368
2.3087978363 0.0541706606942888 -0.1753718515760328 -1.338233742221387 1.8092516634403044 2.050037204598331 -0.5200228778509468 1.1399621199565368
2.3087978363 0.0541706606942888 -0.1753718515760328 -1.338233742221387 1.8092516634403044 2.050037204598331 -0.5200228778509468 1.1399621199565368
2.31870388985 0.0543394008191566 -0.1753565115646811 -1.3447532470458206 1.8092516634403044 2.050037204598331 -0.5200228778509468 1.1399621199565368
2.31870388985 0.0543394008191566 -0.1753565115646811 -1.3447532470458206 1.8092516634403044 2.050037204598331 -0.5200228778509468 1.1399621199565368
2.32894086838 0.0543394008191566 -0.1753565115646811 -1.3447532470458206 1.8092516634403044 2.050037204598331 -0.5200228778509468 1.1399621199565368
2.32894086838 0.0543394008191566 -0.1753565115646811 -1.3447532470458206 1.8092516634403044 2.050037204598331 -0.5200228778509468 1.1399621199565368
2.33877301216 0.0544621209099695 -0.1753565115646811 -1.3514568320064737 1.8092516634403044 2.0501467756277503 -0.5200228778509468 1.1399621199565368
2.33877301216 0.0544621209099695 -0.1753565115646811 -1.3514568320064737 1.8092516634403044 2.0501467756277503 -0.5200228778509468 1.1399621199565368
2.34892392159 0.0544621209099695 -0.1753565115646811 -1.3514568320064737 1.8092516634403044 2.0501467756277503 -0.5200228778509468 1.1399621199565368
2.34892392159 0.0544621209099695 -0.1753565115646811 -1.3514568320064737 1.8092516634403044 2.0501467756277503 -0.5200228778509468 1.1399621199565368
2.35907697678 0.0544621209099695 -0.1753565115646811 -1.3514568320064737 1.8092516634403044 2.0501467756277503 -0.5200228778509468 1.1399621199565368
2.35907697678 0.0544621209099695 -0.1753565115646811 -1.3514568320064737 1.8092516634403044 2.0501467756277503 -0.5200228778509468 1.1399621199565368
2.36896181107 0.0544621209099695 -0.1753565115646811 -1.3514568320064737 1.8092516634403044 2.0501467756277503 -0.5200228778509468 1.1399621199565368
2.36896181107 0.0544621209099695 -0.1753565115646811 -1.3514568320064737 1.8092516634403044 2.0501467756277503 -0.5200228778509468 1.1399621199565368
2.37890791893 0.0544621209099695 -0.1753565115646811 -1.3514568320064737 1.8092516634403044 2.0501467756277503 -0.5200228778509468 1.1399621199565368
2.37890791893 0.0544621209099695 -0.1753565115646811 -1.3514568320064737 1.8092516634403044 2.0501467756277503 -0.5200228778509468 1.1399621199565368
2.38948082924 0.0545234809553758 -0.1753411715533295 -1.364787301871021 1.8092516634403044 2.05036591768659 -0.5200228778509468 1.1399621199565368
2.38948082924 0.0545234809553758 -0.1753411715533295 -1.364787301871021 1.8092516634403044 2.05036591768659 -0.5200228778509468 1.1399621199565368
2.39876484871 0.0546462010461887 -0.1753411715533295 -1.371414186774916 1.8092516634403044 2.050183299304224 -0.5200228778509468 1.1399621199565368
2.39876484871 0.0546462010461887 -0.1753411715533295 -1.371414186774916 1.8092516634403044 2.050183299304224 -0.5200228778509468 1.1399621199565368
2.40896582603 0.0546462010461887 -0.1753411715533295 -1.371414186774916 1.8092516634403044 2.050183299304224 -0.5200228778509468 1.1399621199565368
2.40896582603 0.0546462010461887 -0.1753411715533295 -1.371414186774916 1.8092516634403044 2.050183299304224 -0.5200228778509468 1.1399621199565368
2.41881990433 0.05475358112565 -0.1753411715533295 -1.3776575713950203 1.8092516634403044 2.0499915500027392 -0.5200228778509468 1.1399621199565368
2.41881990433 0.05475358112565 -0.1753411715533295 -1.3776575713950203 1.8092516634403044 2.0499915500027392 -0.5200228778509468 1.1399621199565368
2.42892289162 0.05475358112565 -0.1753411715533295 -1.3776575713950203 1.8092516634403044 2.0499915500027392 -0.5200228778509468 1.1399621199565368
2.42892289162 0.05475358112565 -0.1753411715533295 -1.3776575713950203 1.8092516634403044 2.0499915500027392 -0.5200228778509468 1.1399621199565368
2.43951296806 0.05475358112565 -0.1753411715533295 -1.3776575713950203 1.8092516634403044 2.0499915500027392 -0.5200228778509468 1.1399621199565368
2.43951296806 0.05475358112565 -0.1753411715533295 -1.3776575713950203 1.8092516634403044 2.0499915500027392 -0.5200228778509468 1.1399621199565368
2.4489338398 0.05475358112565 -0.1753411715533295 -1.3776575713950203 1.8092516634403044 2.0499915500027392 -0.5200228778509468 1.1399621199565368
2.4489338398 0.05475358112565 -0.1753411715533295 -1.3776575713950203 1.8092516634403044 2.0499915500027392 -0.5200228778509468 1.1399621199565368
2.45886993408 0.05475358112565 -0.1753411715533295 -1.3776575713950203 1.8092516634403044 2.0499915500027392 -0.5200228778509468 1.1399621199565368
2.45886993408 0.05475358112565 -0.1753411715533295 -1.3776575713950203 1.8092516634403044 2.0499915500027392 -0.5200228778509468 1.1399621199565368
2.46877980232 0.0547842611483532 -0.1753258315419779 -1.3900829805898234 1.8092209834176007 2.0499915500027392 -0.5200228778509468 1.1399621199565368
2.46877980232 0.0547842611483532 -0.1753258315419779 -1.3900829805898234 1.8092209834176007 2.0499915500027392 -0.5200228778509468 1.1399621199565368
2.47872591019 0.0547842611483532 -0.1753258315419779 -1.3900829805898234 1.8092209834176007 2.0499915500027392 -0.5200228778509468 1.1399621199565368
2.47872591019 0.0547842611483532 -0.1753258315419779 -1.3900829805898234 1.8092209834176007 2.0499915500027392 -0.5200228778509468 1.1399621199565368
2.48870182037 0.0547996011597049 -0.1753104915306263 -1.395896844892083 1.809174963383546 2.0499915500027392 -0.5200228778509468 1.1399621199565368
2.48870182037 0.0547996011597049 -0.1753104915306263 -1.395896844892083 1.809174963383546 2.0499915500027392 -0.5200228778509468 1.1399621199565368
2.49885892868 0.0547996011597049 -0.1753104915306263 -1.4019101293419134 1.80902156327003 2.0499915500027392 -0.5200228778509468 1.1399621199565368
2.49885892868 0.0547996011597049 -0.1753104915306263 -1.4019101293419134 1.80902156327003 2.0499915500027392 -0.5200228778509468 1.1399621199565368
2.50897192955 0.0547996011597049 -0.1753104915306263 -1.4019101293419134 1.80902156327003 2.0499915500027392 -0.5200228778509468 1.1399621199565368
2.50897192955 0.0547996011597049 -0.1753104915306263 -1.4019101293419134 1.80902156327003 2.0499915500027392 -0.5200228778509468 1.1399621199565368
2.51891684532 0.0547996011597049 -0.1753104915306263 -1.4019101293419134 1.80902156327003 2.0499915500027392 -0.5200228778509468 1.1399621199565368
2.51891684532 0.0547996011597049 -0.1753104915306263 -1.4019101293419134 1.80902156327003 2.0499915500027392 -0.5200228778509468 1.1399621199565368
2.52877783775 0.0547996011597049 -0.1753104915306263 -1.4019101293419134 1.80902156327003 2.0499915500027392 -0.5200228778509468 1.1399621199565368
2.52877783775 0.0547996011597049 -0.1753104915306263 -1.4019101293419134 1.80902156327003 2.0499915500027392 -0.5200228778509468 1.1399621199565368
2.53887486458 0.0547996011597049 -0.1752951515192747 -1.4075092334852506 1.8086840830202948 2.0499915500027392 -0.5200228778509468 1.1399621199565368
2.53887486458 0.0547996011597049 -0.1752951515192747 -1.4075092334852506 1.8086840830202948 2.0499915500027392 -0.5200228778509468 1.1399621199565368
2.54915785789 0.0547996011597049 -0.1751877714398135 -1.4135685379691358 1.8082545627024496 2.0499915500027392 -0.5200228778509468 1.1399621199565368
2.54915785789 0.0547996011597049 -0.1751877714398135 -1.4135685379691358 1.8082545627024496 2.0499915500027392 -0.5200228778509468 1.1399621199565368
2.55888080597 0.0547996011597049 -0.1742366907360137 -1.4192903622032855 1.8078710624186596 2.0499915500027392 -0.5200228778509468 1.1399621199565368
2.55888080597 0.0547996011597049 -0.1742366907360137 -1.4192903622032855 1.8078710624186596 2.0499915500027392 -0.5200228778509468 1.1399621199565368
2.56894993782 0.0547996011597049 -0.1742366907360137 -1.4192903622032855 1.8078710624186596 2.0499915500027392 -0.5200228778509468 1.1399621199565368
2.56894993782 0.0547996011597049 -0.1742366907360137 -1.4192903622032855 1.8078710624186596 2.0499915500027392 -0.5200228778509468 1.1399621199565368
2.57888484001 0.0547996011597049 -0.1722885092943595 -1.4245826661195906 1.807380182055408 2.0500006809218574 -0.5200228778509468 1.1399621199565368
2.57888484001 0.0547996011597049 -0.1722885092943595 -1.4245826661195906 1.807380182055408 2.0500006809218574 -0.5200228778509468 1.1399621199565368
2.58878183365 0.0547996011597049 -0.1722885092943595 -1.4245826661195906 1.807380182055408 2.0500006809218574 -0.5200228778509468 1.1399621199565368
2.58878183365 0.0547996011597049 -0.1722885092943595 -1.4245826661195906 1.807380182055408 2.0500006809218574 -0.5200228778509468 1.1399621199565368
2.59886479378 0.0547996011597049 -0.1722885092943595 -1.4245826661195906 1.807380182055408 2.0500006809218574 -0.5200228778509468 1.1399621199565368
2.59886479378 0.0547996011597049 -0.1722885092943595 -1.4245826661195906 1.807380182055408 2.0500006809218574 -0.5200228778509468 1.1399621199565368
2.60875296593 0.0547996011597049 -0.1722885092943595 -1.4245826661195906 1.807380182055408 2.0500006809218574 -0.5200228778509468 1.1399621199565368
2.60875296593 0.0547996011597049 -0.1722885092943595 -1.4245826661195906 1.807380182055408 2.0500006809218574 -0.5200228778509468 1.1399621199565368
2.61881494522 0.0547996011597049 -0.166551345048858 -1.4338480329759622 1.8063217212721472 2.0502654775762887 -0.5200228778509468 1.1399621199565368
2.61881494522 0.0547996011597049 -0.166551345048858 -1.4338480329759622 1.8063217212721472 2.0502654775762887 -0.5200228778509468 1.1399621199565368
2.62878394127 0.0547996011597049 -0.166551345048858 -1.4338480329759622 1.8063217212721472 2.0502654775762887 -0.5200228778509468 1.1399621199565368
2.62878394127 0.0547996011597049 -0.166551345048858 -1.4338480329759622 1.8063217212721472 2.0502654775762887 -0.5200228778509468 1.1399621199565368
2.63870787621 0.0547996011597049 -0.1637287829601619 -1.4383886763360385 1.8057848208748408 2.0504207032013 -0.5200228778509468 1.1399621199565368
2.63870787621 0.0547996011597049 -0.1637287829601619 -1.4383886763360385 1.8057848208748408 2.0504207032013 -0.5200228778509468 1.1399621199565368
2.6489470005 0.0547996011597049 -0.1637287829601619 -1.4383886763360385 1.8057848208748408 2.0504207032013 -0.5200228778509468 1.1399621199565368
2.6489470005 0.0547996011597049 -0.1637287829601619 -1.4383886763360385 1.8057848208748408 2.0504207032013 -0.5200228778509468 1.1399621199565368
2.65876889229 0.0547996011597049 -0.1610289409622788 -1.4430673797982787 1.805033160318612 2.0503020012527617 -0.5200228778509468 1.1399621199565368
2.65876889229 0.0547996011597049 -0.1610289409622788 -1.4430673797982787 1.805033160318612 2.0503020012527617 -0.5200228778509468 1.1399621199565368
2.66890597343 0.0547996011597049 -0.1610289409622788 -1.4430673797982787 1.805033160318612 2.0503020012527617 -0.5200228778509468 1.1399621199565368
2.66890597343 0.0547996011597049 -0.1610289409622788 -1.4430673797982787 1.805033160318612 2.0503020012527617 -0.5200228778509468 1.1399621199565368
2.67888092995 0.0547996011597049 -0.1610289409622788 -1.4430673797982787 1.805033160318612 2.0503020012527617 -0.5200228778509468 1.1399621199565368
2.67888092995 0.0547996011597049 -0.1610289409622788 -1.4430673797982787 1.805033160318612 2.0503020012527617 -0.5200228778509468 1.1399621199565368
2.68885183334 0.0547996011597049 -0.1610289409622788 -1.4430673797982787 1.805033160318612 2.0503020012527617 -0.5200228778509468 1.1399621199565368
2.68885183334 0.0547996011597049 -0.1610289409622788 -1.4430673797982787 1.805033160318612 2.0503020012527617 -0.5200228778509468 1.1399621199565368
2.69886398315 0.0547996011597049 -0.1587279392595376 -1.447515983090245 1.8037599393764283 2.050091990113041 -0.5200228778509468 1.1399621199565368
2.69886398315 0.0547996011597049 -0.1587279392595376 -1.447515983090245 1.8037599393764283 2.050091990113041 -0.5200228778509468 1.1399621199565368
2.708796978 0.0547996011597049 -0.156672377738422 -1.451979926393563 1.8017964179234227 2.050512012392484 -0.5200228778509468 1.1399621199565368
2.708796978 0.0547996011597049 -0.156672377738422 -1.451979926393563 1.8017964179234227 2.050512012392484 -0.5200228778509468 1.1399621199565368
2.71886992455 0.0547996011597049 -0.1546935162740646 -1.4564285296855295 1.7991272559482427 2.050448095958655 -0.5200228778509468 1.1399621199565368
2.71886992455 0.0547996011597049 -0.1546935162740646 -1.4564285296855295 1.7991272559482427 2.050448095958655 -0.5200228778509468 1.1399621199565368
2.72895479202 0.0547996011597049 -0.1546935162740646 -1.4564285296855295 1.7991272559482427 2.050448095958655 -0.5200228778509468 1.1399621199565368
2.72895479202 0.0547996011597049 -0.1546935162740646 -1.4564285296855295 1.7991272559482427 2.050448095958655 -0.5200228778509468 1.1399621199565368
2.73878097534 0.0547996011597049 -0.1530061150253877 -1.460693052841277 1.7959365335871085 2.050219822980697 -0.5200228778509468 1.1399621199565368
2.73878097534 0.0547996011597049 -0.1530061150253877 -1.460693052841277 1.7959365335871085 2.050219822980697 -0.5200228778509468 1.1399621199565368
2.74874091148 0.0547996011597049 -0.1530061150253877 -1.460693052841277 1.7959365335871085 2.050219822980697 -0.5200228778509468 1.1399621199565368
2.74874091148 0.0547996011597049 -0.1530061150253877 -1.460693052841277 1.7959365335871085 2.050219822980697 -0.5200228778509468 1.1399621199565368
2.75885987282 0.0547996011597049 -0.1530061150253877 -1.460693052841277 1.7959365335871085 2.050219822980697 -0.5200228778509468 1.1399621199565368
2.75885987282 0.0547996011597049 -0.1530061150253877 -1.460693052841277 1.7959365335871085 2.050219822980697 -0.5200228778509468 1.1399621199565368
2.76874995232 0.0547996011597049 -0.1530061150253877 -1.460693052841277 1.7959365335871085 2.050219822980697 -0.5200228778509468 1.1399621199565368
2.76874995232 0.0547996011597049 -0.1530061150253877 -1.460693052841277 1.7959365335871085 2.050219822980697 -0.5200228778509468 1.1399621199565368
2.7788438797 0.0547996011597049 -0.1513033737653592 -1.46511097611054 1.792270270874074 2.050091990113041 -0.5200228778509468 1.1399621199565368
2.7788438797 0.0547996011597049 -0.1513033737653592 -1.46511097611054 1.792270270874074 2.050091990113041 -0.5200228778509468 1.1399621199565368
2.78901600838 0.0547996011597049 -0.1513033737653592 -1.46511097611054 1.792270270874074 2.050091990113041 -0.5200228778509468 1.1399621199565368
2.78901600838 0.0547996011597049 -0.1513033737653592 -1.46511097611054 1.792270270874074 2.050091990113041 -0.5200228778509468 1.1399621199565368
2.79878497124 0.0547996011597049 -0.1513033737653592 -1.46511097611054 1.792270270874074 2.050091990113041 -0.5200228778509468 1.1399621199565368
2.79878497124 0.0547996011597049 -0.1513033737653592 -1.46511097611054 1.792270270874074 2.050091990113041 -0.5200228778509468 1.1399621199565368
2.80881595612 0.0547842611483532 -0.1496313125280339 -1.4692374391641227 1.7879443876729202 2.050512012392484 -0.5200228778509468 1.1399621199565368
2.80881595612 0.0547842611483532 -0.1496313125280339 -1.4692374391641227 1.7879443876729202 2.050512012392484 -0.5200228778509468 1.1399621199565368
2.81888484955 0.0547689211370016 -0.148373431597202 -1.4731338020474312 1.7828821839268894 2.0503476558483533 -0.5200228778509468 1.1399621199565368
2.81888484955 0.0547689211370016 -0.148373431597202 -1.4731338020474312 1.7828821839268894 2.0503476558483533 -0.5200228778509468 1.1399621199565368
2.82892179489 0.0547689211370016 -0.148373431597202 -1.4731338020474312 1.7828821839268894 2.0503476558483533 -0.5200228778509468 1.1399621199565368
2.82892179489 0.0547689211370016 -0.148373431597202 -1.4731338020474312 1.7828821839268894 2.0503476558483533 -0.5200228778509468 1.1399621199565368
2.83886790276 0.0547689211370016 -0.148373431597202 -1.4731338020474312 1.7828821839268894 2.0503476558483533 -0.5200228778509468 1.1399621199565368
2.83886790276 0.0547689211370016 -0.148373431597202 -1.4731338020474312 1.7828821839268894 2.0503476558483533 -0.5200228778509468 1.1399621199565368
2.84896087646 0.05475358112565 -0.1468854504960959 -1.4772449250896622 1.7771450196813878 2.050128513789514 -0.5200228778509468 1.1399621199565368
2.84896087646 0.05475358112565 -0.1468854504960959 -1.4772449250896622 1.7771450196813878 2.050128513789514 -0.5200228778509468 1.1399621199565368
2.85882282257 0.05475358112565 -0.145198049247419 -1.4804509874621483 1.771377175413183 2.05053027423072 -0.5200228778509468 1.1399621199565368
2.85882282257 0.05475358112565 -0.145198049247419 -1.4804509874621483 1.771377175413183 2.05053027423072 -0.5200228778509468 1.1399621199565368
2.86884498596 0.05475358112565 -0.1437100681463129 -1.4831815094827348 1.765271850895243 2.050484619635128 -0.5200228778509468 1.1399621199565368
2.86884498596 0.05475358112565 -0.1437100681463129 -1.4831815094827348 1.765271850895243 2.050484619635128 -0.5200228778509468 1.1399621199565368
2.87921190262 0.0547382411142984 -0.1429584075900842 -1.4860500916054855 1.758813706116216 2.050238084818934 -0.5200228778509468 1.1399621199565368
2.87921190262 0.0547382411142984 -0.1429584075900842 -1.4860500916054855 1.758813706116216 2.050238084818934 -0.5200228778509468 1.1399621199565368
2.88863492012 0.0547382411142984 -0.1429584075900842 -1.4860500916054855 1.758813706116216 2.050238084818934 -0.5200228778509468 1.1399621199565368
2.88863492012 0.0547382411142984 -0.1429584075900842 -1.4860500916054855 1.758813706116216 2.050238084818934 -0.5200228778509468 1.1399621199565368
2.89886593819 0.0547382411142984 -0.1429584075900842 -1.4860500916054855 1.758813706116216 2.050238084818934 -0.5200228778509468 1.1399621199565368
2.89886593819 0.0547382411142984 -0.1429584075900842 -1.4860500916054855 1.758813706116216 2.050238084818934 -0.5200228778509468 1.1399621199565368
2.90896081924 0.0547382411142984 -0.1429584075900842 -1.4860500916054855 1.758813706116216 2.050238084818934 -0.5200228778509468 1.1399621199565368
2.90896081924 0.0547382411142984 -0.1429584075900842 -1.4860500916054855 1.758813706116216 2.050238084818934 -0.5200228778509468 1.1399621199565368
2.91885495186 0.0547382411142984 -0.1429584075900842 -1.4860500916054855 1.758813706116216 2.050238084818934 -0.5200228778509468 1.1399621199565368
2.91885495186 0.0547382411142984 -0.1429584075900842 -1.4860500916054855 1.758813706116216 2.050238084818934 -0.5200228778509468 1.1399621199565368
2.92896389961 0.0547382411142984 -0.1429584075900842 -1.4860500916054855 1.758813706116216 2.050238084818934 -0.5200228778509468 1.1399621199565368
2.92896389961 0.0547382411142984 -0.1429584075900842 -1.4860500916054855 1.758813706116216 2.050238084818934 -0.5200228778509468 1.1399621199565368
2.93886494637 0.0547382411142984 -0.1429584075900842 -1.4860500916054855 1.758813706116216 2.050238084818934 -0.5200228778509468 1.1399621199565368
2.93886494637 0.0547382411142984 -0.1429584075900842 -1.4860500916054855 1.758813706116216 2.050238084818934 -0.5200228778509468 1.1399621199565368
2.9489979744 0.0545848410007822 -0.1424828672381843 -1.4903146147612327 1.7449923558884166 2.050018942760094 -0.5200228778509468 1.1399621199565368
2.9489979744 0.0545848410007822 -0.1424828672381843 -1.4903146147612327 1.7449923558884166 2.050018942760094 -0.5200228778509468 1.1399621199565368
2.95907092094 0.0545848410007822 -0.1424828672381843 -1.4903146147612327 1.7449923558884166 2.050018942760094 -0.5200228778509468 1.1399621199565368
2.95907092094 0.0545848410007822 -0.1424828672381843 -1.4903146147612327 1.7449923558884166 2.050018942760094 -0.5200228778509468 1.1399621199565368
2.96856999397 0.0536644403196857 -0.142298787101965 -1.493167856872632 1.7305113851724985 2.050018942760094 -0.5200228778509468 1.1399621199565368
2.96856999397 0.0536644403196857 -0.142298787101965 -1.493167856872632 1.7305113851724985 2.050018942760094 -0.5200228778509468 1.1399621199565368
2.97888088226 0.0529587997975117 -0.1419919868749329 -1.4944410778148154 1.7230714796669682 2.050018942760094 -0.5200228778509468 1.1399621199565368
2.97888088226 0.0529587997975117 -0.1419919868749329 -1.4944410778148154 1.7230714796669682 2.050018942760094 -0.5200228778509468 1.1399621199565368
2.98874878883 0.0529587997975117 -0.1419919868749329 -1.4944410778148154 1.7230714796669682 2.050018942760094 -0.5200228778509468 1.1399621199565368
2.98874878883 0.0529587997975117 -0.1419919868749329 -1.4944410778148154 1.7230714796669682 2.050018942760094 -0.5200228778509468 1.1399621199565368
2.99886393547 0.0529587997975117 -0.1419919868749329 -1.4944410778148154 1.7230714796669682 2.050018942760094 -0.5200228778509468 1.1399621199565368
2.99886393547 0.0529587997975117 -0.1419919868749329 -1.4944410778148154 1.7230714796669682 2.050018942760094 -0.5200228778509468 1.1399621199565368
3.00887584686 0.0519616990596573 -0.1418539267727683 -1.4957296387683503 1.7154321540138673 2.050028073679212 -0.5200228778509468 1.1399621199565368
3.00887584686 0.0519616990596573 -0.1418539267727683 -1.4957296387683503 1.7154321540138673 2.050028073679212 -0.5200228778509468 1.1399621199565368
3.01877379417 0.0519616990596573 -0.1418539267727683 -1.4957296387683503 1.7154321540138673 2.050028073679212 -0.5200228778509468 1.1399621199565368
3.01877379417 0.0519616990596573 -0.1418539267727683 -1.4957296387683503 1.7154321540138673 2.050028073679212 -0.5200228778509468 1.1399621199565368
3.02895593643 0.0519616990596573 -0.1418539267727683 -1.4957296387683503 1.7154321540138673 2.050028073679212 -0.5200228778509468 1.1399621199565368
3.02895593643 0.0519616990596573 -0.1418539267727683 -1.4957296387683503 1.7154321540138673 2.050028073679212 -0.5200228778509468 1.1399621199565368
3.03887987137 0.0508878982650446 -0.1418385867614167 -1.4973249999489178 1.7079462284742826 2.050028073679212 -0.5200228778509468 1.1399621199565368
3.03887987137 0.0508878982650446 -0.1418385867614167 -1.4973249999489178 1.7079462284742826 2.050028073679212 -0.5200228778509468 1.1399621199565368
3.04896497726 0.049737397413674 -0.1418385867614167 -1.4992271613565171 1.7004449629233458 2.050028073679212 -0.5200228778509468 1.1399621199565368
3.04896497726 0.049737397413674 -0.1418385867614167 -1.4992271613565171 1.7004449629233458 2.050028073679212 -0.5200228778509468 1.1399621199565368
3.05883193016 0.0488630167666323 -0.1418385867614167 -1.5015741830933131 1.6929283573610576 2.050037204598331 -0.5200228778509468 1.1399621199565368
3.05883193016 0.0488630167666323 -0.1418385867614167 -1.5015741830933131 1.6929283573610576 2.050037204598331 -0.5200228778509468 1.1399621199565368
3.06880784035 0.0488630167666323 -0.1418385867614167 -1.5015741830933131 1.6929283573610576 2.050037204598331 -0.5200228778509468 1.1399621199565368
3.06880784035 0.0488630167666323 -0.1418385867614167 -1.5015741830933131 1.6929283573610576 2.050037204598331 -0.5200228778509468 1.1399621199565368
3.07872891426 0.0483721364033808 -0.1418385867614167 -1.5042740250911963 1.6849362114468698 2.0504115722821816 -0.5200228778509468 1.1399621199565368
3.07872891426 0.0483721364033808 -0.1418385867614167 -1.5042740250911963 1.6849362114468698 2.0504115722821816 -0.5200228778509468 1.1399621199565368
3.08887195587 0.0483721364033808 -0.1418385867614167 -1.5042740250911963 1.6849362114468698 2.0504115722821816 -0.5200228778509468 1.1399621199565368
3.08887195587 0.0483721364033808 -0.1418385867614167 -1.5042740250911963 1.6849362114468698 2.0504115722821816 -0.5200228778509468 1.1399621199565368
3.09885692596 0.0483721364033808 -0.1418385867614167 -1.5042740250911963 1.6849362114468698 2.0504115722821816 -0.5200228778509468 1.1399621199565368
3.09885692596 0.0483721364033808 -0.1418385867614167 -1.5042740250911963 1.6849362114468698 2.0504115722821816 -0.5200228778509468 1.1399621199565368
3.10892796516 0.0483721364033808 -0.1418385867614167 -1.5042740250911963 1.6849362114468698 2.0504115722821816 -0.5200228778509468 1.1399621199565368
3.10892796516 0.0483721364033808 -0.1418385867614167 -1.5042740250911963 1.6849362114468698 2.0504115722821816 -0.5200228778509468 1.1399621199565368
3.11888885498 0.0482494163125681 -0.1418385867614167 -1.5117906306534843 1.6688752195617358 2.050238084818934 -0.5200228778509468 1.1399621199565368
3.11888885498 0.0482494163125681 -0.1418385867614167 -1.5117906306534843 1.6688752195617358 2.050238084818934 -0.5200228778509468 1.1399621199565368
3.12896800041 0.0482494163125681 -0.1418385867614167 -1.5117906306534843 1.6688752195617358 2.050238084818934 -0.5200228778509468 1.1399621199565368
3.12896800041 0.0482494163125681 -0.1418385867614167 -1.5117906306534843 1.6688752195617358 2.050238084818934 -0.5200228778509468 1.1399621199565368
3.13890695572 0.0482800963352713 -0.1418385867614167 -1.5165306941611314 1.661036473761064 2.050028073679212 -0.5200228778509468 1.1399621199565368
3.13890695572 0.0482800963352713 -0.1418385867614167 -1.5165306941611314 1.661036473761064 2.050028073679212 -0.5200228778509468 1.1399621199565368
3.14887690544 0.0482800963352713 -0.1418385867614167 -1.5165306941611314 1.661036473761064 2.050028073679212 -0.5200228778509468 1.1399621199565368
3.14887690544 0.0482800963352713 -0.1418385867614167 -1.5165306941611314 1.661036473761064 2.050028073679212 -0.5200228778509468 1.1399621199565368
3.158867836 0.0483567963920292 -0.1418385867614167 -1.5217616380320298 1.653320448051205 2.0500098118409755 -0.5200228778509468 1.1399621199565368
3.158867836 0.0483567963920292 -0.1418385867614167 -1.5217616380320298 1.653320448051205 2.0500098118409755 -0.5200228778509468 1.1399621199565368
3.1689260006 0.0483567963920292 -0.1418385867614167 -1.5217616380320298 1.653320448051205 2.0500098118409755 -0.5200228778509468 1.1399621199565368
3.1689260006 0.0483567963920292 -0.1418385867614167 -1.5217616380320298 1.653320448051205 2.0500098118409755 -0.5200228778509468 1.1399621199565368
3.17907094955 0.0483567963920292 -0.1418385867614167 -1.5217616380320298 1.653320448051205 2.0500098118409755 -0.5200228778509468 1.1399621199565368
3.17907094955 0.0483567963920292 -0.1418385867614167 -1.5217616380320298 1.653320448051205 2.0500098118409755 -0.5200228778509468 1.1399621199565368
3.18866491318 0.0483567963920292 -0.1418385867614167 -1.5217616380320298 1.653320448051205 2.0500098118409755 -0.5200228778509468 1.1399621199565368
3.18866491318 0.0483567963920292 -0.1418385867614167 -1.5217616380320298 1.653320448051205 2.0500098118409755 -0.5200228778509468 1.1399621199565368
3.19880986214 0.0483567963920292 -0.1418385867614167 -1.5278362825272669 1.6461259827273007 2.0500098118409755 -0.5200228778509468 1.1399621199565368
3.19880986214 0.0483567963920292 -0.1418385867614167 -1.5278362825272669 1.6461259827273007 2.0500098118409755 -0.5200228778509468 1.1399621199565368
3.20891880989 0.0483567963920292 -0.1418385867614167 -1.5278362825272669 1.6461259827273007 2.0500098118409755 -0.5200228778509468 1.1399621199565368
3.20891880989 0.0483567963920292 -0.1418385867614167 -1.5278362825272669 1.6461259827273007 2.0500098118409755 -0.5200228778509468 1.1399621199565368
3.21876978874 0.0483567963920292 -0.1418385867614167 -1.5278362825272669 1.6461259827273007 2.0500098118409755 -0.5200228778509468 1.1399621199565368
3.21876978874 0.0483567963920292 -0.1418385867614167 -1.5278362825272669 1.6461259827273007 2.0500098118409755 -0.5200228778509468 1.1399621199565368
3.22884678841 0.0483567963920292 -0.1418385867614167 -1.5278362825272669 1.6461259827273007 2.0500098118409755 -0.5200228778509468 1.1399621199565368
3.22884678841 0.0483567963920292 -0.1418385867614167 -1.5278362825272669 1.6461259827273007 2.0500098118409755 -0.5200228778509468 1.1399621199565368
3.23874592781 0.0483567963920292 -0.1418385867614167 -1.534079667147371 1.639330357698538 2.0500098118409755 -0.5200228778509468 1.1399621199565368
3.23874592781 0.0483567963920292 -0.1418385867614167 -1.534079667147371 1.639330357698538 2.0500098118409755 -0.5200228778509468 1.1399621199565368
3.24884796143 0.0474363957109329 -0.1418232467500652 -1.5469652766827224 1.6246806468577522 2.050018942760094 -0.5200228778509468 1.1399621199565368
3.24884796143 0.0474363957109329 -0.1418232467500652 -1.5469652766827224 1.6246806468577522 2.050018942760094 -0.5200228778509468 1.1399621199565368
3.25903391838 0.047037555415791 -0.1418232467500652 -1.5532853613595852 1.6172100613295186 2.050018942760094 -0.5200228778509468 1.1399621199565368
3.25903391838 0.047037555415791 -0.1418232467500652 -1.5532853613595852 1.6172100613295186 2.050018942760094 -0.5200228778509468 1.1399621199565368
3.26892900467 0.047037555415791 -0.1418232467500652 -1.5532853613595852 1.6172100613295186 2.050018942760094 -0.5200228778509468 1.1399621199565368
3.26892900467 0.047037555415791 -0.1418232467500652 -1.5532853613595852 1.6172100613295186 2.050018942760094 -0.5200228778509468 1.1399621199565368
3.27887582779 0.047037555415791 -0.1418232467500652 -1.5532853613595852 1.6172100613295186 2.050018942760094 -0.5200228778509468 1.1399621199565368
3.27887582779 0.047037555415791 -0.1418232467500652 -1.5532853613595852 1.6172100613295186 2.050018942760094 -0.5200228778509468 1.1399621199565368
3.2887878418 0.047037555415791 -0.1418232467500652 -1.559283305798064 1.6096627757445274 2.050028073679212 -0.5200228778509468 1.1399621199565368
3.2887878418 0.047037555415791 -0.1418232467500652 -1.559283305798064 1.6096627757445274 2.050028073679212 -0.5200228778509468 1.1399621199565368
3.29886579514 0.047037555415791 -0.1418232467500652 -1.559283305798064 1.6096627757445274 2.050028073679212 -0.5200228778509468 1.1399621199565368
3.29886579514 0.047037555415791 -0.1418232467500652 -1.559283305798064 1.6096627757445274 2.050028073679212 -0.5200228778509468 1.1399621199565368
3.30875396729 0.047037555415791 -0.1418232467500652 -1.559283305798064 1.6096627757445274 2.050028073679212 -0.5200228778509468 1.1399621199565368
3.30875396729 0.047037555415791 -0.1418232467500652 -1.559283305798064 1.6096627757445274 2.050028073679212 -0.5200228778509468 1.1399621199565368
3.31889986992 0.047037555415791 -0.1418232467500652 -1.559283305798064 1.6096627757445274 2.050028073679212 -0.5200228778509468 1.1399621199565368
3.31889986992 0.047037555415791 -0.1418232467500652 -1.559283305798064 1.6096627757445274 2.050028073679212 -0.5200228778509468 1.1399621199565368
3.32879781723 0.047037555415791 -0.1418232467500652 -1.559283305798064 1.6096627757445274 2.050028073679212 -0.5200228778509468 1.1399621199565368
3.32879781723 0.047037555415791 -0.1418232467500652 -1.559283305798064 1.6096627757445274 2.050028073679212 -0.5200228778509468 1.1399621199565368
3.33870792389 0.047037555415791 -0.1418232467500652 -1.559283305798064 1.6096627757445274 2.050028073679212 -0.5200228778509468 1.1399621199565368
3.33870792389 0.047037555415791 -0.1418232467500652 -1.559283305798064 1.6096627757445274 2.050028073679212 -0.5200228778509468 1.1399621199565368
3.34892988205 0.047037555415791 -0.1418232467500652 -1.559283305798064 1.6096627757445274 2.050028073679212 -0.5200228778509468 1.1399621199565368
3.34892988205 0.047037555415791 -0.1418232467500652 -1.559283305798064 1.6096627757445274 2.050028073679212 -0.5200228778509468 1.1399621199565368
3.35879182816 0.047037555415791 -0.1418232467500652 -1.559283305798064 1.6096627757445274 2.050028073679212 -0.5200228778509468 1.1399621199565368
3.35879182816 0.047037555415791 -0.1418232467500652 -1.559283305798064 1.6096627757445274 2.050028073679212 -0.5200228778509468 1.1399621199565368
3.3689467907 0.047037555415791 -0.1418232467500652 -1.559283305798064 1.6096627757445274 2.050028073679212 -0.5200228778509468 1.1399621199565368
3.3689467907 0.047037555415791 -0.1418232467500652 -1.559283305798064 1.6096627757445274 2.050028073679212 -0.5200228778509468 1.1399621199565368
3.37890100479 0.047037555415791 -0.1418232467500652 -1.559283305798064 1.6096627757445274 2.050028073679212 -0.5200228778509468 1.1399621199565368
3.37890100479 0.047037555415791 -0.1418232467500652 -1.559283305798064 1.6096627757445274 2.050028073679212 -0.5200228778509468 1.1399621199565368
3.38879299164 0.047037555415791 -0.1418232467500652 -1.559283305798064 1.6096627757445274 2.050028073679212 -0.5200228778509468 1.1399621199565368
3.38879299164 0.047037555415791 -0.1418232467500652 -1.559283305798064 1.6096627757445274 2.050028073679212 -0.5200228778509468 1.1399621199565368
3.39875483513 0.047037555415791 -0.1418232467500652 -1.559283305798064 1.6096627757445274 2.050028073679212 -0.5200228778509468 1.1399621199565368
3.39875483513 0.047037555415791 -0.1418232467500652 -1.559283305798064 1.6096627757445274 2.050028073679212 -0.5200228778509468 1.1399621199565368
3.40894889832 0.047037555415791 -0.1418232467500652 -1.5647136698165334 1.6016399498076364 2.050247215738052 -0.5200228778509468 1.1399621199565368
3.40894889832 0.047037555415791 -0.1418232467500652 -1.5647136698165334 1.6016399498076364 2.050247215738052 -0.5200228778509468 1.1399621199565368
3.42009186745 0.047037555415791 -0.1418232467500652 -1.5699599536987834 1.5931415835188452 2.0504298341204183 -0.5200228778509468 1.1399621199565368
3.42009186745 0.047037555415791 -0.1418232467500652 -1.5699599536987834 1.5931415835188452 2.0504298341204183 -0.5200228778509468 1.1399621199565368
3.42881083488 0.047037555415791 -0.1418232467500652 -1.5699599536987834 1.5931415835188452 2.0504298341204183 -0.5200228778509468 1.1399621199565368
3.42881083488 0.047037555415791 -0.1418232467500652 -1.5699599536987834 1.5931415835188452 2.0504298341204183 -0.5200228778509468 1.1399621199565368
3.43886590004 0.047037555415791 -0.1418232467500652 -1.5699599536987834 1.5931415835188452 2.0504298341204183 -0.5200228778509468 1.1399621199565368
3.43886590004 0.047037555415791 -0.1418232467500652 -1.5699599536987834 1.5931415835188452 2.0504298341204183 -0.5200228778509468 1.1399621199565368
3.44882178307 0.047037555415791 -0.1418232467500652 -1.5699599536987834 1.5931415835188452 2.0504298341204183 -0.5200228778509468 1.1399621199565368
3.44882178307 0.047037555415791 -0.1418232467500652 -1.5699599536987834 1.5931415835188452 2.0504298341204183 -0.5200228778509468 1.1399621199565368
3.45850586891 0.047037555415791 -0.1417618867046587 -1.5999956959252326 1.52995607676157 2.050292870333644 -0.5200228778509468 1.1399621199565368
3.45850586891 0.047037555415791 -0.1417618867046587 -1.5999956959252326 1.52995607676157 2.050292870333644 -0.5200228778509468 1.1399621199565368
3.4688808918 0.047037555415791 -0.1417618867046587 -1.5999956959252326 1.52995607676157 2.050292870333644 -0.5200228778509468 1.1399621199565368
3.4688808918 0.047037555415791 -0.1417618867046587 -1.5999956959252326 1.52995607676157 2.050292870333644 -0.5200228778509468 1.1399621199565368
3.47889685631 0.047037555415791 -0.1417618867046587 -1.6030330181728512 1.52032254963276 2.0502654775762887 -0.5200228778509468 1.1399621199565368
3.47889685631 0.047037555415791 -0.1417618867046587 -1.6030330181728512 1.52032254963276 2.0502654775762887 -0.5200228778509468 1.1399621199565368
3.48896479607 0.047037555415791 -0.1417618867046587 -1.6030330181728512 1.52032254963276 2.0502654775762887 -0.5200228778509468 1.1399621199565368
3.48896479607 0.047037555415791 -0.1417618867046587 -1.6030330181728512 1.52032254963276 2.0502654775762887 -0.5200228778509468 1.1399621199565368
3.4990170002 0.047037555415791 -0.1417618867046587 -1.6030330181728512 1.52032254963276 2.0502654775762887 -0.5200228778509468 1.1399621199565368
3.4990170002 0.047037555415791 -0.1417618867046587 -1.6030330181728512 1.52032254963276 2.0502654775762887 -0.5200228778509468 1.1399621199565368
3.50897192955 0.047037555415791 -0.1417618867046587 -1.6030330181728512 1.52032254963276 2.0502654775762887 -0.5200228778509468 1.1399621199565368
3.50897192955 0.047037555415791 -0.1417618867046587 -1.6030330181728512 1.52032254963276 2.0502654775762887 -0.5200228778509468 1.1399621199565368
3.51956582069 0.047037555415791 -0.1417465466933071 -1.605778880204789 1.5108731026401692 2.050128513789514 -0.5200228778509468 1.1399621199565368
3.51956582069 0.047037555415791 -0.1417465466933071 -1.605778880204789 1.5108731026401692 2.050128513789514 -0.5200228778509468 1.1399621199565368
3.5288848877 0.047037555415791 -0.1417465466933071 -1.605778880204789 1.5108731026401692 2.050128513789514 -0.5200228778509468 1.1399621199565368
3.5288848877 0.047037555415791 -0.1417465466933071 -1.605778880204789 1.5108731026401692 2.050128513789514 -0.5200228778509468 1.1399621199565368
3.53881192207 0.047037555415791 -0.1417465466933071 -1.6081565819642885 1.501086175397843 2.0504389650395365 -0.5200228778509468 1.1399621199565368
3.53881192207 0.047037555415791 -0.1417465466933071 -1.6081565819642885 1.501086175397843 2.0504389650395365 -0.5200228778509468 1.1399621199565368
3.54899287224 0.047037555415791 -0.1417465466933071 -1.6101507834399975 1.4907470077468592 2.0504024413630635 -0.5200228778509468 1.1399621199565368
3.54899287224 0.047037555415791 -0.1417465466933071 -1.6101507834399975 1.4907470077468592 2.0504024413630635 -0.5200228778509468 1.1399621199565368
3.55891084671 0.047037555415791 -0.1417312066819555 -1.6120836248703 1.4802851200050622 2.0502015611424604 -0.5200228778509468 1.1399621199565368
3.55891084671 0.047037555415791 -0.1417312066819555 -1.6120836248703 1.4802851200050622 2.0502015611424604 -0.5200228778509468 1.1399621199565368
3.56908297539 0.047037555415791 -0.1417312066819555 -1.6120836248703 1.4802851200050622 2.0502015611424604 -0.5200228778509468 1.1399621199565368
3.56908297539 0.047037555415791 -0.1417312066819555 -1.6120836248703 1.4802851200050622 2.0502015611424604 -0.5200228778509468 1.1399621199565368
3.57876396179 0.047037555415791 -0.1417312066819555 -1.6132494657330223 1.4702527525811102 2.0501467756277503 -0.5200228778509468 1.1399621199565368
3.57876396179 0.047037555415791 -0.1417312066819555 -1.6132494657330223 1.4702527525811102 2.0501467756277503 -0.5200228778509468 1.1399621199565368
3.58894491196 0.047037555415791 -0.1417312066819555 -1.6132494657330223 1.4702527525811102 2.0501467756277503 -0.5200228778509468 1.1399621199565368
3.58894491196 0.047037555415791 -0.1417312066819555 -1.6132494657330223 1.4702527525811102 2.0501467756277503 -0.5200228778509468 1.1399621199565368
3.59884381294 0.047037555415791 -0.1417312066819555 -1.6132494657330223 1.4702527525811102 2.0501467756277503 -0.5200228778509468 1.1399621199565368
3.59884381294 0.047037555415791 -0.1417312066819555 -1.6132494657330223 1.4702527525811102 2.0501467756277503 -0.5200228778509468 1.1399621199565368
3.60882687569 0.047037555415791 -0.1417312066819555 -1.6132494657330223 1.4702527525811102 2.0501467756277503 -0.5200228778509468 1.1399621199565368
3.60882687569 0.047037555415791 -0.1417312066819555 -1.6132494657330223 1.4702527525811102 2.0501467756277503 -0.5200228778509468 1.1399621199565368
3.61893296242 0.047037555415791 -0.1417312066819555 -1.6143386065389866 1.459959604964181 2.050448095958655 -0.5200228778509468 1.1399621199565368
3.61893296242 0.047037555415791 -0.1417312066819555 -1.6143386065389866 1.459959604964181 2.050448095958655 -0.5200228778509468 1.1399621199565368
3.62896680832 0.047037555415791 -0.1417312066819555 -1.6143386065389866 1.459959604964181 2.050448095958655 -0.5200228778509468 1.1399621199565368
3.62896680832 0.047037555415791 -0.1417312066819555 -1.6143386065389866 1.459959604964181 2.050448095958655 -0.5200228778509468 1.1399621199565368
3.63891291618 0.047037555415791 -0.1417312066819555 -1.6143386065389866 1.459959604964181 2.050448095958655 -0.5200228778509468 1.1399621199565368
3.63891291618 0.047037555415791 -0.1417312066819555 -1.6143386065389866 1.459959604964181 2.050448095958655 -0.5200228778509468 1.1399621199565368
3.64892101288 0.047037555415791 -0.1417312066819555 -1.6143386065389866 1.459959604964181 2.050448095958655 -0.5200228778509468 1.1399621199565368
3.64892101288 0.047037555415791 -0.1417312066819555 -1.6143386065389866 1.459959604964181 2.050448095958655 -0.5200228778509468 1.1399621199565368
3.65888690948 0.047037555415791 -0.1417312066819555 -1.6143386065389866 1.459959604964181 2.050448095958655 -0.5200228778509468 1.1399621199565368
3.65888690948 0.047037555415791 -0.1417312066819555 -1.6143386065389866 1.459959604964181 2.050448095958655 -0.5200228778509468 1.1399621199565368
3.66884589195 0.047037555415791 -0.1417312066819555 -1.6143386065389866 1.459959604964181 2.050448095958655 -0.5200228778509468 1.1399621199565368
3.66884589195 0.047037555415791 -0.1417312066819555 -1.6143386065389866 1.459959604964181 2.050448095958655 -0.5200228778509468 1.1399621199565368
3.67887783051 0.047037555415791 -0.1417312066819555 -1.6143386065389866 1.459959604964181 2.050448095958655 -0.5200228778509468 1.1399621199565368
3.67887783051 0.047037555415791 -0.1417312066819555 -1.6143386065389866 1.459959604964181 2.050448095958655 -0.5200228778509468 1.1399621199565368
3.68896079063 0.047037555415791 -0.1417312066819555 -1.6143386065389866 1.459959604964181 2.050448095958655 -0.5200228778509468 1.1399621199565368
3.68896079063 0.047037555415791 -0.1417312066819555 -1.6143386065389866 1.459959604964181 2.050448095958655 -0.5200228778509468 1.1399621199565368
3.69874191284 0.047037555415791 -0.1417312066819555 -1.6148141468908863 1.4396187499119482 2.050128513789514 -0.5200228778509468 1.1399621199565368
3.69874191284 0.047037555415791 -0.1417312066819555 -1.6148141468908863 1.4396187499119482 2.050128513789514 -0.5200228778509468 1.1399621199565368
3.70860695839 0.047037555415791 -0.1417312066819555 -1.6148141468908863 1.419646055132154 2.050393310443945 -0.5200228778509468 1.1399621199565368
3.70860695839 0.047037555415791 -0.1417312066819555 -1.6148141468908863 1.419646055132154 2.050393310443945 -0.5200228778509468 1.1399621199565368
3.71850299835 0.047037555415791 -0.1417312066819555 -1.6148141468908863 1.419646055132154 2.050393310443945 -0.5200228778509468 1.1399621199565368
3.71850299835 0.047037555415791 -0.1417312066819555 -1.6148141468908863 1.419646055132154 2.050393310443945 -0.5200228778509468 1.1399621199565368
3.72898578644 0.047037555415791 -0.1417312066819555 -1.6148141468908863 1.419646055132154 2.050393310443945 -0.5200228778509468 1.1399621199565368
3.72898578644 0.047037555415791 -0.1417312066819555 -1.6148141468908863 1.419646055132154 2.050393310443945 -0.5200228778509468 1.1399621199565368
3.73878693581 0.047037555415791 -0.1417312066819555 -1.6148141468908863 1.419646055132154 2.050393310443945 -0.5200228778509468 1.1399621199565368
3.73878693581 0.047037555415791 -0.1417312066819555 -1.6148141468908863 1.419646055132154 2.050393310443945 -0.5200228778509468 1.1399621199565368
3.74899101257 0.047037555415791 -0.1417312066819555 -1.6148141468908863 1.419646055132154 2.050393310443945 -0.5200228778509468 1.1399621199565368
3.74899101257 0.047037555415791 -0.1417312066819555 -1.6148141468908863 1.419646055132154 2.050393310443945 -0.5200228778509468 1.1399621199565368
3.75892090797 0.047037555415791 -0.1417312066819555 -1.6148141468908863 1.419646055132154 2.050393310443945 -0.5200228778509468 1.1399621199565368
3.75892090797 0.047037555415791 -0.1417312066819555 -1.6148141468908863 1.419646055132154 2.050393310443945 -0.5200228778509468 1.1399621199565368
3.768835783 0.047037555415791 -0.1417312066819555 -1.6148141468908863 1.419646055132154 2.050393310443945 -0.5200228778509468 1.1399621199565368
3.768835783 0.047037555415791 -0.1417312066819555 -1.6148141468908863 1.419646055132154 2.050393310443945 -0.5200228778509468 1.1399621199565368
3.77890086174 0.047037555415791 -0.1417312066819555 -1.6148141468908863 1.419646055132154 2.050393310443945 -0.5200228778509468 1.1399621199565368
3.77890086174 0.047037555415791 -0.1417312066819555 -1.6148141468908863 1.419646055132154 2.050393310443945 -0.5200228778509468 1.1399621199565368
3.78905797005 0.047037555415791 -0.1417312066819555 -1.6148141468908863 1.419646055132154 2.050393310443945 -0.5200228778509468 1.1399621199565368
3.78905797005 0.047037555415791 -0.1417312066819555 -1.6148141468908863 1.419646055132154 2.050393310443945 -0.5200228778509468 1.1399621199565368
3.79887485504 0.047037555415791 -0.1417312066819555 -1.6148141468908863 1.419646055132154 2.050393310443945 -0.5200228778509468 1.1399621199565368
3.79887485504 0.047037555415791 -0.1417312066819555 -1.6148141468908863 1.419646055132154 2.050393310443945 -0.5200228778509468 1.1399621199565368
