riccardo-csl/Motion-Planning-for-TIAGo-Manipulator/T3_G_7/head_scan/head_scan/tiago_traiettorie_SG/2a-2b/place_2b_rep2.txt
time arm_1_joint arm_2_joint arm_3_joint arm_4_joint arm_5_joint arm_6_joint arm_7_joint
0.528491973877 0.2548180091733267 -0.1818606763777631 -1.0488444280732945 2.157592641212628 2.050055466436567 -0.5200046160127103 1.1399895127138917
0.528914928436 0.2548180091733267 -0.1818606763777631 -1.0488444280732945 2.157592641212628 2.050055466436567 -0.5200046160127103 1.1399895127138917
0.528914928436 0.2548180091733267 -0.1818606763777631 -1.0488444280732945 2.157592641212628 2.050055466436567 -0.5200046160127103 1.1399895127138917
0.539248943329 0.2548180091733267 -0.1818606763777631 -1.0488444280732945 2.157592641212628 2.050055466436567 -0.5200046160127103 1.1399895127138917
0.539248943329 0.2548180091733267 -0.1818606763777631 -1.0488444280732945 2.157592641212628 2.050055466436567 -0.5200046160127103 1.1399895127138917
0.549160957336 0.2548180091733267 -0.1818606763777631 -1.0488444280732945 2.157592641212628 2.050055466436567 -0.5200046160127103 1.1399895127138917
0.549160957336 0.2548180091733267 -0.1818606763777631 -1.0488444280732945 2.157592641212628 2.050055466436567 -0.5200046160127103 1.1399895127138917
0.559108972549 0.2548180091733267 -0.1818606763777631 -1.0488444280732945 2.157592641212628 2.050055466436567 -0.5200046160127103 1.1399895127138917
0.559108972549 0.2548180091733267 -0.1818606763777631 -1.0488444280732945 2.157592641212628 2.050055466436567 -0.5200046160127103 1.1399895127138917
0.573716878891 0.2548180091733267 -0.1818606763777631 -1.0488444280732945 2.157592641212628 2.050055466436567 -0.5200046160127103 1.1399895127138917
0.573716878891 0.2548180091733267 -0.1818606763777631 -1.0488444280732945 2.157592641212628 2.050055466436567 -0.5200046160127103 1.1399895127138917
0.578912973404 0.2548180091733267 -0.1818606763777631 -1.0488444280732945 2.157592641212628 2.050055466436567 -0.5200046160127103 1.1399895127138917
0.578912973404 0.2548180091733267 -0.1818606763777631 -1.0488444280732945 2.157592641212628 2.050055466436567 -0.5200046160127103 1.1399895127138917
0.588886976242 0.2548180091733267 -0.1818606763777631 -1.0488444280732945 2.157592641212628 2.050055466436567 -0.5200046160127103 1.1399895127138917
0.588886976242 0.2548180091733267 -0.1818606763777631 -1.0488444280732945 2.157592641212628 2.050055466436567 -0.5200046160127103 1.1399895127138917
0.598968982697 0.2548180091733267 -0.1818606763777631 -1.0488444280732945 2.157592641212628 2.050055466436567 -0.5200046160127103 1.1399895127138917
0.598968982697 0.2548180091733267 -0.1818606763777631 -1.0488444280732945 2.157592641212628 2.050055466436567 -0.5200046160127103 1.1399895127138917
0.609076976776 0.2548180091733267 -0.1818606763777631 -1.0488444280732945 2.157592641212628 2.050055466436567 -0.5200046160127103 1.1399895127138917
0.609076976776 0.2548180091733267 -0.1818606763777631 -1.0488444280732945 2.157592641212628 2.050055466436567 -0.5200046160127103 1.1399895127138917
0.619107961655 0.2548180091733267 -0.1818606763777631 -1.0488444280732945 2.157592641212628 2.050055466436567 -0.5200046160127103 1.1399895127138917
0.619107961655 0.2548180091733267 -0.1818606763777631 -1.0488444280732945 2.157592641212628 2.050055466436567 -0.5200046160127103 1.1399895127138917
0.629133939743 0.2548180091733267 -0.1818606763777631 -1.0488444280732945 2.157592641212628 2.050055466436567 -0.5200046160127103 1.1399895127138917
0.629133939743 0.2548180091733267 -0.1818606763777631 -1.0488444280732945 2.157592641212628 2.050055466436567 -0.5200046160127103 1.1399895127138917
0.639313936234 0.2548180091733267 -0.1818606763777631 -1.0488444280732945 2.157592641212628 2.050055466436567 -0.5200046160127103 1.1399895127138917
0.639313936234 0.2548180091733267 -0.1818606763777631 -1.0488444280732945 2.157592641212628 2.050055466436567 -0.5200046160127103 1.1399895127138917
0.64915895462 0.2548180091733267 -0.1818606763777631 -1.0488444280732945 2.157592641212628 2.050055466436567 -0.5200046160127103 1.1399895127138917
0.64915895462 0.2548180091733267 -0.1818606763777631 -1.0488444280732945 2.157592641212628 2.050055466436567 -0.5200046160127103 1.1399895127138917
0.659353971481 0.2548180091733267 -0.1818606763777631 -1.0488444280732945 2.157592641212628 2.050055466436567 -0.5200046160127103 1.1399895127138917
0.659353971481 0.2548180091733267 -0.1818606763777631 -1.0488444280732945 2.157592641212628 2.050055466436567 -0.5200046160127103 1.1399895127138917
0.669039011002 0.2548180091733267 -0.1818606763777631 -1.0488444280732945 2.157592641212628 2.050055466436567 -0.5200046160127103 1.1399895127138917
0.669039011002 0.2548180091733267 -0.1818606763777631 -1.0488444280732945 2.157592641212628 2.050055466436567 -0.5200046160127103 1.1399895127138917
0.679189920425 0.2548180091733267 -0.1818606763777631 -1.0488444280732945 2.157592641212628 2.050055466436567 -0.5200046160127103 1.1399895127138917
0.679189920425 0.2548180091733267 -0.1818606763777631 -1.0488444280732945 2.157592641212628 2.050055466436567 -0.5200046160127103 1.1399895127138917
0.689047813416 0.2548180091733267 -0.1818606763777631 -1.0488444280732945 2.157592641212628 2.050055466436567 -0.5200046160127103 1.1399895127138917
0.689047813416 0.2548180091733267 -0.1818606763777631 -1.0488444280732945 2.157592641212628 2.050055466436567 -0.5200046160127103 1.1399895127138917
0.698895931244 0.2548180091733267 -0.1818606763777631 -1.0488444280732945 2.157592641212628 2.050055466436567 -0.5200046160127103 1.1399895127138917
0.698895931244 0.2548180091733267 -0.1818606763777631 -1.0488444280732945 2.157592641212628 2.050055466436567 -0.5200046160127103 1.1399895127138917
0.709303855896 0.2548180091733267 -0.1818760163891147 -1.0488444280732945 2.157592641212628 2.050055466436567 -0.5200091814722694 1.1399849472543326
0.709303855896 0.2548180091733267 -0.1818760163891147 -1.0488444280732945 2.157592641212628 2.050055466436567 -0.5200091814722694 1.1399849472543326
0.719755887985 0.2548180091733267 -0.1818760163891147 -1.0488444280732945 2.157592641212628 2.050055466436567 -0.5200091814722694 1.1399849472543326
0.719755887985 0.2548180091733267 -0.1818760163891147 -1.0488444280732945 2.157592641212628 2.050055466436567 -0.5200091814722694 1.1399849472543326
0.729038953781 0.2548180091733267 -0.1818760163891147 -1.0488444280732945 2.157592641212628 2.050055466436567 -0.5200091814722694 1.1399849472543326
0.729038953781 0.2548180091733267 -0.1818760163891147 -1.0488444280732945 2.157592641212628 2.050055466436567 -0.5200091814722694 1.1399849472543326
0.739287853241 0.2548180091733267 -0.1818760163891147 -1.0488444280732945 2.157592641212628 2.050055466436567 -0.5200091814722694 1.1399849472543326
0.739287853241 0.2548180091733267 -0.1818760163891147 -1.0488444280732945 2.157592641212628 2.050055466436567 -0.5200091814722694 1.1399849472543326
0.749184846878 0.2548180091733267 -0.1818760163891147 -1.0488444280732945 2.157592641212628 2.050055466436567 -0.5200046160127103 1.1399895127138917
0.749184846878 0.2548180091733267 -0.1818760163891147 -1.0488444280732945 2.157592641212628 2.050055466436567 -0.5200046160127103 1.1399895127138917
0.759151935577 0.2548180091733267 -0.1818760163891147 -1.0488444280732945 2.157592641212628 2.050055466436567 -0.5200046160127103 1.1399895127138917
0.759151935577 0.2548180091733267 -0.1818760163891147 -1.0488444280732945 2.157592641212628 2.050055466436567 -0.5200046160127103 1.1399895127138917
0.769275903702 0.2548180091733267 -0.1818760163891147 -1.0488444280732945 2.157592641212628 2.050055466436567 -0.5200046160127103 1.1399895127138917
0.769275903702 0.2548180091733267 -0.1818760163891147 -1.0488444280732945 2.157592641212628 2.050055466436567 -0.5200046160127103 1.1399895127138917
0.779228925705 0.2548180091733267 -0.1818760163891147 -1.0488444280732945 2.157592641212628 2.050055466436567 -0.5200046160127103 1.1399895127138917
0.779228925705 0.2548180091733267 -0.1818760163891147 -1.0488444280732945 2.157592641212628 2.050055466436567 -0.5200046160127103 1.1399895127138917
0.789191007614 0.2548180091733267 -0.1818760163891147 -1.0488444280732945 2.157592641212628 2.050055466436567 -0.5200046160127103 1.1399895127138917
0.789191007614 0.2548180091733267 -0.1818760163891147 -1.0488444280732945 2.157592641212628 2.050055466436567 -0.5200046160127103 1.1399895127138917
0.799288034439 0.2548180091733267 -0.1818760163891147 -1.0488444280732945 2.157592641212628 2.050055466436567 -0.5200046160127103 1.1399895127138917
0.799288034439 0.2548180091733267 -0.1818760163891147 -1.0488444280732945 2.157592641212628 2.050055466436567 -0.5200046160127103 1.1399895127138917
0.809178829193 0.2548180091733267 -0.1818760163891147 -1.0488444280732945 2.157592641212628 2.050055466436567 -0.5200046160127103 1.1399895127138917
0.809178829193 0.2548180091733267 -0.1818760163891147 -1.0488444280732945 2.157592641212628 2.050055466436567 -0.5200046160127103 1.1399895127138917
0.819305896759 0.2548180091733267 -0.1818760163891147 -1.0488444280732945 2.157592641212628 2.050055466436567 -0.5200046160127103 1.1399895127138917
0.819305896759 0.2548180091733267 -0.1818760163891147 -1.0488444280732945 2.157592641212628 2.050055466436567 -0.5200046160127103 1.1399895127138917
0.829311847687 0.2548180091733267 -0.1818760163891147 -1.0488444280732945 2.157592641212628 2.050055466436567 -0.5200046160127103 1.1399895127138917
0.829311847687 0.2548180091733267 -0.1818760163891147 -1.0488444280732945 2.157592641212628 2.050055466436567 -0.5200046160127103 1.1399895127138917
0.839381933212 0.2548180091733267 -0.1818760163891147 -1.0488444280732945 2.157592641212628 2.050055466436567 -0.5200046160127103 1.1399895127138917
0.839381933212 0.2548180091733267 -0.1818760163891147 -1.0488444280732945 2.157592641212628 2.050055466436567 -0.5200046160127103 1.1399895127138917
0.849124908447 0.2548180091733267 -0.1818760163891147 -1.0488444280732945 2.157592641212628 2.050055466436567 -0.5200046160127103 1.1399895127138917
0.849124908447 0.2548180091733267 -0.1818760163891147 -1.0488444280732945 2.157592641212628 2.050055466436567 -0.5200046160127103 1.1399895127138917
0.859292984009 0.2548180091733267 -0.1818760163891147 -1.0488444280732945 2.157592641212628 2.050055466436567 -0.5200046160127103 1.1399895127138917
0.859292984009 0.2548180091733267 -0.1818760163891147 -1.0488444280732945 2.157592641212628 2.050055466436567 -0.5200046160127103 1.1399895127138917
0.869324922562 0.2548180091733267 -0.1818760163891147 -1.0488444280732945 2.157592641212628 2.050055466436567 -0.5200046160127103 1.1399895127138917
0.869324922562 0.2548180091733267 -0.1818760163891147 -1.0488444280732945 2.157592641212628 2.050055466436567 -0.5200046160127103 1.1399895127138917
0.87925195694 0.2548180091733267 -0.1818760163891147 -1.0488444280732945 2.157592641212628 2.050055466436567 -0.5200046160127103 1.1399895127138917
0.87925195694 0.2548180091733267 -0.1818760163891147 -1.0488444280732945 2.157592641212628 2.050055466436567 -0.5200046160127103 1.1399895127138917
0.889281988144 0.2548180091733267 -0.1818760163891147 -1.0488444280732945 2.157592641212628 2.050055466436567 -0.5200046160127103 1.1399895127138917
0.889281988144 0.2548180091733267 -0.1818760163891147 -1.0488444280732945 2.157592641212628 2.050055466436567 -0.5200046160127103 1.1399895127138917
0.899170875549 0.2548180091733267 -0.1818760163891147 -1.0488444280732945 2.157592641212628 2.050055466436567 -0.5200046160127103 1.1399895127138917
0.899170875549 0.2548180091733267 -0.1818760163891147 -1.0488444280732945 2.157592641212628 2.050055466436567 -0.5200046160127103 1.1399895127138917
0.908943891525 0.2548333491846783 -0.1818760163891147 -1.0488444280732945 2.157592641212628 2.050055466436567 -0.5200046160127103 1.1399895127138917
0.908943891525 0.2548333491846783 -0.1818760163891147 -1.0488444280732945 2.157592641212628 2.050055466436567 -0.5200046160127103 1.1399895127138917
0.918946027756 0.2548333491846783 -0.1818760163891147 -1.0488444280732945 2.157592641212628 2.050055466436567 -0.5200046160127103 1.1399895127138917
0.918946027756 0.2548333491846783 -0.1818760163891147 -1.0488444280732945 2.157592641212628 2.050055466436567 -0.5200046160127103 1.1399895127138917
0.928912878036 0.2548333491846783 -0.1818760163891147 -1.0488444280732945 2.157592641212628 2.050055466436567 -0.5200046160127103 1.1399895127138917
0.928912878036 0.2548333491846783 -0.1818760163891147 -1.0488444280732945 2.157592641212628 2.050055466436567 -0.5200046160127103 1.1399895127138917
0.93891787529 0.2548333491846783 -0.1818760163891147 -1.0488444280732945 2.157592641212628 2.050055466436567 -0.5200046160127103 1.1399895127138917
0.93891787529 0.2548333491846783 -0.1818760163891147 -1.0488444280732945 2.157592641212628 2.050055466436567 -0.5200046160127103 1.1399895127138917
0.948928833008 0.2548333491846783 -0.1818760163891147 -1.0488444280732945 2.157592641212628 2.050055466436567 -0.5200046160127103 1.1399895127138917
0.948928833008 0.2548333491846783 -0.1818760163891147 -1.0488444280732945 2.157592641212628 2.050055466436567 -0.5200046160127103 1.1399895127138917
0.958864927292 0.2548333491846783 -0.1818760163891147 -1.0488444280732945 2.157592641212628 2.050055466436567 -0.5200046160127103 1.1399895127138917
0.958864927292 0.2548333491846783 -0.1818760163891147 -1.0488444280732945 2.157592641212628 2.050055466436567 -0.5200046160127103 1.1399895127138917
0.969022989273 0.2548333491846783 -0.1818760163891147 -1.0488444280732945 2.157592641212628 2.050055466436567 -0.5200046160127103 1.1399895127138917
0.969022989273 0.2548333491846783 -0.1818760163891147 -1.0488444280732945 2.157592641212628 2.050055466436567 -0.5200046160127103 1.1399895127138917
0.97886800766 0.2548333491846783 -0.1818760163891147 -1.0488444280732945 2.157592641212628 2.050055466436567 -0.5200046160127103 1.1399895127138917
0.97886800766 0.2548333491846783 -0.1818760163891147 -1.0488444280732945 2.157592641212628 2.050055466436567 -0.5200046160127103 1.1399895127138917
0.988906860352 0.2548333491846783 -0.1818913564004663 -1.0488444280732945 2.157592641212628 2.050055466436567 -0.5200046160127103 1.1399895127138917
0.988906860352 0.2548333491846783 -0.1818913564004663 -1.0488444280732945 2.157592641212628 2.050055466436567 -0.5200046160127103 1.1399895127138917
0.998857975006 0.2548333491846783 -0.1818913564004663 -1.0488444280732945 2.157592641212628 2.050055466436567 -0.5200046160127103 1.1399895127138917
0.998857975006 0.2548333491846783 -0.1818913564004663 -1.0488444280732945 2.157592641212628 2.050055466436567 -0.5200046160127103 1.1399895127138917
1.00891399384 0.2548333491846783 -0.1818913564004663 -1.0488444280732945 2.157592641212628 2.050055466436567 -0.5200091814722694 1.1399849472543326
1.00891399384 0.2548333491846783 -0.1818913564004663 -1.0488444280732945 2.157592641212628 2.050055466436567 -0.5200091814722694 1.1399849472543326
1.0188498497 0.2548333491846783 -0.1818913564004663 -1.0488444280732945 2.157592641212628 2.050055466436567 -0.5200091814722694 1.1399849472543326
1.0188498497 0.2548333491846783 -0.1818913564004663 -1.0488444280732945 2.157592641212628 2.050055466436567 -0.5200091814722694 1.1399849472543326
1.02893280983 0.2548333491846783 -0.1818913564004663 -1.0488444280732945 2.157592641212628 2.050055466436567 -0.5200091814722694 1.1399849472543326
1.02893280983 0.2548333491846783 -0.1818913564004663 -1.0488444280732945 2.157592641212628 2.050055466436567 -0.5200091814722694 1.1399849472543326
1.03890681267 0.2548333491846783 -0.1818913564004663 -1.0488444280732945 2.157592641212628 2.050055466436567 -0.5200091814722694 1.1399849472543326
1.03890681267 0.2548333491846783 -0.1818913564004663 -1.0488444280732945 2.157592641212628 2.050055466436567 -0.5200091814722694 1.1399849472543326
1.0488948822 0.2548333491846783 -0.1818913564004663 -1.0488444280732945 2.157592641212628 2.050055466436567 -0.5200091814722694 1.1399849472543326
1.0488948822 0.2548333491846783 -0.1818913564004663 -1.0488444280732945 2.157592641212628 2.050055466436567 -0.5200091814722694 1.1399849472543326
1.0589659214 0.2548333491846783 -0.1818913564004663 -1.0488444280732945 2.157592641212628 2.050055466436567 -0.5200091814722694 1.1399849472543326
1.0589659214 0.2548333491846783 -0.1818913564004663 -1.0488444280732945 2.157592641212628 2.050055466436567 -0.5200091814722694 1.1399849472543326
1.06891798973 0.2548333491846783 -0.1818913564004663 -1.0488444280732945 2.157592641212628 2.050055466436567 -0.5200046160127103 1.1399895127138917
1.06891798973 0.2548333491846783 -0.1818913564004663 -1.0488444280732945 2.157592641212628 2.050055466436567 -0.5200046160127103 1.1399895127138917
1.07883095741 0.2548333491846783 -0.1818913564004663 -1.0488444280732945 2.157592641212628 2.050055466436567 -0.5200046160127103 1.1399895127138917
1.07883095741 0.2548333491846783 -0.1818913564004663 -1.0488444280732945 2.157592641212628 2.050055466436567 -0.5200046160127103 1.1399895127138917
1.08885288239 0.2548333491846783 -0.1818913564004663 -1.0488444280732945 2.157592641212628 2.050055466436567 -0.5200046160127103 1.1399895127138917
1.08885288239 0.2548333491846783 -0.1818913564004663 -1.0488444280732945 2.157592641212628 2.050055466436567 -0.5200046160127103 1.1399895127138917
1.09888482094 0.2548333491846783 -0.1818913564004663 -1.0488444280732945 2.157592641212628 2.050055466436567 -0.5200046160127103 1.1399895127138917
1.09888482094 0.2548333491846783 -0.1818913564004663 -1.0488444280732945 2.157592641212628 2.050055466436567 -0.5200046160127103 1.1399895127138917
1.10888791084 0.2548333491846783 -0.1818913564004663 -1.0488444280732945 2.157592641212628 2.050055466436567 -0.5200046160127103 1.1399895127138917
1.10888791084 0.2548333491846783 -0.1818913564004663 -1.0488444280732945 2.157592641212628 2.050055466436567 -0.5200046160127103 1.1399895127138917
1.11894202232 0.2548333491846783 -0.1818913564004663 -1.0488444280732945 2.157592641212628 2.050055466436567 -0.5200046160127103 1.1399895127138917
1.11894202232 0.2548333491846783 -0.1818913564004663 -1.0488444280732945 2.157592641212628 2.050055466436567 -0.5200046160127103 1.1399895127138917
1.12890982628 0.2548333491846783 -0.1818913564004663 -1.0488444280732945 2.157592641212628 2.050055466436567 -0.5200046160127103 1.1399895127138917
1.12890982628 0.2548333491846783 -0.1818913564004663 -1.0488444280732945 2.157592641212628 2.050055466436567 -0.5200046160127103 1.1399895127138917
1.13894987106 0.2548333491846783 -0.1818913564004663 -1.0488444280732945 2.157592641212628 2.050055466436567 -0.5200046160127103 1.1399895127138917
1.13894987106 0.2548333491846783 -0.1818913564004663 -1.0488444280732945 2.157592641212628 2.050055466436567 -0.5200046160127103 1.1399895127138917
1.14895486832 0.2548333491846783 -0.1818913564004663 -1.0488444280732945 2.157592641212628 2.050055466436567 -0.5200046160127103 1.1399895127138917
1.14895486832 0.2548333491846783 -0.1818913564004663 -1.0488444280732945 2.157592641212628 2.050055466436567 -0.5200046160127103 1.1399895127138917
1.15899300575 0.2548333491846783 -0.1818913564004663 -1.0488444280732945 2.157592641212628 2.050055466436567 -0.5200046160127103 1.1399895127138917
1.15899300575 0.2548333491846783 -0.1818913564004663 -1.0488444280732945 2.157592641212628 2.050055466436567 -0.5200046160127103 1.1399895127138917
1.16891598701 0.2548333491846783 -0.1818913564004663 -1.0488444280732945 2.157592641212628 2.050055466436567 -0.5200046160127103 1.1399895127138917
1.16891598701 0.2548333491846783 -0.1818913564004663 -1.0488444280732945 2.157592641212628 2.050055466436567 -0.5200046160127103 1.1399895127138917
1.1789560318 0.2548333491846783 -0.1818913564004663 -1.0488444280732945 2.157592641212628 2.050055466436567 -0.5200046160127103 1.1399895127138917
1.1789560318 0.2548333491846783 -0.1818913564004663 -1.0488444280732945 2.157592641212628 2.050055466436567 -0.5200046160127103 1.1399895127138917
1.18885588646 0.2548333491846783 -0.1818913564004663 -1.0488444280732945 2.157592641212628 2.050055466436567 -0.5200046160127103 1.1399895127138917
1.18885588646 0.2548333491846783 -0.1818913564004663 -1.0488444280732945 2.157592641212628 2.050055466436567 -0.5200046160127103 1.1399895127138917
1.19910383224 0.2548333491846783 -0.1818913564004663 -1.0488444280732945 2.157592641212628 2.050055466436567 -0.5200046160127103 1.1399895127138917
1.19910383224 0.2548333491846783 -0.1818913564004663 -1.0488444280732945 2.157592641212628 2.050055466436567 -0.5200046160127103 1.1399895127138917
1.20929384232 0.2548333491846783 -0.1818913564004663 -1.0488444280732945 2.157592641212628 2.050055466436567 -0.5200046160127103 1.1399895127138917
1.20929384232 0.2548333491846783 -0.1818913564004663 -1.0488444280732945 2.157592641212628 2.050055466436567 -0.5200046160127103 1.1399895127138917
1.21916484833 0.2548333491846783 -0.1818913564004663 -1.0488444280732945 2.157592641212628 2.050055466436567 -0.5200046160127103 1.1399895127138917
1.21916484833 0.2548333491846783 -0.1818913564004663 -1.0488444280732945 2.157592641212628 2.050055466436567 -0.5200046160127103 1.1399895127138917
1.22888493538 0.2548333491846783 -0.1818913564004663 -1.0488444280732945 2.157592641212628 2.050055466436567 -0.5200046160127103 1.1399895127138917
1.22888493538 0.2548333491846783 -0.1818913564004663 -1.0488444280732945 2.157592641212628 2.050055466436567 -0.5200046160127103 1.1399895127138917
1.23915195465 0.2548333491846783 -0.1818913564004663 -1.0488444280732945 2.157592641212628 2.050055466436567 -0.5200046160127103 1.1399895127138917
1.23915195465 0.2548333491846783 -0.1818913564004663 -1.0488444280732945 2.157592641212628 2.050055466436567 -0.5200046160127103 1.1399895127138917
1.24916601181 0.2548333491846783 -0.1818913564004663 -1.0488444280732945 2.157592641212628 2.050055466436567 -0.5200046160127103 1.1399895127138917
1.24916601181 0.2548333491846783 -0.1818913564004663 -1.0488444280732945 2.157592641212628 2.050055466436567 -0.5200046160127103 1.1399895127138917
1.259308815 0.2548333491846783 -0.1818913564004663 -1.0488444280732945 2.157592641212628 2.050055466436567 -0.5200046160127103 1.1399895127138917
1.259308815 0.2548333491846783 -0.1818913564004663 -1.0488444280732945 2.157592641212628 2.050055466436567 -0.5200046160127103 1.1399895127138917
1.26938295364 0.2548333491846783 -0.1818913564004663 -1.0488444280732945 2.157592641212628 2.050055466436567 -0.5200046160127103 1.1399895127138917
1.26938295364 0.2548333491846783 -0.1818913564004663 -1.0488444280732945 2.157592641212628 2.050055466436567 -0.5200046160127103 1.1399895127138917
1.27918982506 0.2548333491846783 -0.1818913564004663 -1.0488444280732945 2.157592641212628 2.050055466436567 -0.5200046160127103 1.1399895127138917
1.27918982506 0.2548333491846783 -0.1818913564004663 -1.0488444280732945 2.157592641212628 2.050055466436567 -0.5200046160127103 1.1399895127138917
1.28914403915 0.2548333491846783 -0.1818913564004663 -1.0488444280732945 2.157592641212628 2.050055466436567 -0.5200046160127103 1.1399895127138917
1.28914403915 0.2548333491846783 -0.1818913564004663 -1.0488444280732945 2.157592641212628 2.050055466436567 -0.5200046160127103 1.1399895127138917
1.29928684235 0.2548333491846783 -0.1818913564004663 -1.0488444280732945 2.157592641212628 2.050055466436567 -0.5200046160127103 1.1399895127138917
1.29928684235 0.2548333491846783 -0.1818913564004663 -1.0488444280732945 2.157592641212628 2.050055466436567 -0.5200046160127103 1.1399895127138917
1.30916690826 0.2548333491846783 -0.1818913564004663 -1.0488444280732945 2.157592641212628 2.050055466436567 -0.5200046160127103 1.1399895127138917
1.30916690826 0.2548333491846783 -0.1818913564004663 -1.0488444280732945 2.157592641212628 2.050055466436567 -0.5200046160127103 1.1399895127138917
1.31933188438 0.2548333491846783 -0.1818913564004663 -1.0488444280732945 2.157592641212628 2.050055466436567 -0.5200091814722694 1.1399849472543326
1.31933188438 0.2548333491846783 -0.1818913564004663 -1.0488444280732945 2.157592641212628 2.050055466436567 -0.5200091814722694 1.1399849472543326
1.32928085327 0.2548333491846783 -0.1818913564004663 -1.0488444280732945 2.157592641212628 2.050055466436567 -0.5200091814722694 1.1399849472543326
1.32928085327 0.2548333491846783 -0.1818913564004663 -1.0488444280732945 2.157592641212628 2.050055466436567 -0.5200091814722694 1.1399849472543326
1.3393099308 0.2548333491846783 -0.1818913564004663 -1.0488444280732945 2.157592641212628 2.050055466436567 -0.5200091814722694 1.1399849472543326
1.3393099308 0.2548333491846783 -0.1818913564004663 -1.0488444280732945 2.157592641212628 2.050055466436567 -0.5200091814722694 1.1399849472543326
1.34922599792 0.2548333491846783 -0.1818913564004663 -1.0488444280732945 2.157592641212628 2.050055466436567 -0.5200046160127103 1.1399895127138917
1.34922599792 0.2548333491846783 -0.1818913564004663 -1.0488444280732945 2.157592641212628 2.050055466436567 -0.5200046160127103 1.1399895127138917
1.35932898521 0.2548333491846783 -0.1818913564004663 -1.0488444280732945 2.157592641212628 2.050055466436567 -0.5200046160127103 1.1399895127138917
1.35932898521 0.2548333491846783 -0.1818913564004663 -1.0488444280732945 2.157592641212628 2.050055466436567 -0.5200046160127103 1.1399895127138917
1.36918783188 0.2548333491846783 -0.1818913564004663 -1.0488444280732945 2.157592641212628 2.050055466436567 -0.5200046160127103 1.1399895127138917
1.36918783188 0.2548333491846783 -0.1818913564004663 -1.0488444280732945 2.157592641212628 2.050055466436567 -0.5200046160127103 1.1399895127138917
1.3791270256 0.2548333491846783 -0.1818913564004663 -1.0488444280732945 2.157592641212628 2.050055466436567 -0.5200046160127103 1.1399895127138917
1.3791270256 0.2548333491846783 -0.1818913564004663 -1.0488444280732945 2.157592641212628 2.050055466436567 -0.5200046160127103 1.1399895127138917
1.38925290108 0.2548333491846783 -0.1818913564004663 -1.0488444280732945 2.157592641212628 2.050055466436567 -0.5200046160127103 1.1399895127138917
1.38925290108 0.2548333491846783 -0.1818913564004663 -1.0488444280732945 2.157592641212628 2.050055466436567 -0.5200046160127103 1.1399895127138917
1.39921593666 0.2548333491846783 -0.1818913564004663 -1.0488444280732945 2.157592641212628 2.050055466436567 -0.5200046160127103 1.1399895127138917
1.39921593666 0.2548333491846783 -0.1818913564004663 -1.0488444280732945 2.157592641212628 2.050055466436567 -0.5200046160127103 1.1399895127138917
1.40932393074 0.2548333491846783 -0.1818913564004663 -1.0488444280732945 2.157592641212628 2.050055466436567 -0.5200046160127103 1.1399895127138917
1.40932393074 0.2548333491846783 -0.1818913564004663 -1.0488444280732945 2.157592641212628 2.050055466436567 -0.5200046160127103 1.1399895127138917
1.41938495636 0.2548333491846783 -0.1818913564004663 -1.0488444280732945 2.157592641212628 2.050055466436567 -0.5200046160127103 1.1399895127138917
1.41938495636 0.2548333491846783 -0.1818913564004663 -1.0488444280732945 2.157592641212628 2.050055466436567 -0.5200046160127103 1.1399895127138917
1.42911291122 0.2548333491846783 -0.1818913564004663 -1.0488444280732945 2.157592641212628 2.050055466436567 -0.5200046160127103 1.1399895127138917
1.42911291122 0.2548333491846783 -0.1818913564004663 -1.0488444280732945 2.157592641212628 2.050055466436567 -0.5200046160127103 1.1399895127138917
1.43916702271 0.2548333491846783 -0.1821367965820921 -1.0488444280732945 2.157592641212628 2.050055466436567 -0.5200046160127103 1.1399895127138917
1.43916702271 0.2548333491846783 -0.1821367965820921 -1.0488444280732945 2.157592641212628 2.050055466436567 -0.5200046160127103 1.1399895127138917
1.44940590858 0.2548333491846783 -0.1821828166161469 -1.0488444280732945 2.157592641212628 2.050055466436567 -0.5200046160127103 1.1399895127138917
1.44940590858 0.2548333491846783 -0.1821828166161469 -1.0488444280732945 2.157592641212628 2.050055466436567 -0.5200046160127103 1.1399895127138917
1.45922493935 0.2548333491846783 -0.1821828166161469 -1.0488444280732945 2.157592641212628 2.050055466436567 -0.5200046160127103 1.1399895127138917
1.45922493935 0.2548333491846783 -0.1821828166161469 -1.0488444280732945 2.157592641212628 2.050055466436567 -0.5200046160127103 1.1399895127138917
1.46928596497 0.2548333491846783 -0.1821828166161469 -1.0488444280732945 2.157592641212628 2.050055466436567 -0.5200046160127103 1.1399895127138917
1.46928596497 0.2548333491846783 -0.1821828166161469 -1.0488444280732945 2.157592641212628 2.050055466436567 -0.5200046160127103 1.1399895127138917
1.47933387756 0.2548333491846783 -0.1822901966956081 -1.0488444280732945 2.157592641212628 2.050055466436567 -0.5200046160127103 1.1399895127138917
1.47933387756 0.2548333491846783 -0.1822901966956081 -1.0488444280732945 2.157592641212628 2.050055466436567 -0.5200046160127103 1.1399895127138917
1.48935103416 0.2548333491846783 -0.1822901966956081 -1.0488444280732945 2.157592641212628 2.050055466436567 -0.5200046160127103 1.1399895127138917
1.48935103416 0.2548333491846783 -0.1822901966956081 -1.0488444280732945 2.157592641212628 2.050055466436567 -0.5200046160127103 1.1399895127138917
1.49928593636 0.2548333491846783 -0.1822901966956081 -1.0488444280732945 2.157592641212628 2.050055466436567 -0.5200046160127103 1.1399895127138917
1.49928593636 0.2548333491846783 -0.1822901966956081 -1.0488444280732945 2.157592641212628 2.050055466436567 -0.5200046160127103 1.1399895127138917
1.50928092003 0.2548333491846783 -0.182336216729663 -1.0488444280732945 2.157592641212628 2.050055466436567 -0.5200046160127103 1.1399895127138917
1.50928092003 0.2548333491846783 -0.182336216729663 -1.0488444280732945 2.157592641212628 2.050055466436567 -0.5200046160127103 1.1399895127138917
1.51933383942 0.2548333491846783 -0.1823668967523662 -1.0488444280732945 2.157592641212628 2.050055466436567 -0.5200046160127103 1.1399895127138917
1.51933383942 0.2548333491846783 -0.1823668967523662 -1.0488444280732945 2.157592641212628 2.050055466436567 -0.5200046160127103 1.1399895127138917
1.52923798561 0.2548333491846783 -0.1823822367637178 -1.0488444280732945 2.157592641212628 2.050055466436567 -0.5200046160127103 1.1399895127138917
1.52923798561 0.2548333491846783 -0.1823822367637178 -1.0488444280732945 2.157592641212628 2.050055466436567 -0.5200046160127103 1.1399895127138917
1.53925895691 0.2548333491846783 -0.1823822367637178 -1.0488444280732945 2.157592641212628 2.050055466436567 -0.5200046160127103 1.1399895127138917
1.53925895691 0.2548333491846783 -0.1823822367637178 -1.0488444280732945 2.157592641212628 2.050055466436567 -0.5200046160127103 1.1399895127138917
1.54920482635 0.2548333491846783 -0.1823822367637178 -1.0488444280732945 2.157592641212628 2.050055466436567 -0.5200046160127103 1.1399895127138917
1.54920482635 0.2548333491846783 -0.1823822367637178 -1.0488444280732945 2.157592641212628 2.050055466436567 -0.5200046160127103 1.1399895127138917
1.55931782722 0.2548333491846783 -0.1823822367637178 -1.0488444280732945 2.157592641212628 2.050055466436567 -0.5200046160127103 1.1399895127138917
1.55931782722 0.2548333491846783 -0.1823822367637178 -1.0488444280732945 2.157592641212628 2.050055466436567 -0.5200046160127103 1.1399895127138917
1.56924891472 0.2548333491846783 -0.1823822367637178 -1.0488444280732945 2.157592641212628 2.050055466436567 -0.5200046160127103 1.1399895127138917
1.56924891472 0.2548333491846783 -0.1823822367637178 -1.0488444280732945 2.157592641212628 2.050055466436567 -0.5200046160127103 1.1399895127138917
1.57937788963 0.2548333491846783 -0.1823822367637178 -1.0488444280732945 2.157592641212628 2.050055466436567 -0.5200046160127103 1.1399895127138917
1.57937788963 0.2548333491846783 -0.1823822367637178 -1.0488444280732945 2.157592641212628 2.050055466436567 -0.5200046160127103 1.1399895127138917
1.58902382851 0.2548333491846783 -0.1823975767750694 -1.0488444280732945 2.157592641212628 2.050055466436567 -0.5200046160127103 1.1399895127138917
1.58902382851 0.2548333491846783 -0.1823975767750694 -1.0488444280732945 2.157592641212628 2.050055466436567 -0.5200046160127103 1.1399895127138917
1.5990998745 0.2548333491846783 -0.1823975767750694 -1.0488444280732945 2.157592641212628 2.050055466436567 -0.5200046160127103 1.1399895127138917
1.5990998745 0.2548333491846783 -0.1823975767750694 -1.0488444280732945 2.157592641212628 2.050055466436567 -0.5200046160127103 1.1399895127138917
1.60928201675 0.2548333491846783 -0.1823975767750694 -1.0488444280732945 2.157592641212628 2.050055466436567 -0.5200046160127103 1.1399895127138917
1.60928201675 0.2548333491846783 -0.1823975767750694 -1.0488444280732945 2.157592641212628 2.050055466436567 -0.5200046160127103 1.1399895127138917
1.61913585663 0.2548333491846783 -0.182412916786421 -1.0488444280732945 2.157592641212628 2.050055466436567 -0.5200046160127103 1.1399895127138917
1.61913585663 0.2548333491846783 -0.182412916786421 -1.0488444280732945 2.157592641212628 2.050055466436567 -0.5200046160127103 1.1399895127138917
1.62930893898 0.2548333491846783 -0.182412916786421 -1.0488444280732945 2.157592641212628 2.050055466436567 -0.5200046160127103 1.1399895127138917
1.62930893898 0.2548333491846783 -0.182412916786421 -1.0488444280732945 2.157592641212628 2.050055466436567 -0.5200046160127103 1.1399895127138917
1.63909101486 0.2548333491846783 -0.182412916786421 -1.0488444280732945 2.157592641212628 2.050055466436567 -0.5200046160127103 1.1399895127138917
1.63909101486 0.2548333491846783 -0.182412916786421 -1.0488444280732945 2.157592641212628 2.050055466436567 -0.5200046160127103 1.1399895127138917
1.64913392067 0.2548333491846783 -0.182412916786421 -1.0488444280732945 2.157592641212628 2.050055466436567 -0.5200046160127103 1.1399895127138917
1.64913392067 0.2548333491846783 -0.182412916786421 -1.0488444280732945 2.157592641212628 2.050055466436567 -0.5200046160127103 1.1399895127138917
1.65932798386 0.2548333491846783 -0.182412916786421 -1.0488444280732945 2.157592641212628 2.050055466436567 -0.5200046160127103 1.1399895127138917
1.65932798386 0.2548333491846783 -0.182412916786421 -1.0488444280732945 2.157592641212628 2.050055466436567 -0.5200046160127103 1.1399895127138917
1.66909694672 0.2548333491846783 -0.182412916786421 -1.0488444280732945 2.157592641212628 2.050055466436567 -0.5200046160127103 1.1399895127138917
1.66909694672 0.2548333491846783 -0.182412916786421 -1.0488444280732945 2.157592641212628 2.050055466436567 -0.5200046160127103 1.1399895127138917
1.67887687683 0.2548333491846783 -0.182412916786421 -1.0488444280732945 2.157592641212628 2.050055466436567 -0.5200091814722694 1.1399849472543326
1.67887687683 0.2548333491846783 -0.182412916786421 -1.0488444280732945 2.157592641212628 2.050055466436567 -0.5200091814722694 1.1399849472543326
1.68891191483 0.2548333491846783 -0.182412916786421 -1.0488444280732945 2.157592641212628 2.050055466436567 -0.5200046160127103 1.1399895127138917
1.68891191483 0.2548333491846783 -0.182412916786421 -1.0488444280732945 2.157592641212628 2.050055466436567 -0.5200046160127103 1.1399895127138917
1.69892096519 0.2548333491846783 -0.182412916786421 -1.0488444280732945 2.157592641212628 2.050055466436567 -0.5200046160127103 1.1399895127138917
1.69892096519 0.2548333491846783 -0.182412916786421 -1.0488444280732945 2.157592641212628 2.050055466436567 -0.5200046160127103 1.1399895127138917
1.70891690254 0.2548333491846783 -0.182412916786421 -1.0488444280732945 2.157592641212628 2.050055466436567 -0.5200046160127103 1.1399895127138917
1.70891690254 0.2548333491846783 -0.182412916786421 -1.0488444280732945 2.157592641212628 2.050055466436567 -0.5200046160127103 1.1399895127138917
1.71890282631 0.2548333491846783 -0.182412916786421 -1.0488444280732945 2.157592641212628 2.050055466436567 -0.5200046160127103 1.1399895127138917
1.71890282631 0.2548333491846783 -0.182412916786421 -1.0488444280732945 2.157592641212628 2.050055466436567 -0.5200046160127103 1.1399895127138917
1.72896289825 0.2548333491846783 -0.182412916786421 -1.0488444280732945 2.157592641212628 2.050055466436567 -0.5200046160127103 1.1399895127138917
1.72896289825 0.2548333491846783 -0.182412916786421 -1.0488444280732945 2.157592641212628 2.050055466436567 -0.5200046160127103 1.1399895127138917
1.73896694183 0.2548333491846783 -0.182412916786421 -1.0488444280732945 2.157592641212628 2.050055466436567 -0.5200046160127103 1.1399895127138917
1.73896694183 0.2548333491846783 -0.182412916786421 -1.0488444280732945 2.157592641212628 2.050055466436567 -0.5200046160127103 1.1399895127138917
1.74891400337 0.2548333491846783 -0.182412916786421 -1.0488444280732945 2.157592641212628 2.050055466436567 -0.5200091814722694 1.1399849472543326
1.74891400337 0.2548333491846783 -0.182412916786421 -1.0488444280732945 2.157592641212628 2.050055466436567 -0.5200091814722694 1.1399849472543326
1.75890803337 0.2548333491846783 -0.182412916786421 -1.0488444280732945 2.157592641212628 2.050055466436567 -0.5200046160127103 1.1399895127138917
1.75890803337 0.2548333491846783 -0.182412916786421 -1.0488444280732945 2.157592641212628 2.050055466436567 -0.5200046160127103 1.1399895127138917
1.76895284653 0.2548333491846783 -0.182412916786421 -1.0488444280732945 2.157592641212628 2.050055466436567 -0.5200046160127103 1.1399895127138917
1.76895284653 0.2548333491846783 -0.182412916786421 -1.0488444280732945 2.157592641212628 2.050055466436567 -0.5200046160127103 1.1399895127138917
1.77891898155 0.2548333491846783 -0.182412916786421 -1.0488444280732945 2.157592641212628 2.050055466436567 -0.5200046160127103 1.1399895127138917
1.77891898155 0.2548333491846783 -0.182412916786421 -1.0488444280732945 2.157592641212628 2.050055466436567 -0.5200046160127103 1.1399895127138917
1.78891992569 0.2548333491846783 -0.182412916786421 -1.0488444280732945 2.157592641212628 2.050055466436567 -0.5200046160127103 1.1399895127138917
1.78891992569 0.2548333491846783 -0.182412916786421 -1.0488444280732945 2.157592641212628 2.050055466436567 -0.5200046160127103 1.1399895127138917
1.79893684387 0.2548333491846783 -0.182412916786421 -1.0488444280732945 2.157592641212628 2.050055466436567 -0.5200046160127103 1.1399895127138917
1.79893684387 0.2548333491846783 -0.182412916786421 -1.0488444280732945 2.157592641212628 2.050055466436567 -0.5200046160127103 1.1399895127138917
1.80890989304 0.2548333491846783 -0.182412916786421 -1.0488444280732945 2.157592641212628 2.050055466436567 -0.5200046160127103 1.1399895127138917
1.80890989304 0.2548333491846783 -0.182412916786421 -1.0488444280732945 2.157592641212628 2.050055466436567 -0.5200046160127103 1.1399895127138917
1.81896686554 0.2548333491846783 -0.182412916786421 -1.0488444280732945 2.157592641212628 2.050055466436567 -0.5200046160127103 1.1399895127138917
1.81896686554 0.2548333491846783 -0.182412916786421 -1.0488444280732945 2.157592641212628 2.050055466436567 -0.5200046160127103 1.1399895127138917
1.82890701294 0.2548333491846783 -0.182412916786421 -1.0488444280732945 2.1576079812239795 2.050055466436567 -0.5200046160127103 1.1399895127138917
1.82890701294 0.2548333491846783 -0.182412916786421 -1.0488444280732945 2.1576079812239795 2.050055466436567 -0.5200046160127103 1.1399895127138917
1.83885097504 0.2548333491846783 -0.182412916786421 -1.0488444280732945 2.1576079812239795 2.050055466436567 -0.5200046160127103 1.1399895127138917
1.83885097504 0.2548333491846783 -0.182412916786421 -1.0488444280732945 2.1576079812239795 2.050055466436567 -0.5200046160127103 1.1399895127138917
1.84894394875 0.2548333491846783 -0.182412916786421 -1.0488444280732945 2.1576079812239795 2.050055466436567 -0.5200046160127103 1.1399895127138917
1.84894394875 0.2548333491846783 -0.182412916786421 -1.0488444280732945 2.1576079812239795 2.050055466436567 -0.5200046160127103 1.1399895127138917
1.85916399956 0.2548333491846783 -0.182412916786421 -1.0488444280732945 2.1576079812239795 2.050055466436567 -0.5200046160127103 1.1399895127138917
1.85916399956 0.2548333491846783 -0.182412916786421 -1.0488444280732945 2.1576079812239795 2.050055466436567 -0.5200046160127103 1.1399895127138917
1.86893701553 0.2548333491846783 -0.182412916786421 -1.0488444280732945 2.1576079812239795 2.050055466436567 -0.5200046160127103 1.1399895127138917
1.86893701553 0.2548333491846783 -0.182412916786421 -1.0488444280732945 2.1576079812239795 2.050055466436567 -0.5200046160127103 1.1399895127138917
1.87892198563 0.2548333491846783 -0.182412916786421 -1.0488444280732945 2.1576079812239795 2.050055466436567 -0.5200046160127103 1.1399895127138917
1.87892198563 0.2548333491846783 -0.182412916786421 -1.0488444280732945 2.1576079812239795 2.050055466436567 -0.5200046160127103 1.1399895127138917
1.88899588585 0.2548333491846783 -0.182412916786421 -1.0488444280732945 2.1576079812239795 2.050055466436567 -0.5200046160127103 1.1399895127138917
1.88899588585 0.2548333491846783 -0.182412916786421 -1.0488444280732945 2.1576079812239795 2.050055466436567 -0.5200046160127103 1.1399895127138917
1.89891886711 0.2548333491846783 -0.182412916786421 -1.0488444280732945 2.1576079812239795 2.050055466436567 -0.5200046160127103 1.1399895127138917
1.89891886711 0.2548333491846783 -0.182412916786421 -1.0488444280732945 2.1576079812239795 2.050055466436567 -0.5200046160127103 1.1399895127138917
1.9089410305 0.2548333491846783 -0.182412916786421 -1.0488444280732945 2.1576079812239795 2.050055466436567 -0.5200046160127103 1.1399895127138917
1.9089410305 0.2548333491846783 -0.182412916786421 -1.0488444280732945 2.1576079812239795 2.050055466436567 -0.5200046160127103 1.1399895127138917
1.91894888878 0.2548333491846783 -0.182412916786421 -1.0488444280732945 2.1576079812239795 2.050055466436567 -0.5200046160127103 1.1399895127138917
1.91894888878 0.2548333491846783 -0.182412916786421 -1.0488444280732945 2.1576079812239795 2.050055466436567 -0.5200046160127103 1.1399895127138917
1.92898392677 0.2548333491846783 -0.182412916786421 -1.0488444280732945 2.1576079812239795 2.050055466436567 -0.5200046160127103 1.1399895127138917
1.92898392677 0.2548333491846783 -0.182412916786421 -1.0488444280732945 2.1576079812239795 2.050055466436567 -0.5200046160127103 1.1399895127138917
1.93891191483 0.2548333491846783 -0.182412916786421 -1.0488444280732945 2.1576233212353317 2.050055466436567 -0.5200046160127103 1.1399895127138917
1.93891191483 0.2548333491846783 -0.182412916786421 -1.0488444280732945 2.1576233212353317 2.050055466436567 -0.5200046160127103 1.1399895127138917
1.9489068985 0.2548333491846783 -0.182412916786421 -1.0488751080959977 2.157945461473715 2.050055466436567 -0.5200046160127103 1.1399895127138917
1.9489068985 0.2548333491846783 -0.182412916786421 -1.0488751080959977 2.157945461473715 2.050055466436567 -0.5200046160127103 1.1399895127138917
1.95896601677 0.2548333491846783 -0.182412916786421 -1.0488751080959977 2.157945461473715 2.050055466436567 -0.5200046160127103 1.1399895127138917
1.95896601677 0.2548333491846783 -0.182412916786421 -1.0488751080959977 2.157945461473715 2.050055466436567 -0.5200046160127103 1.1399895127138917
1.96889781952 0.2548333491846783 -0.182412916786421 -1.0488751080959977 2.157945461473715 2.050055466436567 -0.5200046160127103 1.1399895127138917
1.96889781952 0.2548333491846783 -0.182412916786421 -1.0488751080959977 2.157945461473715 2.050055466436567 -0.5200046160127103 1.1399895127138917
1.9791328907 0.2548333491846783 -0.182412916786421 -1.0488751080959977 2.157945461473715 2.050055466436567 -0.5200046160127103 1.1399895127138917
1.9791328907 0.2548333491846783 -0.182412916786421 -1.0488751080959977 2.157945461473715 2.050055466436567 -0.5200046160127103 1.1399895127138917
1.98891592026 0.2548333491846783 -0.182412916786421 -1.048905788118701 2.15799148150777 2.050055466436567 -0.5200046160127103 1.1399895127138917
1.98891592026 0.2548333491846783 -0.182412916786421 -1.048905788118701 2.15799148150777 2.050055466436567 -0.5200046160127103 1.1399895127138917
1.99890089035 0.2548333491846783 -0.182412916786421 -1.048982488175459 2.158006821519121 2.050055466436567 -0.5200046160127103 1.1399895127138917
1.99890089035 0.2548333491846783 -0.182412916786421 -1.048982488175459 2.158006821519121 2.050055466436567 -0.5200046160127103 1.1399895127138917
2.00889992714 0.2548333491846783 -0.182412916786421 -1.0495807486181716 2.158006821519121 2.050055466436567 -0.5200046160127103 1.1399895127138917
2.00889992714 0.2548333491846783 -0.182412916786421 -1.0495807486181716 2.158006821519121 2.050055466436567 -0.5200046160127103 1.1399895127138917
2.01886892319 0.2548333491846783 -0.182412916786421 -1.0495807486181716 2.158006821519121 2.050055466436567 -0.5200046160127103 1.1399895127138917
2.01886892319 0.2548333491846783 -0.182412916786421 -1.0495807486181716 2.158006821519121 2.050055466436567 -0.5200046160127103 1.1399895127138917
2.02891492844 0.2548333491846783 -0.182412916786421 -1.050976689651168 2.158006821519121 2.050055466436567 -0.5200046160127103 1.1399895127138917
2.02891492844 0.2548333491846783 -0.182412916786421 -1.050976689651168 2.158006821519121 2.050055466436567 -0.5200046160127103 1.1399895127138917
2.03891181946 0.2548333491846783 -0.182412916786421 -1.050976689651168 2.158006821519121 2.050055466436567 -0.5200046160127103 1.1399895127138917
2.03891181946 0.2548333491846783 -0.182412916786421 -1.050976689651168 2.158006821519121 2.050055466436567 -0.5200046160127103 1.1399895127138917
2.04890203476 0.2548333491846783 -0.182412916786421 -1.050976689651168 2.158006821519121 2.050055466436567 -0.5200046160127103 1.1399895127138917
2.04890203476 0.2548333491846783 -0.182412916786421 -1.050976689651168 2.158006821519121 2.050055466436567 -0.5200046160127103 1.1399895127138917
2.05898189545 0.2548333491846783 -0.182412916786421 -1.050976689651168 2.158006821519121 2.050055466436567 -0.5200046160127103 1.1399895127138917
2.05898189545 0.2548333491846783 -0.182412916786421 -1.050976689651168 2.158006821519121 2.050055466436567 -0.5200046160127103 1.1399895127138917
2.06893587112 0.2548333491846783 -0.182412916786421 -1.0534310914674254 2.158006821519121 2.050055466436567 -0.5200046160127103 1.1399895127138917
2.06893587112 0.2548333491846783 -0.182412916786421 -1.0534310914674254 2.158006821519121 2.050055466436567 -0.5200046160127103 1.1399895127138917
2.07894301414 0.2548180091733267 -0.1824282567977725 -1.0568672540101858 2.158006821519121 2.050055466436567 -0.5200046160127103 1.1399895127138917
2.07894301414 0.2548180091733267 -0.1824282567977725 -1.0568672540101858 2.158006821519121 2.050055466436567 -0.5200046160127103 1.1399895127138917
2.0889248848 0.2547719891392718 -0.1824282567977725 -1.0609630370410652 2.158006821519121 2.050055466436567 -0.5200046160127103 1.1399895127138917
2.0889248848 0.2547719891392718 -0.1824282567977725 -1.0609630370410652 2.158006821519121 2.050055466436567 -0.5200046160127103 1.1399895127138917
2.09891104698 0.2547719891392718 -0.1824282567977725 -1.0609630370410652 2.158006821519121 2.050055466436567 -0.5200046160127103 1.1399895127138917
2.09891104698 0.2547719891392718 -0.1824282567977725 -1.0609630370410652 2.158006821519121 2.050055466436567 -0.5200046160127103 1.1399895127138917
2.10899400711 0.2547719891392718 -0.1824282567977725 -1.065825820639525 2.158006821519121 2.050055466436567 -0.5200046160127103 1.1399895127138917
2.10899400711 0.2547719891392718 -0.1824282567977725 -1.065825820639525 2.158006821519121 2.050055466436567 -0.5200046160127103 1.1399895127138917
2.11890983582 0.2547719891392718 -0.1824282567977725 -1.065825820639525 2.158006821519121 2.050055466436567 -0.5200046160127103 1.1399895127138917
2.11890983582 0.2547719891392718 -0.1824282567977725 -1.065825820639525 2.158006821519121 2.050055466436567 -0.5200046160127103 1.1399895127138917
2.128937006 0.2547719891392718 -0.1824282567977725 -1.065825820639525 2.158006821519121 2.050055466436567 -0.5200046160127103 1.1399895127138917
2.128937006 0.2547719891392718 -0.1824282567977725 -1.065825820639525 2.158006821519121 2.050055466436567 -0.5200046160127103 1.1399895127138917
2.13893485069 0.2547719891392718 -0.1824282567977725 -1.065825820639525 2.158006821519121 2.050055466436567 -0.5200046160127103 1.1399895127138917
2.13893485069 0.2547719891392718 -0.1824282567977725 -1.065825820639525 2.158006821519121 2.050055466436567 -0.5200046160127103 1.1399895127138917
2.14890694618 0.2547566491279202 -0.1824282567977725 -1.0777603494710764 2.158006821519121 2.050055466436567 -0.5200046160127103 1.1399895127138917
2.14890694618 0.2547566491279202 -0.1824282567977725 -1.0777603494710764 2.158006821519121 2.050055466436567 -0.5200046160127103 1.1399895127138917
2.15894389153 0.2547566491279202 -0.1824282567977725 -1.0777603494710764 2.158006821519121 2.050055466436567 -0.5200046160127103 1.1399895127138917
2.15894389153 0.2547566491279202 -0.1824282567977725 -1.0777603494710764 2.158006821519121 2.050055466436567 -0.5200046160127103 1.1399895127138917
2.16892194748 0.2547566491279202 -0.1824282567977725 -1.0777603494710764 2.158006821519121 2.050055466436567 -0.5200046160127103 1.1399895127138917
2.16892194748 0.2547566491279202 -0.1824282567977725 -1.0777603494710764 2.158006821519121 2.050055466436567 -0.5200046160127103 1.1399895127138917
2.17893981934 0.2547566491279202 -0.1824435968091242 -1.08427985429551 2.158006821519121 2.050055466436567 -0.5200046160127103 1.1399895127138917
2.17893981934 0.2547566491279202 -0.1824435968091242 -1.08427985429551 2.158006821519121 2.050055466436567 -0.5200046160127103 1.1399895127138917
2.18891882896 0.2547566491279202 -0.1825816569112887 -1.0913055794945463 2.158006821519121 2.050055466436567 -0.5200046160127103 1.1399895127138917
2.18891882896 0.2547566491279202 -0.1825816569112887 -1.0913055794945463 2.158006821519121 2.050055466436567 -0.5200046160127103 1.1399895127138917
2.19887590408 0.2547566491279202 -0.1825816569112887 -1.0913055794945463 2.158006821519121 2.050055466436567 -0.5200046160127103 1.1399895127138917
2.19887590408 0.2547566491279202 -0.1825816569112887 -1.0913055794945463 2.158006821519121 2.050055466436567 -0.5200046160127103 1.1399895127138917
2.20889186859 0.2547566491279202 -0.1825816569112887 -1.0913055794945463 2.158006821519121 2.050055466436567 -0.5200046160127103 1.1399895127138917
2.20889186859 0.2547566491279202 -0.1825816569112887 -1.0913055794945463 2.158006821519121 2.050055466436567 -0.5200046160127103 1.1399895127138917
2.21895098686 0.2547566491279202 -0.1825816569112887 -1.0913055794945463 2.158006821519121 2.050055466436567 -0.5200046160127103 1.1399895127138917
2.21895098686 0.2547566491279202 -0.1825816569112887 -1.0913055794945463 2.158006821519121 2.050055466436567 -0.5200046160127103 1.1399895127138917
2.22890591621 0.2547566491279202 -0.1825816569112887 -1.0913055794945463 2.158006821519121 2.050055466436567 -0.5200046160127103 1.1399895127138917
2.22890591621 0.2547566491279202 -0.1825816569112887 -1.0913055794945463 2.158006821519121 2.050055466436567 -0.5200046160127103 1.1399895127138917
2.23891997337 0.2547566491279202 -0.1848979986253815 -1.1072745313115708 2.158006821519121 2.050055466436567 -0.5200046160127103 1.1399895127138917
2.23891997337 0.2547566491279202 -0.1848979986253815 -1.1072745313115708 2.158006821519121 2.050055466436567 -0.5200046160127103 1.1399895127138917
2.24894094467 0.2547566491279202 -0.186447339771894 -1.115573477452791 2.158006821519121 2.050055466436567 -0.5200046160127103 1.1399895127138917
2.24894094467 0.2547566491279202 -0.186447339771894 -1.115573477452791 2.158006821519121 2.050055466436567 -0.5200046160127103 1.1399895127138917
2.25890183449 0.2547566491279202 -0.186447339771894 -1.115573477452791 2.158006821519121 2.050055466436567 -0.5200046160127103 1.1399895127138917
2.25890183449 0.2547566491279202 -0.186447339771894 -1.115573477452791 2.158006821519121 2.050055466436567 -0.5200046160127103 1.1399895127138917
2.26893281937 0.2547566491279202 -0.1875671606005614 -1.123995143684824 2.158006821519121 2.050055466436567 -0.5200046160127103 1.1399895127138917
2.26893281937 0.2547566491279202 -0.1875671606005614 -1.123995143684824 2.158006821519121 2.050055466436567 -0.5200046160127103 1.1399895127138917
2.27891397476 0.2547566491279202 -0.1875671606005614 -1.123995143684824 2.158006821519121 2.050055466436567 -0.5200046160127103 1.1399895127138917
2.27891397476 0.2547566491279202 -0.1875671606005614 -1.123995143684824 2.158006821519121 2.050055466436567 -0.5200046160127103 1.1399895127138917
2.28888201714 0.2547566491279202 -0.1875671606005614 -1.123995143684824 2.158006821519121 2.050055466436567 -0.5200046160127103 1.1399895127138917
2.28888201714 0.2547566491279202 -0.1875671606005614 -1.123995143684824 2.158006821519121 2.050055466436567 -0.5200046160127103 1.1399895127138917
2.2989180088 0.2547566491279202 -0.1875671606005614 -1.123995143684824 2.158006821519121 2.050055466436567 -0.5200046160127103 1.1399895127138917
2.2989180088 0.2547566491279202 -0.1875671606005614 -1.123995143684824 2.158006821519121 2.050055466436567 -0.5200046160127103 1.1399895127138917
2.30890703201 0.2547566491279202 -0.1896687421557317 -1.139856715422387 2.1580375015418247 2.050055466436567 -0.5200046160127103 1.1399895127138917
2.30890703201 0.2547566491279202 -0.1896687421557317 -1.139856715422387 2.1580375015418247 2.050055466436567 -0.5200046160127103 1.1399895127138917
2.31890082359 0.2547566491279202 -0.1896687421557317 -1.139856715422387 2.1580375015418247 2.050055466436567 -0.5200046160127103 1.1399895127138917
2.31890082359 0.2547566491279202 -0.1896687421557317 -1.139856715422387 2.1580375015418247 2.050055466436567 -0.5200046160127103 1.1399895127138917
2.32891201973 0.2547566491279202 -0.1896687421557317 -1.139856715422387 2.1580375015418247 2.050055466436567 -0.5200046160127103 1.1399895127138917
2.32891201973 0.2547566491279202 -0.1896687421557317 -1.139856715422387 2.1580375015418247 2.050055466436567 -0.5200046160127103 1.1399895127138917
2.33891701698 0.2547566491279202 -0.1906505028822347 -1.1474346810300815 2.158052841553176 2.050055466436567 -0.5200046160127103 1.1399895127138917
2.33891701698 0.2547566491279202 -0.1906505028822347 -1.1474346810300815 2.158052841553176 2.050055466436567 -0.5200046160127103 1.1399895127138917
2.34894585609 0.2547873291506234 -0.1914788634952216 -1.1548592465242602 2.1581295416099344 2.050055466436567 -0.5200046160127103 1.1399895127138917
2.34894585609 0.2547873291506234 -0.1914788634952216 -1.1548592465242602 2.1581295416099344 2.050055466436567 -0.5200046160127103 1.1399895127138917
2.35895490646 0.2547873291506234 -0.1914788634952216 -1.1548592465242602 2.1581295416099344 2.050055466436567 -0.5200046160127103 1.1399895127138917
2.35895490646 0.2547873291506234 -0.1914788634952216 -1.1548592465242602 2.1581295416099344 2.050055466436567 -0.5200046160127103 1.1399895127138917
2.36892485619 0.2547873291506234 -0.1914788634952216 -1.1548592465242602 2.1581295416099344 2.050055466436567 -0.5200046160127103 1.1399895127138917
2.36892485619 0.2547873291506234 -0.1914788634952216 -1.1548592465242602 2.1581295416099344 2.050055466436567 -0.5200046160127103 1.1399895127138917
2.37890291214 0.2547873291506234 -0.1914788634952216 -1.1548592465242602 2.1581295416099344 2.050055466436567 -0.5200046160127103 1.1399895127138917
2.37890291214 0.2547873291506234 -0.1914788634952216 -1.1548592465242602 2.1581295416099344 2.050055466436567 -0.5200046160127103 1.1399895127138917
2.38892698288 0.2547873291506234 -0.1914788634952216 -1.1548592465242602 2.1581295416099344 2.050055466436567 -0.5200046160127103 1.1399895127138917
2.38892698288 0.2547873291506234 -0.1914788634952216 -1.1548592465242602 2.1581295416099344 2.050055466436567 -0.5200046160127103 1.1399895127138917
2.39890503883 0.2547873291506234 -0.1918930438017149 -1.161486131428155 2.158252261700748 2.050055466436567 -0.5200046160127103 1.1399895127138917
2.39890503883 0.2547873291506234 -0.1918930438017149 -1.161486131428155 2.158252261700748 2.050055466436567 -0.5200046160127103 1.1399895127138917
2.40890693665 0.2547873291506234 -0.1918930438017149 -1.1678522361390724 2.1583749817915603 2.050055466436567 -0.5200046160127103 1.1399895127138917
2.40890693665 0.2547873291506234 -0.1918930438017149 -1.1678522361390724 2.1583749817915603 2.050055466436567 -0.5200046160127103 1.1399895127138917
2.41895294189 0.2547873291506234 -0.1918930438017149 -1.1741723208159351 2.1583749817915603 2.050055466436567 -0.5200046160127103 1.1399895127138917
2.41895294189 0.2547873291506234 -0.1918930438017149 -1.1741723208159351 2.1583749817915603 2.050055466436567 -0.5200046160127103 1.1399895127138917
2.42891001701 0.2547873291506234 -0.1918930438017149 -1.1807378456744235 2.1583749817915603 2.050055466436567 -0.5200046160127103 1.1399895127138917
2.42891001701 0.2547873291506234 -0.1918930438017149 -1.1807378456744235 2.1583749817915603 2.050055466436567 -0.5200046160127103 1.1399895127138917
2.43891596794 0.2547873291506234 -0.1918930438017149 -1.1807378456744235 2.1583749817915603 2.050055466436567 -0.5200046160127103 1.1399895127138917
2.43891596794 0.2547873291506234 -0.1918930438017149 -1.1807378456744235 2.1583749817915603 2.050055466436567 -0.5200046160127103 1.1399895127138917
2.44888186455 0.2547873291506234 -0.1918930438017149 -1.1807378456744235 2.1583749817915603 2.050055466436567 -0.5200046160127103 1.1399895127138917
2.44888186455 0.2547873291506234 -0.1918930438017149 -1.1807378456744235 2.1583749817915603 2.050055466436567 -0.5200046160127103 1.1399895127138917
2.45892190933 0.2547873291506234 -0.1918930438017149 -1.1807378456744235 2.1583749817915603 2.050055466436567 -0.5200046160127103 1.1399895127138917
2.45892190933 0.2547873291506234 -0.1918930438017149 -1.1807378456744235 2.1583749817915603 2.050055466436567 -0.5200046160127103 1.1399895127138917
2.46895098686 0.2547873291506234 -0.1918930438017149 -1.1871499704193955 2.1583749817915603 2.050055466436567 -0.5200046160127103 1.1399895127138917
2.46895098686 0.2547873291506234 -0.1918930438017149 -1.1871499704193955 2.1583749817915603 2.050055466436567 -0.5200046160127103 1.1399895127138917
2.47887301445 0.2547873291506234 -0.1918930438017149 -1.1937768553232906 2.1583749817915603 2.050055466436567 -0.5200046160127103 1.1399895127138917
2.47887301445 0.2547873291506234 -0.1918930438017149 -1.1937768553232906 2.1583749817915603 2.050055466436567 -0.5200046160127103 1.1399895127138917
2.48894500732 0.2547873291506234 -0.1918930438017149 -1.1937768553232906 2.1583749817915603 2.050055466436567 -0.5200046160127103 1.1399895127138917
2.48894500732 0.2547873291506234 -0.1918930438017149 -1.1937768553232906 2.1583749817915603 2.050055466436567 -0.5200046160127103 1.1399895127138917
2.4989259243 0.2547873291506234 -0.1918930438017149 -1.2008332605450305 2.158390321802912 2.050055466436567 -0.5200046160127103 1.1399895127138917
2.4989259243 0.2547873291506234 -0.1918930438017149 -1.2008332605450305 2.158390321802912 2.050055466436567 -0.5200046160127103 1.1399895127138917
2.5088698864 0.2547873291506234 -0.1918930438017149 -1.2080890859143414 2.158390321802912 2.050055466436567 -0.5200046160127103 1.1399895127138917
2.5088698864 0.2547873291506234 -0.1918930438017149 -1.2080890859143414 2.158390321802912 2.050055466436567 -0.5200046160127103 1.1399895127138917
2.51889896393 0.2547873291506234 -0.1918930438017149 -1.2080890859143414 2.158390321802912 2.050055466436567 -0.5200046160127103 1.1399895127138917
2.51889896393 0.2547873291506234 -0.1918930438017149 -1.2080890859143414 2.158390321802912 2.050055466436567 -0.5200046160127103 1.1399895127138917
2.5288939476 0.2547873291506234 -0.1918930438017149 -1.2080890859143414 2.158390321802912 2.050055466436567 -0.5200046160127103 1.1399895127138917
2.5288939476 0.2547873291506234 -0.1918930438017149 -1.2080890859143414 2.158390321802912 2.050055466436567 -0.5200046160127103 1.1399895127138917
2.53887295723 0.2547873291506234 -0.1918930438017149 -1.2080890859143414 2.158390321802912 2.050055466436567 -0.5200046160127103 1.1399895127138917
2.53887295723 0.2547873291506234 -0.1918930438017149 -1.2080890859143414 2.158390321802912 2.050055466436567 -0.5200046160127103 1.1399895127138917
2.54893493652 0.2547873291506234 -0.1918930438017149 -1.222631416675666 2.158390321802912 2.050055466436567 -0.5200046160127103 1.1399895127138917
2.54893493652 0.2547873291506234 -0.1918930438017149 -1.222631416675666 2.158390321802912 2.050055466436567 -0.5200046160127103 1.1399895127138917
2.55906200409 0.2547873291506234 -0.1918930438017149 -1.222631416675666 2.158390321802912 2.050055466436567 -0.5200046160127103 1.1399895127138917
2.55906200409 0.2547873291506234 -0.1918930438017149 -1.222631416675666 2.158390321802912 2.050055466436567 -0.5200046160127103 1.1399895127138917
2.56912684441 0.2547873291506234 -0.1918930438017149 -1.2301787022606574 2.1584056618142635 2.050055466436567 -0.5200046160127103 1.1399895127138917
2.56912684441 0.2547873291506234 -0.1918930438017149 -1.2301787022606574 2.1584056618142635 2.050055466436567 -0.5200046160127103 1.1399895127138917
2.5793068409 0.2547873291506234 -0.1918930438017149 -1.2301787022606574 2.1584056618142635 2.050055466436567 -0.5200046160127103 1.1399895127138917
2.5793068409 0.2547873291506234 -0.1918930438017149 -1.2301787022606574 2.1584056618142635 2.050055466436567 -0.5200046160127103 1.1399895127138917
2.58931803703 0.2547873291506234 -0.1918930438017149 -1.2301787022606574 2.1584056618142635 2.050055466436567 -0.5200046160127103 1.1399895127138917
2.58931803703 0.2547873291506234 -0.1918930438017149 -1.2301787022606574 2.1584056618142635 2.050055466436567 -0.5200046160127103 1.1399895127138917
2.59928393364 0.2547873291506234 -0.1918930438017149 -1.2301787022606574 2.1584056618142635 2.050055466436567 -0.5200046160127103 1.1399895127138917
2.59928393364 0.2547873291506234 -0.1918930438017149 -1.2301787022606574 2.1584056618142635 2.050055466436567 -0.5200046160127103 1.1399895127138917
2.60931587219 0.2547873291506234 -0.1918930438017149 -1.2378026879024069 2.158421001825615 2.050055466436567 -0.5200046160127103 1.1399895127138917
2.60931587219 0.2547873291506234 -0.1918930438017149 -1.2378026879024069 2.158421001825615 2.050055466436567 -0.5200046160127103 1.1399895127138917
2.61924481392 0.2547873291506234 -0.1918930438017149 -1.2378026879024069 2.158421001825615 2.050055466436567 -0.5200046160127103 1.1399895127138917
2.61924481392 0.2547873291506234 -0.1918930438017149 -1.2378026879024069 2.158421001825615 2.050055466436567 -0.5200046160127103 1.1399895127138917
2.62933802605 0.2547873291506234 -0.1918930438017149 -1.2450891932944208 2.158467021859669 2.050055466436567 -0.5200046160127103 1.1399895127138917
2.62933802605 0.2547873291506234 -0.1918930438017149 -1.2450891932944208 2.158467021859669 2.050055466436567 -0.5200046160127103 1.1399895127138917
2.63920092583 0.2547873291506234 -0.1918930438017149 -1.2521149184934577 2.1584977018823728 2.050055466436567 -0.5200046160127103 1.1399895127138917
2.63920092583 0.2547873291506234 -0.1918930438017149 -1.2521149184934577 2.1584977018823728 2.050055466436567 -0.5200046160127103 1.1399895127138917
2.6492600441 0.2547873291506234 -0.1918930438017149 -1.2521149184934577 2.1584977018823728 2.050055466436567 -0.5200046160127103 1.1399895127138917
2.6492600441 0.2547873291506234 -0.1918930438017149 -1.2521149184934577 2.1584977018823728 2.050055466436567 -0.5200046160127103 1.1399895127138917
2.65931391716 0.2547873291506234 -0.1918930438017149 -1.2521149184934577 2.1584977018823728 2.050055466436567 -0.5200046160127103 1.1399895127138917
2.65931391716 0.2547873291506234 -0.1918930438017149 -1.2521149184934577 2.1584977018823728 2.050055466436567 -0.5200046160127103 1.1399895127138917
2.6691339016 0.2547873291506234 -0.1918930438017149 -1.2521149184934577 2.1584977018823728 2.050055466436567 -0.5200046160127103 1.1399895127138917
2.6691339016 0.2547873291506234 -0.1918930438017149 -1.2521149184934577 2.1584977018823728 2.050055466436567 -0.5200046160127103 1.1399895127138917
2.67923998833 0.2547873291506234 -0.1918930438017149 -1.2586804433519458 2.1584977018823728 2.050055466436567 -0.5200046160127103 1.1399895127138917
2.67923998833 0.2547873291506234 -0.1918930438017149 -1.2586804433519458 2.1584977018823728 2.050055466436567 -0.5200046160127103 1.1399895127138917
2.68928289413 0.2547873291506234 -0.1918930438017149 -1.2586804433519458 2.1584977018823728 2.050055466436567 -0.5200046160127103 1.1399895127138917
2.68928289413 0.2547873291506234 -0.1918930438017149 -1.2586804433519458 2.1584977018823728 2.050055466436567 -0.5200046160127103 1.1399895127138917
2.69940900803 0.2548947092300848 -0.1918930438017149 -1.264862467926644 2.1585130418937246 2.050055466436567 -0.5200046160127103 1.1399895127138917
2.69940900803 0.2548947092300848 -0.1918930438017149 -1.264862467926644 2.1585130418937246 2.050055466436567 -0.5200046160127103 1.1399895127138917
2.70919799805 0.2548947092300848 -0.1918930438017149 -1.264862467926644 2.1585130418937246 2.050055466436567 -0.5200046160127103 1.1399895127138917
2.70919799805 0.2548947092300848 -0.1918930438017149 -1.264862467926644 2.1585130418937246 2.050055466436567 -0.5200046160127103 1.1399895127138917
2.71925282478 0.254925389252788 -0.1918930438017149 -1.2756925159408796 2.1585130418937246 2.050055466436567 -0.5200046160127103 1.1399895127138917
2.71925282478 0.254925389252788 -0.1918930438017149 -1.2756925159408796 2.1585130418937246 2.050055466436567 -0.5200046160127103 1.1399895127138917
2.72912883759 0.254925389252788 -0.1918930438017149 -1.2756925159408796 2.1585130418937246 2.050055466436567 -0.5200046160127103 1.1399895127138917
2.72912883759 0.254925389252788 -0.1918930438017149 -1.2756925159408796 2.1585130418937246 2.050055466436567 -0.5200046160127103 1.1399895127138917
2.73921084404 0.2549867492981945 -0.1918777037903634 -1.2805246195166362 2.1585130418937246 2.050055466436567 -0.5200046160127103 1.1399895127138917
2.73921084404 0.2549867492981945 -0.1918777037903634 -1.2805246195166362 2.1585130418937246 2.050055466436567 -0.5200046160127103 1.1399895127138917
2.74931883812 0.2549867492981945 -0.1918010037336053 -1.285080602888064 2.1585130418937246 2.050055466436567 -0.5200046160127103 1.1399895127138917
2.74931883812 0.2549867492981945 -0.1918010037336053 -1.285080602888064 2.1585130418937246 2.050055466436567 -0.5200046160127103 1.1399895127138917
2.75911283493 0.2549867492981945 -0.1918010037336053 -1.285080602888064 2.1585130418937246 2.050055466436567 -0.5200046160127103 1.1399895127138917
2.75911283493 0.2549867492981945 -0.1918010037336053 -1.285080602888064 2.1585130418937246 2.050055466436567 -0.5200046160127103 1.1399895127138917
2.769343853 0.2549867492981945 -0.1918010037336053 -1.285080602888064 2.1585130418937246 2.050055466436567 -0.5200046160127103 1.1399895127138917
2.769343853 0.2549867492981945 -0.1918010037336053 -1.285080602888064 2.1585130418937246 2.050055466436567 -0.5200046160127103 1.1399895127138917
2.77934503555 0.2549867492981945 -0.1918010037336053 -1.285080602888064 2.1585130418937246 2.050055466436567 -0.5200046160127103 1.1399895127138917
2.77934503555 0.2549867492981945 -0.1918010037336053 -1.285080602888064 2.1585130418937246 2.050055466436567 -0.5200046160127103 1.1399895127138917
2.78931093216 0.2549867492981945 -0.1918010037336053 -1.285080602888064 2.1585130418937246 2.050055466436567 -0.5200046160127103 1.1399895127138917
2.78931093216 0.2549867492981945 -0.1918010037336053 -1.285080602888064 2.1585130418937246 2.050055466436567 -0.5200046160127103 1.1399895127138917
2.79926896095 0.2549867492981945 -0.1916629436314409 -1.2894371661119206 2.1585130418937246 2.050055466436567 -0.5200046160127103 1.1399895127138917
2.79926896095 0.2549867492981945 -0.1916629436314409 -1.2894371661119206 2.1585130418937246 2.050055466436567 -0.5200046160127103 1.1399895127138917
2.80927991867 0.2549867492981945 -0.1916629436314409 -1.2894371661119206 2.1585130418937246 2.050055466436567 -0.5200046160127103 1.1399895127138917
2.80927991867 0.2549867492981945 -0.1916629436314409 -1.2894371661119206 2.1585130418937246 2.050055466436567 -0.5200046160127103 1.1399895127138917
2.81909489632 0.2549867492981945 -0.1910646831887282 -1.2976747522077343 2.1585130418937246 2.050055466436567 -0.5200091814722694 1.1399849472543326
2.81909489632 0.2549867492981945 -0.1910646831887282 -1.2976747522077343 2.1585130418937246 2.050055466436567 -0.5200091814722694 1.1399849472543326
2.82928490639 0.2549867492981945 -0.1910646831887282 -1.2976747522077343 2.1585130418937246 2.050055466436567 -0.5200091814722694 1.1399849472543326
2.82928490639 0.2549867492981945 -0.1910646831887282 -1.2976747522077343 2.1585130418937246 2.050055466436567 -0.5200091814722694 1.1399849472543326
2.8390648365 0.2549867492981945 -0.1906505028822347 -1.3011722747959011 2.1585130418937246 2.050055466436567 -0.5200046160127103 1.1399895127138917
2.8390648365 0.2549867492981945 -0.1906505028822347 -1.3011722747959011 2.1585130418937246 2.050055466436567 -0.5200046160127103 1.1399895127138917
2.8492128849 0.2549867492981945 -0.1906505028822347 -1.3011722747959011 2.1585130418937246 2.050055466436567 -0.5200046160127103 1.1399895127138917
2.8492128849 0.2549867492981945 -0.1906505028822347 -1.3011722747959011 2.1585130418937246 2.050055466436567 -0.5200046160127103 1.1399895127138917
2.85931801796 0.2549867492981945 -0.1906505028822347 -1.3011722747959011 2.1585130418937246 2.050055466436567 -0.5200046160127103 1.1399895127138917
2.85931801796 0.2549867492981945 -0.1906505028822347 -1.3011722747959011 2.1585130418937246 2.050055466436567 -0.5200046160127103 1.1399895127138917
2.86928582191 0.2549867492981945 -0.1906505028822347 -1.3011722747959011 2.1585130418937246 2.050055466436567 -0.5200046160127103 1.1399895127138917
2.86928582191 0.2549867492981945 -0.1906505028822347 -1.3011722747959011 2.1585130418937246 2.050055466436567 -0.5200046160127103 1.1399895127138917
2.87936902046 0.2549867492981945 -0.189852822291951 -1.3051146577132644 2.1585130418937246 2.050055466436567 -0.5200046160127103 1.1399895127138917
2.87936902046 0.2549867492981945 -0.189852822291951 -1.3051146577132644 2.1585130418937246 2.050055466436567 -0.5200046160127103 1.1399895127138917
2.88919782639 0.2549867492981945 -0.189852822291951 -1.3051146577132644 2.1585130418937246 2.050055466436567 -0.5200046160127103 1.1399895127138917
2.88919782639 0.2549867492981945 -0.189852822291951 -1.3051146577132644 2.1585130418937246 2.050055466436567 -0.5200046160127103 1.1399895127138917
2.89935183525 0.2549867492981945 -0.189852822291951 -1.3051146577132644 2.1585130418937246 2.050055466436567 -0.5200046160127103 1.1399895127138917
2.89935183525 0.2549867492981945 -0.189852822291951 -1.3051146577132644 2.1585130418937246 2.050055466436567 -0.5200046160127103 1.1399895127138917
2.90936398506 0.2549867492981945 -0.1888864015767997 -1.3088269404603536 2.1585130418937246 2.050055466436567 -0.5200046160127103 1.1399895127138917
2.90936398506 0.2549867492981945 -0.1888864015767997 -1.3088269404603536 2.1585130418937246 2.050055466436567 -0.5200046160127103 1.1399895127138917
2.91899490356 0.2549867492981945 -0.1888864015767997 -1.3088269404603536 2.1585130418937246 2.050055466436567 -0.5200046160127103 1.1399895127138917
2.91899490356 0.2549867492981945 -0.1888864015767997 -1.3088269404603536 2.1585130418937246 2.050055466436567 -0.5200046160127103 1.1399895127138917
2.92927289009 0.2549867492981945 -0.1888864015767997 -1.3088269404603536 2.1585130418937246 2.050055466436567 -0.5200046160127103 1.1399895127138917
2.92927289009 0.2549867492981945 -0.1888864015767997 -1.3088269404603536 2.1585130418937246 2.050055466436567 -0.5200046160127103 1.1399895127138917
2.93940591812 0.2549867492981945 -0.1888864015767997 -1.3088269404603536 2.1585130418937246 2.050055466436567 -0.5200046160127103 1.1399895127138917
2.93940591812 0.2549867492981945 -0.1888864015767997 -1.3088269404603536 2.1585130418937246 2.050055466436567 -0.5200046160127103 1.1399895127138917
2.94920992851 0.2549867492981945 -0.1888864015767997 -1.3088269404603536 2.1585130418937246 2.050055466436567 -0.5200046160127103 1.1399895127138917
2.94920992851 0.2549867492981945 -0.1888864015767997 -1.3088269404603536 2.1585130418937246 2.050055466436567 -0.5200046160127103 1.1399895127138917
2.95934581757 0.2549867492981945 -0.1888864015767997 -1.3088269404603536 2.1585130418937246 2.050055466436567 -0.5200046160127103 1.1399895127138917
2.95934581757 0.2549867492981945 -0.1888864015767997 -1.3088269404603536 2.1585130418937246 2.050055466436567 -0.5200046160127103 1.1399895127138917
2.96932291985 0.2549867492981945 -0.1888864015767997 -1.3088269404603536 2.1585130418937246 2.050055466436567 -0.5200046160127103 1.1399895127138917
2.96932291985 0.2549867492981945 -0.1888864015767997 -1.3088269404603536 2.1585130418937246 2.050055466436567 -0.5200046160127103 1.1399895127138917
2.97917699814 0.2549867492981945 -0.1888864015767997 -1.3088269404603536 2.1585130418937246 2.050055466436567 -0.5200046160127103 1.1399895127138917
2.97917699814 0.2549867492981945 -0.1888864015767997 -1.3088269404603536 2.1585130418937246 2.050055466436567 -0.5200046160127103 1.1399895127138917
2.98926186562 0.2549867492981945 -0.1876131806346162 -1.312569903230146 2.1585130418937246 2.050055466436567 -0.5200046160127103 1.1399895127138917
2.98926186562 0.2549867492981945 -0.1876131806346162 -1.312569903230146 2.1585130418937246 2.050055466436567 -0.5200046160127103 1.1399895127138917
2.99919891357 0.2549867492981945 -0.1827964170702112 -1.3238754915962816 2.1585130418937246 2.050055466436567 -0.5200046160127103 1.1399895127138917
2.99919891357 0.2549867492981945 -0.1827964170702112 -1.3238754915962816 2.1585130418937246 2.050055466436567 -0.5200046160127103 1.1399895127138917
3.00894403458 0.2550174293208977 -0.1759394319960422 -1.3341839792245624 2.1585130418937246 2.050055466436567 -0.5200046160127103 1.1399895127138917
3.00894403458 0.2550174293208977 -0.1759394319960422 -1.3341839792245624 2.1585130418937246 2.050055466436567 -0.5200046160127103 1.1399895127138917
3.01931595802 0.2550174293208977 -0.1759394319960422 -1.3341839792245624 2.1585130418937246 2.050055466436567 -0.5200046160127103 1.1399895127138917
3.01931595802 0.2550174293208977 -0.1759394319960422 -1.3341839792245624 2.1585130418937246 2.050055466436567 -0.5200046160127103 1.1399895127138917
3.02925300598 0.2550787893663042 -0.1730401698505883 -1.337251981494884 2.1584977018823728 2.050055466436567 -0.5200046160127103 1.1399895127138917
3.02925300598 0.2550787893663042 -0.1730401698505883 -1.337251981494884 2.1584977018823728 2.050055466436567 -0.5200046160127103 1.1399895127138917
3.0391600132 0.2550787893663042 -0.1730401698505883 -1.337251981494884 2.1584977018823728 2.050055466436567 -0.5200046160127103 1.1399895127138917
3.0391600132 0.2550787893663042 -0.1730401698505883 -1.337251981494884 2.1584977018823728 2.050055466436567 -0.5200046160127103 1.1399895127138917
3.04931402206 0.2550787893663042 -0.1730401698505883 -1.337251981494884 2.1584977018823728 2.050055466436567 -0.5200046160127103 1.1399895127138917
3.04931402206 0.2550787893663042 -0.1730401698505883 -1.337251981494884 2.1584977018823728 2.050055466436567 -0.5200046160127103 1.1399895127138917
3.05928182602 0.2550787893663042 -0.1730401698505883 -1.337251981494884 2.1584977018823728 2.050055466436567 -0.5200046160127103 1.1399895127138917
3.05928182602 0.2550787893663042 -0.1730401698505883 -1.337251981494884 2.1584977018823728 2.050055466436567 -0.5200046160127103 1.1399895127138917
3.06975197792 0.2552628695025233 -0.1665360050375063 -1.3430198257630888 2.1584977018823728 2.050055466436567 -0.5200046160127103 1.1399895127138917
3.06975197792 0.2552628695025233 -0.1665360050375063 -1.3430198257630888 2.1584977018823728 2.050055466436567 -0.5200046160127103 1.1399895127138917
3.0791079998 0.2552628695025233 -0.1665360050375063 -1.3430198257630888 2.1584977018823728 2.050055466436567 -0.5200046160127103 1.1399895127138917
3.0791079998 0.2552628695025233 -0.1665360050375063 -1.3430198257630888 2.1584977018823728 2.050055466436567 -0.5200046160127103 1.1399895127138917
3.08931899071 0.2554469496387427 -0.1629004223471751 -1.3457350077723236 2.1584977018823728 2.050055466436567 -0.5200046160127103 1.1399895127138917
3.08931899071 0.2554469496387427 -0.1629004223471751 -1.3457350077723236 2.1584977018823728 2.050055466436567 -0.5200046160127103 1.1399895127138917
3.09916186333 0.2554469496387427 -0.1629004223471751 -1.3457350077723236 2.1584977018823728 2.050055466436567 -0.5200046160127103 1.1399895127138917
3.09916186333 0.2554469496387427 -0.1629004223471751 -1.3457350077723236 2.1584977018823728 2.050055466436567 -0.5200046160127103 1.1399895127138917
3.10916996002 0.2554469496387427 -0.1629004223471751 -1.3457350077723236 2.1584977018823728 2.050055466436567 -0.5200046160127103 1.1399895127138917
3.10916996002 0.2554469496387427 -0.1629004223471751 -1.3457350077723236 2.1584977018823728 2.050055466436567 -0.5200046160127103 1.1399895127138917
3.11922097206 0.2557230698430716 -0.1588659993617021 -1.3484348497702066 2.1584823618710214 2.050055466436567 -0.5200046160127103 1.1399895127138917
3.11922097206 0.2557230698430716 -0.1588659993617021 -1.3484348497702066 2.1584823618710214 2.050055466436567 -0.5200046160127103 1.1399895127138917
3.12922000885 0.2557230698430716 -0.1588659993617021 -1.3484348497702066 2.1584823618710214 2.050055466436567 -0.5200046160127103 1.1399895127138917
3.12922000885 0.2557230698430716 -0.1588659993617021 -1.3484348497702066 2.1584823618710214 2.050055466436567 -0.5200046160127103 1.1399895127138917
3.13933801651 0.2557230698430716 -0.1588659993617021 -1.3484348497702066 2.1584823618710214 2.050055466436567 -0.5200046160127103 1.1399895127138917
3.13933801651 0.2557230698430716 -0.1588659993617021 -1.3484348497702066 2.1584823618710214 2.050055466436567 -0.5200046160127103 1.1399895127138917
3.14931988716 0.2562446302290264 -0.1508431734248109 -1.3533283133913696 2.1582369216893955 2.050055466436567 -0.5200046160127103 1.1399895127138917
3.14931988716 0.2562446302290264 -0.1508431734248109 -1.3533283133913696 2.1582369216893955 2.050055466436567 -0.5200046160127103 1.1399895127138917
3.15918183327 0.2562446302290264 -0.1508431734248109 -1.3533283133913696 2.1582369216893955 2.050055466436567 -0.5200046160127103 1.1399895127138917
3.15918183327 0.2562446302290264 -0.1508431734248109 -1.3533283133913696 2.1582369216893955 2.050055466436567 -0.5200046160127103 1.1399895127138917
3.1692109108 0.2564593903879488 -0.1469468105415024 -1.3558133952303302 2.157930121462364 2.050055466436567 -0.5200046160127103 1.1399895127138917
3.1692109108 0.2564593903879488 -0.1469468105415024 -1.3558133952303302 2.157930121462364 2.050055466436567 -0.5200046160127103 1.1399895127138917
3.17934989929 0.2564593903879488 -0.1469468105415024 -1.3558133952303302 2.157930121462364 2.050055466436567 -0.5200046160127103 1.1399895127138917
3.17934989929 0.2564593903879488 -0.1469468105415024 -1.3558133952303302 2.157930121462364 2.050055466436567 -0.5200046160127103 1.1399895127138917
3.18918395042 0.2566127905014649 -0.1430351076468423 -1.3583751771260488 2.1577307013147924 2.050055466436567 -0.5200046160127103 1.1399895127138917
3.18918395042 0.2566127905014649 -0.1430351076468423 -1.3583751771260488 2.1577307013147924 2.050055466436567 -0.5200046160127103 1.1399895127138917
3.19923186302 0.2566127905014649 -0.1430351076468423 -1.3583751771260488 2.1577307013147924 2.050055466436567 -0.5200046160127103 1.1399895127138917
3.19923186302 0.2566127905014649 -0.1430351076468423 -1.3583751771260488 2.1577307013147924 2.050055466436567 -0.5200046160127103 1.1399895127138917
3.20923495293 0.2566127905014649 -0.1430351076468423 -1.3583751771260488 2.1577307013147924 2.050055466436567 -0.5200046160127103 1.1399895127138917
3.20923495293 0.2566127905014649 -0.1430351076468423 -1.3583751771260488 2.1577307013147924 2.050055466436567 -0.5200046160127103 1.1399895127138917
3.21933197975 0.2566127905014649 -0.1430351076468423 -1.3583751771260488 2.1577307013147924 2.050055466436567 -0.5200046160127103 1.1399895127138917
3.21933197975 0.2566127905014649 -0.1430351076468423 -1.3583751771260488 2.1577307013147924 2.050055466436567 -0.5200046160127103 1.1399895127138917
3.22921681404 0.2566127905014649 -0.1430351076468423 -1.3583751771260488 2.1577307013147924 2.050055466436567 -0.5200046160127103 1.1399895127138917
3.22921681404 0.2566127905014649 -0.1430351076468423 -1.3583751771260488 2.1577307013147924 2.050055466436567 -0.5200046160127103 1.1399895127138917
3.2393488884 0.2566127905014649 -0.1430351076468423 -1.3583751771260488 2.1577307013147924 2.050055466436567 -0.5200046160127103 1.1399895127138917
3.2393488884 0.2566127905014649 -0.1430351076468423 -1.3583751771260488 2.1577307013147924 2.050055466436567 -0.5200046160127103 1.1399895127138917
3.24911999702 0.2567355105922779 -0.13967564516084 -1.3608602589650094 2.157592641212628 2.050055466436567 -0.5200046160127103 1.1399895127138917
3.24911999702 0.2567355105922779 -0.13967564516084 -1.3608602589650094 2.157592641212628 2.050055466436567 -0.5200046160127103 1.1399895127138917
3.259100914 0.2567815306263325 -0.1340918810288545 -1.36553896242725 2.157469921121815 2.050055466436567 -0.5200046160127103 1.1399895127138917
3.259100914 0.2567815306263325 -0.1340918810288545 -1.36553896242725 2.157469921121815 2.050055466436567 -0.5200046160127103 1.1399895127138917
3.26929688454 0.2567968706376841 -0.1322664196780131 -1.367885984164046 2.157362541042354 2.050055466436567 -0.5200046160127103 1.1399895127138917
3.26929688454 0.2567968706376841 -0.1322664196780131 -1.367885984164046 2.157362541042354 2.050055466436567 -0.5200046160127103 1.1399895127138917
3.27937197685 0.2567968706376841 -0.1322664196780131 -1.367885984164046 2.157362541042354 2.050055466436567 -0.5200046160127103 1.1399895127138917
3.27937197685 0.2567968706376841 -0.1322664196780131 -1.367885984164046 2.157362541042354 2.050055466436567 -0.5200046160127103 1.1399895127138917
3.28913402557 0.2567968706376841 -0.1322664196780131 -1.367885984164046 2.157362541042354 2.050055466436567 -0.5200046160127103 1.1399895127138917
3.28913402557 0.2567968706376841 -0.1322664196780131 -1.367885984164046 2.157362541042354 2.050055466436567 -0.5200046160127103 1.1399895127138917
3.29936385155 0.2567968706376841 -0.1322664196780131 -1.367885984164046 2.157362541042354 2.050055466436567 -0.5200046160127103 1.1399895127138917
3.29936385155 0.2567968706376841 -0.1322664196780131 -1.367885984164046 2.157362541042354 2.050055466436567 -0.5200046160127103 1.1399895127138917
3.30915904045 0.2567968706376841 -0.1322664196780131 -1.367885984164046 2.157362541042354 2.050055466436567 -0.5200046160127103 1.1399895127138917
3.30915904045 0.2567968706376841 -0.1322664196780131 -1.367885984164046 2.157362541042354 2.050055466436567 -0.5200046160127103 1.1399895127138917
3.31934595108 0.2567968706376841 -0.1322664196780131 -1.367885984164046 2.157362541042354 2.050055466436567 -0.5200046160127103 1.1399895127138917
3.31934595108 0.2567968706376841 -0.1322664196780131 -1.367885984164046 2.157362541042354 2.050055466436567 -0.5200046160127103 1.1399895127138917
3.32924485207 0.2567968706376841 -0.1322664196780131 -1.367885984164046 2.157362541042354 2.050055466436567 -0.5200046160127103 1.1399895127138917
3.32924485207 0.2567968706376841 -0.1322664196780131 -1.367885984164046 2.157362541042354 2.050055466436567 -0.5200046160127103 1.1399895127138917
3.33931994438 0.2567968706376841 -0.1322664196780131 -1.367885984164046 2.157362541042354 2.050055466436567 -0.5200046160127103 1.1399895127138917
3.33931994438 0.2567968706376841 -0.1322664196780131 -1.367885984164046 2.157362541042354 2.050055466436567 -0.5200046160127103 1.1399895127138917
3.34936594963 0.2567968706376841 -0.1322664196780131 -1.367885984164046 2.157362541042354 2.050055466436567 -0.5200046160127103 1.1399895127138917
3.34936594963 0.2567968706376841 -0.1322664196780131 -1.367885984164046 2.157362541042354 2.050055466436567 -0.5200046160127103 1.1399895127138917
3.35941791534 0.2567968706376841 -0.1322664196780131 -1.367885984164046 2.157362541042354 2.050055466436567 -0.5200046160127103 1.1399895127138917
3.35941791534 0.2567968706376841 -0.1322664196780131 -1.367885984164046 2.157362541042354 2.050055466436567 -0.5200046160127103 1.1399895127138917
3.36917185783 0.2567968706376841 -0.1322664196780131 -1.367885984164046 2.157362541042354 2.050055466436567 -0.5200046160127103 1.1399895127138917
3.36917185783 0.2567968706376841 -0.1322664196780131 -1.367885984164046 2.157362541042354 2.050055466436567 -0.5200046160127103 1.1399895127138917
3.37932300568 0.2567968706376841 -0.1322664196780131 -1.367885984164046 2.157362541042354 2.050055466436567 -0.5200046160127103 1.1399895127138917
3.37932300568 0.2567968706376841 -0.1322664196780131 -1.367885984164046 2.157362541042354 2.050055466436567 -0.5200046160127103 1.1399895127138917
3.38935995102 0.2567968706376841 -0.1322664196780131 -1.367885984164046 2.157362541042354 2.050055466436567 -0.5200046160127103 1.1399895127138917
3.38935995102 0.2567968706376841 -0.1322664196780131 -1.367885984164046 2.157362541042354 2.050055466436567 -0.5200046160127103 1.1399895127138917
3.39939785004 0.2567968706376841 -0.1322664196780131 -1.367885984164046 2.157362541042354 2.050055466436567 -0.5200046160127103 1.1399895127138917
3.39939785004 0.2567968706376841 -0.1322664196780131 -1.367885984164046 2.157362541042354 2.050055466436567 -0.5200046160127103 1.1399895127138917
3.40932297707 0.2567968706376841 -0.1322664196780131 -1.367885984164046 2.157362541042354 2.050055466436567 -0.5200046160127103 1.1399895127138917
3.40932297707 0.2567968706376841 -0.1322664196780131 -1.367885984164046 2.157362541042354 2.050055466436567 -0.5200046160127103 1.1399895127138917
3.41932582855 0.2567968706376841 -0.1322664196780131 -1.367885984164046 2.157362541042354 2.050055466436567 -0.5200046160127103 1.1399895127138917
3.41932582855 0.2567968706376841 -0.1322664196780131 -1.367885984164046 2.157362541042354 2.050055466436567 -0.5200046160127103 1.1399895127138917
3.42931985855 0.2567968706376841 -0.1322664196780131 -1.367885984164046 2.157362541042354 2.050055466436567 -0.5200046160127103 1.1399895127138917
3.42931985855 0.2567968706376841 -0.1322664196780131 -1.367885984164046 2.157362541042354 2.050055466436567 -0.5200046160127103 1.1399895127138917
3.43910288811 0.2567968706376841 -0.1322664196780131 -1.367885984164046 2.157362541042354 2.050055466436567 -0.5200046160127103 1.1399895127138917
3.43910288811 0.2567968706376841 -0.1322664196780131 -1.367885984164046 2.157362541042354 2.050055466436567 -0.5200046160127103 1.1399895127138917
3.44896483421 0.2567968706376841 -0.1322664196780131 -1.367885984164046 2.157362541042354 2.050055466436567 -0.5200046160127103 1.1399895127138917
3.44896483421 0.2567968706376841 -0.1322664196780131 -1.367885984164046 2.157362541042354 2.050055466436567 -0.5200046160127103 1.1399895127138917
3.45886301994 0.2567968706376841 -0.1151623070209698 -1.3950071242336897 2.1529446177730907 2.050055466436567 -0.5200046160127103 1.1399895127138917
3.45886301994 0.2567968706376841 -0.1151623070209698 -1.3950071242336897 2.1529446177730907 2.050055466436567 -0.5200046160127103 1.1399895127138917
3.46906590462 0.2567968706376841 -0.1122783848868674 -1.3979830864359015 2.1523156773076746 2.050055466436567 -0.5200046160127103 1.1399895127138917
3.46906590462 0.2567968706376841 -0.1122783848868674 -1.3979830864359015 2.1523156773076746 2.050055466436567 -0.5200046160127103 1.1399895127138917
3.47932386398 0.2567968706376841 -0.1122783848868674 -1.3979830864359015 2.1523156773076746 2.050055466436567 -0.5200046160127103 1.1399895127138917
3.47932386398 0.2567968706376841 -0.1122783848868674 -1.3979830864359015 2.1523156773076746 2.050055466436567 -0.5200046160127103 1.1399895127138917
3.48916482925 0.2567968706376841 -0.1094251427754682 -1.4008056485245977 2.1515946967741493 2.050055466436567 -0.5200046160127103 1.1399895127138917
3.48916482925 0.2567968706376841 -0.1094251427754682 -1.4008056485245977 2.1515946967741493 2.050055466436567 -0.5200046160127103 1.1399895127138917
3.49931192398 0.2567968706376841 -0.1094251427754682 -1.4008056485245977 2.1515946967741493 2.050055466436567 -0.5200046160127103 1.1399895127138917
3.49931192398 0.2567968706376841 -0.1094251427754682 -1.4008056485245977 2.1515946967741493 2.050055466436567 -0.5200046160127103 1.1399895127138917
3.50914788246 0.2567968706376841 -0.1094251427754682 -1.4008056485245977 2.1515946967741493 2.050055466436567 -0.5200046160127103 1.1399895127138917
3.50914788246 0.2567968706376841 -0.1094251427754682 -1.4008056485245977 2.1515946967741493 2.050055466436567 -0.5200046160127103 1.1399895127138917
3.51927685738 0.2567968706376841 -0.1094251427754682 -1.4008056485245977 2.1515946967741493 2.050055466436567 -0.5200046160127103 1.1399895127138917
3.51927685738 0.2567968706376841 -0.1094251427754682 -1.4008056485245977 2.1515946967741493 2.050055466436567 -0.5200046160127103 1.1399895127138917
3.52927398682 0.2567968706376841 -0.1065872406754207 -1.4037816107268095 2.150658956081701 2.050055466436567 -0.5200046160127103 1.1399895127138917
3.52927398682 0.2567968706376841 -0.1065872406754207 -1.4037816107268095 2.150658956081701 2.050055466436567 -0.5200046160127103 1.1399895127138917
3.53924393654 0.2567968706376841 -0.1038413786434828 -1.4067575729290216 2.1491863149919466 2.050055466436567 -0.5200046160127103 1.1399895127138917
3.53924393654 0.2567968706376841 -0.1038413786434828 -1.4067575729290216 2.1491863149919466 2.050055466436567 -0.5200046160127103 1.1399895127138917
3.54925584793 0.2567815306263325 -0.1013562968045222 -1.409840915210695 2.147222793538941 2.050055466436567 -0.5200046160127103 1.1399895127138917
3.54925584793 0.2567815306263325 -0.1013562968045222 -1.409840915210695 2.147222793538941 2.050055466436567 -0.5200046160127103 1.1399895127138917
3.55928301811 0.2567815306263325 -0.1013562968045222 -1.409840915210695 2.147222793538941 2.050055466436567 -0.5200046160127103 1.1399895127138917
3.55928301811 0.2567815306263325 -0.1013562968045222 -1.409840915210695 2.147222793538941 2.050055466436567 -0.5200046160127103 1.1399895127138917
3.56913900375 0.2567815306263325 -0.0990246150790778 -1.4133844578329164 2.1446456716318707 2.050055466436567 -0.5200046160127103 1.1399895127138917
3.56913900375 0.2567815306263325 -0.0990246150790778 -1.4133844578329164 2.1446456716318707 2.050055466436567 -0.5200046160127103 1.1399895127138917
3.57935380936 0.2567815306263325 -0.0990246150790778 -1.4133844578329164 2.1446456716318707 2.050055466436567 -0.5200046160127103 1.1399895127138917
3.57935380936 0.2567815306263325 -0.0990246150790778 -1.4133844578329164 2.1446456716318707 2.050055466436567 -0.5200046160127103 1.1399895127138917
3.58931899071 0.2567815306263325 -0.0990246150790778 -1.4133844578329164 2.1446456716318707 2.050055466436567 -0.5200046160127103 1.1399895127138917
3.58931899071 0.2567815306263325 -0.0990246150790778 -1.4133844578329164 2.1446456716318707 2.050055466436567 -0.5200046160127103 1.1399895127138917
3.59939193726 0.2567815306263325 -0.0990246150790778 -1.4133844578329164 2.1446456716318707 2.050055466436567 -0.5200046160127103 1.1399895127138917
3.59939193726 0.2567815306263325 -0.0990246150790778 -1.4133844578329164 2.1446456716318707 2.050055466436567 -0.5200046160127103 1.1399895127138917
3.60932183266 0.2567815306263325 -0.0990246150790778 -1.4133844578329164 2.1446456716318707 2.050055466436567 -0.5200046160127103 1.1399895127138917
3.60932183266 0.2567815306263325 -0.0990246150790778 -1.4133844578329164 2.1446456716318707 2.050055466436567 -0.5200046160127103 1.1399895127138917
3.61934494972 0.2567508506036295 -0.0946373718325177 -1.420195422873031 2.1380648067620305 2.050055466436567 -0.5200046160127103 1.1399895127138917
3.61934494972 0.2567508506036295 -0.0946373718325177 -1.420195422873031 2.1380648067620305 2.050055466436567 -0.5200046160127103 1.1399895127138917
3.62929201126 0.2567508506036295 -0.0946373718325177 -1.420195422873031 2.1380648067620305 2.050055466436567 -0.5200046160127103 1.1399895127138917
3.62929201126 0.2567508506036295 -0.0946373718325177 -1.420195422873031 2.1380648067620305 2.050055466436567 -0.5200046160127103 1.1399895127138917
3.63935804367 0.2567508506036295 -0.0946373718325177 -1.420195422873031 2.1380648067620305 2.050055466436567 -0.5200046160127103 1.1399895127138917
3.63935804367 0.2567508506036295 -0.0946373718325177 -1.420195422873031 2.1380648067620305 2.050055466436567 -0.5200046160127103 1.1399895127138917
3.64936494827 0.2567508506036295 -0.0946373718325177 -1.420195422873031 2.1380648067620305 2.050055466436567 -0.5200046160127103 1.1399895127138917
3.64936494827 0.2567508506036295 -0.0946373718325177 -1.420195422873031 2.1380648067620305 2.050055466436567 -0.5200046160127103 1.1399895127138917
3.65926980972 0.2567508506036295 -0.0946373718325177 -1.420195422873031 2.1380648067620305 2.050055466436567 -0.5200046160127103 1.1399895127138917
3.65926980972 0.2567508506036295 -0.0946373718325177 -1.420195422873031 2.1380648067620305 2.050055466436567 -0.5200046160127103 1.1399895127138917
3.66932892799 0.2567508506036295 -0.0946373718325177 -1.420195422873031 2.1380648067620305 2.050055466436567 -0.5200046160127103 1.1399895127138917
3.66932892799 0.2567508506036295 -0.0946373718325177 -1.420195422873031 2.1380648067620305 2.050055466436567 -0.5200046160127103 1.1399895127138917
3.67930483818 0.2567508506036295 -0.0946373718325177 -1.420195422873031 2.1380648067620305 2.050055466436567 -0.5200046160127103 1.1399895127138917
3.67930483818 0.2567508506036295 -0.0946373718325177 -1.420195422873031 2.1380648067620305 2.050055466436567 -0.5200046160127103 1.1399895127138917
3.68894696236 0.2567048305695746 -0.0906336288697479 -1.4269757078904417 2.129228960223504 2.050055466436567 -0.5200046160127103 1.1399895127138917
3.68894696236 0.2567048305695746 -0.0906336288697479 -1.4269757078904417 2.129228960223504 2.050055466436567 -0.5200046160127103 1.1399895127138917
3.69914197922 0.2567048305695746 -0.0906336288697479 -1.4269757078904417 2.129228960223504 2.050055466436567 -0.5200046160127103 1.1399895127138917
3.69914197922 0.2567048305695746 -0.0906336288697479 -1.4269757078904417 2.129228960223504 2.050055466436567 -0.5200046160127103 1.1399895127138917
3.70932388306 0.2567048305695746 -0.0906336288697479 -1.4269757078904417 2.129228960223504 2.050055466436567 -0.5200046160127103 1.1399895127138917
3.70932388306 0.2567048305695746 -0.0906336288697479 -1.4269757078904417 2.129228960223504 2.050055466436567 -0.5200046160127103 1.1399895127138917
3.71936392784 0.2567048305695746 -0.0906336288697479 -1.4269757078904417 2.129228960223504 2.050055466436567 -0.5200046160127103 1.1399895127138917
3.71936392784 0.2567048305695746 -0.0906336288697479 -1.4269757078904417 2.129228960223504 2.050055466436567 -0.5200046160127103 1.1399895127138917
3.72949004173 0.2567048305695746 -0.0889308876097194 -1.4307033306488823 2.1240900564207155 2.050055466436567 -0.5200046160127103 1.1399895127138917
3.72949004173 0.2567048305695746 -0.0889308876097194 -1.4307033306488823 2.1240900564207155 2.050055466436567 -0.5200046160127103 1.1399895127138917
3.73922181129 0.2567048305695746 -0.0853259849420915 -1.4419782389923146 2.108765385080458 2.050055466436567 -0.5200046160127103 1.1399895127138917
3.73922181129 0.2567048305695746 -0.0853259849420915 -1.4419782389923146 2.108765385080458 2.050055466436567 -0.5200046160127103 1.1399895127138917
3.74928593636 0.2567048305695746 -0.0853259849420915 -1.4419782389923146 2.108765385080458 2.050055466436567 -0.5200046160127103 1.1399895127138917
3.74928593636 0.2567048305695746 -0.0853259849420915 -1.4419782389923146 2.108765385080458 2.050055466436567 -0.5200046160127103 1.1399895127138917
3.75928497314 0.2567048305695746 -0.0841908241020724 -1.446150722079952 2.103611141266318 2.050055466436567 -0.5200046160127103 1.1399895127138917
3.75928497314 0.2567048305695746 -0.0841908241020724 -1.446150722079952 2.103611141266318 2.050055466436567 -0.5200046160127103 1.1399895127138917
3.76923394203 0.2567048305695746 -0.0830403232507018 -1.450031744951909 2.098441557440826 2.050055466436567 -0.5200046160127103 1.1399895127138917
3.76923394203 0.2567048305695746 -0.0830403232507018 -1.450031744951909 2.098441557440826 2.050055466436567 -0.5200046160127103 1.1399895127138917
3.77919101715 0.2567048305695746 -0.0830403232507018 -1.450031744951909 2.098441557440826 2.050055466436567 -0.5200046160127103 1.1399895127138917
3.77919101715 0.2567048305695746 -0.0830403232507018 -1.450031744951909 2.098441557440826 2.050055466436567 -0.5200046160127103 1.1399895127138917
3.78929185867 0.2567048305695746 -0.0830403232507018 -1.450031744951909 2.098441557440826 2.050055466436567 -0.5200046160127103 1.1399895127138917
3.78929185867 0.2567048305695746 -0.0830403232507018 -1.450031744951909 2.098441557440826 2.050055466436567 -0.5200046160127103 1.1399895127138917
3.79933190346 0.2567048305695746 -0.0830403232507018 -1.450031744951909 2.098441557440826 2.050055466436567 -0.5200046160127103 1.1399895127138917
3.79933190346 0.2567048305695746 -0.0830403232507018 -1.450031744951909 2.098441557440826 2.050055466436567 -0.5200046160127103 1.1399895127138917
3.8094060421 0.2567048305695746 -0.0830403232507018 -1.450031744951909 2.098441557440826 2.050055466436567 -0.5200046160127103 1.1399895127138917
3.8094060421 0.2567048305695746 -0.0830403232507018 -1.450031744951909 2.098441557440826 2.050055466436567 -0.5200046160127103 1.1399895127138917
3.81934189796 0.2567048305695746 -0.0830403232507018 -1.450031744951909 2.098441557440826 2.050055466436567 -0.5200046160127103 1.1399895127138917
3.81934189796 0.2567048305695746 -0.0830403232507018 -1.450031744951909 2.098441557440826 2.050055466436567 -0.5200046160127103 1.1399895127138917
3.82936096191 0.2567048305695746 -0.0815523421495958 -1.4541888880281948 2.0932719736153342 2.050055466436567 -0.5200046160127103 1.1399895127138917
3.82936096191 0.2567048305695746 -0.0815523421495958 -1.4541888880281948 2.0932719736153342 2.050055466436567 -0.5200046160127103 1.1399895127138917
3.84164595604 0.2567048305695746 -0.0795888206965899 -1.4622730740104926 2.0843594270200496 2.050055466436567 -0.5200046160127103 1.1399895127138917
3.84164595604 0.2567048305695746 -0.0795888206965899 -1.4622730740104926 2.0843594270200496 2.050055466436567 -0.5200046160127103 1.1399895127138917
3.84891200066 0.2567048305695746 -0.0795888206965899 -1.4622730740104926 2.0843594270200496 2.050055466436567 -0.5200046160127103 1.1399895127138917
3.84891200066 0.2567048305695746 -0.0795888206965899 -1.4622730740104926 2.0843594270200496 2.050055466436567 -0.5200046160127103 1.1399895127138917
3.85914683342 0.2567048305695746 -0.0789445402198223 -1.4661080768483945 2.08035568405728 2.050055466436567 -0.5200046160127103 1.1399895127138917
3.85914683342 0.2567048305695746 -0.0789445402198223 -1.4661080768483945 2.08035568405728 2.050055466436567 -0.5200046160127103 1.1399895127138917
3.8691649437 0.2567048305695746 -0.0789445402198223 -1.4661080768483945 2.08035568405728 2.050055466436567 -0.5200046160127103 1.1399895127138917
