riccardo-csl/Motion-Planning-for-TIAGo-Manipulator/T3_G_7/head_scan/head_scan/tiago_traiettorie_SG/2a-2b/place_2b_rep1.txt
time arm_1_joint arm_2_joint arm_3_joint arm_4_joint arm_5_joint arm_6_joint arm_7_joint
1.49573087692 0.4343881820552546 -0.0138722120662995 -1.055011112636641 2.1512418765130623 2.050055466436567 -0.5200046160127103 1.1399895127138917
1.50555801392 0.4343881820552546 -0.0138722120662995 -1.055011112636641 2.1512418765130623 2.050055466436567 -0.5200046160127103 1.1399895127138917
1.50555801392 0.4343881820552546 -0.0138722120662995 -1.055011112636641 2.1512418765130623 2.050055466436567 -0.5200046160127103 1.1399895127138917
1.51561689377 0.4343881820552546 -0.0138722120662995 -1.055011112636641 2.1512418765130623 2.050055466436567 -0.5200046160127103 1.1399895127138917
1.51561689377 0.4343881820552546 -0.0138722120662995 -1.055011112636641 2.1512418765130623 2.050055466436567 -0.5200046160127103 1.1399895127138917
1.52573895454 0.4343881820552546 -0.0138722120662995 -1.055011112636641 2.1512418765130623 2.050055466436567 -0.5200046160127103 1.1399895127138917
1.52573895454 0.4343881820552546 -0.0138722120662995 -1.055011112636641 2.1512418765130623 2.050055466436567 -0.5200046160127103 1.1399895127138917
1.53616595268 0.4343881820552546 -0.0138722120662995 -1.055011112636641 2.1512418765130623 2.050055466436567 -0.5200046160127103 1.1399895127138917
1.53616595268 0.4343881820552546 -0.0138722120662995 -1.055011112636641 2.1512418765130623 2.050055466436567 -0.5200046160127103 1.1399895127138917
1.54538297653 0.4343881820552546 -0.0138722120662995 -1.055011112636641 2.1512418765130623 2.050055466436567 -0.5200046160127103 1.1399895127138917
1.54538297653 0.4343881820552546 -0.0138722120662995 -1.055011112636641 2.1512418765130623 2.050055466436567 -0.5200046160127103 1.1399895127138917
1.55545496941 0.4343881820552546 -0.0138722120662995 -1.055011112636641 2.1512418765130623 2.050055466436567 -0.5200046160127103 1.1399895127138917
1.55545496941 0.4343881820552546 -0.0138722120662995 -1.055011112636641 2.1512418765130623 2.050055466436567 -0.5200046160127103 1.1399895127138917
1.566395998 0.4343881820552546 -0.0138722120662995 -1.055011112636641 2.1512418765130623 2.050055466436567 -0.5200046160127103 1.1399895127138917
1.566395998 0.4343881820552546 -0.0138722120662995 -1.055011112636641 2.1512418765130623 2.050055466436567 -0.5200046160127103 1.1399895127138917
1.57558202744 0.4343881820552546 -0.0138722120662995 -1.055011112636641 2.1512418765130623 2.050055466436567 -0.5200046160127103 1.1399895127138917
1.57558202744 0.4343881820552546 -0.0138722120662995 -1.055011112636641 2.1512418765130623 2.050055466436567 -0.5200046160127103 1.1399895127138917
1.5856180191 0.4343881820552546 -0.0138722120662995 -1.055011112636641 2.1512418765130623 2.050055466436567 -0.5200046160127103 1.1399895127138917
1.5856180191 0.4343881820552546 -0.0138722120662995 -1.055011112636641 2.1512418765130623 2.050055466436567 -0.5200046160127103 1.1399895127138917
1.59550786018 0.4343881820552546 -0.0138722120662995 -1.055011112636641 2.1512418765130623 2.050055466436567 -0.5200046160127103 1.1399895127138917
1.59550786018 0.4343881820552546 -0.0138722120662995 -1.055011112636641 2.1512418765130623 2.050055466436567 -0.5200046160127103 1.1399895127138917
1.60544896126 0.4343881820552546 -0.0138722120662995 -1.055011112636641 2.1512418765130623 2.050055466436567 -0.5200046160127103 1.1399895127138917
1.60544896126 0.4343881820552546 -0.0138722120662995 -1.055011112636641 2.1512418765130623 2.050055466436567 -0.5200046160127103 1.1399895127138917
1.61578297615 0.4343881820552546 -0.0138722120662995 -1.055011112636641 2.1512418765130623 2.050055466436567 -0.5200046160127103 1.1399895127138917
1.61578297615 0.4343881820552546 -0.0138722120662995 -1.055011112636641 2.1512418765130623 2.050055466436567 -0.5200046160127103 1.1399895127138917
1.62536406517 0.4343881820552546 -0.0138722120662995 -1.055011112636641 2.1512418765130623 2.050055466436567 -0.5200046160127103 1.1399895127138917
1.62536406517 0.4343881820552546 -0.0138722120662995 -1.055011112636641 2.1512418765130623 2.050055466436567 -0.5200046160127103 1.1399895127138917
1.63557696342 0.4343881820552546 -0.0138722120662995 -1.055011112636641 2.1512418765130623 2.050055466436567 -0.5200046160127103 1.1399895127138917
1.63557696342 0.4343881820552546 -0.0138722120662995 -1.055011112636641 2.1512418765130623 2.050055466436567 -0.5200046160127103 1.1399895127138917
1.64559698105 0.4343881820552546 -0.0138722120662995 -1.055011112636641 2.1512418765130623 2.050055466436567 -0.5200046160127103 1.1399895127138917
1.64559698105 0.4343881820552546 -0.0138722120662995 -1.055011112636641 2.1512418765130623 2.050055466436567 -0.5200046160127103 1.1399895127138917
1.65569400787 0.4343881820552546 -0.0138722120662995 -1.055011112636641 2.1512418765130623 2.050055466436567 -0.5200046160127103 1.1399895127138917
1.65569400787 0.4343881820552546 -0.0138722120662995 -1.055011112636641 2.1512418765130623 2.050055466436567 -0.5200046160127103 1.1399895127138917
1.6655600071 0.4343881820552546 -0.0138722120662995 -1.055011112636641 2.1512418765130623 2.050055466436567 -0.5200046160127103 1.1399895127138917
1.6655600071 0.4343881820552546 -0.0138722120662995 -1.055011112636641 2.1512418765130623 2.050055466436567 -0.5200046160127103 1.1399895127138917
1.67571091652 0.4343881820552546 -0.0138722120662995 -1.055011112636641 2.1512418765130623 2.050055466436567 -0.5200091814722694 1.1399849472543326
1.67571091652 0.4343881820552546 -0.0138722120662995 -1.055011112636641 2.1512418765130623 2.050055466436567 -0.5200091814722694 1.1399849472543326
1.6856200695 0.4343881820552546 -0.0138722120662995 -1.055011112636641 2.1512418765130623 2.050055466436567 -0.5200091814722694 1.1399849472543326
1.6856200695 0.4343881820552546 -0.0138722120662995 -1.055011112636641 2.1512418765130623 2.050055466436567 -0.5200091814722694 1.1399849472543326
1.69559502602 0.4343881820552546 -0.0138722120662995 -1.055011112636641 2.1512418765130623 2.050055466436567 -0.5200046160127103 1.1399895127138917
1.69559502602 0.4343881820552546 -0.0138722120662995 -1.055011112636641 2.1512418765130623 2.050055466436567 -0.5200046160127103 1.1399895127138917
1.70569396019 0.4343881820552546 -0.0138722120662995 -1.055011112636641 2.1512418765130623 2.050055466436567 -0.5200046160127103 1.1399895127138917
1.70569396019 0.4343881820552546 -0.0138722120662995 -1.055011112636641 2.1512418765130623 2.050055466436567 -0.5200046160127103 1.1399895127138917
1.71582794189 0.4343881820552546 -0.0138722120662995 -1.055011112636641 2.1512418765130623 2.050055466436567 -0.5200046160127103 1.1399895127138917
1.71582794189 0.4343881820552546 -0.0138722120662995 -1.055011112636641 2.1512418765130623 2.050055466436567 -0.5200046160127103 1.1399895127138917
1.725867033 0.4343881820552546 -0.0138722120662995 -1.055011112636641 2.1512418765130623 2.050055466436567 -0.5200046160127103 1.1399895127138917
1.725867033 0.4343881820552546 -0.0138722120662995 -1.055011112636641 2.1512418765130623 2.050055466436567 -0.5200046160127103 1.1399895127138917
1.73564887047 0.4343881820552546 -0.0138722120662995 -1.055011112636641 2.1512418765130623 2.050055466436567 -0.5200046160127103 1.1399895127138917
1.73564887047 0.4343881820552546 -0.0138722120662995 -1.055011112636641 2.1512418765130623 2.050055466436567 -0.5200046160127103 1.1399895127138917
1.74544692039 0.4343881820552546 -0.0138722120662995 -1.055011112636641 2.1512418765130623 2.050055466436567 -0.5200046160127103 1.1399895127138917
1.74544692039 0.4343881820552546 -0.0138722120662995 -1.055011112636641 2.1512418765130623 2.050055466436567 -0.5200046160127103 1.1399895127138917
1.75558900833 0.4343881820552546 -0.0138722120662995 -1.055011112636641 2.1512418765130623 2.050055466436567 -0.5200046160127103 1.1399895127138917
1.75558900833 0.4343881820552546 -0.0138722120662995 -1.055011112636641 2.1512418765130623 2.050055466436567 -0.5200046160127103 1.1399895127138917
1.76561594009 0.4343881820552546 -0.0138722120662995 -1.055011112636641 2.1512418765130623 2.050055466436567 -0.5200046160127103 1.1399895127138917
1.76561594009 0.4343881820552546 -0.0138722120662995 -1.055011112636641 2.1512418765130623 2.050055466436567 -0.5200046160127103 1.1399895127138917
1.77563786507 0.4343881820552546 -0.0138722120662995 -1.055011112636641 2.1512418765130623 2.050055466436567 -0.5200046160127103 1.1399895127138917
1.77563786507 0.4343881820552546 -0.0138722120662995 -1.055011112636641 2.1512418765130623 2.050055466436567 -0.5200046160127103 1.1399895127138917
1.78579592705 0.4343881820552546 -0.0138722120662995 -1.055011112636641 2.1512418765130623 2.050055466436567 -0.5200046160127103 1.1399895127138917
1.78579592705 0.4343881820552546 -0.0138722120662995 -1.055011112636641 2.1512418765130623 2.050055466436567 -0.5200046160127103 1.1399895127138917
1.79610586166 0.4343881820552546 -0.0138722120662995 -1.055011112636641 2.1512418765130623 2.050055466436567 -0.5200046160127103 1.1399895127138917
1.79610586166 0.4343881820552546 -0.0138722120662995 -1.055011112636641 2.1512418765130623 2.050055466436567 -0.5200046160127103 1.1399895127138917
1.80546188354 0.4343881820552546 -0.0138722120662995 -1.055011112636641 2.1512418765130623 2.050055466436567 -0.5200046160127103 1.1399895127138917
1.80546188354 0.4343881820552546 -0.0138722120662995 -1.055011112636641 2.1512418765130623 2.050055466436567 -0.5200046160127103 1.1399895127138917
1.8156888485 0.4343881820552546 -0.0138722120662995 -1.055011112636641 2.1512418765130623 2.050055466436567 -0.5200046160127103 1.1399895127138917
1.8156888485 0.4343881820552546 -0.0138722120662995 -1.055011112636641 2.1512418765130623 2.050055466436567 -0.5200046160127103 1.1399895127138917
1.82552099228 0.4343881820552546 -0.0138722120662995 -1.055011112636641 2.1512418765130623 2.050055466436567 -0.5200046160127103 1.1399895127138917
1.82552099228 0.4343881820552546 -0.0138722120662995 -1.055011112636641 2.1512418765130623 2.050055466436567 -0.5200046160127103 1.1399895127138917
1.83557701111 0.4343881820552546 -0.0138722120662995 -1.055011112636641 2.1512418765130623 2.050055466436567 -0.5200046160127103 1.1399895127138917
1.83557701111 0.4343881820552546 -0.0138722120662995 -1.055011112636641 2.1512418765130623 2.050055466436567 -0.5200046160127103 1.1399895127138917
1.84562897682 0.4343881820552546 -0.0138722120662995 -1.055011112636641 2.1512418765130623 2.050055466436567 -0.5200046160127103 1.1399895127138917
1.84562897682 0.4343881820552546 -0.0138722120662995 -1.055011112636641 2.1512418765130623 2.050055466436567 -0.5200046160127103 1.1399895127138917
1.85560798645 0.4343881820552546 -0.0138722120662995 -1.055011112636641 2.1512418765130623 2.050055466436567 -0.5200046160127103 1.1399895127138917
1.85560798645 0.4343881820552546 -0.0138722120662995 -1.055011112636641 2.1512418765130623 2.050055466436567 -0.5200046160127103 1.1399895127138917
1.86564207077 0.4343881820552546 -0.0138722120662995 -1.055011112636641 2.1512418765130623 2.050055466436567 -0.5200046160127103 1.1399895127138917
1.86564207077 0.4343881820552546 -0.0138722120662995 -1.055011112636641 2.1512418765130623 2.050055466436567 -0.5200046160127103 1.1399895127138917
1.87574291229 0.4343881820552546 -0.0138722120662995 -1.055011112636641 2.1512418765130623 2.050055466436567 -0.5200046160127103 1.1399895127138917
1.87574291229 0.4343881820552546 -0.0138722120662995 -1.055011112636641 2.1512418765130623 2.050055466436567 -0.5200046160127103 1.1399895127138917
1.88564491272 0.4343881820552546 -0.0138722120662995 -1.055011112636641 2.1512418765130623 2.050055466436567 -0.5200046160127103 1.1399895127138917
1.88564491272 0.4343881820552546 -0.0138722120662995 -1.055011112636641 2.1512418765130623 2.050055466436567 -0.5200046160127103 1.1399895127138917
1.89575886726 0.4343881820552546 -0.0138722120662995 -1.055011112636641 2.1512418765130623 2.050055466436567 -0.5200046160127103 1.1399895127138917
1.89575886726 0.4343881820552546 -0.0138722120662995 -1.055011112636641 2.1512418765130623 2.050055466436567 -0.5200046160127103 1.1399895127138917
1.90567398071 0.4343881820552546 -0.0138722120662995 -1.055011112636641 2.1512418765130623 2.050055466436567 -0.5200046160127103 1.1399895127138917
1.90567398071 0.4343881820552546 -0.0138722120662995 -1.055011112636641 2.1512418765130623 2.050055466436567 -0.5200046160127103 1.1399895127138917
1.91576504707 0.4343881820552546 -0.0138722120662995 -1.055011112636641 2.1512418765130623 2.050055466436567 -0.5200046160127103 1.1399895127138917
1.91576504707 0.4343881820552546 -0.0138722120662995 -1.055011112636641 2.1512418765130623 2.050055466436567 -0.5200046160127103 1.1399895127138917
1.92556786537 0.4343881820552546 -0.0138722120662995 -1.055011112636641 2.1512418765130623 2.050055466436567 -0.5200046160127103 1.1399895127138917
1.92556786537 0.4343881820552546 -0.0138722120662995 -1.055011112636641 2.1512418765130623 2.050055466436567 -0.5200046160127103 1.1399895127138917
1.93563103676 0.4343881820552546 -0.0138722120662995 -1.055011112636641 2.1512418765130623 2.050055466436567 -0.5200046160127103 1.1399895127138917
1.93563103676 0.4343881820552546 -0.0138722120662995 -1.055011112636641 2.1512418765130623 2.050055466436567 -0.5200046160127103 1.1399895127138917
1.94557905197 0.4343881820552546 -0.0138722120662995 -1.055011112636641 2.1512418765130623 2.050055466436567 -0.5200046160127103 1.1399895127138917
1.94557905197 0.4343881820552546 -0.0138722120662995 -1.055011112636641 2.1512418765130623 2.050055466436567 -0.5200046160127103 1.1399895127138917
1.95599889755 0.4343881820552546 -0.0138722120662995 -1.055011112636641 2.1512418765130623 2.050055466436567 -0.5200046160127103 1.1399895127138917
1.95599889755 0.4343881820552546 -0.0138722120662995 -1.055011112636641 2.1512418765130623 2.050055466436567 -0.5200046160127103 1.1399895127138917
1.96544384956 0.4343881820552546 -0.0138722120662995 -1.055011112636641 2.1512418765130623 2.050055466436567 -0.5200046160127103 1.1399895127138917
1.96544384956 0.4343881820552546 -0.0138722120662995 -1.055011112636641 2.1512418765130623 2.050055466436567 -0.5200046160127103 1.1399895127138917
1.97577500343 0.4343881820552546 -0.0138722120662995 -1.055011112636641 2.1512418765130623 2.050055466436567 -0.5200046160127103 1.1399895127138917
1.97577500343 0.4343881820552546 -0.0138722120662995 -1.055011112636641 2.1512418765130623 2.050055466436567 -0.5200046160127103 1.1399895127138917
1.98562002182 0.4343881820552546 -0.0138722120662995 -1.055011112636641 2.1512418765130623 2.050055466436567 -0.5200046160127103 1.1399895127138917
1.98562002182 0.4343881820552546 -0.0138722120662995 -1.055011112636641 2.1512418765130623 2.050055466436567 -0.5200046160127103 1.1399895127138917
1.99562907219 0.4343881820552546 -0.0138722120662995 -1.055011112636641 2.1512418765130623 2.050055466436567 -0.5200046160127103 1.1399895127138917
1.99562907219 0.4343881820552546 -0.0138722120662995 -1.055011112636641 2.1512418765130623 2.050055466436567 -0.5200046160127103 1.1399895127138917
2.00543689728 0.4343881820552546 -0.0138722120662995 -1.055011112636641 2.1512418765130623 2.050055466436567 -0.5200046160127103 1.1399895127138917
2.00543689728 0.4343881820552546 -0.0138722120662995 -1.055011112636641 2.1512418765130623 2.050055466436567 -0.5200046160127103 1.1399895127138917
2.01556587219 0.4343881820552546 -0.0138722120662995 -1.055011112636641 2.1512418765130623 2.050055466436567 -0.5200046160127103 1.1399895127138917
2.01556587219 0.4343881820552546 -0.0138722120662995 -1.055011112636641 2.1512418765130623 2.050055466436567 -0.5200046160127103 1.1399895127138917
2.02553296089 0.4343881820552546 -0.0138722120662995 -1.055011112636641 2.1512418765130623 2.050055466436567 -0.5200046160127103 1.1399895127138917
2.02553296089 0.4343881820552546 -0.0138722120662995 -1.055011112636641 2.1512418765130623 2.050055466436567 -0.5200046160127103 1.1399895127138917
2.03572487831 0.4343881820552546 -0.0138722120662995 -1.055011112636641 2.1512418765130623 2.050055466436567 -0.5200046160127103 1.1399895127138917
2.03572487831 0.4343881820552546 -0.0138722120662995 -1.055011112636641 2.1512418765130623 2.050055466436567 -0.5200046160127103 1.1399895127138917
2.04545402527 0.4343881820552546 -0.0138722120662995 -1.055011112636641 2.1512418765130623 2.050055466436567 -0.5200046160127103 1.1399895127138917
2.04545402527 0.4343881820552546 -0.0138722120662995 -1.055011112636641 2.1512418765130623 2.050055466436567 -0.5200046160127103 1.1399895127138917
2.05572295189 0.4343881820552546 -0.0138722120662995 -1.055011112636641 2.1512418765130623 2.050055466436567 -0.5200046160127103 1.1399895127138917
2.05572295189 0.4343881820552546 -0.0138722120662995 -1.055011112636641 2.1512418765130623 2.050055466436567 -0.5200046160127103 1.1399895127138917
2.06544303894 0.4343881820552546 -0.0138722120662995 -1.055011112636641 2.1512418765130623 2.050055466436567 -0.5200046160127103 1.1399895127138917
2.06544303894 0.4343881820552546 -0.0138722120662995 -1.055011112636641 2.1512418765130623 2.050055466436567 -0.5200046160127103 1.1399895127138917
2.07566905022 0.4343881820552546 -0.0138722120662995 -1.0550417926593445 2.1512418765130623 2.050055466436567 -0.5200046160127103 1.1399895127138917
2.07566905022 0.4343881820552546 -0.0138722120662995 -1.0550417926593445 2.1512418765130623 2.050055466436567 -0.5200046160127103 1.1399895127138917
2.08564090729 0.4343881820552546 -0.0138722120662995 -1.0552258727955637 2.1512418765130623 2.050055466436567 -0.5200046160127103 1.1399895127138917
2.08564090729 0.4343881820552546 -0.0138722120662995 -1.0552258727955637 2.1512418765130623 2.050055466436567 -0.5200046160127103 1.1399895127138917
2.09569597244 0.4343881820552546 -0.0138722120662995 -1.0555786930566506 2.1512572165244137 2.050055466436567 -0.5200046160127103 1.1399895127138917
2.09569597244 0.4343881820552546 -0.0138722120662995 -1.0555786930566506 2.1512572165244137 2.050055466436567 -0.5200046160127103 1.1399895127138917
2.10576891899 0.4343881820552546 -0.0138722120662995 -1.0555786930566506 2.1512572165244137 2.050055466436567 -0.5200046160127103 1.1399895127138917
2.10576891899 0.4343881820552546 -0.0138722120662995 -1.0555786930566506 2.1512572165244137 2.050055466436567 -0.5200046160127103 1.1399895127138917
2.1155500412 0.4343881820552546 -0.0138722120662995 -1.0555786930566506 2.1512572165244137 2.050055466436567 -0.5200046160127103 1.1399895127138917
2.1155500412 0.4343881820552546 -0.0138722120662995 -1.0555786930566506 2.1512572165244137 2.050055466436567 -0.5200046160127103 1.1399895127138917
2.12563490868 0.4343881820552546 -0.0138722120662995 -1.0555786930566506 2.1512572165244137 2.050055466436567 -0.5200046160127103 1.1399895127138917
2.12563490868 0.4343881820552546 -0.0138722120662995 -1.0555786930566506 2.1512572165244137 2.050055466436567 -0.5200046160127103 1.1399895127138917
2.13590502739 0.4343881820552546 -0.0138722120662995 -1.0562076335220665 2.1514259566492813 2.050055466436567 -0.5200046160127103 1.1399895127138917
2.13590502739 0.4343881820552546 -0.0138722120662995 -1.0562076335220665 2.1514259566492813 2.050055466436567 -0.5200046160127103 1.1399895127138917
2.14551687241 0.4343881820552546 -0.0138722120662995 -1.0568825940215374 2.151517996717391 2.050055466436567 -0.5200046160127103 1.1399895127138917
2.14551687241 0.4343881820552546 -0.0138722120662995 -1.0568825940215374 2.151517996717391 2.050055466436567 -0.5200046160127103 1.1399895127138917
2.15571904182 0.4343881820552546 -0.0138722120662995 -1.0568825940215374 2.151517996717391 2.050055466436567 -0.5200046160127103 1.1399895127138917
2.15571904182 0.4343881820552546 -0.0138722120662995 -1.0568825940215374 2.151517996717391 2.050055466436567 -0.5200046160127103 1.1399895127138917
2.16559195518 0.4343881820552546 -0.0138722120662995 -1.0568825940215374 2.151517996717391 2.050055466436567 -0.5200046160127103 1.1399895127138917
2.16559195518 0.4343881820552546 -0.0138722120662995 -1.0568825940215374 2.151517996717391 2.050055466436567 -0.5200046160127103 1.1399895127138917
2.17555308342 0.4343881820552546 -0.0138722120662995 -1.0568825940215374 2.151517996717391 2.050055466436567 -0.5200046160127103 1.1399895127138917
2.17555308342 0.4343881820552546 -0.0138722120662995 -1.0568825940215374 2.151517996717391 2.050055466436567 -0.5200046160127103 1.1399895127138917
2.18551397324 0.4343881820552546 -0.0138722120662995 -1.058385915133995 2.151564016751446 2.050055466436567 -0.5200046160127103 1.1399895127138917
2.18551397324 0.4343881820552546 -0.0138722120662995 -1.058385915133995 2.151564016751446 2.050055466436567 -0.5200046160127103 1.1399895127138917
2.19571495056 0.4343881820552546 -0.0138722120662995 -1.058385915133995 2.151564016751446 2.050055466436567 -0.5200046160127103 1.1399895127138917
2.19571495056 0.4343881820552546 -0.0138722120662995 -1.058385915133995 2.151564016751446 2.050055466436567 -0.5200046160127103 1.1399895127138917
2.20574593544 0.4343881820552546 -0.0138722120662995 -1.0592756357923885 2.151579356762797 2.050055466436567 -0.5200046160127103 1.1399895127138917
2.20574593544 0.4343881820552546 -0.0138722120662995 -1.0592756357923885 2.151579356762797 2.050055466436567 -0.5200046160127103 1.1399895127138917
2.21574401855 0.4343881820552546 -0.0138722120662995 -1.0592756357923885 2.151579356762797 2.050055466436567 -0.5200046160127103 1.1399895127138917
2.21574401855 0.4343881820552546 -0.0138722120662995 -1.0592756357923885 2.151579356762797 2.050055466436567 -0.5200046160127103 1.1399895127138917
2.22543787956 0.4343881820552546 -0.0138722120662995 -1.0592756357923885 2.151579356762797 2.050055466436567 -0.5200046160127103 1.1399895127138917
2.22543787956 0.4343881820552546 -0.0138722120662995 -1.0592756357923885 2.151579356762797 2.050055466436567 -0.5200046160127103 1.1399895127138917
2.2355890274 0.4343421620211999 -0.0138722120662995 -1.0618834377221615 2.1515946967741493 2.050055466436567 -0.5200046160127103 1.1399895127138917
2.2355890274 0.4343421620211999 -0.0138722120662995 -1.0618834377221615 2.1515946967741493 2.050055466436567 -0.5200046160127103 1.1399895127138917
2.24571204185 0.4343421620211999 -0.0138722120662995 -1.0618834377221615 2.1515946967741493 2.050055466436567 -0.5200046160127103 1.1399895127138917
2.24571204185 0.4343421620211999 -0.0138722120662995 -1.0618834377221615 2.1515946967741493 2.050055466436567 -0.5200046160127103 1.1399895127138917
2.25572800636 0.4342347819417386 -0.0138722120662995 -1.063478798902729 2.1515946967741493 2.050055466436567 -0.5200046160127103 1.1399895127138917
2.25572800636 0.4342347819417386 -0.0138722120662995 -1.063478798902729 2.1515946967741493 2.050055466436567 -0.5200046160127103 1.1399895127138917
2.26553297043 0.4340507018055192 -0.0138722120662995 -1.065549700435196 2.1515946967741493 2.050055466436567 -0.5200046160127103 1.1399895127138917
2.26553297043 0.4340507018055192 -0.0138722120662995 -1.065549700435196 2.1515946967741493 2.050055466436567 -0.5200046160127103 1.1399895127138917
2.2756998539 0.4340507018055192 -0.0138722120662995 -1.065549700435196 2.1515946967741493 2.050055466436567 -0.5200046160127103 1.1399895127138917
2.2756998539 0.4340507018055192 -0.0138722120662995 -1.065549700435196 2.1515946967741493 2.050055466436567 -0.5200046160127103 1.1399895127138917
2.28571891785 0.4340507018055192 -0.0138722120662995 -1.065549700435196 2.1515946967741493 2.050055466436567 -0.5200046160127103 1.1399895127138917
2.28571891785 0.4340507018055192 -0.0138722120662995 -1.065549700435196 2.1515946967741493 2.050055466436567 -0.5200046160127103 1.1399895127138917
2.29551792145 0.4340507018055192 -0.0138722120662995 -1.065549700435196 2.1515946967741493 2.050055466436567 -0.5200046160127103 1.1399895127138917
2.29551792145 0.4340507018055192 -0.0138722120662995 -1.065549700435196 2.1515946967741493 2.050055466436567 -0.5200046160127103 1.1399895127138917
2.30569005013 0.4340507018055192 -0.0138722120662995 -1.065549700435196 2.1515946967741493 2.050055466436567 -0.5200046160127103 1.1399895127138917
2.30569005013 0.4340507018055192 -0.0138722120662995 -1.065549700435196 2.1515946967741493 2.050055466436567 -0.5200046160127103 1.1399895127138917
2.31571698189 0.4340507018055192 -0.0138722120662995 -1.065549700435196 2.1515946967741493 2.050055466436567 -0.5200046160127103 1.1399895127138917
2.31571698189 0.4340507018055192 -0.0138722120662995 -1.065549700435196 2.1515946967741493 2.050055466436567 -0.5200046160127103 1.1399895127138917
2.32533502579 0.4337439015784871 -0.0138722120662995 -1.067942742206047 2.1515946967741493 2.050055466436567 -0.5200046160127103 1.1399895127138917
2.32533502579 0.4337439015784871 -0.0138722120662995 -1.067942742206047 2.1515946967741493 2.050055466436567 -0.5200046160127103 1.1399895127138917
2.33563494682 0.4329462209882035 -0.0138722120662995 -1.0740327267126355 2.1515946967741493 2.050055466436567 -0.5200046160127103 1.1399895127138917
2.33563494682 0.4329462209882035 -0.0138722120662995 -1.0740327267126355 2.1515946967741493 2.050055466436567 -0.5200046160127103 1.1399895127138917
2.34545707703 0.4324093205908971 -0.0138722120662995 -1.0778370495278344 2.151640716808204 2.050055466436567 -0.5200046160127103 1.1399895127138917
2.34545707703 0.4324093205908971 -0.0138722120662995 -1.0778370495278344 2.151640716808204 2.050055466436567 -0.5200046160127103 1.1399895127138917
2.35585784912 0.4324093205908971 -0.0138722120662995 -1.0778370495278344 2.151640716808204 2.050055466436567 -0.5200046160127103 1.1399895127138917
2.35585784912 0.4324093205908971 -0.0138722120662995 -1.0778370495278344 2.151640716808204 2.050055466436567 -0.5200046160127103 1.1399895127138917
2.36562991142 0.4324093205908971 -0.0138722120662995 -1.0778370495278344 2.151640716808204 2.050055466436567 -0.5200046160127103 1.1399895127138917
2.36562991142 0.4324093205908971 -0.0138722120662995 -1.0778370495278344 2.151640716808204 2.050055466436567 -0.5200046160127103 1.1399895127138917
2.37574601173 0.4324093205908971 -0.0138722120662995 -1.0778370495278344 2.151640716808204 2.050055466436567 -0.5200046160127103 1.1399895127138917
2.37574601173 0.4324093205908971 -0.0138722120662995 -1.0778370495278344 2.151640716808204 2.050055466436567 -0.5200046160127103 1.1399895127138917
2.38578295708 0.4324093205908971 -0.0138722120662995 -1.0778370495278344 2.151640716808204 2.050055466436567 -0.5200046160127103 1.1399895127138917
2.38578295708 0.4324093205908971 -0.0138722120662995 -1.0778370495278344 2.151640716808204 2.050055466436567 -0.5200046160127103 1.1399895127138917
2.39571785927 0.4324093205908971 -0.0138722120662995 -1.0778370495278344 2.151640716808204 2.050055466436567 -0.5200046160127103 1.1399895127138917
2.39571785927 0.4324093205908971 -0.0138722120662995 -1.0778370495278344 2.151640716808204 2.050055466436567 -0.5200046160127103 1.1399895127138917
2.40564703941 0.430767939376275 -0.0138722120662995 -1.0865348359641964 2.1519781970579395 2.050055466436567 -0.5200046160127103 1.1399895127138917
2.40564703941 0.430767939376275 -0.0138722120662995 -1.0865348359641964 2.1519781970579395 2.050055466436567 -0.5200046160127103 1.1399895127138917
2.41561889648 0.430767939376275 -0.0138722120662995 -1.0865348359641964 2.1519781970579395 2.050055466436567 -0.5200046160127103 1.1399895127138917
2.41561889648 0.430767939376275 -0.0138722120662995 -1.0865348359641964 2.1519781970579395 2.050055466436567 -0.5200046160127103 1.1399895127138917
2.42571091652 0.4298782187178817 -0.0138722120662995 -1.0914282995853597 2.152423057387136 2.050055466436567 -0.5200046160127103 1.1399895127138917
2.42571091652 0.4298782187178817 -0.0138722120662995 -1.0914282995853597 2.152423057387136 2.050055466436567 -0.5200046160127103 1.1399895127138917
2.43606686592 0.4288657779686757 -0.0138722120662995 -1.0965672033881482 2.1529599577844425 2.050055466436567 -0.5200046160127103 1.1399895127138917
2.43606686592 0.4288657779686757 -0.0138722120662995 -1.0965672033881482 2.1529599577844425 2.050055466436567 -0.5200046160127103 1.1399895127138917
2.44560885429 0.4288657779686757 -0.0138722120662995 -1.0965672033881482 2.1529599577844425 2.050055466436567 -0.5200046160127103 1.1399895127138917
2.44560885429 0.4288657779686757 -0.0138722120662995 -1.0965672033881482 2.1529599577844425 2.050055466436567 -0.5200046160127103 1.1399895127138917
2.45548295975 0.4288657779686757 -0.0138722120662995 -1.0965672033881482 2.1529599577844425 2.050055466436567 -0.5200046160127103 1.1399895127138917
2.45548295975 0.4288657779686757 -0.0138722120662995 -1.0965672033881482 2.1529599577844425 2.050055466436567 -0.5200046160127103 1.1399895127138917
2.46558594704 0.4288657779686757 -0.0138722120662995 -1.0965672033881482 2.1529599577844425 2.050055466436567 -0.5200046160127103 1.1399895127138917
2.46558594704 0.4288657779686757 -0.0138722120662995 -1.0965672033881482 2.1529599577844425 2.050055466436567 -0.5200046160127103 1.1399895127138917
2.47551608086 0.4265340962432311 -0.0138722120662995 -1.1081949319926674 2.1540490985904066 2.050055466436567 -0.5200046160127103 1.1399895127138917
2.47551608086 0.4265340962432311 -0.0138722120662995 -1.1081949319926674 2.1540490985904066 2.050055466436567 -0.5200046160127103 1.1399895127138917
2.48566007614 0.4265340962432311 -0.0138722120662995 -1.1081949319926674 2.1540490985904066 2.050055466436567 -0.5200046160127103 1.1399895127138917
2.48566007614 0.4265340962432311 -0.0138722120662995 -1.1081949319926674 2.1540490985904066 2.050055466436567 -0.5200046160127103 1.1399895127138917
2.49573206902 0.4255523355167283 -0.0138722120662995 -1.1139014162154657 2.154632019021768 2.050055466436567 -0.5200046160127103 1.1399895127138917
2.49573206902 0.4255523355167283 -0.0138722120662995 -1.1139014162154657 2.154632019021768 2.050055466436567 -0.5200046160127103 1.1399895127138917
2.5058619976 0.4255523355167283 -0.0138722120662995 -1.1139014162154657 2.154632019021768 2.050055466436567 -0.5200046160127103 1.1399895127138917
2.5058619976 0.4255523355167283 -0.0138722120662995 -1.1139014162154657 2.154632019021768 2.050055466436567 -0.5200046160127103 1.1399895127138917
2.51551389694 0.4247086348923898 -0.0138722120662995 -1.1201448008355703 2.155199599441777 2.050055466436567 -0.5200046160127103 1.1399895127138917
2.51551389694 0.4247086348923898 -0.0138722120662995 -1.1201448008355703 2.155199599441777 2.050055466436567 -0.5200046160127103 1.1399895127138917
2.52561903 0.4247086348923898 -0.0138722120662995 -1.1201448008355703 2.155199599441777 2.050055466436567 -0.5200046160127103 1.1399895127138917
2.52561903 0.4247086348923898 -0.0138722120662995 -1.1201448008355703 2.155199599441777 2.050055466436567 -0.5200046160127103 1.1399895127138917
2.53582286835 0.4247086348923898 -0.0138722120662995 -1.1201448008355703 2.155199599441777 2.050055466436567 -0.5200046160127103 1.1399895127138917
2.53582286835 0.4247086348923898 -0.0138722120662995 -1.1201448008355703 2.155199599441777 2.050055466436567 -0.5200046160127103 1.1399895127138917
2.5456340313 0.4247086348923898 -0.0138722120662995 -1.1201448008355703 2.155199599441777 2.050055466436567 -0.5200046160127103 1.1399895127138917
2.5456340313 0.4247086348923898 -0.0138722120662995 -1.1201448008355703 2.155199599441777 2.050055466436567 -0.5200046160127103 1.1399895127138917
2.55574989319 0.4236961941431835 -0.0138722120662995 -1.1258666250697202 2.155751839850435 2.050055466436567 -0.5200046160127103 1.1399895127138917
2.55574989319 0.4236961941431835 -0.0138722120662995 -1.1258666250697202 2.155751839850435 2.050055466436567 -0.5200046160127103 1.1399895127138917
2.56554889679 0.4228831735415483 -0.0138722120662995 -1.1318645695081992 2.156350100293148 2.050055466436567 -0.5200046160127103 1.1399895127138917
2.56554889679 0.4228831735415483 -0.0138722120662995 -1.1318645695081992 2.156350100293148 2.050055466436567 -0.5200046160127103 1.1399895127138917
2.57553291321 0.4220394729172098 -0.0138722120662995 -1.1378931939693813 2.156963700747212 2.050055466436567 -0.5200046160127103 1.1399895127138917
2.57553291321 0.4220394729172098 -0.0138722120662995 -1.1378931939693813 2.156963700747212 2.050055466436567 -0.5200046160127103 1.1399895127138917
2.58558607101 0.4220394729172098 -0.0138722120662995 -1.1378931939693813 2.156963700747212 2.050055466436567 -0.5200046160127103 1.1399895127138917
2.58558607101 0.4220394729172098 -0.0138722120662995 -1.1378931939693813 2.156963700747212 2.050055466436567 -0.5200046160127103 1.1399895127138917
2.59567594528 0.4207509119636749 -0.0138722120662995 -1.1437530783056955 2.157715361303441 2.050055466436567 -0.5200046160127103 1.1399895127138917
2.59567594528 0.4207509119636749 -0.0138722120662995 -1.1437530783056955 2.157715361303441 2.050055466436567 -0.5200046160127103 1.1399895127138917
2.60552287102 0.4207509119636749 -0.0138722120662995 -1.1437530783056955 2.157715361303441 2.050055466436567 -0.5200046160127103 1.1399895127138917
2.60552287102 0.4207509119636749 -0.0138722120662995 -1.1437530783056955 2.157715361303441 2.050055466436567 -0.5200046160127103 1.1399895127138917
2.6156668663 0.4207509119636749 -0.0138722120662995 -1.1437530783056955 2.157715361303441 2.050055466436567 -0.5200046160127103 1.1399895127138917
2.6156668663 0.4207509119636749 -0.0138722120662995 -1.1437530783056955 2.157715361303441 2.050055466436567 -0.5200046160127103 1.1399895127138917
2.62574505806 0.4207509119636749 -0.0138722120662995 -1.1437530783056955 2.157715361303441 2.050055466436567 -0.5200046160127103 1.1399895127138917
2.62574505806 0.4207509119636749 -0.0138722120662995 -1.1437530783056955 2.157715361303441 2.050055466436567 -0.5200046160127103 1.1399895127138917
2.63574194908 0.4207509119636749 -0.0138722120662995 -1.1437530783056955 2.157715361303441 2.050055466436567 -0.5200046160127103 1.1399895127138917
2.63574194908 0.4207509119636749 -0.0138722120662995 -1.1437530783056955 2.157715361303441 2.050055466436567 -0.5200046160127103 1.1399895127138917
2.64569687843 0.4192629308625688 -0.0138722120662995 -1.1553961469215666 2.1591419823591407 2.050055466436567 -0.5200046160127103 1.1399895127138917
2.64569687843 0.4192629308625688 -0.0138722120662995 -1.1553961469215666 2.1591419823591407 2.050055466436567 -0.5200046160127103 1.1399895127138917
2.65559101105 0.4180510699657917 -0.0138722120662995 -1.1614554514054518 2.159617522711041 2.050055466436567 -0.5200046160127103 1.1399895127138917
2.65559101105 0.4180510699657917 -0.0138722120662995 -1.1614554514054518 2.159617522711041 2.050055466436567 -0.5200046160127103 1.1399895127138917
2.66546106339 0.4180510699657917 -0.0138722120662995 -1.1614554514054518 2.159617522711041 2.050055466436567 -0.5200046160127103 1.1399895127138917
2.66546106339 0.4180510699657917 -0.0138722120662995 -1.1614554514054518 2.159617522711041 2.050055466436567 -0.5200046160127103 1.1399895127138917
2.6754450798 0.4172227093528048 -0.0138722120662995 -1.167514755889337 2.159816942858612 2.050055466436567 -0.5200046160127103 1.1399895127138917
2.6754450798 0.4172227093528048 -0.0138722120662995 -1.167514755889337 2.159816942858612 2.050055466436567 -0.5200046160127103 1.1399895127138917
2.68544006348 0.4172227093528048 -0.0138722120662995 -1.167514755889337 2.159816942858612 2.050055466436567 -0.5200046160127103 1.1399895127138917
2.68544006348 0.4172227093528048 -0.0138722120662995 -1.167514755889337 2.159816942858612 2.050055466436567 -0.5200046160127103 1.1399895127138917
2.69563388824 0.4172227093528048 -0.0138722120662995 -1.167514755889337 2.159816942858612 2.050055466436567 -0.5200046160127103 1.1399895127138917
2.69563388824 0.4172227093528048 -0.0138722120662995 -1.167514755889337 2.159816942858612 2.050055466436567 -0.5200046160127103 1.1399895127138917
2.7056119442 0.4172227093528048 -0.0138722120662995 -1.167514755889337 2.159816942858612 2.050055466436567 -0.5200046160127103 1.1399895127138917
2.7056119442 0.4172227093528048 -0.0138722120662995 -1.167514755889337 2.159816942858612 2.050055466436567 -0.5200046160127103 1.1399895127138917
2.71555995941 0.4153205479452055 -0.0138722120662995 -1.1800475451636012 2.159893642915369 2.050055466436567 -0.5200046160127103 1.1399895127138917
2.71555995941 0.4153205479452055 -0.0138722120662995 -1.1800475451636012 2.159893642915369 2.050055466436567 -0.5200046160127103 1.1399895127138917
2.72568106651 0.4153205479452055 -0.0138722120662995 -1.1800475451636012 2.159893642915369 2.050055466436567 -0.5200046160127103 1.1399895127138917
2.72568106651 0.4153205479452055 -0.0138722120662995 -1.1800475451636012 2.159893642915369 2.050055466436567 -0.5200046160127103 1.1399895127138917
2.735683918 0.413847906855451 -0.0138722120662995 -1.1866130700220896 2.159893642915369 2.050055466436567 -0.5200046160127103 1.1399895127138917
2.735683918 0.413847906855451 -0.0138722120662995 -1.1866130700220896 2.159893642915369 2.050055466436567 -0.5200046160127103 1.1399895127138917
2.74546098709 0.413847906855451 -0.0138722120662995 -1.1866130700220896 2.159893642915369 2.050055466436567 -0.5200046160127103 1.1399895127138917
2.74546098709 0.413847906855451 -0.0138722120662995 -1.1866130700220896 2.159893642915369 2.050055466436567 -0.5200046160127103 1.1399895127138917
2.75538301468 0.412160505606774 -0.0138722120662995 -1.193055874789765 2.159893642915369 2.050055466436567 -0.5200046160127103 1.1399895127138917
2.75538301468 0.412160505606774 -0.0138722120662995 -1.193055874789765 2.159893642915369 2.050055466436567 -0.5200046160127103 1.1399895127138917
2.76555085182 0.412160505606774 -0.0138722120662995 -1.193055874789765 2.159893642915369 2.050055466436567 -0.5200046160127103 1.1399895127138917
2.76555085182 0.412160505606774 -0.0138722120662995 -1.193055874789765 2.159893642915369 2.050055466436567 -0.5200046160127103 1.1399895127138917
2.77571487427 0.412160505606774 -0.0138722120662995 -1.193055874789765 2.159893642915369 2.050055466436567 -0.5200046160127103 1.1399895127138917
2.77571487427 0.412160505606774 -0.0138722120662995 -1.193055874789765 2.159893642915369 2.050055466436567 -0.5200046160127103 1.1399895127138917
2.78548789024 0.412160505606774 -0.0138722120662995 -1.193055874789765 2.159893642915369 2.050055466436567 -0.5200046160127103 1.1399895127138917
2.78548789024 0.412160505606774 -0.0138722120662995 -1.193055874789765 2.159893642915369 2.050055466436567 -0.5200046160127103 1.1399895127138917
2.79553699493 0.4106878645170197 -0.0138722120662995 -1.199882179841231 2.159893642915369 2.050055466436567 -0.5200046160127103 1.1399895127138917
2.79553699493 0.4106878645170197 -0.0138722120662995 -1.199882179841231 2.159893642915369 2.050055466436567 -0.5200046160127103 1.1399895127138917
2.80564904213 0.4075431621899401 -0.0138722120662995 -1.2143017905117428 2.159893642915369 2.050055466436567 -0.5200046160127103 1.1399895127138917
2.80564904213 0.4075431621899401 -0.0138722120662995 -1.2143017905117428 2.159893642915369 2.050055466436567 -0.5200046160127103 1.1399895127138917
2.81556391716 0.4075431621899401 -0.0138722120662995 -1.2143017905117428 2.159893642915369 2.050055466436567 -0.5200046160127103 1.1399895127138917
2.81556391716 0.4075431621899401 -0.0138722120662995 -1.2143017905117428 2.159893642915369 2.050055466436567 -0.5200046160127103 1.1399895127138917
2.82558703423 0.4075431621899401 -0.0138722120662995 -1.2143017905117428 2.159893642915369 2.050055466436567 -0.5200046160127103 1.1399895127138917
2.82558703423 0.4075431621899401 -0.0138722120662995 -1.2143017905117428 2.159893642915369 2.050055466436567 -0.5200046160127103 1.1399895127138917
2.83571696281 0.4058711009526147 -0.0138722120662995 -1.221542275869702 2.159893642915369 2.050055466436567 -0.5200046160127103 1.1399895127138917
2.83571696281 0.4058711009526147 -0.0138722120662995 -1.221542275869702 2.159893642915369 2.050055466436567 -0.5200046160127103 1.1399895127138917
2.84570789337 0.4058711009526147 -0.0138722120662995 -1.221542275869702 2.159893642915369 2.050055466436567 -0.5200046160127103 1.1399895127138917
2.84570789337 0.4058711009526147 -0.0138722120662995 -1.221542275869702 2.159893642915369 2.050055466436567 -0.5200046160127103 1.1399895127138917
2.8555560112 0.4058711009526147 -0.0138722120662995 -1.221542275869702 2.159893642915369 2.050055466436567 -0.5200046160127103 1.1399895127138917
2.8555560112 0.4058711009526147 -0.0138722120662995 -1.221542275869702 2.159893642915369 2.050055466436567 -0.5200046160127103 1.1399895127138917
2.86566901207 0.4058711009526147 -0.0138722120662995 -1.221542275869702 2.159893642915369 2.050055466436567 -0.5200046160127103 1.1399895127138917
2.86566901207 0.4058711009526147 -0.0138722120662995 -1.221542275869702 2.159893642915369 2.050055466436567 -0.5200046160127103 1.1399895127138917
2.87557506561 0.4019440580466029 -0.0138415320435963 -1.236468106914817 2.159878302904018 2.050055466436567 -0.5200046160127103 1.1399895127138917
2.87557506561 0.4019440580466029 -0.0138415320435963 -1.236468106914817 2.159878302904018 2.050055466436567 -0.5200046160127103 1.1399895127138917
2.88560700417 0.4019440580466029 -0.0138415320435963 -1.236468106914817 2.159878302904018 2.050055466436567 -0.5200046160127103 1.1399895127138917
2.88560700417 0.4019440580466029 -0.0138415320435963 -1.236468106914817 2.159878302904018 2.050055466436567 -0.5200046160127103 1.1399895127138917
2.89573001862 0.3998578165027841 -0.0137801719981898 -1.244138112590621 2.159862962892666 2.050055466436567 -0.5200046160127103 1.1399895127138917
2.89573001862 0.3998578165027841 -0.0137801719981898 -1.244138112590621 2.159862962892666 2.050055466436567 -0.5200046160127103 1.1399895127138917
2.90550684929 0.3998578165027841 -0.0137801719981898 -1.244138112590621 2.159862962892666 2.050055466436567 -0.5200046160127103 1.1399895127138917
2.90550684929 0.3998578165027841 -0.0137801719981898 -1.244138112590621 2.159862962892666 2.050055466436567 -0.5200046160127103 1.1399895127138917
2.91573286057 0.3975721548113946 -0.0135654118392673 -1.2517927782550735 2.1598476228813146 2.050055466436567 -0.5200046160127103 1.1399895127138917
2.91573286057 0.3975721548113946 -0.0135654118392673 -1.2517927782550735 2.1598476228813146 2.050055466436567 -0.5200046160127103 1.1399895127138917
2.92553305626 0.3975721548113946 -0.0135654118392673 -1.2517927782550735 2.1598476228813146 2.050055466436567 -0.5200046160127103 1.1399895127138917
2.92553305626 0.3975721548113946 -0.0135654118392673 -1.2517927782550735 2.1598476228813146 2.050055466436567 -0.5200046160127103 1.1399895127138917
2.93551707268 0.3975721548113946 -0.0135654118392673 -1.2517927782550735 2.1598476228813146 2.050055466436567 -0.5200046160127103 1.1399895127138917
2.93551707268 0.3975721548113946 -0.0135654118392673 -1.2517927782550735 2.1598476228813146 2.050055466436567 -0.5200046160127103 1.1399895127138917
2.9456820488 0.3975721548113946 -0.0135654118392673 -1.2517927782550735 2.1598476228813146 2.050055466436567 -0.5200046160127103 1.1399895127138917
2.9456820488 0.3975721548113946 -0.0135654118392673 -1.2517927782550735 2.1598476228813146 2.050055466436567 -0.5200046160127103 1.1399895127138917
2.95575594902 0.3952711531086532 -0.0134120117257513 -1.2593093838173617 2.1597249027905017 2.050055466436567 -0.5200046160127103 1.1399895127138917
2.95575594902 0.3930775314853733 -0.0131205515100707 -1.2671941496520884 2.159556162665634 2.050055466436567 -0.5200046160127103 1.1399895127138917
2.96556305885 0.3910986700210156 -0.0129057913511482 -1.274925515373299 2.159402762552118 2.050055466436567 -0.5200046160127103 1.1399895127138917
2.96556305885 0.3910986700210156 -0.0129057913511482 -1.274925515373299 2.159402762552118 2.050055466436567 -0.5200046160127103 1.1399895127138917
2.97543501854 0.3910986700210156 -0.0129057913511482 -1.274925515373299 2.159402762552118 2.050055466436567 -0.5200046160127103 1.1399895127138917
2.97543501854 0.3910986700210156 -0.0129057913511482 -1.274925515373299 2.159402762552118 2.050055466436567 -0.5200046160127103 1.1399895127138917
2.98567199707 0.3893805887496357 -0.0126450111581708 -1.282794941196674 2.1592340224272504 2.050055466436567 -0.5200046160127103 1.1399895127138917
2.98567199707 0.3893805887496357 -0.0126450111581708 -1.282794941196674 2.1592340224272504 2.050055466436567 -0.5200046160127103 1.1399895127138917
2.99545502663 0.3893805887496357 -0.0126450111581708 -1.282794941196674 2.1592340224272504 2.050055466436567 -0.5200046160127103 1.1399895127138917
2.99545502663 0.3893805887496357 -0.0126450111581708 -1.282794941196674 2.1592340224272504 2.050055466436567 -0.5200046160127103 1.1399895127138917
3.00565385818 0.3893805887496357 -0.0126450111581708 -1.282794941196674 2.1592340224272504 2.050055466436567 -0.5200046160127103 1.1399895127138917
3.00565385818 0.3893805887496357 -0.0126450111581708 -1.282794941196674 2.1592340224272504 2.050055466436567 -0.5200046160127103 1.1399895127138917
3.01550602913 0.3893805887496357 -0.0126450111581708 -1.282794941196674 2.1592340224272504 2.050055466436567 -0.5200046160127103 1.1399895127138917
3.01550602913 0.3893805887496357 -0.0126450111581708 -1.282794941196674 2.1592340224272504 2.050055466436567 -0.5200046160127103 1.1399895127138917
3.02552986145 0.3893805887496357 -0.0126450111581708 -1.282794941196674 2.1592340224272504 2.050055466436567 -0.5200046160127103 1.1399895127138917
3.02552986145 0.3893805887496357 -0.0126450111581708 -1.282794941196674 2.1592340224272504 2.050055466436567 -0.5200046160127103 1.1399895127138917
3.03573489189 0.3893805887496357 -0.0126450111581708 -1.282794941196674 2.1592340224272504 2.050055466436567 -0.5200046160127103 1.1399895127138917
3.03573489189 0.3893805887496357 -0.0126450111581708 -1.282794941196674 2.1592340224272504 2.050055466436567 -0.5200046160127103 1.1399895127138917
3.04571199417 0.3872790071944653 -0.0125683111014128 -1.2906490270086977 2.158896542177515 2.050055466436567 -0.5200046160127103 1.1399895127138917
3.04571199417 0.3872790071944653 -0.0125683111014128 -1.2906490270086977 2.158896542177515 2.050055466436567 -0.5200046160127103 1.1399895127138917
3.05546808243 0.3851620856279433 -0.0121541307949194 -1.2987332129909954 2.158467021859669 2.050055466436567 -0.5200046160127103 1.1399895127138917
3.05546808243 0.3851620856279433 -0.0121541307949194 -1.2987332129909954 2.158467021859669 2.050055466436567 -0.5200046160127103 1.1399895127138917
3.06556987762 0.3851620856279433 -0.0121541307949194 -1.2987332129909954 2.158467021859669 2.050055466436567 -0.5200046160127103 1.1399895127138917
3.06556987762 0.3851620856279433 -0.0121541307949194 -1.2987332129909954 2.158467021859669 2.050055466436567 -0.5200046160127103 1.1399895127138917
3.07572197914 0.3851620856279433 -0.0121541307949194 -1.2987332129909954 2.158467021859669 2.050055466436567 -0.5200046160127103 1.1399895127138917
3.07572197914 0.3851620856279433 -0.0121541307949194 -1.2987332129909954 2.158467021859669 2.050055466436567 -0.5200046160127103 1.1399895127138917
3.08568692207 0.3829531239933116 -0.0119086906132936 -1.3068634190073478 2.158022161530473 2.050055466436567 -0.5200046160127103 1.1399895127138917
3.08568692207 0.3829531239933116 -0.0119086906132936 -1.3068634190073478 2.158022161530473 2.050055466436567 -0.5200046160127103 1.1399895127138917
3.09554505348 0.3829531239933116 -0.0119086906132936 -1.3068634190073478 2.158022161530473 2.050055466436567 -0.5200046160127103 1.1399895127138917
3.09554505348 0.3829531239933116 -0.0119086906132936 -1.3068634190073478 2.158022161530473 2.050055466436567 -0.5200046160127103 1.1399895127138917
3.10541987419 0.3807595023700318 -0.0113871302273389 -1.31461012473991 2.157669341269386 2.050055466436567 -0.5200046160127103 1.1399895127138917
3.10541987419 0.3807595023700318 -0.0113871302273389 -1.31461012473991 2.157669341269386 2.050055466436567 -0.5200046160127103 1.1399895127138917
3.11569190025 0.3807595023700318 -0.0113871302273389 -1.31461012473991 2.157669341269386 2.050055466436567 -0.5200046160127103 1.1399895127138917
3.11569190025 0.3807595023700318 -0.0113871302273389 -1.31461012473991 2.157669341269386 2.050055466436567 -0.5200046160127103 1.1399895127138917
3.12561607361 0.3807595023700318 -0.0113871302273389 -1.31461012473991 2.157669341269386 2.050055466436567 -0.5200046160127103 1.1399895127138917
3.12561607361 0.3807595023700318 -0.0113871302273389 -1.31461012473991 2.157669341269386 2.050055466436567 -0.5200046160127103 1.1399895127138917
3.13568401337 0.3787346208716193 -0.0109269298867907 -1.322326150449769 2.1573932210650573 2.050055466436567 -0.5200046160127103 1.1399895127138917
3.13568401337 0.3787346208716193 -0.0109269298867907 -1.322326150449769 2.1573932210650573 2.050055466436567 -0.5200046160127103 1.1399895127138917
3.14550495148 0.3768324594640199 -0.0101292492965071 -1.3302262562958471 2.1571017608493768 2.050055466436567 -0.5200046160127103 1.1399895127138917
3.14550495148 0.3768324594640199 -0.0101292492965071 -1.3302262562958471 2.1571017608493768 2.050055466436567 -0.5200046160127103 1.1399895127138917
3.1559009552 0.3749763180904754 -0.0091781685927073 -1.3377428618581355 2.1567182605655866 2.050055466436567 -0.5200046160127103 1.1399895127138917
3.1559009552 0.3749763180904754 -0.0091781685927073 -1.3377428618581355 2.1567182605655866 2.050055466436567 -0.5200046160127103 1.1399895127138917
3.1657140255 0.3732428968077436 -0.0076901874916013 -1.345474227579346 2.156258060225038 2.050055466436567 -0.5200046160127103 1.1399895127138917
3.1657140255 0.3732428968077436 -0.0076901874916013 -1.345474227579346 2.156258060225038 2.050055466436567 -0.5200046160127103 1.1399895127138917
3.17568707466 0.3710185951617603 -0.0062635664359017 -1.3528220930167665 2.1555677597142155 2.050055466436567 -0.5200046160127103 1.1399895127138917
3.17568707466 0.3710185951617603 -0.0062635664359017 -1.3528220930167665 2.1555677597142155 2.050055466436567 -0.5200046160127103 1.1399895127138917
3.18567299843 0.3710185951617603 -0.0062635664359017 -1.3528220930167665 2.1555677597142155 2.050055466436567 -0.5200046160127103 1.1399895127138917
3.18567299843 0.3710185951617603 -0.0062635664359017 -1.3528220930167665 2.1555677597142155 2.050055466436567 -0.5200046160127103 1.1399895127138917
3.19574093819 0.3710185951617603 -0.0062635664359017 -1.3528220930167665 2.1555677597142155 2.050055466436567 -0.5200046160127103 1.1399895127138917
3.19574093819 0.3710185951617603 -0.0062635664359017 -1.3528220930167665 2.1555677597142155 2.050055466436567 -0.5200046160127103 1.1399895127138917
3.20565485954 0.3710185951617603 -0.0062635664359017 -1.3528220930167665 2.1555677597142155 2.050055466436567 -0.5200046160127103 1.1399895127138917
3.20565485954 0.3710185951617603 -0.0062635664359017 -1.3528220930167665 2.1555677597142155 2.050055466436567 -0.5200046160127103 1.1399895127138917
3.21573400497 0.3710185951617603 -0.0062635664359017 -1.3528220930167665 2.1555677597142155 2.050055466436567 -0.5200046160127103 1.1399895127138917
3.21573400497 0.3710185951617603 -0.0062635664359017 -1.3528220930167665 2.1555677597142155 2.050055466436567 -0.5200046160127103 1.1399895127138917
3.22558093071 0.3710185951617603 -0.0062635664359017 -1.3528220930167665 2.1555677597142155 2.050055466436567 -0.5200046160127103 1.1399895127138917
3.22558093071 0.3710185951617603 -0.0062635664359017 -1.3528220930167665 2.1555677597142155 2.050055466436567 -0.5200046160127103 1.1399895127138917
3.23558807373 0.3685948733682062 -0.0038858646764024 -1.360998319067174 2.1548621191920416 2.050055466436567 -0.5200046160127103 1.1399895127138917
3.23558807373 0.3685948733682062 -0.0038858646764024 -1.360998319067174 2.1548621191920416 2.050055466436567 -0.5200046160127103 1.1399895127138917
3.24553894997 0.3662478516314102 -0.0010172825536516 -1.3679780242321558 2.154263858749329 2.050055466436567 -0.5200046160127103 1.1399895127138917
3.24553894997 0.3662478516314102 -0.0010172825536516 -1.3679780242321558 2.154263858749329 2.050055466436567 -0.5200046160127103 1.1399895127138917
3.25546789169 0.3610936078172697 0.0063612629064719 -1.3823516148686128 2.153205397966068 2.050055466436567 -0.5200046160127103 1.1399895127138917
3.25546789169 0.3610936078172697 0.0063612629064719 -1.3823516148686128 2.153205397966068 2.050055466436567 -0.5200046160127103 1.1399895127138917
3.26565790176 0.3610936078172697 0.0063612629064719 -1.3823516148686128 2.153205397966068 2.050055466436567 -0.5200046160127103 1.1399895127138917
3.26565790176 0.3610936078172697 0.0063612629064719 -1.3823516148686128 2.153205397966068 2.050055466436567 -0.5200046160127103 1.1399895127138917
3.27553701401 0.3587465860804736 0.0109479263006028 -1.3895614202038686 2.152883257727684 2.050055466436567 -0.5200091814722694 1.1399849472543326
3.27553701401 0.3587465860804736 0.0109479263006028 -1.3895614202038686 2.152883257727684 2.050055466436567 -0.5200091814722694 1.1399849472543326
3.28559303284 0.3587465860804736 0.0109479263006028 -1.3895614202038686 2.152883257727684 2.050055466436567 -0.5200091814722694 1.1399849472543326
3.28559303284 0.3587465860804736 0.0109479263006028 -1.3895614202038686 2.152883257727684 2.050055466436567 -0.5200091814722694 1.1399849472543326
3.2956738472 0.3587465860804736 0.0109479263006028 -1.3895614202038686 2.152883257727684 2.050055466436567 -0.5200091814722694 1.1399849472543326
3.2956738472 0.3587465860804736 0.0109479263006028 -1.3895614202038686 2.152883257727684 2.050055466436567 -0.5200091814722694 1.1399849472543326
3.30579090118 0.3587465860804736 0.0109479263006028 -1.3895614202038686 2.152883257727684 2.050055466436567 -0.5200091814722694 1.1399849472543326
3.30579090118 0.3587465860804736 0.0109479263006028 -1.3895614202038686 2.152883257727684 2.050055466436567 -0.5200091814722694 1.1399849472543326
3.31556105614 0.3587465860804736 0.0109479263006028 -1.3895614202038686 2.152883257727684 2.050055466436567 -0.5200091814722694 1.1399849472543326
3.31556105614 0.3587465860804736 0.0109479263006028 -1.3895614202038686 2.152883257727684 2.050055466436567 -0.5200091814722694 1.1399849472543326
3.32557201385 0.3561387841507001 0.0157800298763595 -1.3956820847331604 2.1525764575006523 2.050055466436567 -0.5200046160127103 1.1399895127138917
3.32557201385 0.3561387841507001 0.0157800298763595 -1.3956820847331604 2.1525764575006523 2.050055466436567 -0.5200046160127103 1.1399895127138917
3.33569502831 0.3533162220620042 0.0211030138153676 -1.4023089696370552 2.1523156773076746 2.050055466436567 -0.5200046160127103 1.1399895127138917
3.33569502831 0.3533162220620042 0.0211030138153676 -1.4023089696370552 2.1523156773076746 2.050055466436567 -0.5200046160127103 1.1399895127138917
3.34554886818 0.3502021997576278 0.0258430773230146 -1.4081841939847213 2.152146937182807 2.050055466436567 -0.5200046160127103 1.1399895127138917
3.34554886818 0.3502021997576278 0.0258430773230146 -1.4081841939847213 2.152146937182807 2.050055466436567 -0.5200046160127103 1.1399895127138917
3.35542988777 0.346904097317032 0.0305371207966068 -1.4145656387069905 2.151870816978478 2.050055466436567 -0.5200046160127103 1.1399895127138917
3.35542988777 0.346904097317032 0.0305371207966068 -1.4145656387069905 2.151870816978478 2.050055466436567 -0.5200046160127103 1.1399895127138917
3.36572504044 0.346904097317032 0.0305371207966068 -1.4145656387069905 2.151870816978478 2.050055466436567 -0.5200046160127103 1.1399895127138917
3.36572504044 0.346904097317032 0.0305371207966068 -1.4145656387069905 2.151870816978478 2.050055466436567 -0.5200046160127103 1.1399895127138917
3.37548398972 0.3441122152510393 0.034402803657212 -1.4204408630546563 2.1514566366719845 2.050055466436567 -0.5200046160127103 1.1399895127138917
3.37548398972 0.3441122152510393 0.034402803657212 -1.4204408630546563 2.1514566366719845 2.050055466436567 -0.5200046160127103 1.1399895127138917
3.3856959343 0.3441122152510393 0.034402803657212 -1.4204408630546563 2.1514566366719845 2.050055466436567 -0.5200046160127103 1.1399895127138917
3.3856959343 0.3441122152510393 0.034402803657212 -1.4204408630546563 2.1514566366719845 2.050055466436567 -0.5200046160127103 1.1399895127138917
3.39577794075 0.3441122152510393 0.034402803657212 -1.4204408630546563 2.1514566366719845 2.050055466436567 -0.5200046160127103 1.1399895127138917
3.39577794075 0.3441122152510393 0.034402803657212 -1.4204408630546563 2.1514566366719845 2.050055466436567 -0.5200046160127103 1.1399895127138917
3.40557408333 0.3441122152510393 0.034402803657212 -1.4204408630546563 2.1514566366719845 2.050055466436567 -0.5200046160127103 1.1399895127138917
3.40557408333 0.3441122152510393 0.034402803657212 -1.4204408630546563 2.1514566366719845 2.050055466436567 -0.5200046160127103 1.1399895127138917
3.41548299789 0.3415504333553207 0.037854306211324 -1.426776287742871 2.150720316127108 2.050055466436567 -0.5200046160127103 1.1399895127138917
3.41548299789 0.3415504333553207 0.037854306211324 -1.426776287742871 2.150720316127108 2.050055466436567 -0.5200046160127103 1.1399895127138917
3.42556285858 0.3389119514028439 0.0406155082546135 -1.4332037524991943 2.149539135253033 2.050055466436567 -0.5200091814722694 1.1399849472543326
3.42556285858 0.3389119514028439 0.0406155082546135 -1.4332037524991943 2.149539135253033 2.050055466436567 -0.5200091814722694 1.1399849472543326
3.4356110096 0.336089389314148 0.0427631098438386 -1.4397079173122769 2.148051154151928 2.050055466436567 -0.5200046160127103 1.1399895127138917
3.4356110096 0.336089389314148 0.0427631098438386 -1.4397079173122769 2.148051154151928 2.050055466436567 -0.5200046160127103 1.1399895127138917
3.44561600685 0.336089389314148 0.0427631098438386 -1.4397079173122769 2.148051154151928 2.050055466436567 -0.5200046160127103 1.1399895127138917
3.44561600685 0.336089389314148 0.0427631098438386 -1.4397079173122769 2.148051154151928 2.050055466436567 -0.5200046160127103 1.1399895127138917
3.45556592941 0.3330060470324746 0.0440056507633189 -1.4464421822956326 2.146333072880548 2.050055466436567 -0.5200046160127103 1.1399895127138917
3.45556592941 0.3330060470324746 0.0440056507633189 -1.4464421822956326 2.146333072880548 2.050055466436567 -0.5200046160127103 1.1399895127138917
3.46544289589 0.3330060470324746 0.0440056507633189 -1.4464421822956326 2.146333072880548 2.050055466436567 -0.5200046160127103 1.1399895127138917
3.46544289589 0.3330060470324746 0.0440056507633189 -1.4464421822956326 2.146333072880548 2.050055466436567 -0.5200046160127103 1.1399895127138917
3.47559404373 0.3330060470324746 0.0440056507633189 -1.4464421822956326 2.146333072880548 2.050055466436567 -0.5200046160127103 1.1399895127138917
3.47559404373 0.3330060470324746 0.0440056507633189 -1.4464421822956326 2.146333072880548 2.050055466436567 -0.5200046160127103 1.1399895127138917
3.48560190201 0.3330060470324746 0.0440056507633189 -1.4464421822956326 2.146333072880548 2.050055466436567 -0.5200046160127103 1.1399895127138917
3.48560190201 0.3330060470324746 0.0440056507633189 -1.4464421822956326 2.146333072880548 2.050055466436567 -0.5200046160127103 1.1399895127138917
3.49572992325 0.3299687247848563 0.0442664309562962 -1.453513927528724 2.144599651597816 2.050055466436567 -0.5200046160127103 1.1399895127138917
3.49572992325 0.3299687247848563 0.0442664309562962 -1.453513927528724 2.144599651597816 2.050055466436567 -0.5200046160127103 1.1399895127138917
3.50563097 0.3274069428891377 0.0442664309562962 -1.460693052841277 2.1427588502356225 2.050055466436567 -0.5200046160127103 1.1399895127138917
3.50563097 0.3274069428891377 0.0442664309562962 -1.460693052841277 2.1427588502356225 2.050055466436567 -0.5200046160127103 1.1399895127138917
3.5157148838 0.3274069428891377 0.0442664309562962 -1.460693052841277 2.1427588502356225 2.050055466436567 -0.5200046160127103 1.1399895127138917
3.5157148838 0.3274069428891377 0.0442664309562962 -1.460693052841277 2.1427588502356225 2.050055466436567 -0.5200046160127103 1.1399895127138917
3.52564501762 0.3246304008344966 0.0442664309562962 -1.4676880980176104 2.1405038685669364 2.050055466436567 -0.5200046160127103 1.1399895127138917
3.52564501762 0.3246304008344966 0.0442664309562962 -1.4676880980176104 2.1405038685669364 2.050055466436567 -0.5200046160127103 1.1399895127138917
3.53570985794 0.3246304008344966 0.0442664309562962 -1.4676880980176104 2.1405038685669364 2.050055466436567 -0.5200046160127103 1.1399895127138917
3.53570985794 0.3246304008344966 0.0442664309562962 -1.4676880980176104 2.1405038685669364 2.050055466436567 -0.5200046160127103 1.1399895127138917
3.54548096657 0.3215930785868781 0.0442817709676479 -1.474514403069076 2.1380954867847337 2.050055466436567 -0.5200046160127103 1.1399895127138917
3.54548096657 0.3215930785868781 0.0442817709676479 -1.474514403069076 2.1380954867847337 2.050055466436567 -0.5200046160127103 1.1399895127138917
3.55586099625 0.3215930785868781 0.0442817709676479 -1.474514403069076 2.1380954867847337 2.050055466436567 -0.5200046160127103 1.1399895127138917
3.55586099625 0.3215930785868781 0.0442817709676479 -1.474514403069076 2.1380954867847337 2.050055466436567 -0.5200046160127103 1.1399895127138917
3.5654900074 0.3215930785868781 0.0442817709676479 -1.474514403069076 2.1380954867847337 2.050055466436567 -0.5200046160127103 1.1399895127138917
3.5654900074 0.3215930785868781 0.0442817709676479 -1.474514403069076 2.1380954867847337 2.050055466436567 -0.5200046160127103 1.1399895127138917
3.57546591759 0.3215930785868781 0.0442817709676479 -1.474514403069076 2.1380954867847337 2.050055466436567 -0.5200046160127103 1.1399895127138917
3.57546591759 0.3215930785868781 0.0442817709676479 -1.474514403069076 2.1380954867847337 2.050055466436567 -0.5200046160127103 1.1399895127138917
3.58562207222 0.3215930785868781 0.0442817709676479 -1.474514403069076 2.1380954867847337 2.050055466436567 -0.5200046160127103 1.1399895127138917
3.58562207222 0.3215930785868781 0.0442817709676479 -1.474514403069076 2.1380954867847337 2.050055466436567 -0.5200046160127103 1.1399895127138917
3.59553790092 0.3215930785868781 0.0442817709676479 -1.474514403069076 2.1380954867847337 2.050055466436567 -0.5200046160127103 1.1399895127138917
3.59553790092 0.3215930785868781 0.0442817709676479 -1.474514403069076 2.1380954867847337 2.050055466436567 -0.5200046160127103 1.1399895127138917
3.60566902161 0.3183103161576339 0.0442817709676479 -1.4811873080070257 2.1356410849684764 2.050055466436567 -0.5200046160127103 1.1399895127138917
3.60566902161 0.3183103161576339 0.0442817709676479 -1.4811873080070257 2.1356410849684764 2.050055466436567 -0.5200046160127103 1.1399895127138917
3.61546587944 0.3150889137737961 0.0442817709676479 -1.488028953069843 2.132956582981945 2.050055466436567 -0.5200046160127103 1.1399895127138917
3.61546587944 0.3150889137737961 0.0442817709676479 -1.488028953069843 2.132956582981945 2.050055466436567 -0.5200046160127103 1.1399895127138917
3.62564086914 0.3150889137737961 0.0442817709676479 -1.488028953069843 2.132956582981945 2.050055466436567 -0.5200046160127103 1.1399895127138917
3.62564086914 0.3150889137737961 0.0442817709676479 -1.488028953069843 2.132956582981945 2.050055466436567 -0.5200046160127103 1.1399895127138917
3.63566493988 0.3150889137737961 0.0442817709676479 -1.488028953069843 2.132956582981945 2.050055466436567 -0.5200046160127103 1.1399895127138917
3.63566493988 0.3150889137737961 0.0442817709676479 -1.488028953069843 2.132956582981945 2.050055466436567 -0.5200046160127103 1.1399895127138917
3.64564085007 0.3090602893126141 0.0442817709676479 -1.500408342230591 2.127403498872663 2.050055466436567 -0.5200046160127103 1.1399895127138917
3.64564085007 0.3090602893126141 0.0442817709676479 -1.500408342230591 2.127403498872663 2.050055466436567 -0.5200046160127103 1.1399895127138917
3.65554594994 0.3056394667812054 0.0442817709676479 -1.5060688064193344 2.1245502567612635 2.050055466436567 -0.5200046160127103 1.1399895127138917
3.65554594994 0.3056394667812054 0.0442817709676479 -1.5060688064193344 2.1245502567612635 2.050055466436567 -0.5200046160127103 1.1399895127138917
3.66569399834 0.3056394667812054 0.0442817709676479 -1.5060688064193344 2.1245502567612635 2.050055466436567 -0.5200046160127103 1.1399895127138917
3.66569399834 0.3056394667812054 0.0442817709676479 -1.5060688064193344 2.1245502567612635 2.050055466436567 -0.5200046160127103 1.1399895127138917
3.67566585541 0.3017277638865451 0.0442971109789995 -1.511376450346991 2.1216970146498646 2.050055466436567 -0.5200046160127103 1.1399895127138917
3.67566585541 0.3017277638865451 0.0442971109789995 -1.511376450346991 2.1216970146498646 2.050055466436567 -0.5200046160127103 1.1399895127138917
3.68556904793 0.297739360935127 0.0442971109789995 -1.5165153541497798 2.119319312890365 2.050055466436567 -0.5200046160127103 1.1399895127138917
3.68556904793 0.297739360935127 0.0442971109789995 -1.5165153541497798 2.119319312890365 2.050055466436567 -0.5200046160127103 1.1399895127138917
3.69543600082 0.293827658040467 0.0443124509903511 -1.520779877305527 2.1167575309946467 2.050055466436567 -0.5200046160127103 1.1399895127138917
3.69543600082 0.293827658040467 0.0443124509903511 -1.520779877305527 2.1167575309946467 2.050055466436567 -0.5200046160127103 1.1399895127138917
3.70550394058 0.293827658040467 0.0443124509903511 -1.520779877305527 2.1167575309946467 2.050055466436567 -0.5200046160127103 1.1399895127138917
3.70550394058 0.293827658040467 0.0443124509903511 -1.520779877305527 2.1167575309946467 2.050055466436567 -0.5200046160127103 1.1399895127138917
3.71559500694 0.293827658040467 0.0443124509903511 -1.520779877305527 2.1167575309946467 2.050055466436567 -0.5200046160127103 1.1399895127138917
3.71559500694 0.293827658040467 0.0443124509903511 -1.520779877305527 2.1167575309946467 2.050055466436567 -0.5200046160127103 1.1399895127138917
3.72546291351 0.293827658040467 0.0443124509903511 -1.520779877305527 2.1167575309946467 2.050055466436567 -0.5200046160127103 1.1399895127138917
3.72546291351 0.293827658040467 0.0443124509903511 -1.520779877305527 2.1167575309946467 2.050055466436567 -0.5200046160127103 1.1399895127138917
3.73554706573 0.2899619751798616 0.0443124509903511 -1.524384779973155 2.1141804090875764 2.050055466436567 -0.5200046160127103 1.1399895127138917
3.73554706573 0.2899619751798616 0.0443124509903511 -1.524384779973155 2.1141804090875764 2.050055466436567 -0.5200046160127103 1.1399895127138917
3.74543595314 0.2852832717176209 0.0443124509903511 -1.5276215223683445 2.111158426851309 2.050055466436567 -0.5200046160127103 1.1399895127138917
3.74543595314 0.2852832717176209 0.0443124509903511 -1.5276215223683445 2.111158426851309 2.050055466436567 -0.5200046160127103 1.1399895127138917
3.75565290451 0.2852832717176209 0.0443124509903511 -1.5276215223683445 2.111158426851309 2.050055466436567 -0.5200046160127103 1.1399895127138917
3.75565290451 0.2852832717176209 0.0443124509903511 -1.5276215223683445 2.111158426851309 2.050055466436567 -0.5200046160127103 1.1399895127138917
3.76561594009 0.2799449477672612 0.0443124509903511 -1.5307508846840725 2.107783624353956 2.050055466436567 -0.5200046160127103 1.1399895127138917
3.76561594009 0.2799449477672612 0.0443124509903511 -1.5307508846840725 2.107783624353956 2.050055466436567 -0.5200046160127103 1.1399895127138917
3.77597093582 0.2745145837487918 0.0443124509903511 -1.5336348068181749 2.104546881958766 2.050055466436567 -0.5200046160127103 1.1399895127138917
3.77597093582 0.2745145837487918 0.0443124509903511 -1.5336348068181749 2.104546881958766 2.050055466436567 -0.5200046160127103 1.1399895127138917
3.78537797928 0.2745145837487918 0.0443124509903511 -1.5336348068181749 2.104546881958766 2.050055466436567 -0.5200046160127103 1.1399895127138917
3.78537797928 0.2745145837487918 0.0443124509903511 -1.5336348068181749 2.104546881958766 2.050055466436567 -0.5200046160127103 1.1399895127138917
3.79548001289 0.2745145837487918 0.0443124509903511 -1.5336348068181749 2.104546881958766 2.050055466436567 -0.5200046160127103 1.1399895127138917
3.79548001289 0.2745145837487918 0.0443124509903511 -1.5336348068181749 2.104546881958766 2.050055466436567 -0.5200046160127103 1.1399895127138917
3.80558490753 0.2745145837487918 0.0443124509903511 -1.5336348068181749 2.104546881958766 2.050055466436567 -0.5200046160127103 1.1399895127138917
3.80558490753 0.2745145837487918 0.0443124509903511 -1.5336348068181749 2.104546881958766 2.050055466436567 -0.5200046160127103 1.1399895127138917
3.81567287445 0.2686700394238292 0.0443124509903511 -1.53616590869119 2.101034019359248 2.050055466436567 -0.5200046160127103 1.1399895127138917
3.81567287445 0.2686700394238292 0.0443124509903511 -1.53616590869119 2.101034019359248 2.050055466436567 -0.5200046160127103 1.1399895127138917
3.82553887367 0.2625953949285921 0.0443124509903511 -1.5390191508025892 2.097551836782433 2.050055466436567 -0.5200046160127103 1.1399895127138917
3.82553887367 0.2625953949285921 0.0443124509903511 -1.5390191508025892 2.097551836782433 2.050055466436567 -0.5200046160127103 1.1399895127138917
3.83549785614 0.2566741505468714 0.0443124509903511 -1.5413354925166822 2.093931594103453 2.050055466436567 -0.5200046160127103 1.1399895127138917
3.83549785614 0.2566741505468714 0.0443124509903511 -1.5413354925166822 2.093931594103453 2.050055466436567 -0.5200046160127103 1.1399895127138917
3.84553003311 0.2566741505468714 0.0443124509903511 -1.5413354925166822 2.093931594103453 2.050055466436567 -0.5200046160127103 1.1399895127138917
3.84553003311 0.2566741505468714 0.0443124509903511 -1.5413354925166822 2.093931594103453 2.050055466436567 -0.5200046160127103 1.1399895127138917
3.85569000244 0.2566741505468714 0.0443124509903511 -1.5413354925166822 2.093931594103453 2.050055466436567 -0.5200046160127103 1.1399895127138917
3.85569000244 0.2566741505468714 0.0443124509903511 -1.5413354925166822 2.093931594103453 2.050055466436567 -0.5200046160127103 1.1399895127138917
3.86572790146 0.2566741505468714 0.0443124509903511 -1.5413354925166822 2.093931594103453 2.050055466436567 -0.5200046160127103 1.1399895127138917
3.86572790146 0.2566741505468714 0.0443124509903511 -1.5413354925166822 2.093931594103453 2.050055466436567 -0.5200046160127103 1.1399895127138917
3.87563300133 0.2506301860743375 0.0443124509903511 -1.5437592143102363 2.090296011413122 2.050055466436567 -0.5200046160127103 1.1399895127138917
3.87563300133 0.2506301860743375 0.0443124509903511 -1.5437592143102363 2.090296011413122 2.050055466436567 -0.5200046160127103 1.1399895127138917
3.88544487953 0.2506301860743375 0.0443124509903511 -1.5437592143102363 2.090296011413122 2.050055466436567 -0.5200046160127103 1.1399895127138917
3.88544487953 0.2506301860743375 0.0443124509903511 -1.5437592143102363 2.090296011413122 2.050055466436567 -0.5200046160127103 1.1399895127138917
3.89555597305 0.2374991363573608 0.0443124509903511 -1.549174238317354 2.083653786497876 2.050055466436567 -0.5200046160127103 1.1399895127138917
3.89555597305 0.2374991363573608 0.0443124509903511 -1.549174238317354 2.083653786497876 2.050055466436567 -0.5200046160127103 1.1399895127138917
3.90557789803 0.2374991363573608 0.0443124509903511 -1.549174238317354 2.083653786497876 2.050055466436567 -0.5200046160127103 1.1399895127138917
3.90557789803 0.2374991363573608 0.0443124509903511 -1.549174238317354 2.083653786497876 2.050055466436567 -0.5200046160127103 1.1399895127138917
3.91564106941 0.2374991363573608 0.0443124509903511 -1.549174238317354 2.083653786497876 2.050055466436567 -0.5200046160127103 1.1399895127138917
3.91564106941 0.2374991363573608 0.0443124509903511 -1.549174238317354 2.083653786497876 2.050055466436567 -0.5200046160127103 1.1399895127138917
3.92555594444 0.2308569114421143 0.0443124509903511 -1.5515826200995566 2.079895483716732 2.050055466436567 -0.5200046160127103 1.1399895127138917
3.92555594444 0.2308569114421143 0.0443124509903511 -1.5515826200995566 2.079895483716732 2.050055466436567 -0.5200046160127103 1.1399895127138917
3.93558001518 0.2242913865836259 0.0443124509903511 -1.5540677019385172 2.075953100799368 2.050055466436567 -0.5200091814722694 1.1399849472543326
3.93558001518 0.2242913865836259 0.0443124509903511 -1.5540677019385172 2.075953100799368 2.050055466436567 -0.5200091814722694 1.1399849472543326
3.94564890862 0.2242913865836259 0.0443124509903511 -1.5540677019385172 2.075953100799368 2.050055466436567 -0.5200091814722694 1.1399849472543326
3.94564890862 0.2242913865836259 0.0443124509903511 -1.5540677019385172 2.075953100799368 2.050055466436567 -0.5200091814722694 1.1399849472543326
3.95579004288 0.2242913865836259 0.0443124509903511 -1.5540677019385172 2.075953100799368 2.050055466436567 -0.5200091814722694 1.1399849472543326
3.95579004288 0.2242913865836259 0.0443124509903511 -1.5540677019385172 2.075953100799368 2.050055466436567 -0.5200091814722694 1.1399849472543326
3.96570086479 0.2242913865836259 0.0443124509903511 -1.5540677019385172 2.075953100799368 2.050055466436567 -0.5200091814722694 1.1399849472543326
3.96570086479 0.2242913865836259 0.0443124509903511 -1.5540677019385172 2.075953100799368 2.050055466436567 -0.5200091814722694 1.1399849472543326
3.97551298141 0.2176184816456765 0.0443277910017027 -1.556660163856939 2.072087417938763 2.050055466436567 -0.5200046160127103 1.1399895127138917
3.97551298141 0.2176184816456765 0.0443277910017027 -1.556660163856939 2.072087417938763 2.050055466436567 -0.5200046160127103 1.1399895127138917
3.98564386368 0.2111143168325943 0.0443277910017027 -1.55943670591158 2.0681450350213995 2.050055466436567 -0.5200046160127103 1.1399895127138917
3.98564386368 0.2111143168325943 0.0443277910017027 -1.55943670591158 2.0681450350213995 2.050055466436567 -0.5200046160127103 1.1399895127138917
3.99546504021 0.2111143168325943 0.0443277910017027 -1.55943670591158 2.0681450350213995 2.050055466436567 -0.5200046160127103 1.1399895127138917
3.99546504021 0.2111143168325943 0.0443277910017027 -1.55943670591158 2.0681450350213995 2.050055466436567 -0.5200046160127103 1.1399895127138917
4.00566005707 0.2111143168325943 0.0443277910017027 -1.55943670591158 2.0681450350213995 2.050055466436567 -0.5200046160127103 1.1399895127138917
4.00566005707 0.2111143168325943 0.0443277910017027 -1.55943670591158 2.0681450350213995 2.050055466436567 -0.5200046160127103 1.1399895127138917
4.0155570507 0.2111143168325943 0.0443277910017027 -1.55943670591158 2.0681450350213995 2.050055466436567 -0.5200046160127103 1.1399895127138917
4.0155570507 0.2111143168325943 0.0443277910017027 -1.55943670591158 2.0681450350213995 2.050055466436567 -0.5200046160127103 1.1399895127138917
4.02554297447 0.2038891714859869 0.0443277910017027 -1.5623513080683855 2.063987891945114 2.050055466436567 -0.5200046160127103 1.1399895127138917
4.02554297447 0.2038891714859869 0.0443277910017027 -1.5623513080683855 2.063987891945114 2.050055466436567 -0.5200046160127103 1.1399895127138917
4.03571891785 0.1974003466842566 0.0443277910017027 -1.565357950293301 2.0600301690163985 2.050055466436567 -0.5200046160127103 1.1399895127138917
4.03571891785 0.1974003466842566 0.0443277910017027 -1.565357950293301 2.0600301690163985 2.050055466436567 -0.5200046160127103 1.1399895127138917
4.04554700851 0.1974003466842566 0.0443277910017027 -1.565357950293301 2.0600301690163985 2.050055466436567 -0.5200046160127103 1.1399895127138917
4.04554700851 0.1974003466842566 0.0443277910017027 -1.565357950293301 2.0600301690163985 2.050055466436567 -0.5200046160127103 1.1399895127138917
4.05569291115 0.1974003466842566 0.0443277910017027 -1.565357950293301 2.0600301690163985 2.050055466436567 -0.5200046160127103 1.1399895127138917
4.05569291115 0.1974003466842566 0.0443277910017027 -1.565357950293301 2.0600301690163985 2.050055466436567 -0.5200046160127103 1.1399895127138917
4.06572604179 0.1912950221663162 0.0443277910017027 -1.5685179926317323 2.056149146144442 2.050055466436567 -0.5200046160127103 1.1399895127138917
4.06572604179 0.1912950221663162 0.0443277910017027 -1.5685179926317323 2.056149146144442 2.050055466436567 -0.5200046160127103 1.1399895127138917
4.07587504387 0.1784554326650202 0.0443277910017027 -1.5755897378648238 2.047804179969167 2.050055466436567 -0.5200091814722694 1.1399849472543326
4.07587504387 0.1784554326650202 0.0443277910017027 -1.5755897378648238 2.047804179969167 2.050055466436567 -0.5200091814722694 1.1399849472543326
4.08592605591 0.1717825277270705 0.0443277910017027 -1.5794707607367806 2.043493636779365 2.050055466436567 -0.5200046160127103 1.1399895127138917
4.08592605591 0.1717825277270705 0.0443277910017027 -1.5794707607367806 2.043493636779365 2.050055466436567 -0.5200046160127103 1.1399895127138917
4.0956890583 0.1717825277270705 0.0443277910017027 -1.5794707607367806 2.043493636779365 2.050055466436567 -0.5200046160127103 1.1399895127138917
4.0956890583 0.1717825277270705 0.0443277910017027 -1.5794707607367806 2.043493636779365 2.050055466436567 -0.5200046160127103 1.1399895127138917
4.10571789742 0.1717825277270705 0.0443277910017027 -1.5794707607367806 2.043493636779365 2.050055466436567 -0.5200046160127103 1.1399895127138917
4.10571789742 0.1717825277270705 0.0443277910017027 -1.5794707607367806 2.043493636779365 2.050055466436567 -0.5200046160127103 1.1399895127138917
4.11557388306 0.1659533234134593 0.0443277910017027 -1.583029643370354 2.0391984336009146 2.050055466436567 -0.5200046160127103 1.1399895127138917
4.11557388306 0.1659533234134593 0.0443277910017027 -1.583029643370354 2.0391984336009146 2.050055466436567 -0.5200046160127103 1.1399895127138917
4.12561702728 0.1659533234134593 0.0443277910017027 -1.583029643370354 2.0391984336009146 2.050055466436567 -0.5200046160127103 1.1399895127138917
4.12561702728 0.1659533234134593 0.0443277910017027 -1.583029643370354 2.0391984336009146 2.050055466436567 -0.5200046160127103 1.1399895127138917
4.13552594185 0.1659533234134593 0.0443277910017027 -1.583029643370354 2.0391984336009146 2.050055466436567 -0.5200046160127103 1.1399895127138917
4.13552594185 0.1659533234134593 0.0443277910017027 -1.583029643370354 2.0391984336009146 2.050055466436567 -0.5200046160127103 1.1399895127138917
4.14574098587 0.1659533234134593 0.0443277910017027 -1.583029643370354 2.0391984336009146 2.050055466436567 -0.5200046160127103 1.1399895127138917
4.14574098587 0.1659533234134593 0.0443277910017027 -1.583029643370354 2.0391984336009146 2.050055466436567 -0.5200046160127103 1.1399895127138917
4.15561485291 0.1606456794858028 0.0443277910017027 -1.5865578459812235 2.034749830308948 2.050055466436567 -0.5200046160127103 1.1399895127138917
4.15561485291 0.1606456794858028 0.0443277910017027 -1.5865578459812235 2.034749830308948 2.050055466436567 -0.5200046160127103 1.1399895127138917
4.16552186012 0.1551846354446301 0.0443277910017027 -1.590024688546687 2.029779666631027 2.050055466436567 -0.5200046160127103 1.1399895127138917
4.16552186012 0.1551846354446301 0.0443277910017027 -1.590024688546687 2.029779666631027 2.050055466436567 -0.5200046160127103 1.1399895127138917
4.17572402954 0.1551846354446301 0.0443277910017027 -1.590024688546687 2.029779666631027 2.050055466436567 -0.5200046160127103 1.1399895127138917
4.17572402954 0.1551846354446301 0.0443277910017027 -1.590024688546687 2.029779666631027 2.050055466436567 -0.5200046160127103 1.1399895127138917
4.18572306633 0.1551846354446301 0.0443277910017027 -1.590024688546687 2.029779666631027 2.050055466436567 -0.5200046160127103 1.1399895127138917
4.18572306633 0.1551846354446301 0.0443277910017027 -1.590024688546687 2.029779666631027 2.050055466436567 -0.5200046160127103 1.1399895127138917
4.19574093819 0.1551846354446301 0.0443277910017027 -1.590024688546687 2.029779666631027 2.050055466436567 -0.5200046160127103 1.1399895127138917
4.19574093819 0.1551846354446301 0.0443277910017027 -1.590024688546687 2.029779666631027 2.050055466436567 -0.5200046160127103 1.1399895127138917
4.2057390213 0.1551846354446301 0.0443277910017027 -1.590024688546687 2.029779666631027 2.050055466436567 -0.5200046160127103 1.1399895127138917
4.2057390213 0.1551846354446301 0.0443277910017027 -1.590024688546687 2.029779666631027 2.050055466436567 -0.5200046160127103 1.1399895127138917
4.21571588516 0.1551846354446301 0.0443277910017027 -1.590024688546687 2.029779666631027 2.050055466436567 -0.5200046160127103 1.1399895127138917
4.21571588516 0.1551846354446301 0.0443277910017027 -1.590024688546687 2.029779666631027 2.050055466436567 -0.5200046160127103 1.1399895127138917
4.22572994232 0.1551846354446301 0.0443277910017027 -1.590024688546687 2.029779666631027 2.050055466436567 -0.5200046160127103 1.1399895127138917
4.22572994232 0.1551846354446301 0.0443277910017027 -1.590024688546687 2.029779666631027 2.050055466436567 -0.5200046160127103 1.1399895127138917
4.23589491844 0.1433574866925401 0.0443277910017027 -1.596375453246253 2.01970127917302 2.050055466436567 -0.5200046160127103 1.1399895127138917
4.23589491844 0.1433574866925401 0.0443277910017027 -1.596375453246253 2.01970127917302 2.050055466436567 -0.5200046160127103 1.1399895127138917
4.24553585052 0.1379271226740707 0.0443277910017027 -1.598845195073862 2.014163535075089 2.050055466436567 -0.5200046160127103 1.1399895127138917
4.24553585052 0.1379271226740707 0.0443277910017027 -1.598845195073862 2.014163535075089 2.050055466436567 -0.5200046160127103 1.1399895127138917
4.25551390648 0.1332330792004785 0.0443277910017027 -1.6011308567652518 2.008272970716072 2.050055466436567 -0.5200046160127103 1.1399895127138917
4.25551390648 0.1332330792004785 0.0443277910017027 -1.6011308567652518 2.008272970716072 2.050055466436567 -0.5200046160127103 1.1399895127138917
4.26543188095 0.1281095154090414 0.0443277910017027 -1.6028182580139287 2.0018608459711 2.050055466436567 -0.5200046160127103 1.1399895127138917
4.26543188095 0.1281095154090414 0.0443277910017027 -1.6028182580139287 2.0018608459711 2.050055466436567 -0.5200046160127103 1.1399895127138917
4.27567195892 0.1281095154090414 0.0443277910017027 -1.6028182580139287 2.0018608459711 2.050055466436567 -0.5200046160127103 1.1399895127138917
4.27567195892 0.1281095154090414 0.0443277910017027 -1.6028182580139287 2.0018608459711 2.050055466436567 -0.5200046160127103 1.1399895127138917
4.28562808037 0.1281095154090414 0.0443277910017027 -1.6028182580139287 2.0018608459711 2.050055466436567 -0.5200046160127103 1.1399895127138917
4.28562808037 0.1281095154090414 0.0443277910017027 -1.6028182580139287 2.0018608459711 2.050055466436567 -0.5200046160127103 1.1399895127138917
4.29578089714 0.1281095154090414 0.0443277910017027 -1.6028182580139287 2.0018608459711 2.050055466436567 -0.5200046160127103 1.1399895127138917
4.29578089714 0.1281095154090414 0.0443277910017027 -1.6028182580139287 2.0018608459711 2.050055466436567 -0.5200046160127103 1.1399895127138917
4.30568099022 0.1281095154090414 0.0443277910017027 -1.6028182580139287 2.0018608459711 2.050055466436567 -0.5200046160127103 1.1399895127138917
4.30568099022 0.1281095154090414 0.0443277910017027 -1.6028182580139287 2.0018608459711 2.050055466436567 -0.5200046160127103 1.1399895127138917
4.31573700905 0.1281095154090414 0.0443277910017027 -1.6028182580139287 2.0018608459711 2.050055466436567 -0.5200046160127103 1.1399895127138917
4.31573700905 0.1281095154090414 0.0443277910017027 -1.6028182580139287 2.0018608459711 2.050055466436567 -0.5200046160127103 1.1399895127138917
4.32572197914 0.1281095154090414 0.0443277910017027 -1.6028182580139287 2.0018608459711 2.050055466436567 -0.5200046160127103 1.1399895127138917
4.32572197914 0.1281095154090414 0.0443277910017027 -1.6028182580139287 2.0018608459711 2.050055466436567 -0.5200046160127103 1.1399895127138917
4.33571696281 0.1281095154090414 0.0443277910017027 -1.6028182580139287 2.0018608459711 2.050055466436567 -0.5200046160127103 1.1399895127138917
4.33571696281 0.1281095154090414 0.0443277910017027 -1.6028182580139287 2.0018608459711 2.050055466436567 -0.5200046160127103 1.1399895127138917
4.34575104713 0.1281095154090414 0.0443277910017027 -1.6028182580139287 2.0018608459711 2.050055466436567 -0.5200046160127103 1.1399895127138917
4.34575104713 0.1281095154090414 0.0443277910017027 -1.6028182580139287 2.0018608459711 2.050055466436567 -0.5200046160127103 1.1399895127138917
4.35559988022 0.1281095154090414 0.0443277910017027 -1.6028182580139287 2.0018608459711 2.050055466436567 -0.5200046160127103 1.1399895127138917
4.35559988022 0.1281095154090414 0.0443277910017027 -1.6028182580139287 2.0018608459711 2.050055466436567 -0.5200046160127103 1.1399895127138917
4.36553192139 0.1281095154090414 0.0443277910017027 -1.6028182580139287 2.0018608459711 2.050055466436567 -0.5200046160127103 1.1399895127138917
4.36553192139 0.1281095154090414 0.0443277910017027 -1.6028182580139287 2.0018608459711 2.050055466436567 -0.5200046160127103 1.1399895127138917
4.37574195862 0.1281095154090414 0.0443277910017027 -1.6028182580139287 2.0018608459711 2.050055466436567 -0.5200046160127103 1.1399895127138917
4.37574195862 0.1281095154090414 0.0443277910017027 -1.6028182580139287 2.0018608459711 2.050055466436567 -0.5200046160127103 1.1399895127138917
4.38568687439 0.1281095154090414 0.0443277910017027 -1.6028182580139287 2.0018608459711 2.050055466436567 -0.5200046160127103 1.1399895127138917
4.38568687439 0.1281095154090414 0.0443277910017027 -1.6028182580139287 2.0018608459711 2.050055466436567 -0.5200046160127103 1.1399895127138917
4.39570903778 0.1281095154090414 0.0443277910017027 -1.6028182580139287 2.0018608459711 2.050055466436567 -0.5200046160127103 1.1399895127138917
4.39570903778 0.1281095154090414 0.0443277910017027 -1.6028182580139287 2.0018608459711 2.050055466436567 -0.5200046160127103 1.1399895127138917
4.40576004982 0.1281095154090414 0.0443277910017027 -1.6028182580139287 2.0018608459711 2.050055466436567 -0.5200046160127103 1.1399895127138917
4.40576004982 0.1281095154090414 0.0443277910017027 -1.6028182580139287 2.0018608459711 2.050055466436567 -0.5200046160127103 1.1399895127138917
4.4157269001 0.1281095154090414 0.0443277910017027 -1.6028182580139287 2.0018608459711 2.050055466436567 -0.5200046160127103 1.1399895127138917
4.4157269001 0.1281095154090414 0.0443277910017027 -1.6028182580139287 2.0018608459711 2.050055466436567 -0.5200046160127103 1.1399895127138917
4.42552089691 0.1281095154090414 0.0443277910017027 -1.6028182580139287 2.0018608459711 2.050055466436567 -0.5200046160127103 1.1399895127138917
4.42552089691 0.1281095154090414 0.0443277910017027 -1.6028182580139287 2.0018608459711 2.050055466436567 -0.5200046160127103 1.1399895127138917
4.43567800522 0.1281095154090414 0.0443277910017027 -1.6028182580139287 2.0018608459711 2.050055466436567 -0.5200046160127103 1.1399895127138917
4.43567800522 0.1281095154090414 0.0443277910017027 -1.6028182580139287 2.0018608459711 2.050055466436567 -0.5200046160127103 1.1399895127138917
4.44560885429 0.1281095154090414 0.0443277910017027 -1.6028182580139287 2.0018608459711 2.050055466436567 -0.5200046160127103 1.1399895127138917
4.44560885429 0.1281095154090414 0.0443277910017027 -1.6028182580139287 2.0018608459711 2.050055466436567 -0.5200046160127103 1.1399895127138917
4.45551586151 0.1281095154090414 0.0443277910017027 -1.6028182580139287 2.0018608459711 2.050055466436567 -0.5200046160127103 1.1399895127138917
4.45551586151 0.1281095154090414 0.0443277910017027 -1.6028182580139287 2.0018608459711 2.050055466436567 -0.5200046160127103 1.1399895127138917
4.46562790871 0.1281095154090414 0.0443277910017027 -1.6028182580139287 2.0018608459711 2.050055466436567 -0.5200046160127103 1.1399895127138917
4.46562790871 0.1281095154090414 0.0443277910017027 -1.6028182580139287 2.0018608459711 2.050055466436567 -0.5200046160127103 1.1399895127138917
4.47548484802 0.1281095154090414 0.0443277910017027 -1.6028182580139287 2.0018608459711 2.050055466436567 -0.5200046160127103 1.1399895127138917
4.47548484802 0.1281095154090414 0.0443277910017027 -1.6028182580139287 2.0018608459711 2.050055466436567 -0.5200046160127103 1.1399895127138917
4.48567795753 0.1281095154090414 0.0443277910017027 -1.6028182580139287 2.0018608459711 2.050055466436567 -0.5200046160127103 1.1399895127138917
4.48567795753 0.1281095154090414 0.0443277910017027 -1.6028182580139287 2.0018608459711 2.050055466436567 -0.5200046160127103 1.1399895127138917
4.49569702148 0.1281095154090414 0.0443277910017027 -1.6028182580139287 2.0018608459711 2.050055466436567 -0.5200046160127103 1.1399895127138917
4.49569702148 0.1281095154090414 0.0443277910017027 -1.6028182580139287 2.0018608459711 2.050055466436567 -0.5200046160127103 1.1399895127138917
4.50571799278 0.1281095154090414 0.0443277910017027 -1.6028182580139287 2.0018608459711 2.050055466436567 -0.5200046160127103 1.1399895127138917
4.50571799278 0.1281095154090414 0.0443277910017027 -1.6028182580139287 2.0018608459711 2.050055466436567 -0.5200046160127103 1.1399895127138917
4.51571297646 0.1281095154090414 0.0443277910017027 -1.6028182580139287 2.0018608459711 2.050055466436567 -0.5200046160127103 1.1399895127138917
4.51571297646 0.1281095154090414 0.0443277910017027 -1.6028182580139287 2.0018608459711 2.050055466436567 -0.5200046160127103 1.1399895127138917
4.52569389343 0.1281095154090414 0.0443277910017027 -1.6028182580139287 2.0018608459711 2.050055466436567 -0.5200046160127103 1.1399895127138917
4.52569389343 0.1281095154090414 0.0443277910017027 -1.6028182580139287 2.0018608459711 2.050055466436567 -0.5200046160127103 1.1399895127138917
4.53570604324 0.1281095154090414 0.0443277910017027 -1.6028182580139287 2.0018608459711 2.050055466436567 -0.5200046160127103 1.1399895127138917
4.53570604324 0.1281095154090414 0.0443277910017027 -1.6028182580139287 2.0018608459711 2.050055466436567 -0.5200046160127103 1.1399895127138917
4.54573988914 0.1281095154090414 0.0443277910017027 -1.6028182580139287 2.0018608459711 2.050055466436567 -0.5200046160127103 1.1399895127138917
4.54573988914 0.1281095154090414 0.0443277910017027 -1.6028182580139287 2.0018608459711 2.050055466436567 -0.5200046160127103 1.1399895127138917
4.55563902855 0.1281095154090414 0.0443277910017027 -1.6028182580139287 2.0018608459711 2.050055466436567 -0.5200046160127103 1.1399895127138917
4.55563902855 0.1281095154090414 0.0443277910017027 -1.6028182580139287 2.0018608459711 2.050055466436567 -0.5200046160127103 1.1399895127138917
4.5656440258 0.1281095154090414 0.0443277910017027 -1.6028182580139287 2.0018608459711 2.050055466436567 -0.5200046160127103 1.1399895127138917
4.5656440258 0.1281095154090414 0.0443277910017027 -1.6028182580139287 2.0018608459711 2.050055466436567 -0.5200046160127103 1.1399895127138917
4.57565402985 0.1281095154090414 0.0443277910017027 -1.6028182580139287 2.0018608459711 2.050055466436567 -0.5200046160127103 1.1399895127138917
4.57565402985 0.1281095154090414 0.0443277910017027 -1.6028182580139287 2.0018608459711 2.050055466436567 -0.5200046160127103 1.1399895127138917
4.58555102348 0.1281095154090414 0.0443277910017027 -1.6028182580139287 2.0018608459711 2.050055466436567 -0.5200046160127103 1.1399895127138917
4.58555102348 0.1281095154090414 0.0443277910017027 -1.6028182580139287 2.0018608459711 2.050055466436567 -0.5200046160127103 1.1399895127138917
4.59571695328 0.1281095154090414 0.0443277910017027 -1.6028182580139287 2.0018608459711 2.050055466436567 -0.5200046160127103 1.1399895127138917
4.59571695328 0.1281095154090414 0.0443277910017027 -1.6028182580139287 2.0018608459711 2.050055466436567 -0.5200046160127103 1.1399895127138917
4.60572886467 0.1281095154090414 0.0443277910017027 -1.6028182580139287 2.0018608459711 2.050055466436567 -0.5200046160127103 1.1399895127138917
4.60572886467 0.1281095154090414 0.0443277910017027 -1.6028182580139287 2.0018608459711 2.050055466436567 -0.5200046160127103 1.1399895127138917
4.61552095413 0.1281095154090414 0.0443277910017027 -1.6028182580139287 2.0018608459711 2.050055466436567 -0.5200046160127103 1.1399895127138917
4.61552095413 0.1281095154090414 0.0443277910017027 -1.6028182580139287 2.0018608459711 2.050055466436567 -0.5200046160127103 1.1399895127138917
4.6257109642 0.1281095154090414 0.0443277910017027 -1.6028182580139287 2.0018608459711 2.050055466436567 -0.5200046160127103 1.1399895127138917
4.6257109642 0.1281095154090414 0.0443277910017027 -1.6028182580139287 2.0018608459711 2.050055466436567 -0.5200046160127103 1.1399895127138917
4.63572597504 0.1281095154090414 0.0443277910017027 -1.6028182580139287 2.0018608459711 2.050055466436567 -0.5200046160127103 1.1399895127138917
4.63572597504 0.1281095154090414 0.0443277910017027 -1.6028182580139287 2.0018608459711 2.050055466436567 -0.5200046160127103 1.1399895127138917
4.64571595192 0.1281095154090414 0.0443277910017027 -1.6028182580139287 2.0018608459711 2.050055466436567 -0.5200046160127103 1.1399895127138917
4.64571595192 0.1281095154090414 0.0443277910017027 -1.6028182580139287 2.0018608459711 2.050055466436567 -0.5200046160127103 1.1399895127138917
4.65575098991 0.1281095154090414 0.0443277910017027 -1.6028182580139287 2.0018608459711 2.050055466436567 -0.5200046160127103 1.1399895127138917
4.65575098991 0.1281095154090414 0.0443277910017027 -1.6028182580139287 2.0018608459711 2.050055466436567 -0.5200046160127103 1.1399895127138917
4.66572904587 0.1281095154090414 0.0443277910017027 -1.6028182580139287 2.0018608459711 2.050055466436567 -0.5200046160127103 1.1399895127138917
4.66572904587 0.1281095154090414 0.0443277910017027 -1.6028182580139287 2.0018608459711 2.050055466436567 -0.5200046160127103 1.1399895127138917
4.67572402954 0.1281095154090414 0.0443277910017027 -1.6028182580139287 2.0018608459711 2.050055466436567 -0.5200046160127103 1.1399895127138917
4.67572402954 0.1281095154090414 0.0443277910017027 -1.6028182580139287 2.0018608459711 2.050055466436567 -0.5200046160127103 1.1399895127138917
4.68574905396 0.1281095154090414 0.0443277910017027 -1.6028182580139287 2.0018608459711 2.050055466436567 -0.5200046160127103 1.1399895127138917
4.68574905396 0.1281095154090414 0.0443277910017027 -1.6028182580139287 2.0018608459711 2.050055466436567 -0.5200046160127103 1.1399895127138917
4.69561886787 0.1281095154090414 0.0443277910017027 -1.6028182580139287 2.0018608459711 2.050055466436567 -0.5200046160127103 1.1399895127138917
4.69561886787 0.1281095154090414 0.0443277910017027 -1.6028182580139287 2.0018608459711 2.050055466436567 -0.5200046160127103 1.1399895127138917
4.70564007759 0.1281095154090414 0.0443277910017027 -1.6028182580139287 2.0018608459711 2.050055466436567 -0.5200046160127103 1.1399895127138917
4.70564007759 0.1281095154090414 0.0443277910017027 -1.6028182580139287 2.0018608459711 2.050055466436567 -0.5200046160127103 1.1399895127138917
4.71580505371 0.1281095154090414 0.0443277910017027 -1.6028182580139287 2.0018608459711 2.050055466436567 -0.5200046160127103 1.1399895127138917
4.71580505371 0.1281095154090414 0.0443277910017027 -1.6028182580139287 2.0018608459711 2.050055466436567 -0.5200046160127103 1.1399895127138917
4.72569704056 0.1281095154090414 0.0443277910017027 -1.6028182580139287 2.0018608459711 2.050055466436567 -0.5200046160127103 1.1399895127138917
4.72569704056 0.1281095154090414 0.0443277910017027 -1.6028182580139287 2.0018608459711 2.050055466436567 -0.5200046160127103 1.1399895127138917
4.73571801186 0.1281095154090414 0.0443277910017027 -1.6028182580139287 2.0018608459711 2.050055466436567 -0.5200046160127103 1.1399895127138917
4.73571801186 0.1281095154090414 0.0443277910017027 -1.6028182580139287 2.0018608459711 2.050055466436567 -0.5200046160127103 1.1399895127138917
4.74576807022 0.1281095154090414 0.0443277910017027 -1.6028182580139287 2.0018608459711 2.050055466436567 -0.5200046160127103 1.1399895127138917
4.74576807022 0.1281095154090414 0.0443277910017027 -1.6028182580139287 2.0018608459711 2.050055466436567 -0.5200046160127103 1.1399895127138917
4.75573897362 0.1281095154090414 0.0443277910017027 -1.6028182580139287 2.0018608459711 2.050055466436567 -0.5200046160127103 1.1399895127138917
4.75573897362 0.1281095154090414 0.0443277910017027 -1.6028182580139287 2.0018608459711 2.050055466436567 -0.5200046160127103 1.1399895127138917
4.76557707787 0.1281095154090414 0.0443277910017027 -1.6028182580139287 2.0018608459711 2.050055466436567 -0.5200046160127103 1.1399895127138917
4.76557707787 0.1281095154090414 0.0443277910017027 -1.6028182580139287 2.0018608459711 2.050055466436567 -0.5200046160127103 1.1399895127138917
4.7756998539 0.1281095154090414 0.0443277910017027 -1.6028182580139287 2.0018608459711 2.050055466436567 -0.5200046160127103 1.1399895127138917
4.7756998539 0.1281095154090414 0.0443277910017027 -1.6028182580139287 2.0018608459711 2.050055466436567 -0.5200046160127103 1.1399895127138917
4.78572201729 0.1281095154090414 0.0443277910017027 -1.6028182580139287 2.0018608459711 2.050055466436567 -0.5200046160127103 1.1399895127138917
4.78572201729 0.1281095154090414 0.0443277910017027 -1.6028182580139287 2.0018608459711 2.050055466436567 -0.5200046160127103 1.1399895127138917
4.79563498497 0.1281095154090414 0.0443277910017027 -1.6028182580139287 2.0018608459711 2.050055466436567 -0.5200046160127103 1.1399895127138917
4.79563498497 0.1281095154090414 0.0443277910017027 -1.6028182580139287 2.0018608459711 2.050055466436567 -0.5200046160127103 1.1399895127138917
4.80570697784 0.1281095154090414 0.0443277910017027 -1.6028182580139287 2.0018608459711 2.050055466436567 -0.5200046160127103 1.1399895127138917
4.80570697784 0.1281095154090414 0.0443277910017027 -1.6028182580139287 2.0018608459711 2.050055466436567 -0.5200046160127103 1.1399895127138917
4.81546807289 0.1281095154090414 0.0443277910017027 -1.6028182580139287 2.0018608459711 2.050055466436567 -0.5200046160127103 1.1399895127138917
4.81546807289 0.1281095154090414 0.0443277910017027 -1.6028182580139287 2.0018608459711 2.050055466436567 -0.5200046160127103 1.1399895127138917
4.82569503784 0.1281095154090414 0.0443277910017027 -1.6028182580139287 2.0018608459711 2.050055466436567 -0.5200046160127103 1.1399895127138917
4.82569503784 0.1281095154090414 0.0443277910017027 -1.6028182580139287 2.0018608459711 2.050055466436567 -0.5200046160127103 1.1399895127138917
4.83572006226 0.1281095154090414 0.0443277910017027 -1.6028182580139287 2.0018608459711 2.050055466436567 -0.5200046160127103 1.1399895127138917
4.83572006226 0.1281095154090414 0.0443277910017027 -1.6028182580139287 2.0018608459711 2.050055466436567 -0.5200046160127103 1.1399895127138917
4.84562087059 0.1281095154090414 0.0443277910017027 -1.6028182580139287 2.0018608459711 2.050055466436567 -0.5200046160127103 1.1399895127138917
4.84562087059 0.1281095154090414 0.0443277910017027 -1.6028182580139287 2.0018608459711 2.050055466436567 -0.5200046160127103 1.1399895127138917
4.85573196411 0.1281095154090414 0.0443277910017027 -1.6028182580139287 2.0018608459711 2.050055466436567 -0.5200046160127103 1.1399895127138917
4.85573196411 0.1281095154090414 0.0443277910017027 -1.6028182580139287 2.0018608459711 2.050055466436567 -0.5200046160127103 1.1399895127138917
4.86550998688 0.1281095154090414 0.0443277910017027 -1.6028182580139287 2.0018608459711 2.050055466436567 -0.5200046160127103 1.1399895127138917
4.86550998688 0.1281095154090414 0.0443277910017027 -1.6028182580139287 2.0018608459711 2.050055466436567 -0.5200046160127103 1.1399895127138917
