riccardo-csl/Motion-Planning-for-TIAGo-Manipulator/T3_G_7/head_scan/head_scan/tiago_traiettorie_SG/3a-4b/place_4b_rep2.txt
time arm_1_joint arm_2_joint arm_3_joint arm_4_joint arm_5_joint arm_6_joint arm_7_joint
0.584728956223 0.0503816778904415 -0.2658472385278191 -1.1178744791555324 2.002259686266241 2.050091990113041 -0.5200046160127103 1.1399895127138917
0.594923019409 0.0503816778904415 -0.2658472385278191 -1.1178744791555324 2.002259686266241 2.050091990113041 -0.5200046160127103 1.1399895127138917
0.594923019409 0.0503816778904415 -0.2658472385278191 -1.1178744791555324 2.002259686266241 2.050091990113041 -0.5200046160127103 1.1399895127138917
0.604794025421 0.0503816778904415 -0.2658472385278191 -1.1178744791555324 2.002259686266241 2.050091990113041 -0.5200046160127103 1.1399895127138917
0.604794025421 0.0503816778904415 -0.2658472385278191 -1.1178744791555324 2.002259686266241 2.050091990113041 -0.5200046160127103 1.1399895127138917
0.614912033081 0.0503816778904415 -0.2658472385278191 -1.1178744791555324 2.002259686266241 2.050091990113041 -0.5200046160127103 1.1399895127138917
0.614912033081 0.0503816778904415 -0.2658472385278191 -1.1178744791555324 2.002259686266241 2.050091990113041 -0.5200046160127103 1.1399895127138917
0.624979972839 0.0503816778904415 -0.2658472385278191 -1.1178744791555324 2.002259686266241 2.050091990113041 -0.5200046160127103 1.1399895127138917
0.624979972839 0.0503816778904415 -0.2658472385278191 -1.1178744791555324 2.002259686266241 2.050091990113041 -0.5200046160127103 1.1399895127138917
0.634547948837 0.0503816778904415 -0.2658472385278191 -1.1178744791555324 2.002259686266241 2.050091990113041 -0.5200046160127103 1.1399895127138917
0.634547948837 0.0503816778904415 -0.2658472385278191 -1.1178744791555324 2.002259686266241 2.050091990113041 -0.5200046160127103 1.1399895127138917
0.644658088684 0.0503816778904415 -0.2658472385278191 -1.1178744791555324 2.002259686266241 2.050091990113041 -0.5200046160127103 1.1399895127138917
0.644658088684 0.0503816778904415 -0.2658472385278191 -1.1178744791555324 2.002259686266241 2.050091990113041 -0.5200046160127103 1.1399895127138917
0.65487408638 0.0503816778904415 -0.2658472385278191 -1.1178744791555324 2.002259686266241 2.050091990113041 -0.5200046160127103 1.1399895127138917
0.65487408638 0.0503816778904415 -0.2658472385278191 -1.1178744791555324 2.002259686266241 2.050091990113041 -0.5200046160127103 1.1399895127138917
0.664937019348 0.0503816778904415 -0.2658472385278191 -1.1178744791555324 2.002259686266241 2.050091990113041 -0.5200046160127103 1.1399895127138917
0.664937019348 0.0503816778904415 -0.2658472385278191 -1.1178744791555324 2.002259686266241 2.050091990113041 -0.5200046160127103 1.1399895127138917
0.6747610569 0.0503816778904415 -0.2658472385278191 -1.1178744791555324 2.002259686266241 2.050091990113041 -0.5200046160127103 1.1399895127138917
0.6747610569 0.0503816778904415 -0.2658472385278191 -1.1178744791555324 2.002259686266241 2.050091990113041 -0.5200046160127103 1.1399895127138917
0.684679031372 0.0503816778904415 -0.2658472385278191 -1.1178744791555324 2.002259686266241 2.050091990113041 -0.5200046160127103 1.1399895127138917
0.684679031372 0.0503816778904415 -0.2658472385278191 -1.1178744791555324 2.002259686266241 2.050091990113041 -0.5200046160127103 1.1399895127138917
0.694453954697 0.0503816778904415 -0.2658472385278191 -1.1178744791555324 2.002259686266241 2.050091990113041 -0.5200046160127103 1.1399895127138917
0.694453954697 0.0503816778904415 -0.2658472385278191 -1.1178744791555324 2.002259686266241 2.050091990113041 -0.5200046160127103 1.1399895127138917
0.704494953156 0.0503663378790899 -0.2658472385278191 -1.1178744791555324 2.00224434625489 2.050091990113041 -0.5200046160127103 1.1399895127138917
0.704494953156 0.0503663378790899 -0.2658472385278191 -1.1178744791555324 2.00224434625489 2.050091990113041 -0.5200046160127103 1.1399895127138917
0.71458697319 0.0503203178450352 -0.2658472385278191 -1.1178744791555324 2.0022290062435384 2.050091990113041 -0.5200046160127103 1.1399895127138917
0.71458697319 0.0503203178450352 -0.2658472385278191 -1.1178744791555324 2.0022290062435384 2.050091990113041 -0.5200046160127103 1.1399895127138917
0.72469997406 0.0503203178450352 -0.2658472385278191 -1.1178744791555324 2.0022290062435384 2.050091990113041 -0.5200046160127103 1.1399895127138917
0.72469997406 0.0503203178450352 -0.2658472385278191 -1.1178744791555324 2.0022290062435384 2.050091990113041 -0.5200046160127103 1.1399895127138917
0.734936952591 0.0501975977542223 -0.2658472385278191 -1.1178744791555324 2.002198326220835 2.050091990113041 -0.5200046160127103 1.1399895127138917
0.734936952591 0.0501975977542223 -0.2658472385278191 -1.1178744791555324 2.002198326220835 2.050091990113041 -0.5200046160127103 1.1399895127138917
0.744749069214 0.0501975977542223 -0.2658472385278191 -1.1178744791555324 2.002198326220835 2.050091990113041 -0.5200046160127103 1.1399895127138917
0.744749069214 0.0501975977542223 -0.2658472385278191 -1.1178744791555324 2.002198326220835 2.050091990113041 -0.5200046160127103 1.1399895127138917
0.754921913147 0.0500595376520578 -0.2658472385278191 -1.1178744791555324 2.0021829862094838 2.050091990113041 -0.5200046160127103 1.1399895127138917
0.754921913147 0.0500595376520578 -0.2658472385278191 -1.1178744791555324 2.0021829862094838 2.050091990113041 -0.5200046160127103 1.1399895127138917
0.764863967896 0.0500595376520578 -0.2658472385278191 -1.1178744791555324 2.0021829862094838 2.050091990113041 -0.5200046160127103 1.1399895127138917
0.764863967896 0.0500595376520578 -0.2658472385278191 -1.1178744791555324 2.0021829862094838 2.050091990113041 -0.5200046160127103 1.1399895127138917
0.774909973145 0.0500595376520578 -0.2658472385278191 -1.1178744791555324 2.0021829862094838 2.050091990113041 -0.5200046160127103 1.1399895127138917
0.774909973145 0.0500595376520578 -0.2658472385278191 -1.1178744791555324 2.0021829862094838 2.050091990113041 -0.5200046160127103 1.1399895127138917
0.784950017929 0.0500595376520578 -0.2658472385278191 -1.1178744791555324 2.0021829862094838 2.050091990113041 -0.5200046160127103 1.1399895127138917
0.784950017929 0.0500595376520578 -0.2658472385278191 -1.1178744791555324 2.0021829862094838 2.050091990113041 -0.5200046160127103 1.1399895127138917
0.794852018356 0.0500595376520578 -0.2658472385278191 -1.1178744791555324 2.0021829862094838 2.050091990113041 -0.5200046160127103 1.1399895127138917
0.794852018356 0.0500595376520578 -0.2658472385278191 -1.1178744791555324 2.0021829862094838 2.050091990113041 -0.5200046160127103 1.1399895127138917
0.80450797081 0.0499674975839481 -0.2658472385278191 -1.1178744791555324 2.0021829862094838 2.050091990113041 -0.5200046160127103 1.1399895127138917
0.80450797081 0.0499674975839481 -0.2658472385278191 -1.1178744791555324 2.0021829862094838 2.050091990113041 -0.5200046160127103 1.1399895127138917
0.81468296051 0.0499674975839481 -0.2658472385278191 -1.1178744791555324 2.0021829862094838 2.050091990113041 -0.5200046160127103 1.1399895127138917
0.81468296051 0.0499674975839481 -0.2658472385278191 -1.1178744791555324 2.0021829862094838 2.050091990113041 -0.5200046160127103 1.1399895127138917
0.824687004089 0.0499674975839481 -0.2658472385278191 -1.1178744791555324 2.0021829862094838 2.050091990113041 -0.5200046160127103 1.1399895127138917
0.824687004089 0.0499674975839481 -0.2658472385278191 -1.1178744791555324 2.0021829862094838 2.050091990113041 -0.5200046160127103 1.1399895127138917
0.834880113602 0.0499674975839481 -0.2658472385278191 -1.1178744791555324 2.0021829862094838 2.050091990113041 -0.5200046160127103 1.1399895127138917
0.834880113602 0.0499674975839481 -0.2658472385278191 -1.1178744791555324 2.0021829862094838 2.050091990113041 -0.5200046160127103 1.1399895127138917
0.844922065735 0.0499674975839481 -0.2658472385278191 -1.1178744791555324 2.0021829862094838 2.050091990113041 -0.5200046160127103 1.1399895127138917
0.844922065735 0.0499674975839481 -0.2658472385278191 -1.1178744791555324 2.0021829862094838 2.050091990113041 -0.5200046160127103 1.1399895127138917
0.854943990707 0.0499674975839481 -0.2658472385278191 -1.1178744791555324 2.0021829862094838 2.050091990113041 -0.5200046160127103 1.1399895127138917
0.854943990707 0.0499674975839481 -0.2658472385278191 -1.1178744791555324 2.0021829862094838 2.050091990113041 -0.5200046160127103 1.1399895127138917
0.864663124084 0.0499368175612448 -0.2658472385278191 -1.1178744791555324 2.0021829862094838 2.050091990113041 -0.5200046160127103 1.1399895127138917
0.864663124084 0.0499368175612448 -0.2658472385278191 -1.1178744791555324 2.0021829862094838 2.050091990113041 -0.5200046160127103 1.1399895127138917
0.874913930893 0.0499368175612448 -0.2658472385278191 -1.1178744791555324 2.0021829862094838 2.050091990113041 -0.5200046160127103 1.1399895127138917
0.874913930893 0.0499368175612448 -0.2658472385278191 -1.1178744791555324 2.0021829862094838 2.050091990113041 -0.5200046160127103 1.1399895127138917
0.884901046753 0.0499368175612448 -0.2658472385278191 -1.1178744791555324 2.0021829862094838 2.050091990113041 -0.5200046160127103 1.1399895127138917
0.884901046753 0.0499368175612448 -0.2658472385278191 -1.1178744791555324 2.0021829862094838 2.050091990113041 -0.5200046160127103 1.1399895127138917
0.894534111023 0.0499214775498934 -0.2658472385278191 -1.1178744791555324 2.0021829862094838 2.050091990113041 -0.5200046160127103 1.1399895127138917
0.894534111023 0.0499214775498934 -0.2658472385278191 -1.1178744791555324 2.0021829862094838 2.050091990113041 -0.5200046160127103 1.1399895127138917
0.904691934586 0.0499214775498934 -0.2658472385278191 -1.1178744791555324 2.0021829862094838 2.050091990113041 -0.5200046160127103 1.1399895127138917
0.904691934586 0.0499214775498934 -0.2658472385278191 -1.1178744791555324 2.0021829862094838 2.050091990113041 -0.5200046160127103 1.1399895127138917
0.914871931076 0.0499214775498934 -0.2658472385278191 -1.1178744791555324 2.0021829862094838 2.050091990113041 -0.5200046160127103 1.1399895127138917
0.914871931076 0.0499214775498934 -0.2658472385278191 -1.1178744791555324 2.0021829862094838 2.050091990113041 -0.5200046160127103 1.1399895127138917
0.924873113632 0.0499214775498934 -0.2658472385278191 -1.1178744791555324 2.0021829862094838 2.050091990113041 -0.5200046160127103 1.1399895127138917
0.924873113632 0.0499214775498934 -0.2658472385278191 -1.1178744791555324 2.0021829862094838 2.050091990113041 -0.5200046160127103 1.1399895127138917
0.934935092926 0.0499214775498934 -0.2658472385278191 -1.1178744791555324 2.0021829862094838 2.050091990113041 -0.5200046160127103 1.1399895127138917
0.934935092926 0.0499214775498934 -0.2658472385278191 -1.1178744791555324 2.0021829862094838 2.050091990113041 -0.5200046160127103 1.1399895127138917
0.944761991501 0.0499214775498934 -0.2658472385278191 -1.1178744791555324 2.0021829862094838 2.050091990113041 -0.5200046160127103 1.1399895127138917
0.944761991501 0.0499214775498934 -0.2658472385278191 -1.1178744791555324 2.0021829862094838 2.050091990113041 -0.5200046160127103 1.1399895127138917
0.95486497879 0.0499214775498934 -0.2658472385278191 -1.1178744791555324 2.0021829862094838 2.050091990113041 -0.5200046160127103 1.1399895127138917
0.95486497879 0.0499214775498934 -0.2658472385278191 -1.1178744791555324 2.0021829862094838 2.050091990113041 -0.5200046160127103 1.1399895127138917
0.964728116989 0.0499214775498934 -0.2658472385278191 -1.1178744791555324 2.0021829862094838 2.050091990113041 -0.5200046160127103 1.1399895127138917
0.964728116989 0.0499214775498934 -0.2658472385278191 -1.1178744791555324 2.0021829862094838 2.050091990113041 -0.5200046160127103 1.1399895127138917
0.974992990494 0.0499214775498934 -0.2658472385278191 -1.1178744791555324 2.0021829862094838 2.050091990113041 -0.5200046160127103 1.1399895127138917
0.974992990494 0.0499214775498934 -0.2658472385278191 -1.1178744791555324 2.0021829862094838 2.050091990113041 -0.5200046160127103 1.1399895127138917
0.984905958176 0.0499214775498934 -0.2658472385278191 -1.1178744791555324 2.0021829862094838 2.050091990113041 -0.5200046160127103 1.1399895127138917
0.984905958176 0.0499214775498934 -0.2658472385278191 -1.1178744791555324 2.0021829862094838 2.050091990113041 -0.5200046160127103 1.1399895127138917
0.995033025742 0.0499214775498934 -0.2658472385278191 -1.1178744791555324 2.0021829862094838 2.050091990113041 -0.5200046160127103 1.1399895127138917
0.995033025742 0.0499214775498934 -0.2658472385278191 -1.1178744791555324 2.0021829862094838 2.050091990113041 -0.5200046160127103 1.1399895127138917
1.00474500656 0.0499214775498934 -0.2658472385278191 -1.1178744791555324 2.0021829862094838 2.050091990113041 -0.5200046160127103 1.1399895127138917
1.00474500656 0.0499214775498934 -0.2658472385278191 -1.1178744791555324 2.0021829862094838 2.050091990113041 -0.5200046160127103 1.1399895127138917
1.01479911804 0.0499214775498934 -0.2658472385278191 -1.1178744791555324 2.0021829862094838 2.050091990113041 -0.5200046160127103 1.1399895127138917
1.01479911804 0.0499214775498934 -0.2658472385278191 -1.1178744791555324 2.0021829862094838 2.050091990113041 -0.5200046160127103 1.1399895127138917
1.02493190765 0.0499214775498934 -0.2658472385278191 -1.1178744791555324 2.0021829862094838 2.050091990113041 -0.5200046160127103 1.1399895127138917
1.02493190765 0.0499214775498934 -0.2658472385278191 -1.1178744791555324 2.0021829862094838 2.050091990113041 -0.5200046160127103 1.1399895127138917
1.03491902351 0.0499214775498934 -0.2658472385278191 -1.1178744791555324 2.0021829862094838 2.050091990113041 -0.5200046160127103 1.1399895127138917
1.03491902351 0.0499214775498934 -0.2658472385278191 -1.1178744791555324 2.0021829862094838 2.050091990113041 -0.5200046160127103 1.1399895127138917
1.04492807388 0.0499214775498934 -0.2658472385278191 -1.1178744791555324 2.0021829862094838 2.050091990113041 -0.5200046160127103 1.1399895127138917
1.04492807388 0.0499214775498934 -0.2658472385278191 -1.1178744791555324 2.0021829862094838 2.050091990113041 -0.5200046160127103 1.1399895127138917
1.05494213104 0.0499214775498934 -0.2658472385278191 -1.1178744791555324 2.0021829862094838 2.050091990113041 -0.5200046160127103 1.1399895127138917
1.05494213104 0.0499214775498934 -0.2658472385278191 -1.1178744791555324 2.0021829862094838 2.050091990113041 -0.5200046160127103 1.1399895127138917
1.06493997574 0.0499214775498934 -0.2658472385278191 -1.1178744791555324 2.0021829862094838 2.050091990113041 -0.5200046160127103 1.1399895127138917
1.06493997574 0.0499214775498934 -0.2658472385278191 -1.1178744791555324 2.0021829862094838 2.050091990113041 -0.5200046160127103 1.1399895127138917
1.07479500771 0.0499214775498934 -0.2658472385278191 -1.1178744791555324 2.0021829862094838 2.050091990113041 -0.5200046160127103 1.1399895127138917
1.07479500771 0.0499214775498934 -0.2658472385278191 -1.1178744791555324 2.0021829862094838 2.050091990113041 -0.5200046160127103 1.1399895127138917
1.08493208885 0.0499214775498934 -0.2658472385278191 -1.1178744791555324 2.0021829862094838 2.050091990113041 -0.5200046160127103 1.1399895127138917
1.08493208885 0.0499214775498934 -0.2658472385278191 -1.1178744791555324 2.0021829862094838 2.050091990113041 -0.5200046160127103 1.1399895127138917
1.09495091438 0.0499214775498934 -0.2658472385278191 -1.1178744791555324 2.0021829862094838 2.050091990113041 -0.5200046160127103 1.1399895127138917
1.09495091438 0.0499214775498934 -0.2658472385278191 -1.1178744791555324 2.0021829862094838 2.050091990113041 -0.5200046160127103 1.1399895127138917
1.10482501984 0.0499214775498934 -0.2658472385278191 -1.1178744791555324 2.0021829862094838 2.050091990113041 -0.5200046160127103 1.1399895127138917
1.10482501984 0.0499214775498934 -0.2658472385278191 -1.1178744791555324 2.0021829862094838 2.050091990113041 -0.5200046160127103 1.1399895127138917
1.11451506615 0.0499214775498934 -0.2658472385278191 -1.1178744791555324 2.0021829862094838 2.050091990113041 -0.5200046160127103 1.1399895127138917
1.11451506615 0.0499214775498934 -0.2658472385278191 -1.1178744791555324 2.0021829862094838 2.050091990113041 -0.5200046160127103 1.1399895127138917
1.12475204468 0.0499214775498934 -0.2658472385278191 -1.1178744791555324 2.0021829862094838 2.050091990113041 -0.5200046160127103 1.1399895127138917
1.12475204468 0.0499214775498934 -0.2658472385278191 -1.1178744791555324 2.0021829862094838 2.050091990113041 -0.5200046160127103 1.1399895127138917
1.13473391533 0.0499214775498934 -0.2658472385278191 -1.1178744791555324 2.0021829862094838 2.050091990113041 -0.5200046160127103 1.1399895127138917
1.13473391533 0.0499214775498934 -0.2658472385278191 -1.1178744791555324 2.0021829862094838 2.050091990113041 -0.5200046160127103 1.1399895127138917
1.14478898048 0.0499214775498934 -0.2658472385278191 -1.1178744791555324 2.0021829862094838 2.050091990113041 -0.5200046160127103 1.1399895127138917
1.14478898048 0.0499214775498934 -0.2658472385278191 -1.1178744791555324 2.0021829862094838 2.050091990113041 -0.5200046160127103 1.1399895127138917
1.15485692024 0.0499214775498934 -0.2658472385278191 -1.1178744791555324 2.0021829862094838 2.050091990113041 -0.5200046160127103 1.1399895127138917
1.15485692024 0.0499214775498934 -0.2658472385278191 -1.1178744791555324 2.0021829862094838 2.050091990113041 -0.5200046160127103 1.1399895127138917
1.16489911079 0.0499214775498934 -0.2658472385278191 -1.1178744791555324 2.0021829862094838 2.050091990113041 -0.5200046160127103 1.1399895127138917
1.16489911079 0.0499214775498934 -0.2658472385278191 -1.1178744791555324 2.0021829862094838 2.050091990113041 -0.5200046160127103 1.1399895127138917
1.17497611046 0.0499214775498934 -0.2658472385278191 -1.1178744791555324 2.0021829862094838 2.050091990113041 -0.5200046160127103 1.1399895127138917
1.17497611046 0.0499214775498934 -0.2658472385278191 -1.1178744791555324 2.0021829862094838 2.050091990113041 -0.5200046160127103 1.1399895127138917
1.18496203423 0.0499214775498934 -0.2658472385278191 -1.1178744791555324 2.0021829862094838 2.050091990113041 -0.5200046160127103 1.1399895127138917
1.18496203423 0.0499214775498934 -0.2658472385278191 -1.1178744791555324 2.0021829862094838 2.050091990113041 -0.5200046160127103 1.1399895127138917
1.19494795799 0.0499214775498934 -0.2658472385278191 -1.1178744791555324 2.0021829862094838 2.050091990113041 -0.5200046160127103 1.1399895127138917
1.19494795799 0.0499214775498934 -0.2658472385278191 -1.1178744791555324 2.0021829862094838 2.050091990113041 -0.5200046160127103 1.1399895127138917
1.20486712456 0.0499214775498934 -0.2658472385278191 -1.1178744791555324 2.0021829862094838 2.050091990113041 -0.5200046160127103 1.1399895127138917
1.20486712456 0.0499214775498934 -0.2658472385278191 -1.1178744791555324 2.0021829862094838 2.050091990113041 -0.5200046160127103 1.1399895127138917
1.21494293213 0.0499214775498934 -0.2658472385278191 -1.1178744791555324 2.0021829862094838 2.050091990113041 -0.5200046160127103 1.1399895127138917
1.21494293213 0.0499214775498934 -0.2658472385278191 -1.1178744791555324 2.0021829862094838 2.050091990113041 -0.5200046160127103 1.1399895127138917
1.22590994835 0.0499214775499 -0.265847238528 -1.11787447916 2.00218298621 2.05009199011 -0.520004616013 1.13998951271
1.22590994835 0.0499214775499 -0.265847238528 -1.11787447916 2.00218298621 2.05009199011 -0.520004616013 1.13998951271
1.23455309868 0.0499214775498934 -0.2658472385278191 -1.1178744791555324 2.0021829862094838 2.050091990113041 -0.5200046160127103 1.1399895127138917
1.23455309868 0.0499214775498934 -0.2658472385278191 -1.1178744791555324 2.0021829862094838 2.050091990113041 -0.5200046160127103 1.1399895127138917
1.24464893341 0.0499214775498934 -0.2658472385278191 -1.1178744791555324 2.0021829862094838 2.050091990113041 -0.5200046160127103 1.1399895127138917
1.24464893341 0.0499214775498934 -0.2658472385278191 -1.1178744791555324 2.0021829862094838 2.050091990113041 -0.5200046160127103 1.1399895127138917
1.25472903252 0.0499368175612448 -0.2658472385278191 -1.1178744791555324 2.0021829862094838 2.050091990113041 -0.5200046160127103 1.1399895127138917
1.25472903252 0.0499368175612448 -0.2658472385278191 -1.1178744791555324 2.0021829862094838 2.050091990113041 -0.5200046160127103 1.1399895127138917
1.26456904411 0.0499521575725964 -0.2658472385278191 -1.1178744791555324 2.00215230618678 2.050091990113041 -0.5200046160127103 1.1399895127138917
1.26456904411 0.0499521575725964 -0.2658472385278191 -1.1178744791555324 2.00215230618678 2.050091990113041 -0.5200046160127103 1.1399895127138917
1.27464008331 0.0499521575725964 -0.2658472385278191 -1.1178744791555324 2.00215230618678 2.050091990113041 -0.5200046160127103 1.1399895127138917
1.27464008331 0.0499521575725964 -0.2658472385278191 -1.1178744791555324 2.00215230618678 2.050091990113041 -0.5200046160127103 1.1399895127138917
1.28498291969 0.0499521575725964 -0.2658472385278191 -1.1178744791555324 2.00215230618678 2.050091990113041 -0.5200046160127103 1.1399895127138917
1.28498291969 0.0499521575725964 -0.2658472385278191 -1.1178744791555324 2.00215230618678 2.050091990113041 -0.5200046160127103 1.1399895127138917
1.29503011703 0.0499521575725964 -0.2658472385278191 -1.1178591391441808 2.0020602661186704 2.050091990113041 -0.5200046160127103 1.1399895127138917
1.29503011703 0.0499521575725964 -0.2658472385278191 -1.1178591391441808 2.0020602661186704 2.050091990113041 -0.5200046160127103 1.1399895127138917
1.30474710464 0.0499521575725964 -0.2658472385278191 -1.1178591391441808 2.0020602661186704 2.050091990113041 -0.5200046160127103 1.1399895127138917
1.30474710464 0.0499521575725964 -0.2658472385278191 -1.1178591391441808 2.0020602661186704 2.050091990113041 -0.5200046160127103 1.1399895127138917
1.31472396851 0.0499521575725964 -0.2658472385278191 -1.1178591391441808 2.0020602661186704 2.050091990113041 -0.5200046160127103 1.1399895127138917
1.31472396851 0.0499521575725964 -0.2658472385278191 -1.1178591391441808 2.0020602661186704 2.050091990113041 -0.5200046160127103 1.1399895127138917
1.32469010353 0.0499521575725964 -0.2658472385278191 -1.1178591391441808 2.0020602661186704 2.050091990113041 -0.5200046160127103 1.1399895127138917
1.32469010353 0.0499521575725964 -0.2658472385278191 -1.1178591391441808 2.0020602661186704 2.050091990113041 -0.5200046160127103 1.1399895127138917
1.33489608765 0.0499521575725964 -0.2658472385278191 -1.1178591391441808 2.0020602661186704 2.050091990113041 -0.5200046160127103 1.1399895127138917
1.33489608765 0.0499521575725964 -0.2658472385278191 -1.1178591391441808 2.0020602661186704 2.050091990113041 -0.5200046160127103 1.1399895127138917
1.34490990639 0.0499521575725964 -0.2658472385278191 -1.1178591391441808 2.0020602661186704 2.050091990113041 -0.5200046160127103 1.1399895127138917
1.34490990639 0.0499521575725964 -0.2658472385278191 -1.1178591391441808 2.0020602661186704 2.050091990113041 -0.5200046160127103 1.1399895127138917
1.35494995117 0.0499521575725964 -0.2658472385278191 -1.1178591391441808 2.0020602661186704 2.050091990113041 -0.5200046160127103 1.1399895127138917
1.35494995117 0.0499521575725964 -0.2658472385278191 -1.1178591391441808 2.0020602661186704 2.050091990113041 -0.5200046160127103 1.1399895127138917
1.36491513252 0.0499521575725964 -0.2658472385278191 -1.1178591391441808 2.0020602661186704 2.050091990113041 -0.5200046160127103 1.1399895127138917
1.36491513252 0.0499521575725964 -0.2658472385278191 -1.1178591391441808 2.0020602661186704 2.050091990113041 -0.5200046160127103 1.1399895127138917
1.37489104271 0.0499521575725964 -0.2658472385278191 -1.1178591391441808 2.0020602661186704 2.050091990113041 -0.5200046160127103 1.1399895127138917
1.37489104271 0.0499521575725964 -0.2658472385278191 -1.1178591391441808 2.0020602661186704 2.050091990113041 -0.5200046160127103 1.1399895127138917
1.38496112823 0.0499521575725964 -0.2658472385278191 -1.1178591391441808 2.0020602661186704 2.050091990113041 -0.5200046160127103 1.1399895127138917
1.38496112823 0.0499521575725964 -0.2658472385278191 -1.1178591391441808 2.0020602661186704 2.050091990113041 -0.5200046160127103 1.1399895127138917
1.39492797852 0.0499521575725964 -0.2658472385278191 -1.1178591391441808 2.0020602661186704 2.050091990113041 -0.5200046160127103 1.1399895127138917
1.39492797852 0.0499521575725964 -0.2658472385278191 -1.1178591391441808 2.0020602661186704 2.050091990113041 -0.5200046160127103 1.1399895127138917
1.40494894981 0.0499521575725964 -0.2658472385278191 -1.1178591391441808 2.0020602661186704 2.050091990113041 -0.5200046160127103 1.1399895127138917
1.40494894981 0.0499521575725964 -0.2658472385278191 -1.1178591391441808 2.0020602661186704 2.050091990113041 -0.5200046160127103 1.1399895127138917
1.41482210159 0.0499521575725964 -0.2658472385278191 -1.1178591391441808 2.0020602661186704 2.050091990113041 -0.5200046160127103 1.1399895127138917
1.41482210159 0.0499521575725964 -0.2658472385278191 -1.1178591391441808 2.0020602661186704 2.050091990113041 -0.5200046160127103 1.1399895127138917
1.42489695549 0.0499521575725964 -0.2658472385278191 -1.1178591391441808 2.0020602661186704 2.050091990113041 -0.5200046160127103 1.1399895127138917
1.42489695549 0.0499521575725964 -0.2658472385278191 -1.1178591391441808 2.0020602661186704 2.050091990113041 -0.5200046160127103 1.1399895127138917
1.43493890762 0.0499521575725964 -0.2658472385278191 -1.1178591391441808 2.0020602661186704 2.050091990113041 -0.5200046160127103 1.1399895127138917
1.43493890762 0.0499521575725964 -0.2658472385278191 -1.1178591391441808 2.0020602661186704 2.050091990113041 -0.5200046160127103 1.1399895127138917
1.44485712051 0.0499521575725964 -0.2658472385278191 -1.1178591391441808 2.0020602661186704 2.050091990113041 -0.5200046160127103 1.1399895127138917
1.44485712051 0.0499521575725964 -0.2658472385278191 -1.1178591391441808 2.0020602661186704 2.050091990113041 -0.5200046160127103 1.1399895127138917
1.45495390892 0.0499521575725964 -0.2658472385278191 -1.1178591391441808 2.0020602661186704 2.050091990113041 -0.5200046160127103 1.1399895127138917
1.45495390892 0.0499521575725964 -0.2658472385278191 -1.1178591391441808 2.0020602661186704 2.050091990113041 -0.5200046160127103 1.1399895127138917
1.46492195129 0.0499521575725964 -0.2658472385278191 -1.1178591391441808 2.0020602661186704 2.050091990113041 -0.5200046160127103 1.1399895127138917
1.46492195129 0.0499521575725964 -0.2658472385278191 -1.1178591391441808 2.0020602661186704 2.050091990113041 -0.5200046160127103 1.1399895127138917
1.47476792336 0.0499521575725964 -0.2658472385278191 -1.1178591391441808 2.0020602661186704 2.050091990113041 -0.5200046160127103 1.1399895127138917
1.47476792336 0.0499521575725964 -0.2658472385278191 -1.1178591391441808 2.0020602661186704 2.050091990113041 -0.5200046160127103 1.1399895127138917
1.48491501808 0.0499521575725964 -0.2658472385278191 -1.1178591391441808 2.0020602661186704 2.050091990113041 -0.5200046160127103 1.1399895127138917
1.48491501808 0.0499521575725964 -0.2658472385278191 -1.1178591391441808 2.0020602661186704 2.050091990113041 -0.5200046160127103 1.1399895127138917
1.49487400055 0.0499521575725964 -0.2658472385278191 -1.1178591391441808 2.0020602661186704 2.050091990113041 -0.5200046160127103 1.1399895127138917
1.49487400055 0.0499521575725964 -0.2658472385278191 -1.1178591391441808 2.0020602661186704 2.050091990113041 -0.5200046160127103 1.1399895127138917
1.50497698784 0.0499521575725964 -0.2658472385278191 -1.1178591391441808 2.0020602661186704 2.050091990113041 -0.5200046160127103 1.1399895127138917
1.50497698784 0.0499521575725964 -0.2658472385278191 -1.1178591391441808 2.0020602661186704 2.050091990113041 -0.5200046160127103 1.1399895127138917
1.51494503021 0.0499521575725964 -0.2658472385278191 -1.1178591391441808 2.0020602661186704 2.050091990113041 -0.5200046160127103 1.1399895127138917
1.51494503021 0.0499521575725964 -0.2658472385278191 -1.1178591391441808 2.0020602661186704 2.050091990113041 -0.5200046160127103 1.1399895127138917
1.52490901947 0.0499521575725964 -0.2658472385278191 -1.1178591391441808 2.0020602661186704 2.050091990113041 -0.5200046160127103 1.1399895127138917
1.52490901947 0.0499521575725964 -0.2658472385278191 -1.1178591391441808 2.0020602661186704 2.050091990113041 -0.5200046160127103 1.1399895127138917
1.53494405746 0.0499521575725964 -0.2658472385278191 -1.1178591391441808 2.0020602661186704 2.050091990113041 -0.5200046160127103 1.1399895127138917
1.53494405746 0.0499521575725964 -0.2658472385278191 -1.1178591391441808 2.0020602661186704 2.050091990113041 -0.5200046160127103 1.1399895127138917
1.54493999481 0.0499521575725964 -0.2658472385278191 -1.1178591391441808 2.0020602661186704 2.050091990113041 -0.5200046160127103 1.1399895127138917
1.54493999481 0.0499521575725964 -0.2658472385278191 -1.1178591391441808 2.0020602661186704 2.050091990113041 -0.5200046160127103 1.1399895127138917
1.5550069809 0.0499521575725964 -0.2658472385278191 -1.1178591391441808 2.0020602661186704 2.050091990113041 -0.5200046160127103 1.1399895127138917
1.5550069809 0.0499521575725964 -0.2658472385278191 -1.1178591391441808 2.0020602661186704 2.050091990113041 -0.5200046160127103 1.1399895127138917
1.56497907639 0.0499521575725964 -0.2658472385278191 -1.1178591391441808 2.0020602661186704 2.050091990113041 -0.5200046160127103 1.1399895127138917
1.56497907639 0.0499521575725964 -0.2658472385278191 -1.1178591391441808 2.0020602661186704 2.050091990113041 -0.5200046160127103 1.1399895127138917
1.57499694824 0.0499521575725964 -0.2658472385278191 -1.1178591391441808 2.0020602661186704 2.050091990113041 -0.5200046160127103 1.1399895127138917
1.57499694824 0.0499521575725964 -0.2658472385278191 -1.1178591391441808 2.0020602661186704 2.050091990113041 -0.5200046160127103 1.1399895127138917
1.58493804932 0.0499521575725964 -0.2658472385278191 -1.1178591391441808 2.0020602661186704 2.050091990113041 -0.5200046160127103 1.1399895127138917
1.58493804932 0.0499521575725964 -0.2658472385278191 -1.1178591391441808 2.0020602661186704 2.050091990113041 -0.5200046160127103 1.1399895127138917
1.59491896629 0.0499521575726 -0.265847238528 -1.11784379913 2.00098646532 2.04996415725 -0.520004616013 1.13998951271
1.59491896629 0.050535078004 -0.265847238528 -1.11781311911 2.00057228502 2.04990937173 -0.520004616013 1.13998951271
1.60451698303 0.0509645983218027 -0.2658472385278191 -1.11718417864471 2.0005722850175647 2.0499093717306742 -0.5200046160127103 1.1399895127138917
1.60451698303 0.0509645983218027 -0.2658472385278191 -1.11718417864471 2.0005722850175647 2.0499093717306742 -0.5200046160127103 1.1399895127138917
1.61470293999 0.0509645983218027 -0.2658472385278191 -1.11718417864471 2.0005722850175647 2.0499093717306742 -0.5200046160127103 1.1399895127138917
1.61470293999 0.0509645983218027 -0.2658472385278191 -1.11718417864471 2.0005722850175647 2.0499093717306742 -0.5200046160127103 1.1399895127138917
1.62482213974 0.0509645983218027 -0.2658472385278191 -1.11718417864471 2.0005722850175647 2.0499093717306742 -0.5200046160127103 1.1399895127138917
1.62482213974 0.0509645983218027 -0.2658472385278191 -1.11718417864471 2.0005722850175647 2.0499093717306742 -0.5200046160127103 1.1399895127138917
1.63475203514 0.0509645983218027 -0.2658472385278191 -1.11718417864471 2.0005722850175647 2.0499093717306742 -0.5200046160127103 1.1399895127138917
1.63475203514 0.0509645983218027 -0.2658472385278191 -1.11718417864471 2.0005722850175647 2.0499093717306742 -0.5200046160127103 1.1399895127138917
1.64489793777 0.0509645983218027 -0.2658472385278191 -1.11718417864471 2.0005722850175647 2.0499093717306742 -0.5200046160127103 1.1399895127138917
1.64489793777 0.0509645983218027 -0.2658472385278191 -1.11718417864471 2.0005722850175647 2.0499093717306742 -0.5200046160127103 1.1399895127138917
1.65490794182 0.0509645983218027 -0.2658472385278191 -1.11718417864471 2.0005722850175647 2.0499093717306742 -0.5200046160127103 1.1399895127138917
1.65490794182 0.0509645983218027 -0.2658472385278191 -1.11718417864471 2.0005722850175647 2.0499093717306742 -0.5200046160127103 1.1399895127138917
1.66479992867 0.0509645983218027 -0.2658472385278191 -1.11718417864471 2.0005722850175647 2.0499093717306742 -0.5200046160127103 1.1399895127138917
1.66479992867 0.0509645983218027 -0.2658472385278191 -1.11718417864471 2.0005722850175647 2.0499093717306742 -0.5200046160127103 1.1399895127138917
1.67488408089 0.0509645983218027 -0.2658472385278191 -1.11718417864471 2.0005722850175647 2.0499093717306742 -0.5200046160127103 1.1399895127138917
1.67488408089 0.0509645983218027 -0.2658472385278191 -1.11718417864471 2.0005722850175647 2.0499093717306742 -0.5200046160127103 1.1399895127138917
1.68489909172 0.0509645983218027 -0.2658472385278191 -1.11718417864471 2.0005722850175647 2.0499093717306742 -0.5200046160127103 1.1399895127138917
1.68489909172 0.0509645983218027 -0.2658472385278191 -1.11718417864471 2.0005722850175647 2.0499093717306742 -0.5200046160127103 1.1399895127138917
1.6947479248 0.0509645983218027 -0.2658472385278191 -1.11718417864471 2.0005722850175647 2.0499093717306742 -0.5200046160127103 1.1399895127138917
1.6947479248 0.0509645983218027 -0.2658472385278191 -1.11718417864471 2.0005722850175647 2.0499093717306742 -0.5200046160127103 1.1399895127138917
1.70493006706 0.0509645983218027 -0.2658472385278191 -1.11718417864471 2.0005722850175647 2.0499093717306742 -0.5200046160127103 1.1399895127138917
1.70493006706 0.0509645983218027 -0.2658472385278191 -1.11718417864471 2.0005722850175647 2.0499093717306742 -0.5200046160127103 1.1399895127138917
1.71495509148 0.0509645983218027 -0.2658472385278191 -1.11718417864471 2.0005722850175647 2.0499093717306742 -0.5200046160127103 1.1399895127138917
1.71495509148 0.0509645983218027 -0.2658472385278191 -1.11718417864471 2.0005722850175647 2.0499093717306742 -0.5200046160127103 1.1399895127138917
1.72480106354 0.0509645983218027 -0.2658472385278191 -1.11718417864471 2.0005722850175647 2.0499093717306742 -0.5200046160127103 1.1399895127138917
1.72480106354 0.0509645983218027 -0.2658472385278191 -1.11718417864471 2.0005722850175647 2.0499093717306742 -0.5200046160127103 1.1399895127138917
1.73495292664 0.0509645983218027 -0.2658472385278191 -1.11718417864471 2.0005722850175647 2.0499093717306742 -0.5200046160127103 1.1399895127138917
1.73495292664 0.0509645983218027 -0.2658472385278191 -1.11718417864471 2.0005722850175647 2.0499093717306742 -0.5200046160127103 1.1399895127138917
1.74488902092 0.0509645983218027 -0.2658472385278191 -1.11718417864471 2.0005722850175647 2.0499093717306742 -0.5200046160127103 1.1399895127138917
1.74488902092 0.0509645983218027 -0.2658472385278191 -1.11718417864471 2.0005722850175647 2.0499093717306742 -0.5200046160127103 1.1399895127138917
1.75477910042 0.0509645983218027 -0.2658472385278191 -1.11718417864471 2.0005722850175647 2.0499093717306742 -0.5200046160127103 1.1399895127138917
1.75477910042 0.0509645983218027 -0.2658472385278191 -1.11718417864471 2.0005722850175647 2.0499093717306742 -0.5200046160127103 1.1399895127138917
1.76495909691 0.0509645983218027 -0.2658472385278191 -1.11718417864471 2.0005722850175647 2.0499093717306742 -0.5200046160127103 1.1399895127138917
1.76495909691 0.0509645983218027 -0.2658472385278191 -1.11718417864471 2.0005722850175647 2.0499093717306742 -0.5200046160127103 1.1399895127138917
1.77475595474 0.0509645983218027 -0.2658472385278191 -1.11718417864471 2.0005722850175647 2.0499093717306742 -0.5200046160127103 1.1399895127138917
1.77475595474 0.0509645983218027 -0.2658472385278191 -1.11718417864471 2.0005722850175647 2.0499093717306742 -0.5200046160127103 1.1399895127138917
1.78491806984 0.0509645983218027 -0.2658472385278191 -1.11718417864471 2.0005722850175647 2.0499093717306742 -0.5200046160127103 1.1399895127138917
1.78491806984 0.0509645983218027 -0.2658472385278191 -1.11718417864471 2.0005722850175647 2.0499093717306742 -0.5200046160127103 1.1399895127138917
1.7947280407 0.0509645983218027 -0.2658472385278191 -1.11718417864471 2.0005722850175647 2.0499093717306742 -0.5200046160127103 1.1399895127138917
1.7947280407 0.0509645983218027 -0.2658472385278191 -1.11718417864471 2.0005722850175647 2.0499093717306742 -0.5200046160127103 1.1399895127138917
1.80489492416 0.0509645983218027 -0.2658472385278191 -1.11718417864471 2.0005722850175647 2.0499093717306742 -0.5200046160127103 1.1399895127138917
1.80489492416 0.0509645983218027 -0.2658472385278191 -1.11718417864471 2.0005722850175647 2.0499093717306742 -0.5200046160127103 1.1399895127138917
1.81491494179 0.0509645983218027 -0.2658472385278191 -1.11718417864471 2.0005722850175647 2.0499093717306742 -0.5200046160127103 1.1399895127138917
1.81491494179 0.0509645983218027 -0.2658472385278191 -1.11718417864471 2.0005722850175647 2.0499093717306742 -0.5200046160127103 1.1399895127138917
1.82487201691 0.0509645983218027 -0.2658472385278191 -1.11718417864471 2.0005722850175647 2.0499093717306742 -0.5200046160127103 1.1399895127138917
1.82487201691 0.0509645983218027 -0.2658472385278191 -1.11718417864471 2.0005722850175647 2.0499093717306742 -0.5200046160127103 1.1399895127138917
1.83490896225 0.0509645983218027 -0.2658472385278191 -1.11718417864471 2.0005722850175647 2.0499093717306742 -0.5200046160127103 1.1399895127138917
1.83490896225 0.0509645983218027 -0.2658472385278191 -1.11718417864471 2.0005722850175647 2.0499093717306742 -0.5200046160127103 1.1399895127138917
1.84490394592 0.0509645983218027 -0.2658472385278191 -1.11718417864471 2.0005722850175647 2.0499093717306742 -0.5200046160127103 1.1399895127138917
1.84490394592 0.0509645983218027 -0.2658472385278191 -1.11718417864471 2.0005722850175647 2.0499093717306742 -0.5200046160127103 1.1399895127138917
1.85491108894 0.0509645983218027 -0.2658472385278191 -1.11718417864471 2.0005722850175647 2.0499093717306742 -0.5200046160127103 1.1399895127138917
1.85491108894 0.0509645983218027 -0.2658472385278191 -1.11718417864471 2.0005722850175647 2.0499093717306742 -0.5200046160127103 1.1399895127138917
1.86491799355 0.0509645983218027 -0.2658472385278191 -1.11718417864471 2.0005722850175647 2.0499093717306742 -0.5200046160127103 1.1399895127138917
1.86491799355 0.0509645983218027 -0.2658472385278191 -1.11718417864471 2.0005722850175647 2.0499093717306742 -0.5200046160127103 1.1399895127138917
1.87480092049 0.0509645983218027 -0.2658472385278191 -1.11718417864471 2.0005722850175647 2.0499093717306742 -0.5200046160127103 1.1399895127138917
1.87480092049 0.0509645983218027 -0.2658472385278191 -1.11718417864471 2.0005722850175647 2.0499093717306742 -0.5200046160127103 1.1399895127138917
1.88476395607 0.0509645983218027 -0.2658472385278191 -1.11718417864471 2.0005722850175647 2.0499093717306742 -0.5200046160127103 1.1399895127138917
1.88476395607 0.0509645983218027 -0.2658472385278191 -1.11718417864471 2.0005722850175647 2.0499093717306742 -0.5200046160127103 1.1399895127138917
1.89493393898 0.0509645983218027 -0.2658472385278191 -1.11718417864471 2.0005722850175647 2.0499093717306742 -0.5200046160127103 1.1399895127138917
1.89493393898 0.0509645983218027 -0.2658472385278191 -1.11718417864471 2.0005722850175647 2.0499093717306742 -0.5200046160127103 1.1399895127138917
1.90492105484 0.0509645983218027 -0.2658472385278191 -1.11718417864471 2.0005722850175647 2.0499093717306742 -0.5200046160127103 1.1399895127138917
1.90492105484 0.0509645983218027 -0.2658472385278191 -1.11718417864471 2.0005722850175647 2.0499093717306742 -0.5200046160127103 1.1399895127138917
1.91472411156 0.0509645983218027 -0.2658472385278191 -1.11718417864471 2.0005722850175647 2.0499093717306742 -0.5200046160127103 1.1399895127138917
1.91472411156 0.0509645983218027 -0.2658472385278191 -1.11718417864471 2.0005722850175647 2.0499093717306742 -0.5200046160127103 1.1399895127138917
1.92483305931 0.0509645983218027 -0.2658472385278191 -1.11718417864471 2.0005722850175647 2.0499093717306742 -0.5200046160127103 1.1399895127138917
1.92483305931 0.0509645983218027 -0.2658472385278191 -1.11718417864471 2.0005722850175647 2.0499093717306742 -0.5200046160127103 1.1399895127138917
1.93493008614 0.0509645983218027 -0.2658472385278191 -1.11718417864471 2.0005722850175647 2.0499093717306742 -0.5200046160127103 1.1399895127138917
1.93493008614 0.0509645983218027 -0.2658472385278191 -1.11718417864471 2.0005722850175647 2.0499093717306742 -0.5200046160127103 1.1399895127138917
1.94489002228 0.0509645983218027 -0.2658472385278191 -1.11718417864471 2.0005722850175647 2.0499093717306742 -0.5200046160127103 1.1399895127138917
1.94489002228 0.0509645983218027 -0.2658472385278191 -1.11718417864471 2.0005722850175647 2.0499093717306742 -0.5200046160127103 1.1399895127138917
1.95492005348 0.0509645983218027 -0.2658472385278191 -1.11718417864471 2.0005722850175647 2.0499093717306742 -0.5200046160127103 1.1399895127138917
1.95492005348 0.0509645983218027 -0.2658472385278191 -1.11718417864471 2.0005722850175647 2.0499093717306742 -0.5200046160127103 1.1399895127138917
1.9649541378 0.0509645983218027 -0.2658472385278191 -1.11718417864471 2.0005722850175647 2.0499093717306742 -0.5200046160127103 1.1399895127138917
1.9649541378 0.0509645983218027 -0.2658472385278191 -1.11718417864471 2.0005722850175647 2.0499093717306742 -0.5200046160127103 1.1399895127138917
1.97497200966 0.0509645983218027 -0.2658472385278191 -1.11718417864471 2.0005722850175647 2.0499093717306742 -0.5200046160127103 1.1399895127138917
1.97497200966 0.0509645983218027 -0.2658472385278191 -1.11718417864471 2.0005722850175647 2.0499093717306742 -0.5200046160127103 1.1399895127138917
1.98497605324 0.0511179984353189 -0.2658472385278191 -1.1163404780203714 2.0005722850175647 2.049955026326266 -0.5200046160127103 1.1399895127138917
1.98497605324 0.0511179984353189 -0.2658472385278191 -1.1163404780203714 2.0005722850175647 2.049955026326266 -0.5200046160127103 1.1399895127138917
1.9949400425 0.05122537851478 -0.2658472385278191 -1.113533255943027 2.0005722850175647 2.049936764488029 -0.5200046160127103 1.1399895127138917
1.9949400425 0.05122537851478 -0.2658472385278191 -1.113533255943027 2.0005722850175647 2.049936764488029 -0.5200046160127103 1.1399895127138917
2.00508499146 0.05122537851478 -0.2658472385278191 -1.113533255943027 2.0005722850175647 2.049936764488029 -0.5200046160127103 1.1399895127138917
2.00508499146 0.05122537851478 -0.2658472385278191 -1.113533255943027 2.0005722850175647 2.049936764488029 -0.5200046160127103 1.1399895127138917
2.01485395432 0.05122537851478 -0.2658472385278191 -1.113533255943027 2.0005722850175647 2.049936764488029 -0.5200046160127103 1.1399895127138917
2.01485395432 0.05122537851478 -0.2658472385278191 -1.113533255943027 2.0005722850175647 2.049936764488029 -0.5200046160127103 1.1399895127138917
2.02491903305 0.05122537851478 -0.2658472385278191 -1.113533255943027 2.0005722850175647 2.049936764488029 -0.5200046160127103 1.1399895127138917
2.02491903305 0.05122537851478 -0.2658472385278191 -1.113533255943027 2.0005722850175647 2.049936764488029 -0.5200046160127103 1.1399895127138917
2.03493213654 0.05122537851478 -0.2658472385278191 -1.113533255943027 2.0005722850175647 2.049936764488029 -0.5200046160127103 1.1399895127138917
2.03493213654 0.05122537851478 -0.2658472385278191 -1.113533255943027 2.0005722850175647 2.049936764488029 -0.5200046160127103 1.1399895127138917
2.04494905472 0.05122537851478 -0.2658472385278191 -1.113533255943027 2.0005722850175647 2.049936764488029 -0.5200046160127103 1.1399895127138917
2.04494905472 0.05122537851478 -0.2658472385278191 -1.113533255943027 2.0005722850175647 2.049936764488029 -0.5200046160127103 1.1399895127138917
2.05493807793 0.05122537851478 -0.2658472385278191 -1.113533255943027 2.0005722850175647 2.049936764488029 -0.5200046160127103 1.1399895127138917
2.05493807793 0.05122537851478 -0.2658472385278191 -1.113533255943027 2.0005722850175647 2.049936764488029 -0.5200046160127103 1.1399895127138917
2.06473898888 0.05122537851478 -0.2658472385278191 -1.113533255943027 2.0005722850175647 2.049936764488029 -0.5200046160127103 1.1399895127138917
2.06473898888 0.05122537851478 -0.2658472385278191 -1.113533255943027 2.0005722850175647 2.049936764488029 -0.5200046160127103 1.1399895127138917
2.0749270916 0.05122537851478 -0.2658472385278191 -1.113533255943027 2.0005722850175647 2.049936764488029 -0.5200046160127103 1.1399895127138917
2.0749270916 0.05122537851478 -0.2658472385278191 -1.113533255943027 2.0005722850175647 2.049936764488029 -0.5200046160127103 1.1399895127138917
2.0849571228 0.05122537851478 -0.2658472385278191 -1.113533255943027 2.0005722850175647 2.049936764488029 -0.5200046160127103 1.1399895127138917
2.0849571228 0.05122537851478 -0.2658472385278191 -1.113533255943027 2.0005722850175647 2.049936764488029 -0.5200046160127103 1.1399895127138917
2.09500312805 0.05122537851478 -0.2658472385278191 -1.113533255943027 2.0005722850175647 2.049936764488029 -0.5200046160127103 1.1399895127138917
2.09500312805 0.05122537851478 -0.2658472385278191 -1.113533255943027 2.0005722850175647 2.049936764488029 -0.5200046160127103 1.1399895127138917
2.10479807854 0.05122537851478 -0.2658472385278191 -1.113533255943027 2.0005722850175647 2.049936764488029 -0.5200046160127103 1.1399895127138917
2.10479807854 0.05122537851478 -0.2658472385278191 -1.113533255943027 2.0005722850175647 2.049936764488029 -0.5200046160127103 1.1399895127138917
2.11492395401 0.05122537851478 -0.2658472385278191 -1.113533255943027 2.0005722850175647 2.049936764488029 -0.5200046160127103 1.1399895127138917
2.11492395401 0.05122537851478 -0.2658472385278191 -1.113533255943027 2.0005722850175647 2.049936764488029 -0.5200046160127103 1.1399895127138917
2.12489891052 0.05122537851478 -0.2658472385278191 -1.113533255943027 2.0005722850175647 2.049936764488029 -0.5200046160127103 1.1399895127138917
2.12489891052 0.05122537851478 -0.2658472385278191 -1.113533255943027 2.0005722850175647 2.049936764488029 -0.5200046160127103 1.1399895127138917
2.13494706154 0.05122537851478 -0.2658472385278191 -1.113533255943027 2.0005722850175647 2.049936764488029 -0.5200046160127103 1.1399895127138917
2.13494706154 0.05122537851478 -0.2658472385278191 -1.113533255943027 2.0005722850175647 2.049936764488029 -0.5200046160127103 1.1399895127138917
2.1449110508 0.05122537851478 -0.2658472385278191 -1.113533255943027 2.0005722850175647 2.049936764488029 -0.5200046160127103 1.1399895127138917
2.1449110508 0.05122537851478 -0.2658472385278191 -1.113533255943027 2.0005722850175647 2.049936764488029 -0.5200046160127103 1.1399895127138917
2.15490794182 0.05122537851478 -0.2658472385278191 -1.113533255943027 2.0005722850175647 2.049936764488029 -0.5200046160127103 1.1399895127138917
2.15490794182 0.05122537851478 -0.2658472385278191 -1.113533255943027 2.0005722850175647 2.049936764488029 -0.5200046160127103 1.1399895127138917
2.16492295265 0.05122537851478 -0.2658472385278191 -1.113533255943027 2.0005722850175647 2.049936764488029 -0.5200046160127103 1.1399895127138917
2.16492295265 0.05122537851478 -0.2658472385278191 -1.113533255943027 2.0005722850175647 2.049936764488029 -0.5200046160127103 1.1399895127138917
2.17492794991 0.05122537851478 -0.2658472385278191 -1.113533255943027 2.0005722850175647 2.049936764488029 -0.5200046160127103 1.1399895127138917
2.17492794991 0.05122537851478 -0.2658472385278191 -1.113533255943027 2.0005722850175647 2.049936764488029 -0.5200046160127103 1.1399895127138917
2.18481993675 0.05122537851478 -0.2658472385278191 -1.113533255943027 2.0005722850175647 2.049936764488029 -0.5200046160127103 1.1399895127138917
2.18481993675 0.05122537851478 -0.2658472385278191 -1.113533255943027 2.0005722850175647 2.049936764488029 -0.5200046160127103 1.1399895127138917
2.19490599632 0.05122537851478 -0.2658472385278191 -1.113533255943027 2.0005722850175647 2.049936764488029 -0.5200046160127103 1.1399895127138917
2.19490599632 0.05122537851478 -0.2658472385278191 -1.113533255943027 2.0005722850175647 2.049936764488029 -0.5200046160127103 1.1399895127138917
2.20495200157 0.05122537851478 -0.2658472385278191 -1.113533255943027 2.0005722850175647 2.049936764488029 -0.5200046160127103 1.1399895127138917
2.20495200157 0.05122537851478 -0.2658472385278191 -1.113533255943027 2.0005722850175647 2.049936764488029 -0.5200046160127103 1.1399895127138917
2.21480107307 0.05122537851478 -0.2658472385278191 -1.113533255943027 2.0005722850175647 2.049936764488029 -0.5200046160127103 1.1399895127138917
2.21480107307 0.05122537851478 -0.2658472385278191 -1.113533255943027 2.0005722850175647 2.049936764488029 -0.5200046160127103 1.1399895127138917
2.22486805916 0.05122537851478 -0.2658472385278191 -1.113533255943027 2.0005722850175647 2.049936764488029 -0.5200046160127103 1.1399895127138917
2.22486805916 0.05122537851478 -0.2658472385278191 -1.113533255943027 2.0005722850175647 2.049936764488029 -0.5200046160127103 1.1399895127138917
2.23492598534 0.05122537851478 -0.2658472385278191 -1.113533255943027 2.0005722850175647 2.049936764488029 -0.5200046160127103 1.1399895127138917
2.23492598534 0.05122537851478 -0.2658472385278191 -1.113533255943027 2.0005722850175647 2.049936764488029 -0.5200046160127103 1.1399895127138917
2.24490904808 0.05122537851478 -0.2658472385278191 -1.113533255943027 2.0005722850175647 2.049936764488029 -0.5200046160127103 1.1399895127138917
2.24490904808 0.05122537851478 -0.2658472385278191 -1.113533255943027 2.0005722850175647 2.049936764488029 -0.5200046160127103 1.1399895127138917
2.25493907928 0.05122537851478 -0.2658472385278191 -1.113533255943027 2.0005722850175647 2.049936764488029 -0.5200046160127103 1.1399895127138917
2.25493907928 0.05122537851478 -0.2658472385278191 -1.113533255943027 2.0005722850175647 2.049936764488029 -0.5200046160127103 1.1399895127138917
2.26492810249 0.05122537851478 -0.2658472385278191 -1.113533255943027 2.0005722850175647 2.049936764488029 -0.5200046160127103 1.1399895127138917
2.26492810249 0.05122537851478 -0.2658472385278191 -1.113533255943027 2.0005722850175647 2.049936764488029 -0.5200046160127103 1.1399895127138917
2.27494907379 0.05122537851478 -0.2658472385278191 -1.113533255943027 2.0005722850175647 2.049936764488029 -0.5200046160127103 1.1399895127138917
2.27494907379 0.05122537851478 -0.2658472385278191 -1.113533255943027 2.0005722850175647 2.049936764488029 -0.5200046160127103 1.1399895127138917
2.28488898277 0.05122537851478 -0.2658472385278191 -1.113533255943027 2.0005722850175647 2.049936764488029 -0.5200046160127103 1.1399895127138917
2.28488898277 0.05122537851478 -0.2658472385278191 -1.113533255943027 2.0005722850175647 2.049936764488029 -0.5200046160127103 1.1399895127138917
2.2949180603 0.05122537851478 -0.2658472385278191 -1.113533255943027 2.0005722850175647 2.049936764488029 -0.5200046160127103 1.1399895127138917
2.2949180603 0.05122537851478 -0.2658472385278191 -1.113533255943027 2.0005722850175647 2.049936764488029 -0.5200046160127103 1.1399895127138917
2.30493307114 0.05122537851478 -0.2658472385278191 -1.113533255943027 2.0005722850175647 2.049936764488029 -0.5200046160127103 1.1399895127138917
2.30493307114 0.05122537851478 -0.2658472385278191 -1.113533255943027 2.0005722850175647 2.049936764488029 -0.5200046160127103 1.1399895127138917
2.31487607956 0.05122537851478 -0.2658472385278191 -1.113533255943027 2.0005722850175647 2.049936764488029 -0.5200046160127103 1.1399895127138917
2.31487607956 0.05122537851478 -0.2658472385278191 -1.113533255943027 2.0005722850175647 2.049936764488029 -0.5200046160127103 1.1399895127138917
2.32494711876 0.05122537851478 -0.2658472385278191 -1.113533255943027 2.0005722850175647 2.049936764488029 -0.5200046160127103 1.1399895127138917
2.32494711876 0.05122537851478 -0.2658472385278191 -1.113533255943027 2.0005722850175647 2.049936764488029 -0.5200046160127103 1.1399895127138917
2.33498597145 0.05122537851478 -0.2658472385278191 -1.113533255943027 2.0005722850175647 2.049936764488029 -0.5200046160127103 1.1399895127138917
2.33498597145 0.05122537851478 -0.2658472385278191 -1.113533255943027 2.0005722850175647 2.049936764488029 -0.5200046160127103 1.1399895127138917
2.3448369503 0.05122537851478 -0.2658472385278191 -1.113533255943027 2.0005722850175647 2.049936764488029 -0.5200046160127103 1.1399895127138917
2.3448369503 0.05122537851478 -0.2658472385278191 -1.113533255943027 2.0005722850175647 2.049936764488029 -0.5200046160127103 1.1399895127138917
2.35493612289 0.05122537851478 -0.2658472385278191 -1.113533255943027 2.0005722850175647 2.049936764488029 -0.5200046160127103 1.1399895127138917
2.35493612289 0.05122537851478 -0.2658472385278191 -1.113533255943027 2.0005722850175647 2.049936764488029 -0.5200046160127103 1.1399895127138917
2.36495900154 0.05122537851478 -0.2658472385278191 -1.113533255943027 2.0005722850175647 2.049936764488029 -0.5200046160127103 1.1399895127138917
2.36495900154 0.05122537851478 -0.2658472385278191 -1.113533255943027 2.0005722850175647 2.049936764488029 -0.5200046160127103 1.1399895127138917
2.37483692169 0.05122537851478 -0.2658472385278191 -1.113533255943027 2.0005722850175647 2.049936764488029 -0.5200046160127103 1.1399895127138917
2.37483692169 0.05122537851478 -0.2658472385278191 -1.113533255943027 2.0005722850175647 2.049936764488029 -0.5200046160127103 1.1399895127138917
2.38498711586 0.05122537851478 -0.2658472385278191 -1.113533255943027 2.0005722850175647 2.049936764488029 -0.5200046160127103 1.1399895127138917
2.38498711586 0.05122537851478 -0.2658472385278191 -1.113533255943027 2.0005722850175647 2.049936764488029 -0.5200046160127103 1.1399895127138917
2.39497804642 0.05122537851478 -0.2658472385278191 -1.113533255943027 2.0005722850175647 2.049936764488029 -0.5200046160127103 1.1399895127138917
2.39497804642 0.05122537851478 -0.2658472385278191 -1.113533255943027 2.0005722850175647 2.049936764488029 -0.5200046160127103 1.1399895127138917
2.40498495102 0.05122537851478 -0.2658472385278191 -1.113533255943027 2.0005722850175647 2.049936764488029 -0.5200046160127103 1.1399895127138917
2.40498495102 0.05122537851478 -0.2658472385278191 -1.113533255943027 2.0005722850175647 2.049936764488029 -0.5200046160127103 1.1399895127138917
2.41498613358 0.05122537851478 -0.2658472385278191 -1.113533255943027 2.0005722850175647 2.049936764488029 -0.5200046160127103 1.1399895127138917
2.41498613358 0.05122537851478 -0.2658472385278191 -1.113533255943027 2.0005722850175647 2.049936764488029 -0.5200046160127103 1.1399895127138917
2.42502713203 0.05122537851478 -0.2658472385278191 -1.113533255943027 2.0005722850175647 2.049936764488029 -0.5200046160127103 1.1399895127138917
2.42502713203 0.05122537851478 -0.2658472385278191 -1.113533255943027 2.0005722850175647 2.049936764488029 -0.5200046160127103 1.1399895127138917
2.43489313126 0.05122537851478 -0.2658472385278191 -1.113533255943027 2.0005722850175647 2.049936764488029 -0.5200046160127103 1.1399895127138917
2.43489313126 0.05122537851478 -0.2658472385278191 -1.113533255943027 2.0005722850175647 2.049936764488029 -0.5200046160127103 1.1399895127138917
2.44499206543 0.05122537851478 -0.2658472385278191 -1.113533255943027 2.0005722850175647 2.049936764488029 -0.5200046160127103 1.1399895127138917
2.44499206543 0.05122537851478 -0.2658472385278191 -1.113533255943027 2.0005722850175647 2.049936764488029 -0.5200046160127103 1.1399895127138917
2.45485210419 0.05122537851478 -0.2658472385278191 -1.113533255943027 2.0005722850175647 2.049936764488029 -0.5200046160127103 1.1399895127138917
2.45485210419 0.05122537851478 -0.2658472385278191 -1.113533255943027 2.0005722850175647 2.049936764488029 -0.5200046160127103 1.1399895127138917
2.46492910385 0.05122537851478 -0.2658472385278191 -1.113533255943027 2.0005722850175647 2.049936764488029 -0.5200046160127103 1.1399895127138917
2.46492910385 0.05122537851478 -0.2658472385278191 -1.113533255943027 2.0005722850175647 2.049936764488029 -0.5200046160127103 1.1399895127138917
2.47491693497 0.05122537851478 -0.2658472385278191 -1.113533255943027 2.0005722850175647 2.049936764488029 -0.5200046160127103 1.1399895127138917
2.47491693497 0.05122537851478 -0.2658472385278191 -1.113533255943027 2.0005722850175647 2.049936764488029 -0.5200046160127103 1.1399895127138917
2.48492908478 0.05122537851478 -0.2658472385278191 -1.113533255943027 2.0005722850175647 2.049936764488029 -0.5200046160127103 1.1399895127138917
2.48492908478 0.05122537851478 -0.2658472385278191 -1.113533255943027 2.0005722850175647 2.049936764488029 -0.5200046160127103 1.1399895127138917
2.49481892586 0.0512713985488348 -0.2658472385278191 -1.1060473304034422 2.0005722850175647 2.050037204598331 -0.5200046160127103 1.1399895127138917
2.49481892586 0.0512713985488348 -0.2658472385278191 -1.1060473304034422 2.0005722850175647 2.050037204598331 -0.5200046160127103 1.1399895127138917
2.50454211235 0.0512713985488348 -0.2658472385278191 -1.1026418478833853 2.0005722850175647 2.0499093717306742 -0.5200046160127103 1.1399895127138917
2.50454211235 0.0512713985488348 -0.2658472385278191 -1.1026418478833853 2.0005722850175647 2.0499093717306742 -0.5200046160127103 1.1399895127138917
2.51460313797 0.0512713985488348 -0.2658472385278191 -1.1026418478833853 2.0005722850175647 2.0499093717306742 -0.5200046160127103 1.1399895127138917
2.51460313797 0.0512713985488348 -0.2658472385278191 -1.1026418478833853 2.0005722850175647 2.0499093717306742 -0.5200046160127103 1.1399895127138917
2.52463793755 0.0512713985488348 -0.2658472385278191 -1.1026418478833853 2.0005722850175647 2.0499093717306742 -0.5200046160127103 1.1399895127138917
2.52463793755 0.0512713985488348 -0.2658472385278191 -1.1026418478833853 2.0005722850175647 2.0499093717306742 -0.5200046160127103 1.1399895127138917
2.53467607498 0.0512713985488348 -0.2658472385278191 -1.1026418478833853 2.0005722850175647 2.0499093717306742 -0.5200046160127103 1.1399895127138917
2.53467607498 0.0512713985488348 -0.2658472385278191 -1.1026418478833853 2.0005722850175647 2.0499093717306742 -0.5200046160127103 1.1399895127138917
2.54483008385 0.0512713985488348 -0.2658472385278191 -1.1026418478833853 2.0005722850175647 2.0499093717306742 -0.5200046160127103 1.1399895127138917
2.54483008385 0.0512713985488348 -0.2658472385278191 -1.1026418478833853 2.0005722850175647 2.0499093717306742 -0.5200046160127103 1.1399895127138917
2.55489611626 0.0512713985488348 -0.2658472385278191 -1.1026418478833853 2.0005722850175647 2.0499093717306742 -0.5200046160127103 1.1399895127138917
2.55489611626 0.0512713985488348 -0.2658472385278191 -1.1026418478833853 2.0005722850175647 2.0499093717306742 -0.5200046160127103 1.1399895127138917
2.5647110939 0.0512713985488348 -0.2658472385278191 -1.1026418478833853 2.0005722850175647 2.0499093717306742 -0.5200046160127103 1.1399895127138917
2.5647110939 0.0512713985488348 -0.2658472385278191 -1.1026418478833853 2.0005722850175647 2.0499093717306742 -0.5200046160127103 1.1399895127138917
2.57491707802 0.0512713985488348 -0.2658472385278191 -1.1026418478833853 2.0005722850175647 2.0499093717306742 -0.5200046160127103 1.1399895127138917
2.57491707802 0.0512713985488348 -0.2658472385278191 -1.1026418478833853 2.0005722850175647 2.0499093717306742 -0.5200046160127103 1.1399895127138917
2.5848710537 0.0512713985488348 -0.2658472385278191 -1.1026418478833853 2.0005722850175647 2.0499093717306742 -0.5200046160127103 1.1399895127138917
2.5848710537 0.0512713985488348 -0.2658472385278191 -1.1026418478833853 2.0005722850175647 2.0499093717306742 -0.5200046160127103 1.1399895127138917
2.5947599411 0.0512713985488348 -0.2658472385278191 -1.1026418478833853 2.0005722850175647 2.0499093717306742 -0.5200046160127103 1.1399895127138917
2.5947599411 0.0512713985488348 -0.2658472385278191 -1.1026418478833853 2.0005722850175647 2.0499093717306742 -0.5200046160127103 1.1399895127138917
2.60485005379 0.0512713985488348 -0.2658472385278191 -1.1026418478833853 2.0005722850175647 2.0499093717306742 -0.5200046160127103 1.1399895127138917
2.60485005379 0.0512713985488348 -0.2658472385278191 -1.1026418478833853 2.0005722850175647 2.0499093717306742 -0.5200046160127103 1.1399895127138917
2.61495304108 0.0512713985488348 -0.2658472385278191 -1.1026418478833853 2.0005722850175647 2.0499093717306742 -0.5200046160127103 1.1399895127138917
2.61495304108 0.0512713985488348 -0.2658472385278191 -1.1026418478833853 2.0005722850175647 2.0499093717306742 -0.5200046160127103 1.1399895127138917
2.6249370575 0.0512713985488348 -0.2658472385278191 -1.1026418478833853 2.0005722850175647 2.0499093717306742 -0.5200046160127103 1.1399895127138917
2.6249370575 0.0512713985488348 -0.2658472385278191 -1.1026418478833853 2.0005722850175647 2.0499093717306742 -0.5200046160127103 1.1399895127138917
2.63494610786 0.0512713985488348 -0.2658472385278191 -1.1026418478833853 2.0005722850175647 2.0499093717306742 -0.5200046160127103 1.1399895127138917
2.63494610786 0.0512713985488348 -0.2658472385278191 -1.1026418478833853 2.0005722850175647 2.0499093717306742 -0.5200046160127103 1.1399895127138917
2.64469814301 0.0512713985488348 -0.2658472385278191 -1.1026418478833853 2.0005722850175647 2.0499093717306742 -0.5200046160127103 1.1399895127138917
2.64469814301 0.0512713985488348 -0.2658472385278191 -1.1026418478833853 2.0005722850175647 2.0499093717306742 -0.5200046160127103 1.1399895127138917
2.6546959877 0.0512713985488348 -0.2658472385278191 -1.1026418478833853 2.0005722850175647 2.0499093717306742 -0.5200046160127103 1.1399895127138917
2.6546959877 0.0512713985488348 -0.2658472385278191 -1.1026418478833853 2.0005722850175647 2.0499093717306742 -0.5200046160127103 1.1399895127138917
2.66471791267 0.0512713985488348 -0.2658472385278191 -1.1026418478833853 2.0005722850175647 2.0499093717306742 -0.5200046160127103 1.1399895127138917
2.66471791267 0.0512713985488348 -0.2658472385278191 -1.1026418478833853 2.0005722850175647 2.0499093717306742 -0.5200046160127103 1.1399895127138917
2.67482805252 0.0512713985488348 -0.2658472385278191 -1.1026418478833853 2.0005722850175647 2.0499093717306742 -0.5200046160127103 1.1399895127138917
2.67482805252 0.0512713985488348 -0.2658472385278191 -1.1026418478833853 2.0005722850175647 2.0499093717306742 -0.5200046160127103 1.1399895127138917
2.68486809731 0.0512713985488348 -0.2658472385278191 -1.1026418478833853 2.0005722850175647 2.0499093717306742 -0.5200046160127103 1.1399895127138917
2.68486809731 0.0512713985488348 -0.2658472385278191 -1.1026418478833853 2.0005722850175647 2.0499093717306742 -0.5200046160127103 1.1399895127138917
2.69483995438 0.0512713985488348 -0.2658472385278191 -1.1026418478833853 2.0005722850175647 2.0499093717306742 -0.5200046160127103 1.1399895127138917
2.69483995438 0.0512713985488348 -0.2658472385278191 -1.1026418478833853 2.0005722850175647 2.0499093717306742 -0.5200046160127103 1.1399895127138917
2.70487809181 0.0512713985488348 -0.2658472385278191 -1.1026418478833853 2.0005722850175647 2.0499093717306742 -0.5200046160127103 1.1399895127138917
2.70487809181 0.0512713985488348 -0.2658472385278191 -1.1026418478833853 2.0005722850175647 2.0499093717306742 -0.5200046160127103 1.1399895127138917
2.71483397484 0.0512713985488348 -0.2658472385278191 -1.1026418478833853 2.0005722850175647 2.0499093717306742 -0.5200046160127103 1.1399895127138917
2.71483397484 0.0512713985488348 -0.2658472385278191 -1.1026418478833853 2.0005722850175647 2.0499093717306742 -0.5200046160127103 1.1399895127138917
2.72487592697 0.0512713985488348 -0.2658472385278191 -1.1026418478833853 2.0005722850175647 2.0499093717306742 -0.5200046160127103 1.1399895127138917
2.72487592697 0.0512713985488348 -0.2658472385278191 -1.1026418478833853 2.0005722850175647 2.0499093717306742 -0.5200046160127103 1.1399895127138917
2.73493814468 0.0512713985488348 -0.2658472385278191 -1.1026418478833853 2.0005722850175647 2.0499093717306742 -0.5200046160127103 1.1399895127138917
2.73493814468 0.0512713985488348 -0.2658472385278191 -1.1026418478833853 2.0005722850175647 2.0499093717306742 -0.5200046160127103 1.1399895127138917
2.74636697769 0.0512713985488348 -0.2658472385278191 -1.1026418478833853 2.0005722850175647 2.0499093717306742 -0.5200046160127103 1.1399895127138917
2.74636697769 0.0512713985488348 -0.2658472385278191 -1.1026418478833853 2.0005722850175647 2.0499093717306742 -0.5200046160127103 1.1399895127138917
2.75470304489 0.0512713985488348 -0.2658472385278191 -1.1026418478833853 2.0005722850175647 2.0499093717306742 -0.5200046160127103 1.1399895127138917
2.75470304489 0.0512713985488348 -0.2658472385278191 -1.1026418478833853 2.0005722850175647 2.0499093717306742 -0.5200046160127103 1.1399895127138917
2.7648460865 0.0512713985488348 -0.2658472385278191 -1.1026418478833853 2.0005722850175647 2.0499093717306742 -0.5200046160127103 1.1399895127138917
2.7648460865 0.0512713985488348 -0.2658472385278191 -1.1026418478833853 2.0005722850175647 2.0499093717306742 -0.5200046160127103 1.1399895127138917
2.77486896515 0.0512713985488348 -0.2658472385278191 -1.1026418478833853 2.0005722850175647 2.0499093717306742 -0.5200046160127103 1.1399895127138917
2.77486896515 0.0512713985488348 -0.2658472385278191 -1.1026418478833853 2.0005722850175647 2.0499093717306742 -0.5200046160127103 1.1399895127138917
2.78472614288 0.0512713985488348 -0.2658472385278191 -1.1026418478833853 2.0005722850175647 2.0499093717306742 -0.5200046160127103 1.1399895127138917
2.78472614288 0.0512713985488348 -0.2658472385278191 -1.1026418478833853 2.0005722850175647 2.0499093717306742 -0.5200046160127103 1.1399895127138917
2.79492592812 0.0512713985488348 -0.2658472385278191 -1.1026418478833853 2.0005722850175647 2.0499093717306742 -0.5200046160127103 1.1399895127138917
2.79492592812 0.0512713985488348 -0.2658472385278191 -1.1026418478833853 2.0005722850175647 2.0499093717306742 -0.5200046160127103 1.1399895127138917
2.80492091179 0.0512713985488348 -0.2658472385278191 -1.1026418478833853 2.0005722850175647 2.0499093717306742 -0.5200046160127103 1.1399895127138917
2.80492091179 0.0512713985488348 -0.2658472385278191 -1.1026418478833853 2.0005722850175647 2.0499093717306742 -0.5200046160127103 1.1399895127138917
2.81621909142 0.0512713985488348 -0.2658472385278191 -1.1026418478833853 2.0005722850175647 2.0499093717306742 -0.5200046160127103 1.1399895127138917
2.81621909142 0.0512713985488348 -0.2658472385278191 -1.1026418478833853 2.0005722850175647 2.0499093717306742 -0.5200046160127103 1.1399895127138917
2.82453203201 0.0512713985488348 -0.2658472385278191 -1.1026418478833853 2.0005722850175647 2.0499093717306742 -0.5200046160127103 1.1399895127138917
2.82453203201 0.0512713985488348 -0.2658472385278191 -1.1026418478833853 2.0005722850175647 2.0499093717306742 -0.5200046160127103 1.1399895127138917
2.83454298973 0.0512713985488348 -0.2658472385278191 -1.1026418478833853 2.0005722850175647 2.0499093717306742 -0.5200046160127103 1.1399895127138917
2.83454298973 0.0512713985488348 -0.2658472385278191 -1.1026418478833853 2.0005722850175647 2.0499093717306742 -0.5200046160127103 1.1399895127138917
2.84446907043 0.0512713985488348 -0.2658472385278191 -1.1026418478833853 2.0005722850175647 2.0499093717306742 -0.5200046160127103 1.1399895127138917
2.84446907043 0.0512713985488348 -0.2658472385278191 -1.1026418478833853 2.0005722850175647 2.0499093717306742 -0.5200046160127103 1.1399895127138917
2.8548579216 0.0512713985488348 -0.2658472385278191 -1.1026418478833853 2.0005722850175647 2.0499093717306742 -0.5200046160127103 1.1399895127138917
2.8548579216 0.0512713985488348 -0.2658472385278191 -1.1026418478833853 2.0005722850175647 2.0499093717306742 -0.5200046160127103 1.1399895127138917
2.86466503143 0.0512713985488348 -0.2658472385278191 -1.1026418478833853 2.0005722850175647 2.0499093717306742 -0.5200046160127103 1.1399895127138917
2.86466503143 0.0512713985488348 -0.2658472385278191 -1.1026418478833853 2.0005722850175647 2.0499093717306742 -0.5200046160127103 1.1399895127138917
2.87498211861 0.0512713985488348 -0.2658472385278191 -1.1026418478833853 2.0005722850175647 2.0499093717306742 -0.5200046160127103 1.1399895127138917
2.87498211861 0.0512713985488348 -0.2658472385278191 -1.1026418478833853 2.0005722850175647 2.0499093717306742 -0.5200046160127103 1.1399895127138917
2.88488006592 0.0512713985488348 -0.2658472385278191 -1.1026418478833853 2.0005722850175647 2.0499093717306742 -0.5200046160127103 1.1399895127138917
2.88488006592 0.0512713985488348 -0.2658472385278191 -1.1026418478833853 2.0005722850175647 2.0499093717306742 -0.5200046160127103 1.1399895127138917
2.89486908913 0.0512713985488348 -0.2658472385278191 -1.1026418478833853 2.0005722850175647 2.0499093717306742 -0.5200046160127103 1.1399895127138917
2.89486908913 0.0512713985488348 -0.2658472385278191 -1.1026418478833853 2.0005722850175647 2.0499093717306742 -0.5200046160127103 1.1399895127138917
2.90493893623 0.0512713985488348 -0.2658472385278191 -1.1026418478833853 2.0005722850175647 2.0499093717306742 -0.5200046160127103 1.1399895127138917
2.90493893623 0.0512713985488348 -0.2658472385278191 -1.1026418478833853 2.0005722850175647 2.0499093717306742 -0.5200046160127103 1.1399895127138917
2.91478395462 0.0512713985488348 -0.2658472385278191 -1.1026418478833853 2.0005722850175647 2.0499093717306742 -0.5200046160127103 1.1399895127138917
2.91478395462 0.0512713985488348 -0.2658472385278191 -1.1026418478833853 2.0005722850175647 2.0499093717306742 -0.5200046160127103 1.1399895127138917
2.92493009567 0.0512713985488348 -0.2658472385278191 -1.1026418478833853 2.0005722850175647 2.0499093717306742 -0.5200046160127103 1.1399895127138917
2.92493009567 0.0512713985488348 -0.2658472385278191 -1.1026418478833853 2.0005722850175647 2.0499093717306742 -0.5200046160127103 1.1399895127138917
2.93479704857 0.0512713985488348 -0.2658472385278191 -1.1026418478833853 2.0005722850175647 2.0499093717306742 -0.5200046160127103 1.1399895127138917
2.93479704857 0.0512713985488348 -0.2658472385278191 -1.1026418478833853 2.0005722850175647 2.0499093717306742 -0.5200046160127103 1.1399895127138917
2.94490098953 0.0512713985488348 -0.2658472385278191 -1.1026418478833853 2.0005722850175647 2.0499093717306742 -0.5200046160127103 1.1399895127138917
2.94490098953 0.0512713985488348 -0.2658472385278191 -1.1026418478833853 2.0005722850175647 2.0499093717306742 -0.5200046160127103 1.1399895127138917
2.95484399796 0.0512713985488348 -0.2658472385278191 -1.1026418478833853 2.0005722850175647 2.0499093717306742 -0.5200046160127103 1.1399895127138917
2.95484399796 0.0512713985488348 -0.2658472385278191 -1.1026418478833853 2.0005722850175647 2.0499093717306742 -0.5200046160127103 1.1399895127138917
2.96477007866 0.0512713985488348 -0.2658472385278191 -1.1026418478833853 2.0005722850175647 2.0499093717306742 -0.5200046160127103 1.1399895127138917
2.96477007866 0.0512713985488348 -0.2658472385278191 -1.1026418478833853 2.0005722850175647 2.0499093717306742 -0.5200046160127103 1.1399895127138917
2.97452902794 0.050642458083419 -0.2656324783688966 -1.0867189161004156 1.9997285843932255 2.0499185026497924 -0.5200046160127103 1.1399895127138917
2.97452902794 0.050642458083419 -0.2656324783688966 -1.0867189161004156 1.9997285843932255 2.0499185026497924 -0.5200046160127103 1.1399895127138917
2.98449993134 0.050642458083419 -0.2656324783688966 -1.0867189161004156 1.9997285843932255 2.0499185026497924 -0.5200046160127103 1.1399895127138917
2.98449993134 0.050642458083419 -0.2656324783688966 -1.0867189161004156 1.9997285843932255 2.0499185026497924 -0.5200046160127103 1.1399895127138917
2.99489593506 0.050642458083419 -0.2656324783688966 -1.0867189161004156 1.9997285843932255 2.0499185026497924 -0.5200046160127103 1.1399895127138917
2.99489593506 0.050642458083419 -0.2656324783688966 -1.0867189161004156 1.9997285843932255 2.0499185026497924 -0.5200046160127103 1.1399895127138917
3.00492095947 0.0503970179017931 -0.2656324783688966 -1.0867189161004156 1.9996058643024128 2.0499824190836207 -0.5200046160127103 1.1399895127138917
3.00492095947 0.0503970179017931 -0.2656324783688966 -1.0867189161004156 1.9996058643024128 2.0499824190836207 -0.5200046160127103 1.1399895127138917
3.0146510601 0.0503970179017931 -0.2656324783688966 -1.0867189161004156 1.9996058643024128 2.0499824190836207 -0.5200046160127103 1.1399895127138917
3.0146510601 0.0503970179017931 -0.2656324783688966 -1.0867189161004156 1.9996058643024128 2.0499824190836207 -0.5200046160127103 1.1399895127138917
3.02473092079 0.0503970179017931 -0.2656324783688966 -1.0867189161004156 1.9996058643024128 2.0499824190836207 -0.5200046160127103 1.1399895127138917
3.02473092079 0.0503970179017931 -0.2656324783688966 -1.0867189161004156 1.9996058643024128 2.0499824190836207 -0.5200046160127103 1.1399895127138917
3.03489899635 0.0503970179017931 -0.2656324783688966 -1.0867189161004156 1.9996058643024128 2.0499824190836207 -0.5200046160127103 1.1399895127138917
3.03489899635 0.0503970179017931 -0.2656324783688966 -1.0867189161004156 1.9996058643024128 2.0499824190836207 -0.5200046160127103 1.1399895127138917
3.04489994049 0.0503970179017931 -0.2656324783688966 -1.0867189161004156 1.9996058643024128 2.0499824190836207 -0.5200046160127103 1.1399895127138917
3.04489994049 0.0503970179017931 -0.2656324783688966 -1.0867189161004156 1.9996058643024128 2.0499824190836207 -0.5200046160127103 1.1399895127138917
3.0547940731 0.0503970179017931 -0.2656324783688966 -1.0867189161004156 1.9996058643024128 2.0499824190836207 -0.5200046160127103 1.1399895127138917
3.0547940731 0.0503970179017931 -0.2656324783688966 -1.0867189161004156 1.9996058643024128 2.0499824190836207 -0.5200046160127103 1.1399895127138917
3.06489491463 0.0503970179017931 -0.2656324783688966 -1.0867189161004156 1.9996058643024128 2.0499824190836207 -0.5200046160127103 1.1399895127138917
3.06489491463 0.0503970179017931 -0.2656324783688966 -1.0867189161004156 1.9996058643024128 2.0499824190836207 -0.5200046160127103 1.1399895127138917
3.07492494583 0.0503970179017931 -0.2656324783688966 -1.0867189161004156 1.9996058643024128 2.0499824190836207 -0.5200046160127103 1.1399895127138917
3.07492494583 0.0503970179017931 -0.2656324783688966 -1.0867189161004156 1.9996058643024128 2.0499824190836207 -0.5200046160127103 1.1399895127138917
3.08479094505 0.0503970179017931 -0.2656324783688966 -1.0867189161004156 1.9996058643024128 2.0499824190836207 -0.5200046160127103 1.1399895127138917
3.08479094505 0.0503970179017931 -0.2656324783688966 -1.0867189161004156 1.9996058643024128 2.0499824190836207 -0.5200046160127103 1.1399895127138917
3.09495210648 0.0503970179017931 -0.2656324783688966 -1.0867189161004156 1.9996058643024128 2.0499824190836207 -0.5200046160127103 1.1399895127138917
3.09495210648 0.0503970179017931 -0.2656324783688966 -1.0867189161004156 1.9996058643024128 2.0499824190836207 -0.5200046160127103 1.1399895127138917
3.10493206978 0.0503970179017931 -0.2656324783688966 -1.0867189161004156 1.9996058643024128 2.0499824190836207 -0.5200046160127103 1.1399895127138917
3.10493206978 0.0503970179017931 -0.2656324783688966 -1.0867189161004156 1.9996058643024128 2.0499824190836207 -0.5200046160127103 1.1399895127138917
3.11491298676 0.0503970179017931 -0.2656324783688966 -1.0867189161004156 1.9996058643024128 2.0499824190836207 -0.5200046160127103 1.1399895127138917
3.11491298676 0.0503970179017931 -0.2656324783688966 -1.0867189161004156 1.9996058643024128 2.0499824190836207 -0.5200046160127103 1.1399895127138917
3.12486290932 0.0503970179017931 -0.2656324783688966 -1.0867189161004156 1.9996058643024128 2.0499824190836207 -0.5200046160127103 1.1399895127138917
3.12486290932 0.0503970179017931 -0.2656324783688966 -1.0867189161004156 1.9996058643024128 2.0499824190836207 -0.5200046160127103 1.1399895127138917
3.134953022 0.0503970179017931 -0.2656324783688966 -1.0867189161004156 1.9996058643024128 2.0499824190836207 -0.5200046160127103 1.1399895127138917
3.134953022 0.0503970179017931 -0.2656324783688966 -1.0867189161004156 1.9996058643024128 2.0499824190836207 -0.5200046160127103 1.1399895127138917
3.14493513107 0.0503970179017931 -0.2656324783688966 -1.0867189161004156 1.9996058643024128 2.0499824190836207 -0.5200046160127103 1.1399895127138917
3.14493513107 0.0503970179017931 -0.2656324783688966 -1.0867189161004156 1.9996058643024128 2.0499824190836207 -0.5200046160127103 1.1399895127138917
3.15492796898 0.0503970179017931 -0.2656324783688966 -1.0867189161004156 1.9996058643024128 2.0499824190836207 -0.5200046160127103 1.1399895127138917
3.15492796898 0.0503970179017931 -0.2656324783688966 -1.0867189161004156 1.9996058643024128 2.0499824190836207 -0.5200046160127103 1.1399895127138917
3.16485309601 0.0503970179017931 -0.2656324783688966 -1.0867189161004156 1.9996058643024128 2.0499824190836207 -0.5200046160127103 1.1399895127138917
3.16485309601 0.0503970179017931 -0.2656324783688966 -1.0867189161004156 1.9996058643024128 2.0499824190836207 -0.5200046160127103 1.1399895127138917
3.17493200302 0.0503970179017931 -0.2656324783688966 -1.0867189161004156 1.9996058643024128 2.0499824190836207 -0.5200046160127103 1.1399895127138917
3.17493200302 0.0503970179017931 -0.2656324783688966 -1.0867189161004156 1.9996058643024128 2.0499824190836207 -0.5200046160127103 1.1399895127138917
3.18481397629 0.0503970179017931 -0.2656324783688966 -1.0867189161004156 1.9996058643024128 2.0499824190836207 -0.5200046160127103 1.1399895127138917
3.18481397629 0.0503970179017931 -0.2656324783688966 -1.0867189161004156 1.9996058643024128 2.0499824190836207 -0.5200046160127103 1.1399895127138917
3.19488096237 0.0503970179017931 -0.2656324783688966 -1.0867189161004156 1.9996058643024128 2.0499824190836207 -0.5200046160127103 1.1399895127138917
3.19488096237 0.0503970179017931 -0.2656324783688966 -1.0867189161004156 1.9996058643024128 2.0499824190836207 -0.5200046160127103 1.1399895127138917
3.20486998558 0.0503970179017931 -0.2656324783688966 -1.0867189161004156 1.9996058643024128 2.0499824190836207 -0.5200046160127103 1.1399895127138917
3.20486998558 0.0503970179017931 -0.2656324783688966 -1.0867189161004156 1.9996058643024128 2.0499824190836207 -0.5200046160127103 1.1399895127138917
3.21491503716 0.0503970179017931 -0.2656324783688966 -1.0867189161004156 1.9996058643024128 2.0499824190836207 -0.5200046160127103 1.1399895127138917
3.21491503716 0.0503970179017931 -0.2656324783688966 -1.0867189161004156 1.9996058643024128 2.0499824190836207 -0.5200046160127103 1.1399895127138917
3.22490692139 0.0503970179017931 -0.2656324783688966 -1.0867189161004156 1.9996058643024128 2.0499824190836207 -0.5200046160127103 1.1399895127138917
3.22490692139 0.0503970179017931 -0.2656324783688966 -1.0867189161004156 1.9996058643024128 2.0499824190836207 -0.5200046160127103 1.1399895127138917
3.23492097855 0.0503970179017931 -0.2656324783688966 -1.0867189161004156 1.9996058643024128 2.0499824190836207 -0.5200046160127103 1.1399895127138917
3.23492097855 0.0503970179017931 -0.2656324783688966 -1.0867189161004156 1.9996058643024128 2.0499824190836207 -0.5200046160127103 1.1399895127138917
3.24478411674 0.0503970179017931 -0.2656324783688966 -1.0867189161004156 1.9996058643024128 2.0499824190836207 -0.5200046160127103 1.1399895127138917
3.24478411674 0.0503970179017931 -0.2656324783688966 -1.0867189161004156 1.9996058643024128 2.0499824190836207 -0.5200046160127103 1.1399895127138917
3.25489997864 0.0503970179017931 -0.2656324783688966 -1.0867189161004156 1.9996058643024128 2.0499824190836207 -0.5200046160127103 1.1399895127138917
3.25489997864 0.0503970179017931 -0.2656324783688966 -1.0867189161004156 1.9996058643024128 2.0499824190836207 -0.5200046160127103 1.1399895127138917
3.26490402222 0.0503970179017931 -0.2656324783688966 -1.0867189161004156 1.9996058643024128 2.0499824190836207 -0.5200046160127103 1.1399895127138917
3.26490402222 0.0503970179017931 -0.2656324783688966 -1.0867189161004156 1.9996058643024128 2.0499824190836207 -0.5200046160127103 1.1399895127138917
3.27476501465 0.0503970179017931 -0.2656324783688966 -1.0867189161004156 1.9996058643024128 2.0499824190836207 -0.5200046160127103 1.1399895127138917
3.27476501465 0.0503970179017931 -0.2656324783688966 -1.0867189161004156 1.9996058643024128 2.0499824190836207 -0.5200046160127103 1.1399895127138917
3.28489995003 0.0503970179017931 -0.2656324783688966 -1.0867189161004156 1.9996058643024128 2.0499824190836207 -0.5200046160127103 1.1399895127138917
3.28489995003 0.0503970179017931 -0.2656324783688966 -1.0867189161004156 1.9996058643024128 2.0499824190836207 -0.5200046160127103 1.1399895127138917
3.29490208626 0.0503970179017931 -0.2656324783688966 -1.0867189161004156 1.9996058643024128 2.0499824190836207 -0.5200046160127103 1.1399895127138917
3.29490208626 0.0503970179017931 -0.2656324783688966 -1.0867189161004156 1.9996058643024128 2.0499824190836207 -0.5200046160127103 1.1399895127138917
3.30488491058 0.0503970179017931 -0.2656324783688966 -1.0867189161004156 1.9996058643024128 2.0499824190836207 -0.5200046160127103 1.1399895127138917
3.30488491058 0.0503970179017931 -0.2656324783688966 -1.0867189161004156 1.9996058643024128 2.0499824190836207 -0.5200046160127103 1.1399895127138917
3.31493902206 0.0503970179017931 -0.2656324783688966 -1.0867189161004156 1.9996058643024128 2.0499824190836207 -0.5200046160127103 1.1399895127138917
3.31493902206 0.0503970179017931 -0.2656324783688966 -1.0867189161004156 1.9996058643024128 2.0499824190836207 -0.5200046160127103 1.1399895127138917
3.32486891747 0.0503970179017931 -0.2656324783688966 -1.0867189161004156 1.9996058643024128 2.0499824190836207 -0.5200046160127103 1.1399895127138917
3.32486891747 0.0503970179017931 -0.2656324783688966 -1.0867189161004156 1.9996058643024128 2.0499824190836207 -0.5200046160127103 1.1399895127138917
3.33490800858 0.0503970179017931 -0.2656324783688966 -1.0867189161004156 1.9996058643024128 2.0499824190836207 -0.5200046160127103 1.1399895127138917
3.33490800858 0.0503970179017931 -0.2656324783688966 -1.0867189161004156 1.9996058643024128 2.0499824190836207 -0.5200046160127103 1.1399895127138917
3.34498000145 0.0503970179017931 -0.2656324783688966 -1.0867189161004156 1.9996058643024128 2.0499824190836207 -0.5200046160127103 1.1399895127138917
3.34498000145 0.0503970179017931 -0.2656324783688966 -1.0867189161004156 1.9996058643024128 2.0499824190836207 -0.5200046160127103 1.1399895127138917
3.35492610931 0.0503970179017931 -0.2656324783688966 -1.0867189161004156 1.9996058643024128 2.0499824190836207 -0.5200046160127103 1.1399895127138917
3.35492610931 0.0503970179017931 -0.2656324783688966 -1.0867189161004156 1.9996058643024128 2.0499824190836207 -0.5200046160127103 1.1399895127138917
3.36479592323 0.0503970179017931 -0.2656324783688966 -1.0867189161004156 1.9996058643024128 2.0499824190836207 -0.5200046160127103 1.1399895127138917
3.36479592323 0.0503970179017931 -0.2656324783688966 -1.0867189161004156 1.9996058643024128 2.0499824190836207 -0.5200046160127103 1.1399895127138917
3.37488794327 0.0503970179017931 -0.2656324783688966 -1.0867189161004156 1.9996058643024128 2.0499824190836207 -0.5200046160127103 1.1399895127138917
3.37488794327 0.0503970179017931 -0.2656324783688966 -1.0867189161004156 1.9996058643024128 2.0499824190836207 -0.5200046160127103 1.1399895127138917
3.38494801521 0.0503970179017931 -0.2656324783688966 -1.0867189161004156 1.9996058643024128 2.0499824190836207 -0.5200046160127103 1.1399895127138917
3.38494801521 0.0503970179017931 -0.2656324783688966 -1.0867189161004156 1.9996058643024128 2.0499824190836207 -0.5200046160127103 1.1399895127138917
3.39484596252 0.0503970179017931 -0.2656324783688966 -1.0867189161004156 1.9996058643024128 2.0499824190836207 -0.5200046160127103 1.1399895127138917
3.39484596252 0.0503970179017931 -0.2656324783688966 -1.0867189161004156 1.9996058643024128 2.0499824190836207 -0.5200046160127103 1.1399895127138917
3.40475606918 0.0503970179017931 -0.2656324783688966 -1.0867189161004156 1.9996058643024128 2.0499824190836207 -0.5200046160127103 1.1399895127138917
3.40475606918 0.0503970179017931 -0.2656324783688966 -1.0867189161004156 1.9996058643024128 2.0499824190836207 -0.5200046160127103 1.1399895127138917
3.41489005089 0.0503970179017931 -0.2656324783688966 -1.0867189161004156 1.9996058643024128 2.0499824190836207 -0.5200046160127103 1.1399895127138917
3.41489005089 0.0503970179017931 -0.2656324783688966 -1.0867189161004156 1.9996058643024128 2.0499824190836207 -0.5200046160127103 1.1399895127138917
3.42474007607 0.0503970179017931 -0.2656324783688966 -1.0867189161004156 1.9996058643024128 2.0499824190836207 -0.5200046160127103 1.1399895127138917
3.42474007607 0.0503970179017931 -0.2656324783688966 -1.0867189161004156 1.9996058643024128 2.0499824190836207 -0.5200046160127103 1.1399895127138917
3.43490004539 0.0503970179017931 -0.2656324783688966 -1.0867189161004156 1.9996058643024128 2.0499824190836207 -0.5200046160127103 1.1399895127138917
3.43490004539 0.0503970179017931 -0.2656324783688966 -1.0867189161004156 1.9996058643024128 2.0499824190836207 -0.5200046160127103 1.1399895127138917
3.44482493401 0.0503970179017931 -0.2656324783688966 -1.0867189161004156 1.9996058643024128 2.0499824190836207 -0.5200046160127103 1.1399895127138917
3.44482493401 0.0503970179017931 -0.2656324783688966 -1.0867189161004156 1.9996058643024128 2.0499824190836207 -0.5200046160127103 1.1399895127138917
3.45479798317 0.0503970179017931 -0.2656324783688966 -1.0867189161004156 1.9996058643024128 2.0499824190836207 -0.5200046160127103 1.1399895127138917
3.45479798317 0.0503970179017931 -0.2656324783688966 -1.0867189161004156 1.9996058643024128 2.0499824190836207 -0.5200046160127103 1.1399895127138917
3.46484303474 0.0503970179017931 -0.2656324783688966 -1.0867189161004156 1.9996058643024128 2.0499824190836207 -0.5200046160127103 1.1399895127138917
3.46484303474 0.0503970179017931 -0.2656324783688966 -1.0867189161004156 1.9996058643024128 2.0499824190836207 -0.5200046160127103 1.1399895127138917
3.47493910789 0.0503970179017931 -0.2656324783688966 -1.0867189161004156 1.9996058643024128 2.0499824190836207 -0.5200046160127103 1.1399895127138917
3.47493910789 0.0503970179017931 -0.2656324783688966 -1.0867189161004156 1.9996058643024128 2.0499824190836207 -0.5200046160127103 1.1399895127138917
3.4849960804 0.0503970179017931 -0.2656324783688966 -1.0867189161004156 1.9996058643024128 2.0499824190836207 -0.5200046160127103 1.1399895127138917
3.4849960804 0.0503970179017931 -0.2656324783688966 -1.0867189161004156 1.9996058643024128 2.0499824190836207 -0.5200046160127103 1.1399895127138917
3.4949400425 0.0503970179017931 -0.2656324783688966 -1.0867189161004156 1.9996058643024128 2.0499824190836207 -0.5200046160127103 1.1399895127138917
3.4949400425 0.0503970179017931 -0.2656324783688966 -1.0867189161004156 1.9996058643024128 2.0499824190836207 -0.5200046160127103 1.1399895127138917
3.50496101379 0.0503970179017931 -0.2656324783688966 -1.0867189161004156 1.9996058643024128 2.0499824190836207 -0.5200046160127103 1.1399895127138917
3.50496101379 0.0503970179017931 -0.2656324783688966 -1.0867189161004156 1.9996058643024128 2.0499824190836207 -0.5200046160127103 1.1399895127138917
3.51491308212 0.0503970179017931 -0.2656324783688966 -1.0867189161004156 1.9996058643024128 2.0499824190836207 -0.5200046160127103 1.1399895127138917
3.51491308212 0.0503970179017931 -0.2656324783688966 -1.0867189161004156 1.9996058643024128 2.0499824190836207 -0.5200046160127103 1.1399895127138917
3.52500295639 0.0503970179017931 -0.2656324783688966 -1.0867189161004156 1.9996058643024128 2.0499824190836207 -0.5200046160127103 1.1399895127138917
3.52500295639 0.0503970179017931 -0.2656324783688966 -1.0867189161004156 1.9996058643024128 2.0499824190836207 -0.5200046160127103 1.1399895127138917
3.53491997719 0.0503970179017931 -0.2656324783688966 -1.0867189161004156 1.9996058643024128 2.0499824190836207 -0.5200046160127103 1.1399895127138917
3.53491997719 0.0503970179017931 -0.2656324783688966 -1.0867189161004156 1.9996058643024128 2.0499824190836207 -0.5200046160127103 1.1399895127138917
3.5448141098 0.0503970179017931 -0.2656324783688966 -1.0867189161004156 1.9996058643024128 2.0499824190836207 -0.5200046160127103 1.1399895127138917
3.5448141098 0.0503970179017931 -0.2656324783688966 -1.0867189161004156 1.9996058643024128 2.0499824190836207 -0.5200046160127103 1.1399895127138917
3.55497002602 0.0503970179017931 -0.2656324783688966 -1.0867189161004156 1.9996058643024128 2.0499824190836207 -0.5200046160127103 1.1399895127138917
3.55497002602 0.0503970179017931 -0.2656324783688966 -1.0867189161004156 1.9996058643024128 2.0499824190836207 -0.5200046160127103 1.1399895127138917
3.56484913826 0.0503970179017931 -0.2656324783688966 -1.0867189161004156 1.9996058643024128 2.0499824190836207 -0.5200046160127103 1.1399895127138917
3.56484913826 0.0503970179017931 -0.2656324783688966 -1.0867189161004156 1.9996058643024128 2.0499824190836207 -0.5200046160127103 1.1399895127138917
3.57489895821 0.0503970179017931 -0.2656324783688966 -1.0867189161004156 1.9996058643024128 2.0499824190836207 -0.5200046160127103 1.1399895127138917
3.57489895821 0.0503970179017931 -0.2656324783688966 -1.0867189161004156 1.9996058643024128 2.0499824190836207 -0.5200046160127103 1.1399895127138917
3.58490395546 0.0503970179017931 -0.2656324783688966 -1.0867189161004156 1.9996058643024128 2.0499824190836207 -0.5200046160127103 1.1399895127138917
3.58490395546 0.0503970179017931 -0.2656324783688966 -1.0867189161004156 1.9996058643024128 2.0499824190836207 -0.5200046160127103 1.1399895127138917
3.59491801262 0.0503970179017931 -0.2656324783688966 -1.0867189161004156 1.9996058643024128 2.0499824190836207 -0.5200046160127103 1.1399895127138917
3.59491801262 0.0503970179017931 -0.2656324783688966 -1.0867189161004156 1.9996058643024128 2.0499824190836207 -0.5200046160127103 1.1399895127138917
3.60495710373 0.0503970179017931 -0.2656324783688966 -1.0867189161004156 1.9996058643024128 2.0499824190836207 -0.5200046160127103 1.1399895127138917
3.60495710373 0.0503970179017931 -0.2656324783688966 -1.0867189161004156 1.9996058643024128 2.0499824190836207 -0.5200046160127103 1.1399895127138917
3.61483097076 0.0503970179017931 -0.2656324783688966 -1.0867189161004156 1.9996058643024128 2.0499824190836207 -0.5200046160127103 1.1399895127138917
3.61483097076 0.0503970179017931 -0.2656324783688966 -1.0867189161004156 1.9996058643024128 2.0499824190836207 -0.5200046160127103 1.1399895127138917
3.62486505508 0.0503970179017931 -0.2656324783688966 -1.0867189161004156 1.9996058643024128 2.0499824190836207 -0.5200046160127103 1.1399895127138917
3.62486505508 0.0503970179017931 -0.2656324783688966 -1.0867189161004156 1.9996058643024128 2.0499824190836207 -0.5200046160127103 1.1399895127138917
3.63487911224 0.0503970179017931 -0.2656324783688966 -1.0867189161004156 1.9996058643024128 2.0499824190836207 -0.5200046160127103 1.1399895127138917
3.63487911224 0.0503970179017931 -0.2656324783688966 -1.0867189161004156 1.9996058643024128 2.0499824190836207 -0.5200046160127103 1.1399895127138917
3.64479804039 0.0503970179017931 -0.2656324783688966 -1.0867189161004156 1.9996058643024128 2.0499824190836207 -0.5200046160127103 1.1399895127138917
3.64479804039 0.0503970179017931 -0.2656324783688966 -1.0867189161004156 1.9996058643024128 2.0499824190836207 -0.5200046160127103 1.1399895127138917
3.6548781395 0.0503970179017931 -0.2656324783688966 -1.0867189161004156 1.9996058643024128 2.0499824190836207 -0.5200046160127103 1.1399895127138917
3.6548781395 0.0503970179017931 -0.2656324783688966 -1.0867189161004156 1.9996058643024128 2.0499824190836207 -0.5200046160127103 1.1399895127138917
3.6649119854 0.0503970179017931 -0.2656324783688966 -1.0867189161004156 1.9996058643024128 2.0499824190836207 -0.5200046160127103 1.1399895127138917
3.6649119854 0.0503970179017931 -0.2656324783688966 -1.0867189161004156 1.9996058643024128 2.0499824190836207 -0.5200046160127103 1.1399895127138917
3.67471814156 0.0503970179017931 -0.2656324783688966 -1.0867189161004156 1.9996058643024128 2.0499824190836207 -0.5200046160127103 1.1399895127138917
3.67471814156 0.0503970179017931 -0.2656324783688966 -1.0867189161004156 1.9996058643024128 2.0499824190836207 -0.5200046160127103 1.1399895127138917
3.6849091053 0.0503970179017931 -0.2656324783688966 -1.0867189161004156 1.9996058643024128 2.0499824190836207 -0.5200046160127103 1.1399895127138917
3.6849091053 0.0503970179017931 -0.2656324783688966 -1.0867189161004156 1.9996058643024128 2.0499824190836207 -0.5200046160127103 1.1399895127138917
3.6949031353 0.0503970179017931 -0.2656324783688966 -1.0867189161004156 1.9996058643024128 2.0499824190836207 -0.5200046160127103 1.1399895127138917
3.6949031353 0.0503970179017931 -0.2656324783688966 -1.0867189161004156 1.9996058643024128 2.0499824190836207 -0.5200046160127103 1.1399895127138917
3.70482802391 0.0503970179017931 -0.2656324783688966 -1.0867189161004156 1.9996058643024128 2.0499824190836207 -0.5200046160127103 1.1399895127138917
3.70482802391 0.0503970179017931 -0.2656324783688966 -1.0867189161004156 1.9996058643024128 2.0499824190836207 -0.5200046160127103 1.1399895127138917
3.71490812302 0.0503970179017931 -0.2656324783688966 -1.0867189161004156 1.9996058643024128 2.0499824190836207 -0.5200046160127103 1.1399895127138917
3.71490812302 0.0503970179017931 -0.2656324783688966 -1.0867189161004156 1.9996058643024128 2.0499824190836207 -0.5200046160127103 1.1399895127138917
3.72491312027 0.0503970179017931 -0.2656324783688966 -1.0867189161004156 1.9996058643024128 2.0499824190836207 -0.5200046160127103 1.1399895127138917
3.72491312027 0.0503970179017931 -0.2656324783688966 -1.0867189161004156 1.9996058643024128 2.0499824190836207 -0.5200046160127103 1.1399895127138917
3.73490691185 0.0503970179017931 -0.2656324783688966 -1.0867189161004156 1.9996058643024128 2.0499824190836207 -0.5200046160127103 1.1399895127138917
3.73490691185 0.0503970179017931 -0.2656324783688966 -1.0867189161004156 1.9996058643024128 2.0499824190836207 -0.5200046160127103 1.1399895127138917
3.74472904205 0.0503970179017931 -0.2656324783688966 -1.0867189161004156 1.9996058643024128 2.0499824190836207 -0.5200046160127103 1.1399895127138917
3.74472904205 0.0503970179017931 -0.2656324783688966 -1.0867189161004156 1.9996058643024128 2.0499824190836207 -0.5200046160127103 1.1399895127138917
3.75491595268 0.0503970179017931 -0.2656324783688966 -1.0867189161004156 1.9996058643024128 2.0499824190836207 -0.5200046160127103 1.1399895127138917
3.75491595268 0.0503970179017931 -0.2656324783688966 -1.0867189161004156 1.9996058643024128 2.0499824190836207 -0.5200046160127103 1.1399895127138917
3.76483798027 0.0503970179017931 -0.2656324783688966 -1.0867189161004156 1.9996058643024128 2.0499824190836207 -0.5200046160127103 1.1399895127138917
3.76483798027 0.0503970179017931 -0.2656324783688966 -1.0867189161004156 1.9996058643024128 2.0499824190836207 -0.5200046160127103 1.1399895127138917
3.7749979496 0.0503970179017931 -0.2656324783688966 -1.0867189161004156 1.9996058643024128 2.0499824190836207 -0.5200046160127103 1.1399895127138917
3.7749979496 0.0503970179017931 -0.2656324783688966 -1.0867189161004156 1.9996058643024128 2.0499824190836207 -0.5200046160127103 1.1399895127138917
3.78488206863 0.0503970179017931 -0.2656324783688966 -1.0867189161004156 1.9996058643024128 2.0499824190836207 -0.5200046160127103 1.1399895127138917
3.78488206863 0.0503970179017931 -0.2656324783688966 -1.0867189161004156 1.9996058643024128 2.0499824190836207 -0.5200046160127103 1.1399895127138917
3.79487109184 0.0503970179017931 -0.2656324783688966 -1.0867189161004156 1.9996058643024128 2.0499824190836207 -0.5200046160127103 1.1399895127138917
3.79487109184 0.0503970179017931 -0.2656324783688966 -1.0867189161004156 1.9996058643024128 2.0499824190836207 -0.5200046160127103 1.1399895127138917
3.80484008789 0.0503970179017931 -0.2656324783688966 -1.0867189161004156 1.9996058643024128 2.0499824190836207 -0.5200046160127103 1.1399895127138917
3.80484008789 0.0503970179017931 -0.2656324783688966 -1.0867189161004156 1.9996058643024128 2.0499824190836207 -0.5200046160127103 1.1399895127138917
3.81494498253 0.0503970179017931 -0.2656324783688966 -1.0867189161004156 1.9996058643024128 2.0499824190836207 -0.5200046160127103 1.1399895127138917
3.81494498253 0.0503970179017931 -0.2656324783688966 -1.0867189161004156 1.9996058643024128 2.0499824190836207 -0.5200046160127103 1.1399895127138917
3.82483196259 0.0503970179017931 -0.2656324783688966 -1.0867189161004156 1.9996058643024128 2.0499824190836207 -0.5200046160127103 1.1399895127138917
3.82483196259 0.0503970179017931 -0.2656324783688966 -1.0867189161004156 1.9996058643024128 2.0499824190836207 -0.5200046160127103 1.1399895127138917
3.83491110802 0.0503970179017931 -0.2656324783688966 -1.0867189161004156 1.9996058643024128 2.0499824190836207 -0.5200046160127103 1.1399895127138917
3.83491110802 0.0503970179017931 -0.2656324783688966 -1.0867189161004156 1.9996058643024128 2.0499824190836207 -0.5200046160127103 1.1399895127138917
3.84483408928 0.0503970179017931 -0.2656324783688966 -1.0867189161004156 1.9996058643024128 2.0499824190836207 -0.5200046160127103 1.1399895127138917
3.84483408928 0.0503970179017931 -0.2656324783688966 -1.0867189161004156 1.9996058643024128 2.0499824190836207 -0.5200046160127103 1.1399895127138917
3.8548810482 0.0503970179017931 -0.2656324783688966 -1.0867189161004156 1.9996058643024128 2.0499824190836207 -0.5200046160127103 1.1399895127138917
3.8548810482 0.0503970179017931 -0.2656324783688966 -1.0867189161004156 1.9996058643024128 2.0499824190836207 -0.5200046160127103 1.1399895127138917
3.86478996277 0.0503970179017931 -0.2656324783688966 -1.0867189161004156 1.9996058643024128 2.0499824190836207 -0.5200046160127103 1.1399895127138917
3.86478996277 0.0503970179017931 -0.2656324783688966 -1.0867189161004156 1.9996058643024128 2.0499824190836207 -0.5200046160127103 1.1399895127138917
3.8749089241 0.0503970179017931 -0.2656324783688966 -1.0867189161004156 1.9996058643024128 2.0499824190836207 -0.5200046160127103 1.1399895127138917
3.8749089241 0.0503970179017931 -0.2656324783688966 -1.0867189161004156 1.9996058643024128 2.0499824190836207 -0.5200046160127103 1.1399895127138917
3.88453006744 0.0503049778336836 -0.2656324783688966 -1.0872251364750187 1.9995751842797096 2.050037204598331 -0.5200046160127103 1.1399895127138917
3.88453006744 0.0503049778336836 -0.2656324783688966 -1.0872251364750187 1.9995751842797096 2.050037204598331 -0.5200046160127103 1.1399895127138917
3.89454007149 0.0503049778336836 -0.2656324783688966 -1.0872251364750187 1.9995751842797096 2.050037204598331 -0.5200046160127103 1.1399895127138917
3.89454007149 0.0503049778336836 -0.2656324783688966 -1.0872251364750187 1.9995751842797096 2.050037204598331 -0.5200046160127103 1.1399895127138917
3.90488290787 0.0503049778336836 -0.2656324783688966 -1.0872251364750187 1.9995751842797096 2.050037204598331 -0.5200046160127103 1.1399895127138917
3.90488290787 0.0503049778336836 -0.2656324783688966 -1.0872251364750187 1.9995751842797096 2.050037204598331 -0.5200046160127103 1.1399895127138917
3.91495895386 0.0503049778336836 -0.2656324783688966 -1.0872251364750187 1.9995751842797096 2.050037204598331 -0.5200046160127103 1.1399895127138917
3.91495895386 0.0503049778336836 -0.2656324783688966 -1.0872251364750187 1.9995751842797096 2.050037204598331 -0.5200046160127103 1.1399895127138917
