riccardo-csl/Motion-Planning-for-TIAGo-Manipulator/T3_G_7/head_scan/head_scan/tiago_traiettorie_SG/3a-4b/place_4b_rep1.txt
time arm_1_joint arm_2_joint arm_3_joint arm_4_joint arm_5_joint arm_6_joint arm_7_joint
0.681507825851 0.0469761953703846 -0.2615673753607203 -1.1058325702445198 1.9990076038597 2.0501102519512773 -0.5200046160127103 1.1399895127138917
0.682048797607 0.0469761953703846 -0.2615673753607203 -1.1058325702445198 1.9990076038597 2.0501102519512773 -0.5200046160127103 1.1399895127138917
0.682048797607 0.0469761953703846 -0.2615673753607203 -1.1058325702445198 1.9990076038597 2.0501102519512773 -0.5200046160127103 1.1399895127138917
0.69265794754 0.0469761953703846 -0.2615673753607203 -1.1058325702445198 1.9990076038597 2.0501102519512773 -0.5200046160127103 1.1399895127138917
0.69265794754 0.0469761953703846 -0.2615673753607203 -1.1058325702445198 1.9990076038597 2.0501102519512773 -0.5200046160127103 1.1399895127138917
0.702077865601 0.0469761953703846 -0.2615673753607203 -1.1058325702445198 1.9990076038597 2.0501102519512773 -0.5200046160127103 1.1399895127138917
0.702077865601 0.0469761953703846 -0.2615673753607203 -1.1058325702445198 1.9990076038597 2.0501102519512773 -0.5200046160127103 1.1399895127138917
0.712132930756 0.0469761953703846 -0.2615673753607203 -1.1058325702445198 1.9990076038597 2.0501102519512773 -0.5200046160127103 1.1399895127138917
0.712132930756 0.0469761953703846 -0.2615673753607203 -1.1058325702445198 1.9990076038597 2.0501102519512773 -0.5200046160127103 1.1399895127138917
0.722462892532 0.0469761953703846 -0.2615673753607203 -1.1058325702445198 1.9990076038597 2.0501102519512773 -0.5200046160127103 1.1399895127138917
0.722462892532 0.0469761953703846 -0.2615673753607203 -1.1058325702445198 1.9990076038597 2.0501102519512773 -0.5200046160127103 1.1399895127138917
0.73212480545 0.0469761953703846 -0.2615673753607203 -1.1058325702445198 1.9990076038597 2.0501102519512773 -0.5200046160127103 1.1399895127138917
0.73212480545 0.0469761953703846 -0.2615673753607203 -1.1058325702445198 1.9990076038597 2.0501102519512773 -0.5200046160127103 1.1399895127138917
0.742337942123 0.0469761953703846 -0.2615673753607203 -1.1058325702445198 1.9990076038597 2.0501102519512773 -0.5200046160127103 1.1399895127138917
0.742337942123 0.0469761953703846 -0.2615673753607203 -1.1058325702445198 1.9990076038597 2.0501102519512773 -0.5200046160127103 1.1399895127138917
0.752225875854 0.0469761953703846 -0.2615673753607203 -1.1058325702445198 1.9990076038597 2.0501102519512773 -0.5200046160127103 1.1399895127138917
0.752225875854 0.0469761953703846 -0.2615673753607203 -1.1058325702445198 1.9990076038597 2.0501102519512773 -0.5200046160127103 1.1399895127138917
0.762341022491 0.0469761953703846 -0.2615673753607203 -1.1058325702445198 1.9990076038597 2.0501102519512773 -0.5200046160127103 1.1399895127138917
0.762341022491 0.0469761953703846 -0.2615673753607203 -1.1058325702445198 1.9990076038597 2.0501102519512773 -0.5200046160127103 1.1399895127138917
0.772462844849 0.0469761953703846 -0.2615673753607203 -1.1058325702445198 1.9990076038597 2.0501102519512773 -0.5200046160127103 1.1399895127138917
0.772462844849 0.0469761953703846 -0.2615673753607203 -1.1058325702445198 1.9990076038597 2.0501102519512773 -0.5200046160127103 1.1399895127138917
0.782228946686 0.0469761953703846 -0.2615673753607203 -1.1058325702445198 1.9990076038597 2.0501102519512773 -0.5200046160127103 1.1399895127138917
0.782228946686 0.0469761953703846 -0.2615673753607203 -1.1058325702445198 1.9990076038597 2.0501102519512773 -0.5200046160127103 1.1399895127138917
0.792269945145 0.0469761953703846 -0.2615673753607203 -1.1058325702445198 1.9990076038597 2.0501102519512773 -0.5200046160127103 1.1399895127138917
0.792269945145 0.0469761953703846 -0.2615673753607203 -1.1058325702445198 1.9990076038597 2.0501102519512773 -0.5200046160127103 1.1399895127138917
0.80210185051 0.0469761953703846 -0.2615673753607203 -1.1058325702445198 1.9990076038597 2.0501102519512773 -0.5200046160127103 1.1399895127138917
0.80210185051 0.0469761953703846 -0.2615673753607203 -1.1058325702445198 1.9990076038597 2.0501102519512773 -0.5200046160127103 1.1399895127138917
0.812208890915 0.0469761953703846 -0.2615673753607203 -1.1058325702445198 1.9990076038597 2.0501102519512773 -0.5200046160127103 1.1399895127138917
0.812208890915 0.0469761953703846 -0.2615673753607203 -1.1058325702445198 1.9990076038597 2.0501102519512773 -0.5200046160127103 1.1399895127138917
0.822256803513 0.0469761953703846 -0.2615673753607203 -1.1058325702445198 1.9990076038597 2.0501102519512773 -0.5200046160127103 1.1399895127138917
0.822256803513 0.0469761953703846 -0.2615673753607203 -1.1058325702445198 1.9990076038597 2.0501102519512773 -0.5200046160127103 1.1399895127138917
0.832399845123 0.0469761953703846 -0.2615673753607203 -1.1058325702445198 1.9990076038597 2.0501102519512773 -0.5200046160127103 1.1399895127138917
0.832399845123 0.0469761953703846 -0.2615673753607203 -1.1058325702445198 1.9990076038597 2.0501102519512773 -0.5200046160127103 1.1399895127138917
0.842360019684 0.0469761953703846 -0.2615673753607203 -1.1058325702445198 1.9990076038597 2.0501102519512773 -0.5200046160127103 1.1399895127138917
0.842360019684 0.0469761953703846 -0.2615673753607203 -1.1058325702445198 1.9990076038597 2.0501102519512773 -0.5200046160127103 1.1399895127138917
0.852420806885 0.0469761953703846 -0.2615673753607203 -1.1058325702445198 1.9990076038597 2.0501102519512773 -0.5200046160127103 1.1399895127138917
0.852420806885 0.0469761953703846 -0.2615673753607203 -1.1058325702445198 1.9990076038597 2.0501102519512773 -0.5200046160127103 1.1399895127138917
0.862509965897 0.0469761953703846 -0.2615673753607203 -1.1058325702445198 1.9990076038597 2.0501102519512773 -0.5200046160127103 1.1399895127138917
0.862509965897 0.0469761953703846 -0.2615673753607203 -1.1058325702445198 1.9990076038597 2.0501102519512773 -0.5200046160127103 1.1399895127138917
0.87396979332 0.0469761953703846 -0.2615673753607203 -1.1058325702445198 1.9990076038597 2.0501102519512773 -0.5200046160127103 1.1399895127138917
0.87396979332 0.0469761953703846 -0.2615673753607203 -1.1058325702445198 1.9990076038597 2.0501102519512773 -0.5200046160127103 1.1399895127138917
0.882449865341 0.0469761953703846 -0.2615673753607203 -1.1058325702445198 1.9990076038597 2.0501102519512773 -0.5200046160127103 1.1399895127138917
0.882449865341 0.0469761953703846 -0.2615673753607203 -1.1058325702445198 1.9990076038597 2.0501102519512773 -0.5200046160127103 1.1399895127138917
0.892362833023 0.0469761953703846 -0.2615673753607203 -1.1058325702445198 1.9990076038597 2.0501102519512773 -0.5200046160127103 1.1399895127138917
0.892362833023 0.0469761953703846 -0.2615673753607203 -1.1058325702445198 1.9990076038597 2.0501102519512773 -0.5200046160127103 1.1399895127138917
0.902400970459 0.0469761953703846 -0.2615673753607203 -1.1058325702445198 1.9990076038597 2.0501102519512773 -0.5200046160127103 1.1399895127138917
0.902400970459 0.0469761953703846 -0.2615673753607203 -1.1058325702445198 1.9990076038597 2.0501102519512773 -0.5200046160127103 1.1399895127138917
0.912302970886 0.0469761953703846 -0.2615673753607203 -1.1058325702445198 1.9990076038597 2.0501102519512773 -0.5200046160127103 1.1399895127138917
0.912302970886 0.0469761953703846 -0.2615673753607203 -1.1058325702445198 1.9990076038597 2.0501102519512773 -0.5200046160127103 1.1399895127138917
0.922272920609 0.0469761953703846 -0.2615673753607203 -1.1058325702445198 1.9990076038597 2.0501102519512773 -0.5200046160127103 1.1399895127138917
0.922272920609 0.0469761953703846 -0.2615673753607203 -1.1058325702445198 1.9990076038597 2.0501102519512773 -0.5200046160127103 1.1399895127138917
0.932063817978 0.0469761953703846 -0.2615673753607203 -1.1058325702445198 1.9990076038597 2.0501102519512773 -0.5200046160127103 1.1399895127138917
0.932063817978 0.0469761953703846 -0.2615673753607203 -1.1058325702445198 1.9990076038597 2.0501102519512773 -0.5200046160127103 1.1399895127138917
0.942140817642 0.0469761953703846 -0.2615673753607203 -1.1058325702445198 1.9990076038597 2.0501102519512773 -0.5200046160127103 1.1399895127138917
0.942140817642 0.0469761953703846 -0.2615673753607203 -1.1058325702445198 1.9990076038597 2.0501102519512773 -0.5200046160127103 1.1399895127138917
0.952220916748 0.0469761953703846 -0.2615673753607203 -1.1058325702445198 1.9990076038597 2.0501102519512773 -0.5200046160127103 1.1399895127138917
0.952220916748 0.0469761953703846 -0.2615673753607203 -1.1058325702445198 1.9990076038597 2.0501102519512773 -0.5200046160127103 1.1399895127138917
0.962312936783 0.0469761953703846 -0.2615673753607203 -1.1058325702445198 1.9990076038597 2.0501102519512773 -0.5200046160127103 1.1399895127138917
0.962312936783 0.0469761953703846 -0.2615673753607203 -1.1058325702445198 1.9990076038597 2.0501102519512773 -0.5200046160127103 1.1399895127138917
0.972184896469 0.0469761953703846 -0.2615673753607203 -1.1058325702445198 1.9990076038597 2.0501102519512773 -0.5200046160127103 1.1399895127138917
0.972184896469 0.0469761953703846 -0.2615673753607203 -1.1058325702445198 1.9990076038597 2.0501102519512773 -0.5200046160127103 1.1399895127138917
0.982400894165 0.0469761953703846 -0.2615673753607203 -1.1058325702445198 1.9990076038597 2.0501102519512773 -0.5200046160127103 1.1399895127138917
0.982400894165 0.0469761953703846 -0.2615673753607203 -1.1058325702445198 1.9990076038597 2.0501102519512773 -0.5200046160127103 1.1399895127138917
0.992244005203 0.0469761953703846 -0.2615673753607203 -1.1058325702445198 1.9990076038597 2.0501102519512773 -0.5200046160127103 1.1399895127138917
0.992244005203 0.0469761953703846 -0.2615673753607203 -1.1058325702445198 1.9990076038597 2.0501102519512773 -0.5200046160127103 1.1399895127138917
1.00248289108 0.0469761953703846 -0.2615673753607203 -1.1058325702445198 1.9990076038597 2.0501102519512773 -0.5200046160127103 1.1399895127138917
1.00248289108 0.0469761953703846 -0.2615673753607203 -1.1058325702445198 1.9990076038597 2.0501102519512773 -0.5200046160127103 1.1399895127138917
1.01241898537 0.0469761953703846 -0.2615673753607203 -1.1058325702445198 1.9990076038597 2.0501102519512773 -0.5200046160127103 1.1399895127138917
1.01241898537 0.0469761953703846 -0.2615673753607203 -1.1058325702445198 1.9990076038597 2.0501102519512773 -0.5200046160127103 1.1399895127138917
1.02249693871 0.0469761953703846 -0.2615673753607203 -1.1058325702445198 1.9990076038597 2.0501102519512773 -0.5200046160127103 1.1399895127138917
1.02249693871 0.0469761953703846 -0.2615673753607203 -1.1058325702445198 1.9990076038597 2.0501102519512773 -0.5200046160127103 1.1399895127138917
1.03234481812 0.0469761953703846 -0.2615673753607203 -1.1058325702445198 1.9990076038597 2.0501102519512773 -0.5200046160127103 1.1399895127138917
1.03234481812 0.0469761953703846 -0.2615673753607203 -1.1058325702445198 1.9990076038597 2.0501102519512773 -0.5200046160127103 1.1399895127138917
1.04216599464 0.0469761953703846 -0.2615673753607203 -1.1058325702445198 1.9990076038597 2.0501102519512773 -0.5200046160127103 1.1399895127138917
1.04216599464 0.0469761953703846 -0.2615673753607203 -1.1058325702445198 1.9990076038597 2.0501102519512773 -0.5200046160127103 1.1399895127138917
1.05225491524 0.0469761953703846 -0.2615673753607203 -1.1058325702445198 1.9990076038597 2.0501102519512773 -0.5200046160127103 1.1399895127138917
1.05225491524 0.0469761953703846 -0.2615673753607203 -1.1058325702445198 1.9990076038597 2.0501102519512773 -0.5200046160127103 1.1399895127138917
1.0620508194 0.0469761953703846 -0.2615673753607203 -1.1058325702445198 1.9990076038597 2.0501102519512773 -0.5200046160127103 1.1399895127138917
1.0620508194 0.0469761953703846 -0.2615673753607203 -1.1058325702445198 1.9990076038597 2.0501102519512773 -0.5200046160127103 1.1399895127138917
1.07229590416 0.0469761953703846 -0.2615673753607203 -1.1058325702445198 1.9990076038597 2.0501102519512773 -0.5200046160127103 1.1399895127138917
1.07229590416 0.0469761953703846 -0.2615673753607203 -1.1058325702445198 1.9990076038597 2.0501102519512773 -0.5200046160127103 1.1399895127138917
1.08244395256 0.0469761953703846 -0.2615673753607203 -1.1058325702445198 1.9990076038597 2.0501102519512773 -0.5200046160127103 1.1399895127138917
1.08244395256 0.0469761953703846 -0.2615673753607203 -1.1058325702445198 1.9990076038597 2.0501102519512773 -0.5200046160127103 1.1399895127138917
1.09237885475 0.0469761953703846 -0.2615673753607203 -1.1058325702445198 1.9990076038597 2.0501102519512773 -0.5200046160127103 1.1399895127138917
1.09237885475 0.0469761953703846 -0.2615673753607203 -1.1058325702445198 1.9990076038597 2.0501102519512773 -0.5200046160127103 1.1399895127138917
1.10242986679 0.0469761953703846 -0.2615673753607203 -1.1058325702445198 1.9990076038597 2.0501102519512773 -0.5200046160127103 1.1399895127138917
1.10242986679 0.0469761953703846 -0.2615673753607203 -1.1058325702445198 1.9990076038597 2.0501102519512773 -0.5200046160127103 1.1399895127138917
1.11242890358 0.0469761953703846 -0.2615673753607203 -1.1058325702445198 1.9990076038597 2.0501102519512773 -0.5200046160127103 1.1399895127138917
1.11242890358 0.0469761953703846 -0.2615673753607203 -1.1058325702445198 1.9990076038597 2.0501102519512773 -0.5200046160127103 1.1399895127138917
1.12239193916 0.0469761953703846 -0.2615673753607203 -1.1058325702445198 1.9990076038597 2.0501102519512773 -0.5200046160127103 1.1399895127138917
1.12239193916 0.0469761953703846 -0.2615673753607203 -1.1058325702445198 1.9990076038597 2.0501102519512773 -0.5200046160127103 1.1399895127138917
1.13220191002 0.0469761953703846 -0.2615673753607203 -1.1058325702445198 1.9990076038597 2.0501102519512773 -0.5200046160127103 1.1399895127138917
1.13220191002 0.0469761953703846 -0.2615673753607203 -1.1058325702445198 1.9990076038597 2.0501102519512773 -0.5200046160127103 1.1399895127138917
1.14224290848 0.0469761953703846 -0.2615673753607203 -1.1058325702445198 1.9990076038597 2.0501102519512773 -0.5200046160127103 1.1399895127138917
1.14224290848 0.0469761953703846 -0.2615673753607203 -1.1058325702445198 1.9990076038597 2.0501102519512773 -0.5200046160127103 1.1399895127138917
1.15230298042 0.0469761953703846 -0.2615673753607203 -1.1058325702445198 1.9990076038597 2.0501011210321587 -0.5200046160127103 1.1399895127138917
1.15230298042 0.0469761953703846 -0.2615673753607203 -1.1058325702445198 1.9990076038597 2.0501011210321587 -0.5200046160127103 1.1399895127138917
1.16235899925 0.0469761953703846 -0.2615673753607203 -1.1058325702445198 1.9990076038597 2.0501102519512773 -0.5200046160127103 1.1399895127138917
1.16235899925 0.0469761953703846 -0.2615673753607203 -1.1058325702445198 1.9990076038597 2.0501102519512773 -0.5200046160127103 1.1399895127138917
1.17240095139 0.0469761953703846 -0.2615673753607203 -1.1058325702445198 1.9990076038597 2.0501102519512773 -0.5200046160127103 1.1399895127138917
1.17240095139 0.0469761953703846 -0.2615673753607203 -1.1058325702445198 1.9990076038597 2.0501102519512773 -0.5200046160127103 1.1399895127138917
1.18239188194 0.0469761953703846 -0.2615673753607203 -1.1058325702445198 1.9990076038597 2.0501102519512773 -0.5200046160127103 1.1399895127138917
1.18239188194 0.0469761953703846 -0.2615673753607203 -1.1058325702445198 1.9990076038597 2.0501102519512773 -0.5200046160127103 1.1399895127138917
1.19242095947 0.0469761953703846 -0.2615673753607203 -1.1058325702445198 1.9990076038597 2.0501102519512773 -0.5200046160127103 1.1399895127138917
1.19242095947 0.0469761953703846 -0.2615673753607203 -1.1058325702445198 1.9990076038597 2.0501102519512773 -0.5200046160127103 1.1399895127138917
1.20246982574 0.0469761953703846 -0.2615673753607203 -1.1058325702445198 1.999022943871052 2.0501102519512773 -0.5200046160127103 1.1399895127138917
1.20246982574 0.0469761953703846 -0.2615673753607203 -1.1058325702445198 1.999022943871052 2.0501102519512773 -0.5200046160127103 1.1399895127138917
1.21230387688 0.0469761953703846 -0.2615673753607203 -1.1058325702445198 1.9990382838824032 2.0501102519512773 -0.5200046160127103 1.1399895127138917
1.21230387688 0.0469761953703846 -0.2615673753607203 -1.1058325702445198 1.9990382838824032 2.0501102519512773 -0.5200046160127103 1.1399895127138917
1.22243499756 0.0469761953703846 -0.2615673753607203 -1.1058325702445198 1.9990689639051065 2.0501102519512773 -0.5200046160127103 1.1399895127138917
1.22243499756 0.0469761953703846 -0.2615673753607203 -1.1058325702445198 1.9990689639051065 2.0501102519512773 -0.5200046160127103 1.1399895127138917
1.23245191574 0.0469761953703846 -0.2615673753607203 -1.1058325702445198 1.9990689639051065 2.0501102519512773 -0.5200046160127103 1.1399895127138917
1.23245191574 0.0469761953703846 -0.2615673753607203 -1.1058325702445198 1.9990689639051065 2.0501102519512773 -0.5200046160127103 1.1399895127138917
1.24235796928 0.0469761953703846 -0.2615673753607203 -1.1058325702445198 1.9990689639051065 2.0501102519512773 -0.5200046160127103 1.1399895127138917
1.24235796928 0.0469761953703846 -0.2615673753607203 -1.1058325702445198 1.9990689639051065 2.0501102519512773 -0.5200046160127103 1.1399895127138917
1.2524960041 0.0469761953703846 -0.2615673753607203 -1.1058325702445198 1.999130323950513 2.0501102519512773 -0.5200046160127103 1.1399895127138917
1.2524960041 0.0469761953703846 -0.2615673753607203 -1.1058325702445198 1.999130323950513 2.0501102519512773 -0.5200046160127103 1.1399895127138917
1.26223492622 0.0469761953703846 -0.2615673753607203 -1.1058325702445198 1.999130323950513 2.0501102519512773 -0.5200046160127103 1.1399895127138917
1.26223492622 0.0469761953703846 -0.2615673753607203 -1.1058325702445198 1.999130323950513 2.0501102519512773 -0.5200046160127103 1.1399895127138917
1.27201199532 0.0469761953703846 -0.2615673753607203 -1.1058325702445198 1.999130323950513 2.0501102519512773 -0.5200046160127103 1.1399895127138917
1.27201199532 0.0469761953703846 -0.2615673753607203 -1.1058325702445198 1.999130323950513 2.0501102519512773 -0.5200046160127103 1.1399895127138917
1.28233098984 0.0469761953703846 -0.2615673753607203 -1.1058325702445198 1.999406444154842 2.0501102519512773 -0.5200046160127103 1.1399895127138917
1.28233098984 0.0469761953703846 -0.2615673753607203 -1.1058325702445198 1.999406444154842 2.0501102519512773 -0.5200046160127103 1.1399895127138917
1.29240083694 0.0469761953703846 -0.2615673753607203 -1.1058325702445198 1.999406444154842 2.0501102519512773 -0.5200046160127103 1.1399895127138917
1.29240083694 0.0469761953703846 -0.2615673753607203 -1.1058325702445198 1.999406444154842 2.0501102519512773 -0.5200046160127103 1.1399895127138917
1.30247783661 0.0469761953703846 -0.2615673753607203 -1.1058325702445198 1.9996825643591711 2.0501102519512773 -0.5200046160127103 1.1399895127138917
1.30247783661 0.0469761953703846 -0.2615673753607203 -1.1058325702445198 1.9996825643591711 2.0501102519512773 -0.5200046160127103 1.1399895127138917
1.31240582466 0.0469761953703846 -0.2615673753607203 -1.1058325702445198 1.9996825643591711 2.0501102519512773 -0.5200046160127103 1.1399895127138917
1.31240582466 0.0469761953703846 -0.2615673753607203 -1.1058325702445198 1.9996825643591711 2.0501102519512773 -0.5200046160127103 1.1399895127138917
1.32228684425 0.0469761953703846 -0.2615673753607203 -1.1058325702445198 2.0000200446089065 2.0501102519512773 -0.5200046160127103 1.1399895127138917
1.32228684425 0.0469761953703846 -0.2615673753607203 -1.1058325702445198 2.0000200446089065 2.0501102519512773 -0.5200046160127103 1.1399895127138917
1.33220601082 0.0469761953703846 -0.2615673753607203 -1.1058325702445198 2.0000200446089065 2.0501102519512773 -0.5200046160127103 1.1399895127138917
1.33220601082 0.0469761953703846 -0.2615673753607203 -1.1058325702445198 2.0000200446089065 2.0501102519512773 -0.5200046160127103 1.1399895127138917
1.34308600426 0.0469761953703846 -0.2615673753607203 -1.1058325702445198 2.0000200446089065 2.0501102519512773 -0.5200046160127103 1.1399895127138917
1.34308600426 0.0469761953703846 -0.2615673753607203 -1.1058325702445198 2.0000200446089065 2.0501102519512773 -0.5200046160127103 1.1399895127138917
1.35211992264 0.0469761953703846 -0.2615673753607203 -1.1058325702445198 2.0000200446089065 2.0501102519512773 -0.5200046160127103 1.1399895127138917
1.35211992264 0.0469761953703846 -0.2615673753607203 -1.1058325702445198 2.0000200446089065 2.0501102519512773 -0.5200046160127103 1.1399895127138917
1.3622739315 0.0469761953703846 -0.2615673753607203 -1.1058325702445198 2.0006183050516197 2.0501102519512773 -0.5200046160127103 1.1399895127138917
1.3622739315 0.0469761953703846 -0.2615673753607203 -1.1058325702445198 2.0006183050516197 2.0501102519512773 -0.5200046160127103 1.1399895127138917
1.37230300903 0.0469761953703846 -0.2615673753607203 -1.1058325702445198 2.0006183050516197 2.0501102519512773 -0.5200046160127103 1.1399895127138917
1.37230300903 0.0469761953703846 -0.2615673753607203 -1.1058325702445198 2.0006183050516197 2.0501102519512773 -0.5200046160127103 1.1399895127138917
1.38221597672 0.0469761953703846 -0.2615673753607203 -1.1058325702445198 2.000955785301355 2.0501102519512773 -0.5200046160127103 1.1399895127138917
1.38221597672 0.0469761953703846 -0.2615673753607203 -1.1058325702445198 2.000955785301355 2.0501102519512773 -0.5200046160127103 1.1399895127138917
1.39213180542 0.0469761953703846 -0.2615673753607203 -1.1058325702445198 2.000955785301355 2.0501102519512773 -0.5200046160127103 1.1399895127138917
1.39213180542 0.0469761953703846 -0.2615673753607203 -1.1058325702445198 2.000955785301355 2.0501102519512773 -0.5200046160127103 1.1399895127138917
1.40219688416 0.0469915353817362 -0.2615673753607203 -1.105863250267223 2.0013546255964965 2.0501102519512773 -0.5200046160127103 1.1399895127138917
1.40219688416 0.0469915353817362 -0.2615673753607203 -1.105863250267223 2.0013546255964965 2.0501102519512773 -0.5200046160127103 1.1399895127138917
1.41227889061 0.0469915353817362 -0.2615673753607203 -1.105863250267223 2.0013546255964965 2.0501102519512773 -0.5200046160127103 1.1399895127138917
1.41227889061 0.0469915353817362 -0.2615673753607203 -1.105863250267223 2.0013546255964965 2.0501102519512773 -0.5200046160127103 1.1399895127138917
1.42233586311 0.0469915353817362 -0.2615673753607203 -1.105863250267223 2.0013546255964965 2.0501102519512773 -0.5200046160127103 1.1399895127138917
1.42233586311 0.0469915353817362 -0.2615673753607203 -1.105863250267223 2.0013546255964965 2.0501102519512773 -0.5200046160127103 1.1399895127138917
1.43217086792 0.0469915353817362 -0.2615673753607203 -1.105863250267223 2.0013546255964965 2.0501102519512773 -0.5200046160127103 1.1399895127138917
1.43217086792 0.0469915353817362 -0.2615673753607203 -1.105863250267223 2.0013546255964965 2.0501102519512773 -0.5200046160127103 1.1399895127138917
1.44236898422 0.0469915353817362 -0.2615673753607203 -1.105863250267223 2.0013546255964965 2.0501102519512773 -0.5200046160127103 1.1399895127138917
1.44236898422 0.0469915353817362 -0.2615673753607203 -1.105863250267223 2.0013546255964965 2.0501102519512773 -0.5200046160127103 1.1399895127138917
1.45239281654 0.0469915353817362 -0.2615673753607203 -1.105863250267223 2.0013546255964965 2.0501102519512773 -0.5200046160127103 1.1399895127138917
1.45239281654 0.0469915353817362 -0.2615673753607203 -1.105863250267223 2.0013546255964965 2.0501102519512773 -0.5200046160127103 1.1399895127138917
1.46233487129 0.0469915353817362 -0.2615673753607203 -1.105863250267223 2.0013546255964965 2.0501102519512773 -0.5200046160127103 1.1399895127138917
1.46233487129 0.0470528954271 -0.261552035349 -1.1059092703 2.00181482594 2.05011025195 -0.520004616013 1.13998951271
1.47243189812 0.0472983356087683 -0.2615213553266656 -1.1061853905056067 2.0024437664024606 2.0501102519512773 -0.5200046160127103 1.1399895127138917
1.47243189812 0.0472983356087683 -0.2615213553266656 -1.1061853905056067 2.0024437664024606 2.0501102519512773 -0.5200046160127103 1.1399895127138917
1.4820959568 0.0474977557563391 -0.2614753352926107 -1.106446170698584 2.002520466459219 2.0501102519512773 -0.5200046160127103 1.1399895127138917
1.4820959568 0.0474977557563391 -0.2614753352926107 -1.106446170698584 2.002520466459219 2.0501102519512773 -0.5200046160127103 1.1399895127138917
1.49215292931 0.0474977557563391 -0.2614753352926107 -1.106446170698584 2.002520466459219 2.0501102519512773 -0.5200046160127103 1.1399895127138917
1.49215292931 0.0474977557563391 -0.2614753352926107 -1.106446170698584 2.002520466459219 2.0501102519512773 -0.5200046160127103 1.1399895127138917
1.50203680992 0.0474977557563391 -0.2614753352926107 -1.106446170698584 2.002520466459219 2.0501102519512773 -0.5200046160127103 1.1399895127138917
1.50203680992 0.0474977557563391 -0.2614753352926107 -1.106446170698584 2.002520466459219 2.0501102519512773 -0.5200046160127103 1.1399895127138917
1.51202201843 0.0474977557563391 -0.2614753352926107 -1.106446170698584 2.002520466459219 2.0501102519512773 -0.5200046160127103 1.1399895127138917
1.51202201843 0.0474977557563391 -0.2614753352926107 -1.106446170698584 2.002520466459219 2.0501102519512773 -0.5200046160127103 1.1399895127138917
1.52204298973 0.0474977557563391 -0.2614753352926107 -1.106446170698584 2.002520466459219 2.0501102519512773 -0.5200046160127103 1.1399895127138917
1.52204298973 0.0474977557563391 -0.2614753352926107 -1.106446170698584 2.002520466459219 2.0501102519512773 -0.5200046160127103 1.1399895127138917
1.53200483322 0.0474977557563391 -0.2614753352926107 -1.106446170698584 2.002520466459219 2.0501102519512773 -0.5200046160127103 1.1399895127138917
1.53200483322 0.0474977557563391 -0.2614753352926107 -1.106446170698584 2.002520466459219 2.0501102519512773 -0.5200046160127103 1.1399895127138917
1.5420999527 0.0474977557563391 -0.2614753352926107 -1.106446170698584 2.002520466459219 2.0501102519512773 -0.5200046160127103 1.1399895127138917
1.5420999527 0.0474977557563391 -0.2614753352926107 -1.106446170698584 2.002520466459219 2.0501102519512773 -0.5200046160127103 1.1399895127138917
1.55207180977 0.0478505760174263 -0.2607696947704367 -1.106998411107242 2.0026738665727346 2.0501102519512773 -0.5200046160127103 1.1399895127138917
1.55207180977 0.0478505760174263 -0.2607696947704367 -1.106998411107242 2.0026738665727346 2.0501102519512773 -0.5200046160127103 1.1399895127138917
1.56201386452 0.0483721364033808 -0.2590669535104081 -1.107780751686174 2.002735226618141 2.0501102519512773 -0.5200046160127103 1.1399895127138917
1.56201386452 0.0483721364033808 -0.2590669535104081 -1.107780751686174 2.002735226618141 2.0501102519512773 -0.5200046160127103 1.1399895127138917
1.57201099396 0.0483721364033808 -0.2590669535104081 -1.107780751686174 2.002735226618141 2.0501102519512773 -0.5200046160127103 1.1399895127138917
1.57201099396 0.0483721364033808 -0.2590669535104081 -1.107780751686174 2.002735226618141 2.0501102519512773 -0.5200046160127103 1.1399895127138917
1.58218884468 0.0483721364033808 -0.2590669535104081 -1.107780751686174 2.002735226618141 2.0501102519512773 -0.5200046160127103 1.1399895127138917
1.58218884468 0.0483721364033808 -0.2590669535104081 -1.107780751686174 2.002735226618141 2.0501102519512773 -0.5200046160127103 1.1399895127138917
1.59213280678 0.0483721364033808 -0.2590669535104081 -1.107780751686174 2.002735226618141 2.0501102519512773 -0.5200046160127103 1.1399895127138917
1.59213280678 0.0483721364033808 -0.2590669535104081 -1.107780751686174 2.002735226618141 2.0501102519512773 -0.5200046160127103 1.1399895127138917
1.60200595856 0.0483721364033808 -0.2590669535104081 -1.107780751686174 2.002735226618141 2.0501102519512773 -0.5200046160127103 1.1399895127138917
1.60200595856 0.0483721364033808 -0.2590669535104081 -1.107780751686174 2.002735226618141 2.0501102519512773 -0.5200046160127103 1.1399895127138917
1.61200690269 0.0483721364033808 -0.2590669535104081 -1.107780751686174 2.002735226618141 2.0501102519512773 -0.5200046160127103 1.1399895127138917
1.61200690269 0.0483721364033808 -0.2590669535104081 -1.107780751686174 2.002735226618141 2.0501102519512773 -0.5200046160127103 1.1399895127138917
1.6219959259 0.0483721364033808 -0.2590669535104081 -1.107780751686174 2.002735226618141 2.0501102519512773 -0.5200046160127103 1.1399895127138917
1.6219959259 0.0483721364033808 -0.2590669535104081 -1.107780751686174 2.002735226618141 2.0501102519512773 -0.5200046160127103 1.1399895127138917
1.63196897507 0.0493999171639387 -0.2560909913081962 -1.1086551323332157 2.002980666799767 2.0501011210321587 -0.5200046160127103 1.1399895127138917
1.63196897507 0.0493999171639387 -0.2560909913081962 -1.1086551323332157 2.002980666799767 2.0501011210321587 -0.5200046160127103 1.1399895127138917
1.64197397232 0.0499214775498934 -0.2538360096395097 -1.108915912526193 2.0032721270154474 2.0501102519512773 -0.5200046160127103 1.1399895127138917
1.64197397232 0.0499214775498934 -0.2538360096395097 -1.108915912526193 2.0032721270154474 2.0501102519512773 -0.5200046160127103 1.1399895127138917
1.65196800232 0.0505043979812544 -0.2509214074827041 -1.1092380527645769 2.0038243674241056 2.0501102519512773 -0.5200091814722694 1.1399849472543326
1.65196800232 0.0505043979812544 -0.2509214074827041 -1.1092380527645769 2.0038243674241056 2.0501102519512773 -0.5200091814722694 1.1399849472543326
1.66197085381 0.0505043979812544 -0.2509214074827041 -1.1092380527645769 2.0038243674241056 2.0501102519512773 -0.5200091814722694 1.1399849472543326
1.66197085381 0.0505043979812544 -0.2509214074827041 -1.1092380527645769 2.0038243674241056 2.0501102519512773 -0.5200091814722694 1.1399849472543326
1.67196083069 0.0505043979812544 -0.2509214074827041 -1.1092380527645769 2.0038243674241056 2.0501102519512773 -0.5200091814722694 1.1399849472543326
1.67196083069 0.0505043979812544 -0.2509214074827041 -1.1092380527645769 2.0038243674241056 2.0501102519512773 -0.5200091814722694 1.1399849472543326
1.682035923 0.0519616990596573 -0.2440337423858319 -1.109544852991609 2.0058185688998145 2.0501102519512773 -0.5200046160127103 1.1399895127138917
1.682035923 0.0519616990596573 -0.2440337423858319 -1.109544852991609 2.0058185688998145 2.0501102519512773 -0.5200046160127103 1.1399895127138917
1.69196486473 0.0519616990596573 -0.2440337423858319 -1.109544852991609 2.0058185688998145 2.0501102519512773 -0.5200046160127103 1.1399895127138917
1.69196486473 0.0519616990596573 -0.2440337423858319 -1.109544852991609 2.0058185688998145 2.0501102519512773 -0.5200046160127103 1.1399895127138917
1.70201897621 0.0528514197180504 -0.2399226193436008 -1.1095601930029606 2.007137809876053 2.0501102519512773 -0.5200046160127103 1.1399895127138917
1.70201897621 0.0528514197180504 -0.2399226193436008 -1.1095601930029606 2.007137809876053 2.0501102519512773 -0.5200046160127103 1.1399895127138917
1.71205401421 0.0528514197180504 -0.2399226193436008 -1.1095601930029606 2.007137809876053 2.0501102519512773 -0.5200046160127103 1.1399895127138917
1.71205401421 0.0528514197180504 -0.2399226193436008 -1.1095601930029606 2.007137809876053 2.0501102519512773 -0.5200046160127103 1.1399895127138917
1.72197294235 0.0528514197180504 -0.2399226193436008 -1.1095601930029606 2.007137809876053 2.0501102519512773 -0.5200046160127103 1.1399895127138917
1.72197294235 0.0528514197180504 -0.2399226193436008 -1.1095601930029606 2.007137809876053 2.0501102519512773 -0.5200046160127103 1.1399895127138917
1.7319688797 0.0528514197180504 -0.2399226193436008 -1.1095601930029606 2.007137809876053 2.0501102519512773 -0.5200046160127103 1.1399895127138917
1.7319688797 0.0528514197180504 -0.2399226193436008 -1.1095601930029606 2.007137809876053 2.0501102519512773 -0.5200046160127103 1.1399895127138917
1.74196791649 0.0528514197180504 -0.2399226193436008 -1.1095601930029606 2.007137809876053 2.0501102519512773 -0.5200046160127103 1.1399895127138917
1.74196791649 0.0528514197180504 -0.2399226193436008 -1.1095601930029606 2.007137809876053 2.0501102519512773 -0.5200046160127103 1.1399895127138917
1.7519659996 0.0528514197180504 -0.2399226193436008 -1.1095601930029606 2.007137809876053 2.0501102519512773 -0.5200046160127103 1.1399895127138917
1.7519659996 0.0528514197180504 -0.2399226193436008 -1.1095601930029606 2.007137809876053 2.0501102519512773 -0.5200046160127103 1.1399895127138917
1.76197600365 0.0538945404899599 -0.2353819759835247 -1.1095601930029606 2.008687151022565 2.0501102519512773 -0.5200046160127103 1.1399895127138917
1.76197600365 0.0538945404899599 -0.2353819759835247 -1.1095601930029606 2.008687151022565 2.0501102519512773 -0.5200046160127103 1.1399895127138917
1.77191901207 0.0538945404899599 -0.2353819759835247 -1.1095601930029606 2.008687151022565 2.0501102519512773 -0.5200046160127103 1.1399895127138917
1.77191901207 0.0538945404899599 -0.2353819759835247 -1.1095601930029606 2.008687151022565 2.0501102519512773 -0.5200046160127103 1.1399895127138917
1.78204798698 0.0538945404899599 -0.2353819759835247 -1.1095601930029606 2.008687151022565 2.0501102519512773 -0.5200046160127103 1.1399895127138917
1.78204798698 0.0538945404899599 -0.2353819759835247 -1.1095601930029606 2.008687151022565 2.0501102519512773 -0.5200046160127103 1.1399895127138917
1.79220080376 0.0550910613753854 -0.2303657922715489 -1.1095601930029606 2.0103285322371875 2.0501102519512773 -0.5200046160127103 1.1399895127138917
1.79220080376 0.0550910613753854 -0.2303657922715489 -1.1095601930029606 2.0103285322371875 2.0501102519512773 -0.5200046160127103 1.1399895127138917
1.80202388763 0.0594016045651874 -0.2145502405680406 -1.1096522330710703 2.0164338567551274 2.0501102519512773 -0.5200046160127103 1.1399895127138917
1.80202388763 0.0594016045651874 -0.2145502405680406 -1.1096522330710703 2.0164338567551274 2.0501102519512773 -0.5200046160127103 1.1399895127138917
1.81209993362 0.0594016045651874 -0.2145502405680406 -1.1096522330710703 2.0164338567551274 2.0501102519512773 -0.5200046160127103 1.1399895127138917
1.81209993362 0.0594016045651874 -0.2145502405680406 -1.1096522330710703 2.0164338567551274 2.0501102519512773 -0.5200046160127103 1.1399895127138917
1.82238101959 0.0594016045651874 -0.2145502405680406 -1.1096522330710703 2.0164338567551274 2.0501102519512773 -0.5200046160127103 1.1399895127138917
1.82238101959 0.0594016045651874 -0.2145502405680406 -1.1096522330710703 2.0164338567551274 2.0501102519512773 -0.5200046160127103 1.1399895127138917
1.83229994774 0.0594016045651874 -0.2145502405680406 -1.1096522330710703 2.0164338567551274 2.0501102519512773 -0.5200046160127103 1.1399895127138917
1.83229994774 0.0594016045651874 -0.2145502405680406 -1.1096522330710703 2.0164338567551274 2.0501102519512773 -0.5200046160127103 1.1399895127138917
1.84241390228 0.0594016045651874 -0.2145502405680406 -1.1096522330710703 2.0164338567551274 2.0501102519512773 -0.5200046160127103 1.1399895127138917
1.84241390228 0.0594016045651874 -0.2145502405680406 -1.1096522330710703 2.0164338567551274 2.0501102519512773 -0.5200046160127103 1.1399895127138917
1.85243201256 0.0594016045651874 -0.2145502405680406 -1.1096522330710703 2.0164338567551274 2.0501102519512773 -0.5200046160127103 1.1399895127138917
1.85243201256 0.0594016045651874 -0.2145502405680406 -1.1096522330710703 2.0164338567551274 2.0501102519512773 -0.5200046160127103 1.1399895127138917
1.86228895187 0.0609662857230514 -0.2091352165609228 -1.1098056331845862 2.0186274783784075 2.0501102519512773 -0.5200046160127103 1.1399895127138917
1.86228895187 0.0609662857230514 -0.2091352165609228 -1.1098056331845862 2.0186274783784075 2.0501102519512773 -0.5200046160127103 1.1399895127138917
1.87245988846 0.0609662857230514 -0.2091352165609228 -1.1098056331845862 2.0186274783784075 2.0501102519512773 -0.5200046160127103 1.1399895127138917
1.87245988846 0.0609662857230514 -0.2091352165609228 -1.1098056331845862 2.0186274783784075 2.0501102519512773 -0.5200046160127103 1.1399895127138917
1.88250279427 0.0609662857230514 -0.2091352165609228 -1.1098056331845862 2.0186274783784075 2.0501102519512773 -0.5200046160127103 1.1399895127138917
1.88250279427 0.0609662857230514 -0.2091352165609228 -1.1098056331845862 2.0186274783784075 2.0501102519512773 -0.5200046160127103 1.1399895127138917
1.89234089851 0.0609662857230514 -0.2091352165609228 -1.1098056331845862 2.0186274783784075 2.0501102519512773 -0.5200046160127103 1.1399895127138917
1.89234089851 0.0609662857230514 -0.2091352165609228 -1.1098056331845862 2.0186274783784075 2.0501102519512773 -0.5200046160127103 1.1399895127138917
1.90250587463 0.0643717682431083 -0.1992409092391354 -1.1105726337521666 2.0222784010800905 2.0501102519512773 -0.5200091814722694 1.1399849472543326
1.90250587463 0.0643717682431083 -0.1992409092391354 -1.1105726337521666 2.0222784010800905 2.0501102519512773 -0.5200091814722694 1.1399849472543326
1.91240882874 0.0658904293669177 -0.1952525062877172 -1.111891874728405 2.023751042169845 2.0501102519512773 -0.5200046160127103 1.1399895127138917
1.91240882874 0.0658904293669177 -0.1952525062877172 -1.111891874728405 2.023751042169845 2.0501102519512773 -0.5200046160127103 1.1399895127138917
1.9222869873 0.0658904293669177 -0.1952525062877172 -1.111891874728405 2.023751042169845 2.0501102519512773 -0.5200046160127103 1.1399895127138917
1.9222869873 0.0658904293669177 -0.1952525062877172 -1.111891874728405 2.023751042169845 2.0501102519512773 -0.5200046160127103 1.1399895127138917
1.93220281601 0.0658904293669177 -0.1952525062877172 -1.111891874728405 2.023751042169845 2.0501102519512773 -0.5200046160127103 1.1399895127138917
1.93220281601 0.0658904293669177 -0.1952525062877172 -1.111891874728405 2.023751042169845 2.0501102519512773 -0.5200046160127103 1.1399895127138917
1.9423558712 0.0658904293669177 -0.1952525062877172 -1.111891874728405 2.023751042169845 2.0501102519512773 -0.5200046160127103 1.1399895127138917
1.9423558712 0.0658904293669177 -0.1952525062877172 -1.111891874728405 2.023751042169845 2.0501102519512773 -0.5200046160127103 1.1399895127138917
1.95231485367 0.0658904293669177 -0.1952525062877172 -1.111891874728405 2.023751042169845 2.0501102519512773 -0.5200046160127103 1.1399895127138917
1.95231485367 0.0658904293669177 -0.1952525062877172 -1.111891874728405 2.023751042169845 2.0501102519512773 -0.5200046160127103 1.1399895127138917
1.96238899231 0.0672710303886 -0.188779021497 -1.11655523818 2.02556116351 2.05011025195 -0.520004616013 1.13998951271
1.96238899231 0.0672710303886 -0.188779021497 -1.11655523818 2.02556116351 2.05011025195 -0.520004616013 1.13998951271
1.97196602821 0.0687743515010201 -0.1840236179783399 -1.1242099038437463 2.0268497244628696 2.0501102519512773 -0.5200046160127103 1.1399895127138917
1.97196602821 0.0687743515010201 -0.1840236179783399 -1.1242099038437463 2.0268497244628696 2.0501102519512773 -0.5200046160127103 1.1399895127138917
1.98206996918 0.0687743515010201 -0.1840236179783399 -1.1242099038437463 2.0268497244628696 2.0501102519512773 -0.5200046160127103 1.1399895127138917
1.98206996918 0.0687743515010201 -0.1840236179783399 -1.1242099038437463 2.0268497244628696 2.0501102519512773 -0.5200046160127103 1.1399895127138917
1.99240684509 0.0687743515010201 -0.1821981566274985 -1.1290266674081515 2.0274326448942306 2.050137644708632 -0.5200046160127103 1.1399895127138917
1.99240684509 0.0687743515010201 -0.1821981566274985 -1.1290266674081515 2.0274326448942306 2.050137644708632 -0.5200046160127103 1.1399895127138917
2.00207591057 0.0687743515010201 -0.1821981566274985 -1.1290266674081515 2.0274326448942306 2.050137644708632 -0.5200046160127103 1.1399895127138917
2.00207591057 0.0687743515010201 -0.1821981566274985 -1.1290266674081515 2.0274326448942306 2.050137644708632 -0.5200046160127103 1.1399895127138917
2.01220488548 0.0687743515010201 -0.1821981566274985 -1.1290266674081515 2.0274326448942306 2.050137644708632 -0.5200046160127103 1.1399895127138917
2.01220488548 0.0687743515010201 -0.1821981566274985 -1.1290266674081515 2.0274326448942306 2.050137644708632 -0.5200046160127103 1.1399895127138917
2.02243185043 0.0687743515010201 -0.1821981566274985 -1.1290266674081515 2.0274326448942306 2.050137644708632 -0.5200046160127103 1.1399895127138917
2.02243185043 0.0687743515010201 -0.1821981566274985 -1.1290266674081515 2.0274326448942306 2.050137644708632 -0.5200046160127103 1.1399895127138917
2.03238487244 0.0687743515010201 -0.1821981566274985 -1.1290266674081515 2.0274326448942306 2.050137644708632 -0.5200046160127103 1.1399895127138917
2.03238487244 0.0687743515010201 -0.1821981566274985 -1.1290266674081515 2.0274326448942306 2.050137644708632 -0.5200046160127103 1.1399895127138917
2.0423309803 0.0687743515010201 -0.1821981566274985 -1.1290266674081515 2.0274326448942306 2.050137644708632 -0.5200046160127103 1.1399895127138917
2.0423309803 0.0687743515010201 -0.1821981566274985 -1.1290266674081515 2.0274326448942306 2.050137644708632 -0.5200046160127103 1.1399895127138917
2.05214285851 0.0687743515010201 -0.1821981566274985 -1.1290266674081515 2.0274326448942306 2.050137644708632 -0.5200046160127103 1.1399895127138917
2.05214285851 0.0687743515010201 -0.1821981566274985 -1.1290266674081515 2.0274326448942306 2.050137644708632 -0.5200046160127103 1.1399895127138917
2.0620238781 0.0691271717621071 -0.1793142344933961 -1.1394885551499483 2.028337705563976 2.050128513789514 -0.5200046160127103 1.1399895127138917
2.0620238781 0.0691271717621071 -0.1793142344933961 -1.1394885551499483 2.028337705563976 2.050128513789514 -0.5200046160127103 1.1399895127138917
2.07240080833 0.0691271717621071 -0.1793142344933961 -1.1394885551499483 2.028337705563976 2.050128513789514 -0.5200046160127103 1.1399895127138917
2.07240080833 0.0691271717621071 -0.1793142344933961 -1.1394885551499483 2.028337705563976 2.050128513789514 -0.5200046160127103 1.1399895127138917
2.08246898651 0.0691271717621071 -0.1793142344933961 -1.1394885551499483 2.028337705563976 2.050128513789514 -0.5200046160127103 1.1399895127138917
2.08246898651 0.0691271717621071 -0.1793142344933961 -1.1394885551499483 2.028337705563976 2.050128513789514 -0.5200046160127103 1.1399895127138917
2.09276890755 0.0697714522388745 -0.1762462322230744 -1.1571909282497046 2.0295955864948074 2.0501741683851056 -0.5200046160127103 1.1399895127138917
2.09276890755 0.0697714522388745 -0.1762462322230744 -1.1571909282497046 2.0295955864948074 2.0501741683851056 -0.5200046160127103 1.1399895127138917
2.10219693184 0.0697714522388745 -0.1762462322230744 -1.1571909282497046 2.0295955864948074 2.0501741683851056 -0.5200046160127103 1.1399895127138917
2.10219693184 0.0697714522388745 -0.1762462322230744 -1.1571909282497046 2.0295955864948074 2.0501741683851056 -0.5200046160127103 1.1399895127138917
2.1122739315 0.0699708723864455 -0.1755866117349553 -1.1632195527108868 2.0300711268467078 2.0501467756277503 -0.5200046160127103 1.1399895127138917
2.1122739315 0.0699708723864455 -0.1755866117349553 -1.1632195527108868 2.0300711268467078 2.0501467756277503 -0.5200046160127103 1.1399895127138917
2.12242388725 0.0699708723864455 -0.1755866117349553 -1.1632195527108868 2.0300711268467078 2.0501467756277503 -0.5200046160127103 1.1399895127138917
2.12242388725 0.0699708723864455 -0.1755866117349553 -1.1632195527108868 2.0300711268467078 2.0501467756277503 -0.5200046160127103 1.1399895127138917
2.13229298592 0.0699708723864455 -0.1755866117349553 -1.1632195527108868 2.0300711268467078 2.0501467756277503 -0.5200046160127103 1.1399895127138917
2.13229298592 0.0699708723864455 -0.1755866117349553 -1.1632195527108868 2.0300711268467078 2.0501467756277503 -0.5200046160127103 1.1399895127138917
2.14245390892 0.0699708723864455 -0.1755866117349553 -1.1632195527108868 2.0300711268467078 2.0501467756277503 -0.5200046160127103 1.1399895127138917
2.14245390892 0.0699708723864455 -0.1755866117349553 -1.1632195527108868 2.0300711268467078 2.0501467756277503 -0.5200046160127103 1.1399895127138917
2.15240502357 0.0699708723864455 -0.1755866117349553 -1.1632195527108868 2.0300711268467078 2.0501467756277503 -0.5200046160127103 1.1399895127138917
2.15240502357 0.0699708723864455 -0.1755866117349553 -1.1632195527108868 2.0300711268467078 2.0501467756277503 -0.5200046160127103 1.1399895127138917
2.16220402718 0.0699708723864455 -0.1755866117349553 -1.1632195527108868 2.0300711268467078 2.0501467756277503 -0.5200046160127103 1.1399895127138917
2.16220402718 0.0699708723864455 -0.1755866117349553 -1.1632195527108868 2.0300711268467078 2.0501467756277503 -0.5200046160127103 1.1399895127138917
2.17212796211 0.0699708723864455 -0.1755866117349553 -1.1632195527108868 2.0300711268467078 2.0501467756277503 -0.5200046160127103 1.1399895127138917
2.17212796211 0.0699708723864455 -0.1755866117349553 -1.1632195527108868 2.0300711268467078 2.0501467756277503 -0.5200046160127103 1.1399895127138917
2.18237400055 0.0699708723864455 -0.1755866117349553 -1.1632195527108868 2.0300711268467078 2.0501467756277503 -0.5200046160127103 1.1399895127138917
2.18237400055 0.0699708723864455 -0.1755866117349553 -1.1632195527108868 2.0300711268467078 2.0501467756277503 -0.5200046160127103 1.1399895127138917
2.1923968792 0.0699708723864455 -0.1755866117349553 -1.1632195527108868 2.0300711268467078 2.0501467756277503 -0.5200046160127103 1.1399895127138917
2.1923968792 0.0699708723864455 -0.1755866117349553 -1.1632195527108868 2.0300711268467078 2.0501467756277503 -0.5200046160127103 1.1399895127138917
2.20225691795 0.0699708723864455 -0.1755866117349553 -1.1632195527108868 2.0300711268467078 2.0501467756277503 -0.5200046160127103 1.1399895127138917
2.20225691795 0.0699708723864455 -0.1755866117349553 -1.1632195527108868 2.0300711268467078 2.0501467756277503 -0.5200046160127103 1.1399895127138917
2.21256184578 0.0699708723864455 -0.1755866117349553 -1.1632195527108868 2.0300711268467078 2.0501467756277503 -0.5200046160127103 1.1399895127138917
2.21256184578 0.0699708723864455 -0.1755866117349553 -1.1632195527108868 2.0300711268467078 2.0501467756277503 -0.5200046160127103 1.1399895127138917
2.22225880623 0.0699708723864455 -0.1755866117349553 -1.1632195527108868 2.0300711268467078 2.0501467756277503 -0.5200046160127103 1.1399895127138917
2.22225880623 0.0699708723864455 -0.1755866117349553 -1.1632195527108868 2.0300711268467078 2.0501467756277503 -0.5200046160127103 1.1399895127138917
2.23239588737 0.0699708723864455 -0.1755866117349553 -1.1632195527108868 2.0300711268467078 2.0501467756277503 -0.5200046160127103 1.1399895127138917
2.23239588737 0.0699708723864455 -0.1755866117349553 -1.1632195527108868 2.0300711268467078 2.0501467756277503 -0.5200046160127103 1.1399895127138917
2.24241685867 0.0702316525794228 -0.175479231655494 -1.1696009974331558 2.030454627130497 2.0501011210321587 -0.5200046160127103 1.1399895127138917
2.24241685867 0.0702316525794228 -0.175479231655494 -1.1696009974331558 2.030454627130497 2.0501011210321587 -0.5200046160127103 1.1399895127138917
2.25237798691 0.0702316525794228 -0.175479231655494 -1.1696009974331558 2.030454627130497 2.0501011210321587 -0.5200046160127103 1.1399895127138917
2.25237798691 0.0702316525794228 -0.175479231655494 -1.1696009974331558 2.030454627130497 2.0501011210321587 -0.5200046160127103 1.1399895127138917
2.26224088669 0.0702316525794228 -0.175479231655494 -1.1696009974331558 2.030454627130497 2.0501011210321587 -0.5200046160127103 1.1399895127138917
2.26224088669 0.0702316525794228 -0.175479231655494 -1.1696009974331558 2.030454627130497 2.0501011210321587 -0.5200046160127103 1.1399895127138917
2.27241182327 0.0702316525794228 -0.175479231655494 -1.1696009974331558 2.030454627130497 2.0501011210321587 -0.5200046160127103 1.1399895127138917
2.27241182327 0.0702316525794228 -0.175479231655494 -1.1696009974331558 2.030454627130497 2.0501011210321587 -0.5200046160127103 1.1399895127138917
2.28228187561 0.0702316525794228 -0.175479231655494 -1.1696009974331558 2.030454627130497 2.0501011210321587 -0.5200046160127103 1.1399895127138917
2.28228187561 0.0702316525794228 -0.175479231655494 -1.1696009974331558 2.030454627130497 2.0501011210321587 -0.5200046160127103 1.1399895127138917
2.29226398468 0.0702316525794228 -0.175479231655494 -1.1696009974331558 2.030454627130497 2.0501011210321587 -0.5200046160127103 1.1399895127138917
2.29226398468 0.0702316525794228 -0.175479231655494 -1.1696009974331558 2.030454627130497 2.0501011210321587 -0.5200046160127103 1.1399895127138917
2.30243396759 0.0702316525794228 -0.175479231655494 -1.1696009974331558 2.030454627130497 2.0501011210321587 -0.5200046160127103 1.1399895127138917
2.30243396759 0.0702316525794228 -0.175479231655494 -1.1696009974331558 2.030454627130497 2.0501011210321587 -0.5200046160127103 1.1399895127138917
2.31316280365 0.071044673181058 -0.1752491314852198 -1.2003270401704274 2.0308227874029363 2.050219822980697 -0.5200046160127103 1.1399895127138917
2.31316280365 0.071044673181058 -0.1752491314852198 -1.2003270401704274 2.0308227874029363 2.050219822980697 -0.5200046160127103 1.1399895127138917
2.32206082344 0.071044673181058 -0.1752491314852198 -1.2003270401704274 2.0308227874029363 2.050219822980697 -0.5200046160127103 1.1399895127138917
2.32206082344 0.071044673181058 -0.1752491314852198 -1.2003270401704274 2.0308227874029363 2.050219822980697 -0.5200046160127103 1.1399895127138917
2.33223080635 0.0712287533172774 -0.1750497113376489 -1.206493724733774 2.0308227874029363 2.0502106920615786 -0.5200046160127103 1.1399895127138917
2.33223080635 0.0712287533172774 -0.1750497113376489 -1.206493724733774 2.0308227874029363 2.0502106920615786 -0.5200046160127103 1.1399895127138917
2.34208703041 0.0718116737486384 -0.1694199271716087 -1.2247636782535396 2.030838127414288 2.050247215738052 -0.5200046160127103 1.1399895127138917
2.34208703041 0.0718116737486384 -0.1694199271716087 -1.2247636782535396 2.030838127414288 2.050247215738052 -0.5200046160127103 1.1399895127138917
2.35197687149 0.0718116737486384 -0.1694199271716087 -1.2247636782535396 2.030838127414288 2.050247215738052 -0.5200046160127103 1.1399895127138917
2.35197687149 0.0718116737486384 -0.1694199271716087 -1.2247636782535396 2.030838127414288 2.050247215738052 -0.5200046160127103 1.1399895127138917
2.36239385605 0.0718116737486384 -0.1694199271716087 -1.2247636782535396 2.030838127414288 2.050247215738052 -0.5200046160127103 1.1399895127138917
2.36239385605 0.0718116737486384 -0.1694199271716087 -1.2247636782535396 2.030838127414288 2.050247215738052 -0.5200046160127103 1.1399895127138917
2.37242388725 0.0718116737486384 -0.1694199271716087 -1.2247636782535396 2.030838127414288 2.050247215738052 -0.5200046160127103 1.1399895127138917
2.37242388725 0.0718116737486384 -0.1694199271716087 -1.2247636782535396 2.030838127414288 2.050247215738052 -0.5200046160127103 1.1399895127138917
2.38233399391 0.0718116737486384 -0.1694199271716087 -1.2247636782535396 2.030838127414288 2.050247215738052 -0.5200046160127103 1.1399895127138917
2.38233399391 0.0718116737486384 -0.1694199271716087 -1.2247636782535396 2.030838127414288 2.050247215738052 -0.5200046160127103 1.1399895127138917
2.39244484901 0.0718116737486384 -0.1694199271716087 -1.2247636782535396 2.030838127414288 2.050247215738052 -0.5200046160127103 1.1399895127138917
2.39244484901 0.0718116737486384 -0.1694199271716087 -1.2247636782535396 2.030838127414288 2.050247215738052 -0.5200046160127103 1.1399895127138917
2.40234899521 0.0718116737486384 -0.1694199271716087 -1.2247636782535396 2.030838127414288 2.050247215738052 -0.5200046160127103 1.1399895127138917
2.40234899521 0.0718116737486384 -0.1694199271716087 -1.2247636782535396 2.030838127414288 2.050247215738052 -0.5200046160127103 1.1399895127138917
2.41220498085 0.0718116737486384 -0.1694199271716087 -1.2247636782535396 2.030838127414288 2.050247215738052 -0.5200046160127103 1.1399895127138917
2.41220498085 0.0718116737486384 -0.1694199271716087 -1.2247636782535396 2.030838127414288 2.050247215738052 -0.5200046160127103 1.1399895127138917
2.42218279839 0.0718116737486384 -0.1694199271716087 -1.2247636782535396 2.030838127414288 2.050247215738052 -0.5200046160127103 1.1399895127138917
2.42218279839 0.0718116737486384 -0.1694199271716087 -1.2247636782535396 2.030838127414288 2.050247215738052 -0.5200046160127103 1.1399895127138917
2.43205595016 0.0718116737486384 -0.1694199271716087 -1.2247636782535396 2.030838127414288 2.050247215738052 -0.5200046160127103 1.1399895127138917
2.43205595016 0.0718116737486384 -0.1694199271716087 -1.2247636782535396 2.030838127414288 2.050247215738052 -0.5200046160127103 1.1399895127138917
2.44203686714 0.0718116737486384 -0.1694199271716087 -1.2247636782535396 2.030838127414288 2.050247215738052 -0.5200046160127103 1.1399895127138917
2.44203686714 0.0718116737486384 -0.1694199271716087 -1.2247636782535396 2.030838127414288 2.050247215738052 -0.5200046160127103 1.1399895127138917
2.45224189758 0.0718116737486384 -0.1694199271716087 -1.2247636782535396 2.030838127414288 2.050247215738052 -0.5200046160127103 1.1399895127138917
2.45224189758 0.0718116737486384 -0.1694199271716087 -1.2247636782535396 2.030838127414288 2.050247215738052 -0.5200046160127103 1.1399895127138917
2.46241879463 0.0718116737486384 -0.1694199271716087 -1.2247636782535396 2.030838127414288 2.050247215738052 -0.5200046160127103 1.1399895127138917
2.46241879463 0.0718116737486384 -0.1694199271716087 -1.2247636782535396 2.030838127414288 2.050247215738052 -0.5200046160127103 1.1399895127138917
2.47241091728 0.0718116737486384 -0.1694199271716087 -1.2247636782535396 2.030838127414288 2.050247215738052 -0.5200046160127103 1.1399895127138917
2.47241091728 0.0718116737486384 -0.1694199271716087 -1.2247636782535396 2.030838127414288 2.050247215738052 -0.5200046160127103 1.1399895127138917
2.48228096962 0.0718116737486384 -0.1694199271716087 -1.2247636782535396 2.030838127414288 2.050247215738052 -0.5200046160127103 1.1399895127138917
2.48228096962 0.0718116737486384 -0.1694199271716087 -1.2247636782535396 2.030838127414288 2.050247215738052 -0.5200046160127103 1.1399895127138917
2.49242687225 0.0718116737486384 -0.1694199271716087 -1.2247636782535396 2.030838127414288 2.050247215738052 -0.5200046160127103 1.1399895127138917
2.49242687225 0.0718116737486384 -0.1694199271716087 -1.2247636782535396 2.030838127414288 2.050247215738052 -0.5200046160127103 1.1399895127138917
2.50232696533 0.0718116737486384 -0.1694199271716087 -1.2247636782535396 2.030838127414288 2.050247215738052 -0.5200046160127103 1.1399895127138917
2.50232696533 0.0718116737486384 -0.1694199271716087 -1.2247636782535396 2.030838127414288 2.050247215738052 -0.5200046160127103 1.1399895127138917
2.51233100891 0.0718116737486384 -0.1694199271716087 -1.2247636782535396 2.030838127414288 2.050247215738052 -0.5200046160127103 1.1399895127138917
2.51233100891 0.0718116737486384 -0.1694199271716087 -1.2247636782535396 2.030838127414288 2.050247215738052 -0.5200046160127103 1.1399895127138917
2.52212285995 0.0718116737486384 -0.1694199271716087 -1.2247636782535396 2.030838127414288 2.050247215738052 -0.5200046160127103 1.1399895127138917
2.52212285995 0.0718116737486384 -0.1694199271716087 -1.2247636782535396 2.030838127414288 2.050247215738052 -0.5200046160127103 1.1399895127138917
2.53220486641 0.0718116737486384 -0.1694199271716087 -1.2247636782535396 2.030838127414288 2.050247215738052 -0.5200046160127103 1.1399895127138917
2.53220486641 0.0718116737486384 -0.1694199271716087 -1.2247636782535396 2.030838127414288 2.050247215738052 -0.5200046160127103 1.1399895127138917
2.54202795029 0.0718116737486384 -0.1694199271716087 -1.2247636782535396 2.030838127414288 2.050247215738052 -0.5200046160127103 1.1399895127138917
2.54202795029 0.0718116737486384 -0.1694199271716087 -1.2247636782535396 2.030838127414288 2.050247215738052 -0.5200046160127103 1.1399895127138917
2.55200195312 0.0718116737486384 -0.1694199271716087 -1.2247636782535396 2.030838127414288 2.050247215738052 -0.5200046160127103 1.1399895127138917
2.55200195312 0.0718116737486384 -0.1694199271716087 -1.2247636782535396 2.030838127414288 2.050247215738052 -0.5200046160127103 1.1399895127138917
2.56224393845 0.0718116737486384 -0.1694199271716087 -1.2247636782535396 2.030838127414288 2.050247215738052 -0.5200046160127103 1.1399895127138917
2.56224393845 0.0718116737486384 -0.1694199271716087 -1.2247636782535396 2.030838127414288 2.050247215738052 -0.5200046160127103 1.1399895127138917
2.57241201401 0.0718116737486384 -0.1694199271716087 -1.2247636782535396 2.030838127414288 2.050247215738052 -0.5200046160127103 1.1399895127138917
2.57241201401 0.0718116737486384 -0.1694199271716087 -1.2247636782535396 2.030838127414288 2.050247215738052 -0.5200046160127103 1.1399895127138917
2.582269907 0.0718116737486384 -0.1694199271716087 -1.2247636782535396 2.030838127414288 2.050247215738052 -0.5200046160127103 1.1399895127138917
2.582269907 0.0718116737486384 -0.1694199271716087 -1.2247636782535396 2.030838127414288 2.050247215738052 -0.5200046160127103 1.1399895127138917
2.59231686592 0.0718116737486384 -0.1694199271716087 -1.2247636782535396 2.030838127414288 2.050247215738052 -0.5200046160127103 1.1399895127138917
2.59231686592 0.0718116737486384 -0.1694199271716087 -1.2247636782535396 2.030838127414288 2.050247215738052 -0.5200046160127103 1.1399895127138917
2.60231995583 0.0718116737486384 -0.1694199271716087 -1.2247636782535396 2.030838127414288 2.050247215738052 -0.5200046160127103 1.1399895127138917
2.60231995583 0.0718116737486384 -0.1694199271716087 -1.2247636782535396 2.030838127414288 2.050247215738052 -0.5200046160127103 1.1399895127138917
2.61241793633 0.0718116737486384 -0.1694199271716087 -1.2247636782535396 2.030838127414288 2.050247215738052 -0.5200046160127103 1.1399895127138917
2.61241793633 0.0718116737486384 -0.1694199271716087 -1.2247636782535396 2.030838127414288 2.050247215738052 -0.5200046160127103 1.1399895127138917
2.62248182297 0.0718116737486384 -0.1694199271716087 -1.2247636782535396 2.030838127414288 2.050247215738052 -0.5200046160127103 1.1399895127138917
2.62248182297 0.0718116737486384 -0.1694199271716087 -1.2247636782535396 2.030838127414288 2.050247215738052 -0.5200046160127103 1.1399895127138917
2.63237690926 0.0718116737486384 -0.1694199271716087 -1.2247636782535396 2.030838127414288 2.050247215738052 -0.5200046160127103 1.1399895127138917
2.63237690926 0.0718116737486384 -0.1694199271716087 -1.2247636782535396 2.030838127414288 2.050247215738052 -0.5200046160127103 1.1399895127138917
2.64216995239 0.0718116737486384 -0.1694199271716087 -1.2247636782535396 2.030838127414288 2.050247215738052 -0.5200046160127103 1.1399895127138917
2.64216995239 0.0718116737486384 -0.1694199271716087 -1.2247636782535396 2.030838127414288 2.050247215738052 -0.5200046160127103 1.1399895127138917
2.6523938179 0.0718116737486384 -0.1694199271716087 -1.2247636782535396 2.030838127414288 2.050247215738052 -0.5200046160127103 1.1399895127138917
2.6523938179 0.0718116737486384 -0.1694199271716087 -1.2247636782535396 2.030838127414288 2.050247215738052 -0.5200046160127103 1.1399895127138917
2.66228199005 0.0718116737486384 -0.1694199271716087 -1.2247636782535396 2.030838127414288 2.050247215738052 -0.5200046160127103 1.1399895127138917
2.66228199005 0.0718116737486384 -0.1694199271716087 -1.2247636782535396 2.030838127414288 2.050247215738052 -0.5200046160127103 1.1399895127138917
2.67240381241 0.0718116737486384 -0.1694199271716087 -1.2247636782535396 2.030838127414288 2.050247215738052 -0.5200046160127103 1.1399895127138917
2.67240381241 0.0718116737486384 -0.1694199271716087 -1.2247636782535396 2.030838127414288 2.050247215738052 -0.5200046160127103 1.1399895127138917
2.68247389793 0.0718116737486384 -0.1694199271716087 -1.2247636782535396 2.030838127414288 2.050247215738052 -0.5200046160127103 1.1399895127138917
2.68247389793 0.0718116737486384 -0.1694199271716087 -1.2247636782535396 2.030838127414288 2.050247215738052 -0.5200046160127103 1.1399895127138917
2.692497015 0.0718116737486384 -0.1694199271716087 -1.2247636782535396 2.030838127414288 2.050247215738052 -0.5200046160127103 1.1399895127138917
2.692497015 0.0718116737486384 -0.1694199271716087 -1.2247636782535396 2.030838127414288 2.050247215738052 -0.5200046160127103 1.1399895127138917
2.70247602463 0.0718116737486384 -0.1694199271716087 -1.2247636782535396 2.030838127414288 2.050247215738052 -0.5200046160127103 1.1399895127138917
2.70247602463 0.0718116737486384 -0.1694199271716087 -1.2247636782535396 2.030838127414288 2.050247215738052 -0.5200046160127103 1.1399895127138917
2.71240282059 0.0718116737486384 -0.1694199271716087 -1.2247636782535396 2.030838127414288 2.050247215738052 -0.5200046160127103 1.1399895127138917
2.71240282059 0.0718116737486384 -0.1694199271716087 -1.2247636782535396 2.030838127414288 2.050247215738052 -0.5200046160127103 1.1399895127138917
2.72237801552 0.0718116737486384 -0.1694199271716087 -1.2247636782535396 2.030838127414288 2.050247215738052 -0.5200046160127103 1.1399895127138917
2.72237801552 0.0718116737486384 -0.1694199271716087 -1.2247636782535396 2.030838127414288 2.050247215738052 -0.5200046160127103 1.1399895127138917
2.73244190216 0.0718116737486384 -0.1694199271716087 -1.2247636782535396 2.030838127414288 2.050247215738052 -0.5200046160127103 1.1399895127138917
2.73244190216 0.0718116737486384 -0.1694199271716087 -1.2247636782535396 2.030838127414288 2.050247215738052 -0.5200046160127103 1.1399895127138917
2.74246501923 0.0718116737486384 -0.1694199271716087 -1.2247636782535396 2.030838127414288 2.050247215738052 -0.5200046160127103 1.1399895127138917
2.74246501923 0.0718116737486384 -0.1694199271716087 -1.2247636782535396 2.030838127414288 2.050247215738052 -0.5200046160127103 1.1399895127138917
2.75235080719 0.0718116737486384 -0.1694199271716087 -1.2247636782535396 2.030838127414288 2.050247215738052 -0.5200046160127103 1.1399895127138917
2.75235080719 0.0718116737486384 -0.1694199271716087 -1.2247636782535396 2.030838127414288 2.050247215738052 -0.5200046160127103 1.1399895127138917
2.76213788986 0.0718116737486384 -0.1694199271716087 -1.2247636782535396 2.030838127414288 2.050247215738052 -0.5200046160127103 1.1399895127138917
2.76213788986 0.0718116737486384 -0.1694199271716087 -1.2247636782535396 2.030838127414288 2.050247215738052 -0.5200046160127103 1.1399895127138917
2.772397995 0.0718116737486384 -0.1694199271716087 -1.2247636782535396 2.030838127414288 2.050247215738052 -0.5200046160127103 1.1399895127138917
2.772397995 0.0718116737486384 -0.1694199271716087 -1.2247636782535396 2.030838127414288 2.050247215738052 -0.5200046160127103 1.1399895127138917
2.78224992752 0.0718116737486384 -0.1694199271716087 -1.2247636782535396 2.030838127414288 2.050247215738052 -0.5200046160127103 1.1399895127138917
2.78224992752 0.0718116737486384 -0.1694199271716087 -1.2247636782535396 2.030838127414288 2.050247215738052 -0.5200046160127103 1.1399895127138917
2.79245090485 0.0718116737486384 -0.1694199271716087 -1.2247636782535396 2.030838127414288 2.050247215738052 -0.5200046160127103 1.1399895127138917
2.79245090485 0.0718116737486384 -0.1694199271716087 -1.2247636782535396 2.030838127414288 2.050247215738052 -0.5200046160127103 1.1399895127138917
2.80248379707 0.0718116737486384 -0.1694199271716087 -1.2247636782535396 2.030838127414288 2.050247215738052 -0.5200046160127103 1.1399895127138917
2.80248379707 0.0718116737486384 -0.1694199271716087 -1.2247636782535396 2.030838127414288 2.050247215738052 -0.5200046160127103 1.1399895127138917
2.81245779991 0.0718116737486384 -0.1694199271716087 -1.2247636782535396 2.030838127414288 2.050247215738052 -0.5200046160127103 1.1399895127138917
2.81245779991 0.0718116737486384 -0.1694199271716087 -1.2247636782535396 2.030838127414288 2.050247215738052 -0.5200046160127103 1.1399895127138917
2.82244181633 0.0718116737486384 -0.1694199271716087 -1.2247636782535396 2.030838127414288 2.050247215738052 -0.5200046160127103 1.1399895127138917
2.82244181633 0.0718116737486384 -0.1694199271716087 -1.2247636782535396 2.030838127414288 2.050247215738052 -0.5200046160127103 1.1399895127138917
2.83243894577 0.0718116737486384 -0.1694199271716087 -1.2247636782535396 2.030838127414288 2.050247215738052 -0.5200046160127103 1.1399895127138917
2.83243894577 0.0718116737486384 -0.1694199271716087 -1.2247636782535396 2.030838127414288 2.050247215738052 -0.5200046160127103 1.1399895127138917
2.84240698814 0.0718116737486384 -0.1694199271716087 -1.2247636782535396 2.030838127414288 2.050247215738052 -0.5200046160127103 1.1399895127138917
2.84240698814 0.0718116737486384 -0.1694199271716087 -1.2247636782535396 2.030838127414288 2.050247215738052 -0.5200046160127103 1.1399895127138917
2.85221600533 0.0736217950881283 -0.1555985769438095 -1.2489702161663776 2.0308534674256395 2.0502654775762887 -0.5200046160127103 1.1399895127138917
2.85221600533 0.0736217950881283 -0.1555985769438095 -1.2489702161663776 2.0308534674256395 2.0502654775762887 -0.5200046160127103 1.1399895127138917
2.86242198944 0.0736217950881283 -0.1555985769438095 -1.2489702161663776 2.0308534674256395 2.0502654775762887 -0.5200046160127103 1.1399895127138917
2.86242198944 0.0736217950881283 -0.1555985769438095 -1.2489702161663776 2.0308534674256395 2.0502654775762887 -0.5200046160127103 1.1399895127138917
2.87226390839 0.0736217950881283 -0.1555985769438095 -1.2489702161663776 2.0308534674256395 2.0502654775762887 -0.5200046160127103 1.1399895127138917
2.87226390839 0.0736217950881283 -0.1555985769438095 -1.2489702161663776 2.0308534674256395 2.0502654775762887 -0.5200046160127103 1.1399895127138917
2.8832359314 0.0736217950881283 -0.1555985769438095 -1.2489702161663776 2.0308534674256395 2.0502654775762887 -0.5200046160127103 1.1399895127138917
2.8832359314 0.0736217950881283 -0.1555985769438095 -1.2489702161663776 2.0308534674256395 2.0502654775762887 -0.5200046160127103 1.1399895127138917
2.8920109272 0.0736217950881283 -0.1555985769438095 -1.2489702161663776 2.0308534674256395 2.0502654775762887 -0.5200046160127103 1.1399895127138917
2.8920109272 0.0736217950881283 -0.1555985769438095 -1.2489702161663776 2.0308534674256395 2.0502654775762887 -0.5200046160127103 1.1399895127138917
2.90194487572 0.0736217950881283 -0.1555985769438095 -1.2489702161663776 2.0308534674256395 2.0502654775762887 -0.5200046160127103 1.1399895127138917
2.90194487572 0.0736217950881283 -0.1555985769438095 -1.2489702161663776 2.0308534674256395 2.0502654775762887 -0.5200046160127103 1.1399895127138917
2.91202998161 0.0736217950881283 -0.1555985769438095 -1.2489702161663776 2.0308534674256395 2.0502654775762887 -0.5200046160127103 1.1399895127138917
2.91202998161 0.0736217950881283 -0.1555985769438095 -1.2489702161663776 2.0308534674256395 2.0502654775762887 -0.5200046160127103 1.1399895127138917
2.92216801643 0.0736217950881283 -0.1555985769438095 -1.2489702161663776 2.0308534674256395 2.0502654775762887 -0.5200046160127103 1.1399895127138917
2.92216801643 0.0736217950881283 -0.1555985769438095 -1.2489702161663776 2.0308534674256395 2.0502654775762887 -0.5200046160127103 1.1399895127138917
2.93221187592 0.0736217950881283 -0.1555985769438095 -1.2489702161663776 2.0308534674256395 2.0502654775762887 -0.5200046160127103 1.1399895127138917
2.93221187592 0.0736217950881283 -0.1555985769438095 -1.2489702161663776 2.0308534674256395 2.0502654775762887 -0.5200046160127103 1.1399895127138917
2.94237494469 0.0736217950881283 -0.1555985769438095 -1.2489702161663776 2.0308534674256395 2.0502654775762887 -0.5200046160127103 1.1399895127138917
2.94237494469 0.0736217950881283 -0.1555985769438095 -1.2489702161663776 2.0308534674256395 2.0502654775762887 -0.5200046160127103 1.1399895127138917
2.95240592957 0.0736217950881283 -0.1555985769438095 -1.2489702161663776 2.0308534674256395 2.0502654775762887 -0.5200046160127103 1.1399895127138917
2.95240592957 0.0736217950881283 -0.1555985769438095 -1.2489702161663776 2.0308534674256395 2.0502654775762887 -0.5200046160127103 1.1399895127138917
2.96243596077 0.0736217950881283 -0.1555985769438095 -1.2489702161663776 2.0308534674256395 2.0502654775762887 -0.5200046160127103 1.1399895127138917
2.96243596077 0.0736217950881283 -0.1555985769438095 -1.2489702161663776 2.0308534674256395 2.0502654775762887 -0.5200046160127103 1.1399895127138917
2.97242188454 0.0736217950881283 -0.1555985769438095 -1.2489702161663776 2.0308534674256395 2.0502654775762887 -0.5200046160127103 1.1399895127138917
2.97242188454 0.0736217950881283 -0.1555985769438095 -1.2489702161663776 2.0308534674256395 2.0502654775762887 -0.5200046160127103 1.1399895127138917
2.98251891136 0.0736217950881283 -0.1555985769438095 -1.2489702161663776 2.0308534674256395 2.0502654775762887 -0.5200046160127103 1.1399895127138917
2.98251891136 0.0736217950881283 -0.1555985769438095 -1.2489702161663776 2.0308534674256395 2.0502654775762887 -0.5200046160127103 1.1399895127138917
2.99220085144 0.0736217950881283 -0.1555985769438095 -1.2489702161663776 2.0308534674256395 2.0502654775762887 -0.5200046160127103 1.1399895127138917
2.99220085144 0.0736217950881283 -0.1555985769438095 -1.2489702161663776 2.0308534674256395 2.0502654775762887 -0.5200046160127103 1.1399895127138917
3.00205683708 0.0736217950881283 -0.1555985769438095 -1.2489702161663776 2.0308534674256395 2.0502654775762887 -0.5200046160127103 1.1399895127138917
3.00205683708 0.0736217950881283 -0.1555985769438095 -1.2489702161663776 2.0308534674256395 2.0502654775762887 -0.5200046160127103 1.1399895127138917
3.01219701767 0.0736217950881283 -0.1555985769438095 -1.2489702161663776 2.0308534674256395 2.0502654775762887 -0.5200046160127103 1.1399895127138917
3.01219701767 0.0736217950881283 -0.1555985769438095 -1.2489702161663776 2.0308534674256395 2.0502654775762887 -0.5200046160127103 1.1399895127138917
3.02241802216 0.0736217950881283 -0.1555985769438095 -1.2489702161663776 2.0308534674256395 2.0502654775762887 -0.5200046160127103 1.1399895127138917
3.02241802216 0.0736217950881283 -0.1555985769438095 -1.2489702161663776 2.0308534674256395 2.0502654775762887 -0.5200046160127103 1.1399895127138917
3.03241586685 0.0736217950881283 -0.1555985769438095 -1.2489702161663776 2.0308534674256395 2.0502654775762887 -0.5200046160127103 1.1399895127138917
3.03241586685 0.0736217950881283 -0.1555985769438095 -1.2489702161663776 2.0308534674256395 2.0502654775762887 -0.5200046160127103 1.1399895127138917
3.0424618721 0.0736217950881283 -0.1555985769438095 -1.2489702161663776 2.0308534674256395 2.0502654775762887 -0.5200046160127103 1.1399895127138917
3.0424618721 0.0736217950881283 -0.1555985769438095 -1.2489702161663776 2.0308534674256395 2.0502654775762887 -0.5200046160127103 1.1399895127138917
3.0523879528 0.0736217950881283 -0.1555985769438095 -1.2489702161663776 2.0308534674256395 2.0502654775762887 -0.5200046160127103 1.1399895127138917
3.0523879528 0.0736217950881283 -0.1555985769438095 -1.2489702161663776 2.0308534674256395 2.0502654775762887 -0.5200046160127103 1.1399895127138917
3.0622420311 0.0736217950881283 -0.1555985769438095 -1.2489702161663776 2.0308534674256395 2.0502654775762887 -0.5200046160127103 1.1399895127138917
3.0622420311 0.0736217950881283 -0.1555985769438095 -1.2489702161663776 2.0308534674256395 2.0502654775762887 -0.5200046160127103 1.1399895127138917
3.07240891457 0.0736217950881283 -0.1555985769438095 -1.2489702161663776 2.0308534674256395 2.0502654775762887 -0.5200046160127103 1.1399895127138917
3.07240891457 0.0736217950881283 -0.1555985769438095 -1.2489702161663776 2.0308534674256395 2.0502654775762887 -0.5200046160127103 1.1399895127138917
3.08244395256 0.0736217950881283 -0.1555985769438095 -1.2489702161663776 2.0308534674256395 2.0502654775762887 -0.5200046160127103 1.1399895127138917
3.08244395256 0.0736217950881283 -0.1555985769438095 -1.2489702161663776 2.0308534674256395 2.0502654775762887 -0.5200046160127103 1.1399895127138917
3.09234786034 0.0736217950881283 -0.1555985769438095 -1.2489702161663776 2.0308534674256395 2.0502654775762887 -0.5200046160127103 1.1399895127138917
3.09234786034 0.0736217950881283 -0.1555985769438095 -1.2489702161663776 2.0308534674256395 2.0502654775762887 -0.5200046160127103 1.1399895127138917
3.10246801376 0.0736217950881283 -0.1555985769438095 -1.2489702161663776 2.0308534674256395 2.0502654775762887 -0.5200046160127103 1.1399895127138917
3.10246801376 0.0736217950881283 -0.1555985769438095 -1.2489702161663776 2.0308534674256395 2.0502654775762887 -0.5200046160127103 1.1399895127138917
3.11220788956 0.0736217950881283 -0.1555985769438095 -1.2489702161663776 2.0308534674256395 2.0502654775762887 -0.5200046160127103 1.1399895127138917
3.11220788956 0.0736217950881283 -0.1555985769438095 -1.2489702161663776 2.0308534674256395 2.0502654775762887 -0.5200046160127103 1.1399895127138917
3.12228488922 0.0736217950881283 -0.1555985769438095 -1.2489702161663776 2.0308534674256395 2.0502654775762887 -0.5200046160127103 1.1399895127138917
3.12228488922 0.0736217950881283 -0.1555985769438095 -1.2489702161663776 2.0308534674256395 2.0502654775762887 -0.5200046160127103 1.1399895127138917
3.13206386566 0.0736217950881283 -0.1555985769438095 -1.2489702161663776 2.0308534674256395 2.0502654775762887 -0.5200046160127103 1.1399895127138917
3.13206386566 0.0736217950881283 -0.1555985769438095 -1.2489702161663776 2.0308534674256395 2.0502654775762887 -0.5200046160127103 1.1399895127138917
3.14236187935 0.0736217950881283 -0.1555985769438095 -1.2489702161663776 2.0308534674256395 2.0502654775762887 -0.5200046160127103 1.1399895127138917
3.14236187935 0.0736217950881283 -0.1555985769438095 -1.2489702161663776 2.0308534674256395 2.0502654775762887 -0.5200046160127103 1.1399895127138917
3.15240693092 0.0736217950881283 -0.1555985769438095 -1.2489702161663776 2.0308534674256395 2.0502654775762887 -0.5200046160127103 1.1399895127138917
3.15240693092 0.0736217950881283 -0.1555985769438095 -1.2489702161663776 2.0308534674256395 2.0502654775762887 -0.5200046160127103 1.1399895127138917
3.16238999367 0.0736217950881283 -0.1555985769438095 -1.2489702161663776 2.0308534674256395 2.0502654775762887 -0.5200046160127103 1.1399895127138917
3.16238999367 0.0736217950881283 -0.1555985769438095 -1.2489702161663776 2.0308534674256395 2.0502654775762887 -0.5200046160127103 1.1399895127138917
3.17240381241 0.0736217950881283 -0.1555985769438095 -1.2489702161663776 2.0308534674256395 2.0502654775762887 -0.5200046160127103 1.1399895127138917
3.17240381241 0.0736217950881283 -0.1555985769438095 -1.2489702161663776 2.0308534674256395 2.0502654775762887 -0.5200046160127103 1.1399895127138917
3.18245482445 0.0736217950881283 -0.1555985769438095 -1.2489702161663776 2.0308534674256395 2.0502654775762887 -0.5200046160127103 1.1399895127138917
3.18245482445 0.0736217950881283 -0.1555985769438095 -1.2489702161663776 2.0308534674256395 2.0502654775762887 -0.5200046160127103 1.1399895127138917
3.19240379333 0.0736217950881283 -0.1555985769438095 -1.2489702161663776 2.0308534674256395 2.0502654775762887 -0.5200046160127103 1.1399895127138917
3.19240379333 0.0736217950881283 -0.1555985769438095 -1.2489702161663776 2.0308534674256395 2.0502654775762887 -0.5200046160127103 1.1399895127138917
3.20244979858 0.0736217950881283 -0.1555985769438095 -1.2489702161663776 2.0308534674256395 2.0502654775762887 -0.5200046160127103 1.1399895127138917
3.20244979858 0.0736217950881283 -0.1555985769438095 -1.2489702161663776 2.0308534674256395 2.0502654775762887 -0.5200046160127103 1.1399895127138917
3.21251487732 0.0736217950881283 -0.1555985769438095 -1.2489702161663776 2.0308534674256395 2.0502654775762887 -0.5200046160127103 1.1399895127138917
3.21251487732 0.0736217950881283 -0.1555985769438095 -1.2489702161663776 2.0308534674256395 2.0502654775762887 -0.5200046160127103 1.1399895127138917
3.22238898277 0.0736217950881283 -0.1555985769438095 -1.2489702161663776 2.0308534674256395 2.0502654775762887 -0.5200046160127103 1.1399895127138917
3.22238898277 0.0736217950881283 -0.1555985769438095 -1.2489702161663776 2.0308534674256395 2.0502654775762887 -0.5200046160127103 1.1399895127138917
3.23207783699 0.0736217950881283 -0.1555985769438095 -1.2489702161663776 2.0308534674256395 2.0502654775762887 -0.5200046160127103 1.1399895127138917
3.23207783699 0.0736217950881283 -0.1555985769438095 -1.2489702161663776 2.0308534674256395 2.0502654775762887 -0.5200046160127103 1.1399895127138917
3.24237084389 0.0736217950881283 -0.1555985769438095 -1.2489702161663776 2.0308534674256395 2.0502654775762887 -0.5200046160127103 1.1399895127138917
3.24237084389 0.0736217950881283 -0.1555985769438095 -1.2489702161663776 2.0308534674256395 2.0502654775762887 -0.5200046160127103 1.1399895127138917
3.25237298012 0.0736217950881283 -0.1555985769438095 -1.2489702161663776 2.0308534674256395 2.0502654775762887 -0.5200046160127103 1.1399895127138917
3.25237298012 0.0736217950881283 -0.1555985769438095 -1.2489702161663776 2.0308534674256395 2.0502654775762887 -0.5200046160127103 1.1399895127138917
3.26244091988 0.0736217950881283 -0.1555985769438095 -1.2489702161663776 2.0308534674256395 2.0502654775762887 -0.5200046160127103 1.1399895127138917
3.26244091988 0.0736217950881283 -0.1555985769438095 -1.2489702161663776 2.0308534674256395 2.0502654775762887 -0.5200046160127103 1.1399895127138917
3.27240800858 0.0736217950881283 -0.1555985769438095 -1.2489702161663776 2.0308534674256395 2.0502654775762887 -0.5200046160127103 1.1399895127138917
3.27240800858 0.0736217950881283 -0.1555985769438095 -1.2489702161663776 2.0308534674256395 2.0502654775762887 -0.5200046160127103 1.1399895127138917
3.28226089478 0.0736217950881283 -0.1555985769438095 -1.2489702161663776 2.0308534674256395 2.0502654775762887 -0.5200046160127103 1.1399895127138917
3.28226089478 0.0736217950881283 -0.1555985769438095 -1.2489702161663776 2.0308534674256395 2.0502654775762887 -0.5200046160127103 1.1399895127138917
3.29240679741 0.0736217950881283 -0.1555985769438095 -1.2489702161663776 2.0308534674256395 2.0502654775762887 -0.5200046160127103 1.1399895127138917
3.29240679741 0.0736217950881283 -0.1555985769438095 -1.2489702161663776 2.0308534674256395 2.0502654775762887 -0.5200046160127103 1.1399895127138917
3.30250287056 0.0736217950881283 -0.1555985769438095 -1.2489702161663776 2.0308534674256395 2.0502654775762887 -0.5200046160127103 1.1399895127138917
3.30250287056 0.0736217950881283 -0.1555985769438095 -1.2489702161663776 2.0308534674256395 2.0502654775762887 -0.5200046160127103 1.1399895127138917
3.31243491173 0.0736217950881283 -0.1555985769438095 -1.2489702161663776 2.0308534674256395 2.0502654775762887 -0.5200046160127103 1.1399895127138917
3.31243491173 0.0736217950881283 -0.1555985769438095 -1.2489702161663776 2.0308534674256395 2.0502654775762887 -0.5200046160127103 1.1399895127138917
3.32247591019 0.0736217950881283 -0.1555985769438095 -1.2489702161663776 2.0308534674256395 2.0502654775762887 -0.5200046160127103 1.1399895127138917
3.32247591019 0.0736217950881283 -0.1555985769438095 -1.2489702161663776 2.0308534674256395 2.0502654775762887 -0.5200046160127103 1.1399895127138917
3.33249187469 0.0736217950881283 -0.1555985769438095 -1.2489702161663776 2.0308534674256395 2.0502654775762887 -0.5200046160127103 1.1399895127138917
3.33249187469 0.0736217950881283 -0.1555985769438095 -1.2489702161663776 2.0308534674256395 2.0502654775762887 -0.5200046160127103 1.1399895127138917
3.34244298935 0.0736217950881283 -0.1555985769438095 -1.2489702161663776 2.0308534674256395 2.0502654775762887 -0.5200046160127103 1.1399895127138917
3.34244298935 0.0736217950881283 -0.1555985769438095 -1.2489702161663776 2.0308534674256395 2.0502654775762887 -0.5200046160127103 1.1399895127138917
3.35208082199 0.0736217950881283 -0.1555985769438095 -1.2489702161663776 2.0308534674256395 2.0502654775762887 -0.5200046160127103 1.1399895127138917
3.35208082199 0.0736217950881283 -0.1555985769438095 -1.2489702161663776 2.0308534674256395 2.0502654775762887 -0.5200046160127103 1.1399895127138917
3.36241984367 0.0736217950881283 -0.1555985769438095 -1.2489702161663776 2.0308534674256395 2.0502654775762887 -0.5200046160127103 1.1399895127138917
3.36241984367 0.0736217950881283 -0.1555985769438095 -1.2489702161663776 2.0308534674256395 2.0502654775762887 -0.5200046160127103 1.1399895127138917
3.37244987488 0.0736217950881283 -0.1555985769438095 -1.2489702161663776 2.0308534674256395 2.0502654775762887 -0.5200046160127103 1.1399895127138917
3.37244987488 0.0736217950881283 -0.1555985769438095 -1.2489702161663776 2.0308534674256395 2.0502654775762887 -0.5200046160127103 1.1399895127138917
3.38243889809 0.0736217950881283 -0.1555985769438095 -1.2489702161663776 2.0308534674256395 2.0502654775762887 -0.5200046160127103 1.1399895127138917
3.38243889809 0.0736217950881283 -0.1555985769438095 -1.2489702161663776 2.0308534674256395 2.0502654775762887 -0.5200046160127103 1.1399895127138917
3.39241695404 0.0736217950881283 -0.1555985769438095 -1.2489702161663776 2.0308534674256395 2.0502654775762887 -0.5200046160127103 1.1399895127138917
3.39241695404 0.0736217950881283 -0.1555985769438095 -1.2489702161663776 2.0308534674256395 2.0502654775762887 -0.5200046160127103 1.1399895127138917
3.40248894691 0.0736217950881283 -0.1555985769438095 -1.2489702161663776 2.0308534674256395 2.0502654775762887 -0.5200046160127103 1.1399895127138917
3.40248894691 0.0736217950881283 -0.1555985769438095 -1.2489702161663776 2.0308534674256395 2.0502654775762887 -0.5200046160127103 1.1399895127138917
3.4124288559 0.0736217950881283 -0.1555985769438095 -1.2489702161663776 2.0308534674256395 2.0502654775762887 -0.5200046160127103 1.1399895127138917
3.4124288559 0.0736217950881283 -0.1555985769438095 -1.2489702161663776 2.0308534674256395 2.0502654775762887 -0.5200046160127103 1.1399895127138917
3.42241287231 0.0736217950881283 -0.1555985769438095 -1.2489702161663776 2.0308534674256395 2.0502654775762887 -0.5200046160127103 1.1399895127138917
3.42241287231 0.0736217950881283 -0.1555985769438095 -1.2489702161663776 2.0308534674256395 2.0502654775762887 -0.5200046160127103 1.1399895127138917
3.4323079586 0.0736217950881283 -0.1555985769438095 -1.2489702161663776 2.0308534674256395 2.0502654775762887 -0.5200046160127103 1.1399895127138917
3.4323079586 0.0736217950881283 -0.1555985769438095 -1.2489702161663776 2.0308534674256395 2.0502654775762887 -0.5200046160127103 1.1399895127138917
3.44244098663 0.0736217950881283 -0.1555985769438095 -1.2489702161663776 2.0308534674256395 2.0502654775762887 -0.5200046160127103 1.1399895127138917
3.44244098663 0.0736217950881283 -0.1555985769438095 -1.2489702161663776 2.0308534674256395 2.0502654775762887 -0.5200046160127103 1.1399895127138917
3.45240283012 0.0736217950881283 -0.1555985769438095 -1.2489702161663776 2.0308534674256395 2.0502654775762887 -0.5200046160127103 1.1399895127138917
3.45240283012 0.0736217950881283 -0.1555985769438095 -1.2489702161663776 2.0308534674256395 2.0502654775762887 -0.5200046160127103 1.1399895127138917
3.46220898628 0.0736217950881283 -0.1555985769438095 -1.2489702161663776 2.0308534674256395 2.0502654775762887 -0.5200046160127103 1.1399895127138917
3.46220898628 0.0736217950881283 -0.1555985769438095 -1.2489702161663776 2.0308534674256395 2.0502654775762887 -0.5200046160127103 1.1399895127138917
3.47209692001 0.0736217950881283 -0.1555985769438095 -1.2489702161663776 2.0308534674256395 2.0502654775762887 -0.5200046160127103 1.1399895127138917
3.47209692001 0.0736217950881283 -0.1555985769438095 -1.2489702161663776 2.0308534674256395 2.0502654775762887 -0.5200046160127103 1.1399895127138917
3.48238682747 0.0736217950881283 -0.1555985769438095 -1.2489702161663776 2.0308534674256395 2.0502654775762887 -0.5200046160127103 1.1399895127138917
3.48238682747 0.0736217950881283 -0.1555985769438095 -1.2489702161663776 2.0308534674256395 2.0502654775762887 -0.5200046160127103 1.1399895127138917
3.49229383469 0.0736217950881283 -0.1555985769438095 -1.2489702161663776 2.0308534674256395 2.0502654775762887 -0.5200046160127103 1.1399895127138917
3.49229383469 0.0736217950881283 -0.1555985769438095 -1.2489702161663776 2.0308534674256395 2.0502654775762887 -0.5200046160127103 1.1399895127138917
3.50239491463 0.0736217950881283 -0.1555985769438095 -1.2489702161663776 2.0308534674256395 2.0502654775762887 -0.5200046160127103 1.1399895127138917
3.50239491463 0.0736217950881283 -0.1555985769438095 -1.2489702161663776 2.0308534674256395 2.0502654775762887 -0.5200046160127103 1.1399895127138917
3.51240992546 0.0736217950881283 -0.1555985769438095 -1.2489702161663776 2.0308534674256395 2.0502654775762887 -0.5200046160127103 1.1399895127138917
3.51240992546 0.0736217950881283 -0.1555985769438095 -1.2489702161663776 2.0308534674256395 2.0502654775762887 -0.5200046160127103 1.1399895127138917
3.52236890793 0.0736217950881283 -0.1555985769438095 -1.2489702161663776 2.0308534674256395 2.0502654775762887 -0.5200046160127103 1.1399895127138917
3.52236890793 0.0736217950881283 -0.1555985769438095 -1.2489702161663776 2.0308534674256395 2.0502654775762887 -0.5200046160127103 1.1399895127138917
3.5323870182 0.0736217950881283 -0.1555985769438095 -1.2489702161663776 2.0308534674256395 2.0502654775762887 -0.5200046160127103 1.1399895127138917
3.5323870182 0.0736217950881283 -0.1555985769438095 -1.2489702161663776 2.0308534674256395 2.0502654775762887 -0.5200046160127103 1.1399895127138917
3.54243302345 0.0736217950881283 -0.1555985769438095 -1.2489702161663776 2.0308534674256395 2.0502654775762887 -0.5200046160127103 1.1399895127138917
3.54243302345 0.0736217950881283 -0.1555985769438095 -1.2489702161663776 2.0308534674256395 2.0502654775762887 -0.5200046160127103 1.1399895127138917
3.55241298676 0.0736217950881283 -0.1555985769438095 -1.2489702161663776 2.0308534674256395 2.0502654775762887 -0.5200046160127103 1.1399895127138917
3.55241298676 0.0736217950881283 -0.1555985769438095 -1.2489702161663776 2.0308534674256395 2.0502654775762887 -0.5200046160127103 1.1399895127138917
3.56243085861 0.0736217950881283 -0.1555985769438095 -1.2489702161663776 2.0308534674256395 2.0502654775762887 -0.5200046160127103 1.1399895127138917
3.56243085861 0.0736217950881283 -0.1555985769438095 -1.2489702161663776 2.0308534674256395 2.0502654775762887 -0.5200046160127103 1.1399895127138917
3.57245588303 0.0736217950881283 -0.1555985769438095 -1.2489702161663776 2.0308534674256395 2.0502654775762887 -0.5200046160127103 1.1399895127138917
3.57245588303 0.0736217950881283 -0.1555985769438095 -1.2489702161663776 2.0308534674256395 2.0502654775762887 -0.5200046160127103 1.1399895127138917
3.58222794533 0.0736217950881283 -0.1555985769438095 -1.2489702161663776 2.0308534674256395 2.0502654775762887 -0.5200046160127103 1.1399895127138917
3.58222794533 0.0736217950881283 -0.1555985769438095 -1.2489702161663776 2.0308534674256395 2.0502654775762887 -0.5200046160127103 1.1399895127138917
3.59228301048 0.0736217950881283 -0.1555985769438095 -1.2489702161663776 2.0308534674256395 2.0502654775762887 -0.5200046160127103 1.1399895127138917
3.59228301048 0.0736217950881283 -0.1555985769438095 -1.2489702161663776 2.0308534674256395 2.0502654775762887 -0.5200046160127103 1.1399895127138917
3.6021130085 0.0736217950881283 -0.1555985769438095 -1.2489702161663776 2.0308534674256395 2.0502654775762887 -0.5200046160127103 1.1399895127138917
3.6021130085 0.0736217950881283 -0.1555985769438095 -1.2489702161663776 2.0308534674256395 2.0502654775762887 -0.5200046160127103 1.1399895127138917
3.61237287521 0.0736217950881283 -0.1555985769438095 -1.2489702161663776 2.0308534674256395 2.0502654775762887 -0.5200046160127103 1.1399895127138917
3.61237287521 0.0736217950881283 -0.1555985769438095 -1.2489702161663776 2.0308534674256395 2.0502654775762887 -0.5200046160127103 1.1399895127138917
3.62241697311 0.0736217950881283 -0.1555985769438095 -1.2489702161663776 2.0308534674256395 2.0502654775762887 -0.5200046160127103 1.1399895127138917
3.62241697311 0.0736217950881283 -0.1555985769438095 -1.2489702161663776 2.0308534674256395 2.0502654775762887 -0.5200046160127103 1.1399895127138917
3.63241291046 0.0736217950881283 -0.1555985769438095 -1.2489702161663776 2.0308534674256395 2.0502654775762887 -0.5200046160127103 1.1399895127138917
3.63241291046 0.0736217950881283 -0.1555985769438095 -1.2489702161663776 2.0308534674256395 2.0502654775762887 -0.5200046160127103 1.1399895127138917
3.64245390892 0.0736217950881283 -0.1555985769438095 -1.2489702161663776 2.0308534674256395 2.0502654775762887 -0.5200046160127103 1.1399895127138917
3.64245390892 0.0736217950881283 -0.1555985769438095 -1.2489702161663776 2.0308534674256395 2.0502654775762887 -0.5200046160127103 1.1399895127138917
3.65237498283 0.0736217950881283 -0.1555985769438095 -1.2489702161663776 2.0308534674256395 2.0502654775762887 -0.5200046160127103 1.1399895127138917
3.65237498283 0.0736217950881283 -0.1555985769438095 -1.2489702161663776 2.0308534674256395 2.0502654775762887 -0.5200046160127103 1.1399895127138917
3.66243696213 0.0736217950881283 -0.1555985769438095 -1.2489702161663776 2.0308534674256395 2.0502654775762887 -0.5200046160127103 1.1399895127138917
3.66243696213 0.0736217950881283 -0.1555985769438095 -1.2489702161663776 2.0308534674256395 2.0502654775762887 -0.5200046160127103 1.1399895127138917
3.67239999771 0.0736217950881283 -0.1555985769438095 -1.2489702161663776 2.0308534674256395 2.0502654775762887 -0.5200046160127103 1.1399895127138917
3.67239999771 0.0736217950881283 -0.1555985769438095 -1.2489702161663776 2.0308534674256395 2.0502654775762887 -0.5200046160127103 1.1399895127138917
3.68225502968 0.0736217950881283 -0.1555985769438095 -1.2489702161663776 2.0308534674256395 2.0502654775762887 -0.5200046160127103 1.1399895127138917
3.68225502968 0.0736217950881283 -0.1555985769438095 -1.2489702161663776 2.0308534674256395 2.0502654775762887 -0.5200046160127103 1.1399895127138917
3.69237089157 0.0736217950881283 -0.1555985769438095 -1.2489702161663776 2.0308534674256395 2.0502654775762887 -0.5200046160127103 1.1399895127138917
3.69237089157 0.0736217950881283 -0.1555985769438095 -1.2489702161663776 2.0308534674256395 2.0502654775762887 -0.5200046160127103 1.1399895127138917
3.70218300819 0.0736217950881283 -0.1555985769438095 -1.2489702161663776 2.0308534674256395 2.0502654775762887 -0.5200046160127103 1.1399895127138917
3.70218300819 0.0736217950881283 -0.1555985769438095 -1.2489702161663776 2.0308534674256395 2.0502654775762887 -0.5200046160127103 1.1399895127138917
3.71229481697 0.0736217950881283 -0.1555985769438095 -1.2489702161663776 2.0308534674256395 2.0502654775762887 -0.5200046160127103 1.1399895127138917
3.71229481697 0.0736217950881283 -0.1555985769438095 -1.2489702161663776 2.0308534674256395 2.0502654775762887 -0.5200046160127103 1.1399895127138917
3.72218394279 0.0736217950881283 -0.1555985769438095 -1.2489702161663776 2.0308534674256395 2.0502654775762887 -0.5200046160127103 1.1399895127138917
3.72218394279 0.0736217950881283 -0.1555985769438095 -1.2489702161663776 2.0308534674256395 2.0502654775762887 -0.5200046160127103 1.1399895127138917
3.7323679924 0.0736217950881283 -0.1555985769438095 -1.2489702161663776 2.0308534674256395 2.0502654775762887 -0.5200046160127103 1.1399895127138917
3.7323679924 0.0736217950881283 -0.1555985769438095 -1.2489702161663776 2.0308534674256395 2.0502654775762887 -0.5200046160127103 1.1399895127138917
3.74245095253 0.0736217950881283 -0.1555985769438095 -1.2489702161663776 2.0308534674256395 2.0502654775762887 -0.5200046160127103 1.1399895127138917
3.74245095253 0.0736217950881283 -0.1555985769438095 -1.2489702161663776 2.0308534674256395 2.0502654775762887 -0.5200046160127103 1.1399895127138917
3.75239396095 0.0736217950881283 -0.1555985769438095 -1.2489702161663776 2.0308534674256395 2.0502654775762887 -0.5200046160127103 1.1399895127138917
3.75239396095 0.0736217950881283 -0.1555985769438095 -1.2489702161663776 2.0308534674256395 2.0502654775762887 -0.5200046160127103 1.1399895127138917
3.76243901253 0.0736217950881283 -0.1555985769438095 -1.2489702161663776 2.0308534674256395 2.0502654775762887 -0.5200046160127103 1.1399895127138917
3.76243901253 0.0736217950881283 -0.1555985769438095 -1.2489702161663776 2.0308534674256395 2.0502654775762887 -0.5200046160127103 1.1399895127138917
3.77223587036 0.0736217950881283 -0.1555985769438095 -1.2489702161663776 2.0308534674256395 2.0502654775762887 -0.5200046160127103 1.1399895127138917
3.77223587036 0.0736217950881283 -0.1555985769438095 -1.2489702161663776 2.0308534674256395 2.0502654775762887 -0.5200046160127103 1.1399895127138917
3.78245186806 0.0736217950881283 -0.1555985769438095 -1.2489702161663776 2.0308534674256395 2.0502654775762887 -0.5200046160127103 1.1399895127138917
3.78245186806 0.0736217950881283 -0.1555985769438095 -1.2489702161663776 2.0308534674256395 2.0502654775762887 -0.5200046160127103 1.1399895127138917
3.79240679741 0.0736217950881283 -0.1555985769438095 -1.2489702161663776 2.0308534674256395 2.0502654775762887 -0.5200046160127103 1.1399895127138917
3.79240679741 0.0736217950881283 -0.1555985769438095 -1.2489702161663776 2.0308534674256395 2.0502654775762887 -0.5200046160127103 1.1399895127138917
3.80221390724 0.0736217950881283 -0.1555985769438095 -1.2489702161663776 2.0308534674256395 2.0502654775762887 -0.5200046160127103 1.1399895127138917
3.80221390724 0.0736217950881283 -0.1555985769438095 -1.2489702161663776 2.0308534674256395 2.0502654775762887 -0.5200046160127103 1.1399895127138917
3.81227397919 0.0736217950881283 -0.1555985769438095 -1.2489702161663776 2.0308534674256395 2.0502654775762887 -0.5200046160127103 1.1399895127138917
3.81227397919 0.0736217950881283 -0.1555985769438095 -1.2489702161663776 2.0308534674256395 2.0502654775762887 -0.5200046160127103 1.1399895127138917
3.82213497162 0.0736217950881283 -0.1555985769438095 -1.2489702161663776 2.0308534674256395 2.0502654775762887 -0.5200046160127103 1.1399895127138917
3.82213497162 0.0736217950881283 -0.1555985769438095 -1.2489702161663776 2.0308534674256395 2.0502654775762887 -0.5200046160127103 1.1399895127138917
3.83242297173 0.0736217950881283 -0.1555985769438095 -1.2489702161663776 2.0308534674256395 2.0502654775762887 -0.5200046160127103 1.1399895127138917
3.83242297173 0.0736217950881283 -0.1555985769438095 -1.2489702161663776 2.0308534674256395 2.0502654775762887 -0.5200046160127103 1.1399895127138917
3.84244298935 0.0736217950881283 -0.1555985769438095 -1.2489702161663776 2.0308534674256395 2.0502654775762887 -0.5200046160127103 1.1399895127138917
3.84244298935 0.0736217950881283 -0.1555985769438095 -1.2489702161663776 2.0308534674256395 2.0502654775762887 -0.5200046160127103 1.1399895127138917
3.85243701935 0.0736217950881283 -0.1555985769438095 -1.2489702161663776 2.0308534674256395 2.0502654775762887 -0.5200046160127103 1.1399895127138917
3.85243701935 0.0736217950881283 -0.1555985769438095 -1.2489702161663776 2.0308534674256395 2.0502654775762887 -0.5200046160127103 1.1399895127138917
3.86245799065 0.0736217950881283 -0.1555985769438095 -1.2489702161663776 2.0308534674256395 2.0502654775762887 -0.5200046160127103 1.1399895127138917
3.86245799065 0.0736217950881283 -0.1555985769438095 -1.2489702161663776 2.0308534674256395 2.0502654775762887 -0.5200046160127103 1.1399895127138917
3.87239098549 0.0736217950881283 -0.1555985769438095 -1.2489702161663776 2.0308534674256395 2.0502654775762887 -0.5200046160127103 1.1399895127138917
3.87239098549 0.0736217950881283 -0.1555985769438095 -1.2489702161663776 2.0308534674256395 2.0502654775762887 -0.5200046160127103 1.1399895127138917
3.88244795799 0.0736217950881283 -0.1555985769438095 -1.2489702161663776 2.0308534674256395 2.0502654775762887 -0.5200046160127103 1.1399895127138917
3.88244795799 0.0736217950881283 -0.1555985769438095 -1.2489702161663776 2.0308534674256395 2.0502654775762887 -0.5200046160127103 1.1399895127138917
3.89244198799 0.0736217950881283 -0.1555985769438095 -1.2489702161663776 2.0308534674256395 2.0502654775762887 -0.5200046160127103 1.1399895127138917
3.89244198799 0.0736217950881283 -0.1555985769438095 -1.2489702161663776 2.0308534674256395 2.0502654775762887 -0.5200046160127103 1.1399895127138917
3.9024438858 0.0736217950881283 -0.1555985769438095 -1.2489702161663776 2.0308534674256395 2.0502654775762887 -0.5200046160127103 1.1399895127138917
3.9024438858 0.0736217950881283 -0.1555985769438095 -1.2489702161663776 2.0308534674256395 2.0502654775762887 -0.5200046160127103 1.1399895127138917
3.91242480278 0.0736217950881283 -0.1555985769438095 -1.2489702161663776 2.0308534674256395 2.0502654775762887 -0.5200046160127103 1.1399895127138917
3.91242480278 0.0736217950881283 -0.1555985769438095 -1.2489702161663776 2.0308534674256395 2.0502654775762887 -0.5200046160127103 1.1399895127138917
3.92234683037 0.0736217950881283 -0.1555985769438095 -1.2489702161663776 2.0308534674256395 2.0502654775762887 -0.5200046160127103 1.1399895127138917
3.92234683037 0.0736217950881283 -0.1555985769438095 -1.2489702161663776 2.0308534674256395 2.0502654775762887 -0.5200046160127103 1.1399895127138917
3.93231892586 0.0736217950881283 -0.1555985769438095 -1.2489702161663776 2.0308534674256395 2.0502654775762887 -0.5200046160127103 1.1399895127138917
3.93231892586 0.0736217950881283 -0.1555985769438095 -1.2489702161663776 2.0308534674256395 2.0502654775762887 -0.5200046160127103 1.1399895127138917
3.94214081764 0.0736217950881283 -0.1555985769438095 -1.2489702161663776 2.0308534674256395 2.0502654775762887 -0.5200046160127103 1.1399895127138917
3.94214081764 0.0736217950881283 -0.1555985769438095 -1.2489702161663776 2.0308534674256395 2.0502654775762887 -0.5200046160127103 1.1399895127138917
3.95233488083 0.0736217950881283 -0.1555985769438095 -1.2489702161663776 2.0308534674256395 2.0502654775762887 -0.5200046160127103 1.1399895127138917
3.95233488083 0.0736217950881283 -0.1555985769438095 -1.2489702161663776 2.0308534674256395 2.0502654775762887 -0.5200046160127103 1.1399895127138917
3.96228885651 0.0736217950881283 -0.1555985769438095 -1.2489702161663776 2.0308534674256395 2.0502654775762887 -0.5200046160127103 1.1399895127138917
3.96228885651 0.0736217950881283 -0.1555985769438095 -1.2489702161663776 2.0308534674256395 2.0502654775762887 -0.5200046160127103 1.1399895127138917
3.97239685059 0.0736217950881283 -0.1555985769438095 -1.2489702161663776 2.0308534674256395 2.0502654775762887 -0.5200046160127103 1.1399895127138917
3.97239685059 0.0736217950881283 -0.1555985769438095 -1.2489702161663776 2.0308534674256395 2.0502654775762887 -0.5200046160127103 1.1399895127138917
3.98245000839 0.0736217950881283 -0.1555985769438095 -1.2489702161663776 2.0308534674256395 2.0502654775762887 -0.5200046160127103 1.1399895127138917
3.98245000839 0.0736217950881283 -0.1555985769438095 -1.2489702161663776 2.0308534674256395 2.0502654775762887 -0.5200046160127103 1.1399895127138917
3.99226880074 0.0736217950881283 -0.1555985769438095 -1.2489702161663776 2.0308534674256395 2.0502654775762887 -0.5200046160127103 1.1399895127138917
3.99226880074 0.0736217950881283 -0.1555985769438095 -1.2489702161663776 2.0308534674256395 2.0502654775762887 -0.5200046160127103 1.1399895127138917
4.00237679482 0.0736217950881283 -0.1555985769438095 -1.2489702161663776 2.0308534674256395 2.0502654775762887 -0.5200046160127103 1.1399895127138917
4.00237679482 0.0736217950881283 -0.1555985769438095 -1.2489702161663776 2.0308534674256395 2.0502654775762887 -0.5200046160127103 1.1399895127138917
