riccardo-csl/Motion-Planning-for-TIAGo-Manipulator/T3_G_7/head_scan/head_scan/tiago_traiettorie_SG/3a-2b/place_2b_rep2.txt
time arm_1_joint arm_2_joint arm_3_joint arm_4_joint arm_5_joint arm_6_joint arm_7_joint
1.03293395042 0.0470989154611973 -0.1967251473774716 -1.1153126972598135 2.004069807605731 2.0501011210321587 -0.5200046160127103 1.1399895127138917
1.03340387344 0.0470989154611973 -0.1967251473774716 -1.1153126972598135 2.004069807605731 2.0501011210321587 -0.5200046160127103 1.1399895127138917
1.03340387344 0.0470989154611973 -0.1967251473774716 -1.1153126972598135 2.004069807605731 2.0501011210321587 -0.5200046160127103 1.1399895127138917
1.04348897934 0.0470989154611973 -0.1967251473774716 -1.1153126972598135 2.004069807605731 2.0501011210321587 -0.5200046160127103 1.1399895127138917
1.04348897934 0.0470989154611973 -0.1967251473774716 -1.1153126972598135 2.004069807605731 2.0501011210321587 -0.5200046160127103 1.1399895127138917
1.05342507362 0.0470989154611973 -0.1967251473774716 -1.1153126972598135 2.004069807605731 2.0501011210321587 -0.5200046160127103 1.1399895127138917
1.05342507362 0.0470989154611973 -0.1967251473774716 -1.1153126972598135 2.004069807605731 2.0501011210321587 -0.5200046160127103 1.1399895127138917
1.06366491318 0.0470989154611973 -0.1967251473774716 -1.1153126972598135 2.004069807605731 2.0501011210321587 -0.5200046160127103 1.1399895127138917
1.06366491318 0.0470989154611973 -0.1967251473774716 -1.1153126972598135 2.004069807605731 2.0501011210321587 -0.5200046160127103 1.1399895127138917
1.07347989082 0.0470989154611973 -0.1967251473774716 -1.1153126972598135 2.004085147617083 2.0501011210321587 -0.5200046160127103 1.1399895127138917
1.07347989082 0.0470989154611973 -0.1967251473774716 -1.1153126972598135 2.004085147617083 2.0501011210321587 -0.5200046160127103 1.1399895127138917
1.0835518837 0.0470989154611973 -0.1967251473774716 -1.1153126972598135 2.004085147617083 2.0501011210321587 -0.5200046160127103 1.1399895127138917
1.0835518837 0.0470989154611973 -0.1967251473774716 -1.1153126972598135 2.004085147617083 2.0501011210321587 -0.5200046160127103 1.1399895127138917
1.09368610382 0.0470989154611973 -0.1967251473774716 -1.1153126972598135 2.004085147617083 2.0501011210321587 -0.5200046160127103 1.1399895127138917
1.09368610382 0.0470989154611973 -0.1967251473774716 -1.1153126972598135 2.004085147617083 2.0501011210321587 -0.5200046160127103 1.1399895127138917
1.10375094414 0.0471142554725489 -0.1967251473774716 -1.1153126972598135 2.004085147617083 2.0501011210321587 -0.5200046160127103 1.1399895127138917
1.10375094414 0.0471142554725489 -0.1967251473774716 -1.1153126972598135 2.004085147617083 2.0501011210321587 -0.5200046160127103 1.1399895127138917
1.11381101608 0.0471142554725489 -0.1967251473774716 -1.1153126972598135 2.004085147617083 2.0501011210321587 -0.5200046160127103 1.1399895127138917
1.11381101608 0.0471142554725489 -0.1967251473774716 -1.1153126972598135 2.004085147617083 2.0501011210321587 -0.5200046160127103 1.1399895127138917
1.1238451004 0.0471142554725489 -0.1967251473774716 -1.1153126972598135 2.004085147617083 2.0501011210321587 -0.5200046160127103 1.1399895127138917
1.1238451004 0.0471142554725489 -0.1967251473774716 -1.1153126972598135 2.004085147617083 2.0501011210321587 -0.5200046160127103 1.1399895127138917
1.1336209774 0.0471142554725489 -0.1967251473774716 -1.1153126972598135 2.004085147617083 2.0501011210321587 -0.5200046160127103 1.1399895127138917
1.1336209774 0.0471142554725489 -0.1967251473774716 -1.1153126972598135 2.004085147617083 2.0501011210321587 -0.5200046160127103 1.1399895127138917
1.14361786842 0.0471142554725489 -0.1967251473774716 -1.1153126972598135 2.004085147617083 2.0501011210321587 -0.5200046160127103 1.1399895127138917
1.14361786842 0.0471142554725489 -0.1967251473774716 -1.1153126972598135 2.004085147617083 2.0501011210321587 -0.5200046160127103 1.1399895127138917
1.15364098549 0.0471142554725489 -0.1967251473774716 -1.1153126972598135 2.004085147617083 2.0501011210321587 -0.5200046160127103 1.1399895127138917
1.15364098549 0.0471142554725489 -0.1967251473774716 -1.1153126972598135 2.004085147617083 2.0501011210321587 -0.5200046160127103 1.1399895127138917
1.16355609894 0.0471142554725489 -0.1967251473774716 -1.1153126972598135 2.004085147617083 2.0501011210321587 -0.5200046160127103 1.1399895127138917
1.16355609894 0.0471142554725489 -0.1967251473774716 -1.1153126972598135 2.004085147617083 2.0501011210321587 -0.5200046160127103 1.1399895127138917
1.17352795601 0.0471142554725489 -0.1967251473774716 -1.1153126972598135 2.004085147617083 2.0501011210321587 -0.5200046160127103 1.1399895127138917
1.17352795601 0.0471142554725489 -0.1967251473774716 -1.1153126972598135 2.004085147617083 2.0501011210321587 -0.5200046160127103 1.1399895127138917
1.18350410461 0.0471142554725489 -0.1967251473774716 -1.1153126972598135 2.004085147617083 2.0501011210321587 -0.5200046160127103 1.1399895127138917
1.18350410461 0.0471142554725489 -0.1967251473774716 -1.1153126972598135 2.004085147617083 2.0501011210321587 -0.5200046160127103 1.1399895127138917
1.19355201721 0.0471142554725489 -0.1967251473774716 -1.1153126972598135 2.004085147617083 2.0501011210321587 -0.5200046160127103 1.1399895127138917
1.19355201721 0.0471142554725489 -0.1967251473774716 -1.1153126972598135 2.004085147617083 2.0501011210321587 -0.5200046160127103 1.1399895127138917
1.20377588272 0.0471142554725489 -0.1967251473774716 -1.1153126972598135 2.004085147617083 2.0501011210321587 -0.5200046160127103 1.1399895127138917
1.20377588272 0.0471142554725489 -0.1967251473774716 -1.1153126972598135 2.004085147617083 2.0501011210321587 -0.5200046160127103 1.1399895127138917
1.21372103691 0.0471142554725489 -0.1967251473774716 -1.1153126972598135 2.004085147617083 2.0501011210321587 -0.5200046160127103 1.1399895127138917
1.21372103691 0.0471142554725489 -0.1967251473774716 -1.1153126972598135 2.004085147617083 2.0501011210321587 -0.5200046160127103 1.1399895127138917
1.22365999222 0.0471142554725489 -0.1967251473774716 -1.1153126972598135 2.004085147617083 2.0501011210321587 -0.5200046160127103 1.1399895127138917
1.22365999222 0.0471142554725489 -0.1967251473774716 -1.1153126972598135 2.004085147617083 2.0501011210321587 -0.5200046160127103 1.1399895127138917
1.23371291161 0.0471142554725489 -0.1967251473774716 -1.1153126972598135 2.004085147617083 2.0501011210321587 -0.5200046160127103 1.1399895127138917
1.23371291161 0.0471142554725489 -0.1967251473774716 -1.1153126972598135 2.004085147617083 2.0501011210321587 -0.5200046160127103 1.1399895127138917
1.24379205704 0.0471142554725489 -0.1967251473774716 -1.1153126972598135 2.004085147617083 2.0501011210321587 -0.5200046160127103 1.1399895127138917
1.24379205704 0.0471142554725489 -0.1967251473774716 -1.1153126972598135 2.004085147617083 2.0501011210321587 -0.5200046160127103 1.1399895127138917
1.25424599648 0.0471142554725489 -0.1967251473774716 -1.1153126972598135 2.004085147617083 2.0501011210321587 -0.5200046160127103 1.1399895127138917
1.25424599648 0.0471142554725489 -0.1967251473774716 -1.1153126972598135 2.004085147617083 2.0501011210321587 -0.5200046160127103 1.1399895127138917
1.26352596283 0.0471142554725489 -0.1967251473774716 -1.1153126972598135 2.004085147617083 2.0501011210321587 -0.5200046160127103 1.1399895127138917
1.26352596283 0.0471142554725489 -0.1967251473774716 -1.1153126972598135 2.004085147617083 2.0501011210321587 -0.5200046160127103 1.1399895127138917
1.27362203598 0.0471142554725489 -0.1967251473774716 -1.1153126972598135 2.004085147617083 2.0501011210321587 -0.5200046160127103 1.1399895127138917
1.27362203598 0.0471142554725489 -0.1967251473774716 -1.1153126972598135 2.004085147617083 2.0501011210321587 -0.5200046160127103 1.1399895127138917
1.28343510628 0.0471142554725489 -0.1967251473774716 -1.1153126972598135 2.004085147617083 2.0501011210321587 -0.5200046160127103 1.1399895127138917
1.28343510628 0.0471142554725489 -0.1967251473774716 -1.1153126972598135 2.004085147617083 2.0501011210321587 -0.5200046160127103 1.1399895127138917
1.29332208633 0.0471142554725489 -0.1967251473774716 -1.1153126972598135 2.004085147617083 2.0501011210321587 -0.5200046160127103 1.1399895127138917
1.29332208633 0.0471142554725489 -0.1967251473774716 -1.1153126972598135 2.004085147617083 2.0501011210321587 -0.5200046160127103 1.1399895127138917
1.30337691307 0.0471142554725489 -0.1967251473774716 -1.1153126972598135 2.004085147617083 2.0501011210321587 -0.5200046160127103 1.1399895127138917
1.30337691307 0.0471142554725489 -0.1967251473774716 -1.1153126972598135 2.004085147617083 2.0501011210321587 -0.5200046160127103 1.1399895127138917
1.31554198265 0.0471142554725489 -0.1967251473774716 -1.1153126972598135 2.004085147617083 2.0501011210321587 -0.5200046160127103 1.1399895127138917
1.31554198265 0.0471142554725489 -0.1967251473774716 -1.1153126972598135 2.004085147617083 2.0501011210321587 -0.5200046160127103 1.1399895127138917
1.32347488403 0.0471142554725489 -0.1967251473774716 -1.1153126972598135 2.004085147617083 2.0501011210321587 -0.5200046160127103 1.1399895127138917
1.32347488403 0.0471142554725489 -0.1967251473774716 -1.1153126972598135 2.004085147617083 2.0501011210321587 -0.5200046160127103 1.1399895127138917
1.33361697197 0.0471295954839005 -0.1967251473774716 -1.1153126972598135 2.004085147617083 2.0501011210321587 -0.5200046160127103 1.1399895127138917
1.33361697197 0.0471295954839005 -0.1967251473774716 -1.1153126972598135 2.004085147617083 2.0501011210321587 -0.5200046160127103 1.1399895127138917
1.34346008301 0.0471295954839005 -0.1967251473774716 -1.1153126972598135 2.004085147617083 2.0501011210321587 -0.5200046160127103 1.1399895127138917
1.34346008301 0.0471295954839005 -0.1967251473774716 -1.1153126972598135 2.004085147617083 2.0501011210321587 -0.5200046160127103 1.1399895127138917
1.35326910019 0.0471295954839005 -0.1967251473774716 -1.1153126972598135 2.004085147617083 2.0501011210321587 -0.5200046160127103 1.1399895127138917
1.35326910019 0.0471295954839005 -0.1967251473774716 -1.1153126972598135 2.004085147617083 2.0501011210321587 -0.5200046160127103 1.1399895127138917
1.36353993416 0.0471295954839005 -0.1967251473774716 -1.1153126972598135 2.004085147617083 2.0501011210321587 -0.5200046160127103 1.1399895127138917
1.36353993416 0.0471295954839005 -0.1967251473774716 -1.1153126972598135 2.004085147617083 2.0501011210321587 -0.5200046160127103 1.1399895127138917
1.3736178875 0.0471295954839005 -0.1967251473774716 -1.1153126972598135 2.004085147617083 2.0501011210321587 -0.5200046160127103 1.1399895127138917
1.3736178875 0.0471295954839005 -0.1967251473774716 -1.1153126972598135 2.004085147617083 2.0501011210321587 -0.5200046160127103 1.1399895127138917
1.3837518692 0.0471295954839005 -0.1967251473774716 -1.1153126972598135 2.004085147617083 2.0501011210321587 -0.5200046160127103 1.1399895127138917
1.3837518692 0.0471295954839005 -0.1967251473774716 -1.1153126972598135 2.004085147617083 2.0501011210321587 -0.5200046160127103 1.1399895127138917
1.39356899261 0.0471295954839005 -0.1967251473774716 -1.1153126972598135 2.004085147617083 2.0501011210321587 -0.5200046160127103 1.1399895127138917
1.39356899261 0.0471295954839005 -0.1967251473774716 -1.1153126972598135 2.004085147617083 2.0501011210321587 -0.5200046160127103 1.1399895127138917
1.40359807014 0.0471295954839005 -0.1967251473774716 -1.1153126972598135 2.004085147617083 2.0501011210321587 -0.5200046160127103 1.1399895127138917
1.40359807014 0.0471295954839005 -0.1967251473774716 -1.1153126972598135 2.004085147617083 2.0501011210321587 -0.5200046160127103 1.1399895127138917
1.41357898712 0.0471295954839005 -0.1967251473774716 -1.1153126972598135 2.004085147617083 2.0501011210321587 -0.5200046160127103 1.1399895127138917
1.41357898712 0.0471295954839005 -0.1967251473774716 -1.1153126972598135 2.004085147617083 2.0501011210321587 -0.5200046160127103 1.1399895127138917
1.42371988297 0.0471295954839005 -0.1967251473774716 -1.1153126972598135 2.004085147617083 2.0501011210321587 -0.5200046160127103 1.1399895127138917
1.42371988297 0.0471295954839005 -0.1967251473774716 -1.1153126972598135 2.004085147617083 2.0501011210321587 -0.5200046160127103 1.1399895127138917
1.43367695808 0.0471295954839005 -0.1967251473774716 -1.1153126972598135 2.004085147617083 2.0501011210321587 -0.5200046160127103 1.1399895127138917
1.43367695808 0.0471295954839005 -0.1967251473774716 -1.1153126972598135 2.004085147617083 2.0501011210321587 -0.5200046160127103 1.1399895127138917
1.44372391701 0.0471295954839005 -0.1967251473774716 -1.1153126972598135 2.004085147617083 2.0501011210321587 -0.5200046160127103 1.1399895127138917
1.44372391701 0.0471295954839005 -0.1967251473774716 -1.1153126972598135 2.004085147617083 2.0501011210321587 -0.5200046160127103 1.1399895127138917
1.45371603966 0.0471295954839005 -0.1967251473774716 -1.1153126972598135 2.004085147617083 2.0501011210321587 -0.5200046160127103 1.1399895127138917
1.45371603966 0.0471295954839005 -0.1967251473774716 -1.1153126972598135 2.004085147617083 2.0501011210321587 -0.5200046160127103 1.1399895127138917
1.46381092072 0.0471295954839005 -0.1967251473774716 -1.1153126972598135 2.004085147617083 2.0501011210321587 -0.5200046160127103 1.1399895127138917
1.46381092072 0.0471295954839005 -0.1967251473774716 -1.1153126972598135 2.004085147617083 2.0501011210321587 -0.5200046160127103 1.1399895127138917
1.47358894348 0.0471295954839005 -0.1967251473774716 -1.1153126972598135 2.004085147617083 2.0501011210321587 -0.5200046160127103 1.1399895127138917
1.47358894348 0.0471295954839005 -0.1967251473774716 -1.1153126972598135 2.004085147617083 2.0501011210321587 -0.5200046160127103 1.1399895127138917
1.48377394676 0.0471295954839005 -0.1967251473774716 -1.1153126972598135 2.004085147617083 2.0501011210321587 -0.5200046160127103 1.1399895127138917
1.48377394676 0.0471295954839005 -0.1967251473774716 -1.1153126972598135 2.004085147617083 2.0501011210321587 -0.5200046160127103 1.1399895127138917
1.49371290207 0.0471295954839005 -0.1967251473774716 -1.1153126972598135 2.004085147617083 2.0501011210321587 -0.5200046160127103 1.1399895127138917
1.49371290207 0.0471295954839005 -0.1967251473774716 -1.1153126972598135 2.004085147617083 2.0501011210321587 -0.5200046160127103 1.1399895127138917
1.50369310379 0.0471295954839005 -0.1967251473774716 -1.1153126972598135 2.004085147617083 2.0501011210321587 -0.5200046160127103 1.1399895127138917
1.50369310379 0.0471295954839005 -0.1967251473774716 -1.1153126972598135 2.004085147617083 2.0501011210321587 -0.5200046160127103 1.1399895127138917
1.51352000237 0.0471295954839005 -0.1967251473774716 -1.1153126972598135 2.004085147617083 2.0501011210321587 -0.5200046160127103 1.1399895127138917
1.51352000237 0.0471295954839005 -0.1967251473774716 -1.1153126972598135 2.004085147617083 2.0501011210321587 -0.5200046160127103 1.1399895127138917
1.52376294136 0.0471295954839005 -0.1967251473774716 -1.1153126972598135 2.004085147617083 2.0501011210321587 -0.5200046160127103 1.1399895127138917
1.52376294136 0.0471295954839005 -0.1967251473774716 -1.1153126972598135 2.004085147617083 2.0501011210321587 -0.5200046160127103 1.1399895127138917
1.53369188309 0.0471295954839005 -0.1967251473774716 -1.1153126972598135 2.004085147617083 2.0501011210321587 -0.5200046160127103 1.1399895127138917
1.53369188309 0.0471295954839005 -0.1967251473774716 -1.1153126972598135 2.004085147617083 2.0501011210321587 -0.5200046160127103 1.1399895127138917
1.54378890991 0.0471295954839005 -0.1967251473774716 -1.1153126972598135 2.004085147617083 2.0501011210321587 -0.5200046160127103 1.1399895127138917
1.54378890991 0.0471295954839005 -0.1967251473774716 -1.1153126972598135 2.004085147617083 2.0501011210321587 -0.5200046160127103 1.1399895127138917
1.5537519455 0.0471295954839005 -0.1967251473774716 -1.1153126972598135 2.004085147617083 2.0501011210321587 -0.5200046160127103 1.1399895127138917
1.5537519455 0.0471295954839005 -0.1967251473774716 -1.1153126972598135 2.004085147617083 2.0501011210321587 -0.5200046160127103 1.1399895127138917
1.56384587288 0.0471295954839005 -0.1967251473774716 -1.1153126972598135 2.004085147617083 2.0501011210321587 -0.5200046160127103 1.1399895127138917
1.56384587288 0.0471295954839005 -0.1967251473774716 -1.1153126972598135 2.004085147617083 2.0501011210321587 -0.5200046160127103 1.1399895127138917
1.57371687889 0.0471295954839005 -0.1967251473774716 -1.1153126972598135 2.004085147617083 2.0501011210321587 -0.5200046160127103 1.1399895127138917
1.57371687889 0.0471295954839005 -0.1967251473774716 -1.1153126972598135 2.004085147617083 2.0501011210321587 -0.5200046160127103 1.1399895127138917
1.58380889893 0.0471295954839005 -0.1967251473774716 -1.1153126972598135 2.004085147617083 2.0501011210321587 -0.5200046160127103 1.1399895127138917
1.58380889893 0.0471295954839005 -0.1967251473774716 -1.1153126972598135 2.004085147617083 2.0501011210321587 -0.5200046160127103 1.1399895127138917
1.59373807907 0.0471295954839005 -0.1967251473774716 -1.1153126972598135 2.004085147617083 2.0501011210321587 -0.5200046160127103 1.1399895127138917
1.59373807907 0.0471295954839005 -0.1967251473774716 -1.1153126972598135 2.004085147617083 2.0501011210321587 -0.5200046160127103 1.1399895127138917
1.60385394096 0.0471295954839005 -0.1967251473774716 -1.1153126972598135 2.004085147617083 2.0501011210321587 -0.5200046160127103 1.1399895127138917
1.60385394096 0.0471295954839005 -0.1967251473774716 -1.1153126972598135 2.004085147617083 2.0501011210321587 -0.5200046160127103 1.1399895127138917
1.61376905441 0.0471295954839005 -0.1967251473774716 -1.1153126972598135 2.004085147617083 2.0501011210321587 -0.5200046160127103 1.1399895127138917
1.61376905441 0.0471295954839005 -0.1967251473774716 -1.1153126972598135 2.004085147617083 2.0501011210321587 -0.5200046160127103 1.1399895127138917
1.62373304367 0.0471295954839005 -0.1967251473774716 -1.1153126972598135 2.004085147617083 2.0501011210321587 -0.5200046160127103 1.1399895127138917
1.62373304367 0.0471295954839005 -0.1967251473774716 -1.1153126972598135 2.004085147617083 2.0501011210321587 -0.5200046160127103 1.1399895127138917
1.6335849762 0.0471295954839005 -0.1967251473774716 -1.1153126972598135 2.004085147617083 2.0501011210321587 -0.5200046160127103 1.1399895127138917
1.6335849762 0.0471295954839005 -0.1967251473774716 -1.1153126972598135 2.004085147617083 2.0501011210321587 -0.5200046160127103 1.1399895127138917
1.64381599426 0.0471295954839005 -0.1967251473774716 -1.1153126972598135 2.004085147617083 2.0501011210321587 -0.5200046160127103 1.1399895127138917
1.64381599426 0.0471295954839005 -0.1967251473774716 -1.1153126972598135 2.004085147617083 2.0501011210321587 -0.5200046160127103 1.1399895127138917
1.65379405022 0.0471295954839005 -0.1967251473774716 -1.1153126972598135 2.004085147617083 2.0501011210321587 -0.5200046160127103 1.1399895127138917
1.65379405022 0.0471295954839005 -0.1967251473774716 -1.1153126972598135 2.004085147617083 2.0501011210321587 -0.5200046160127103 1.1399895127138917
1.66369605064 0.0471295954839005 -0.1967251473774716 -1.1153126972598135 2.004085147617083 2.0501011210321587 -0.5200046160127103 1.1399895127138917
1.66369605064 0.0471295954839005 -0.1967251473774716 -1.1153126972598135 2.004085147617083 2.0501011210321587 -0.5200046160127103 1.1399895127138917
1.67370700836 0.0471295954839005 -0.1967251473774716 -1.1153126972598135 2.004085147617083 2.0501011210321587 -0.5200046160127103 1.1399895127138917
1.67370700836 0.0471295954839005 -0.1967251473774716 -1.1153126972598135 2.004085147617083 2.0501011210321587 -0.5200046160127103 1.1399895127138917
1.68369889259 0.0471295954839005 -0.1967251473774716 -1.1153126972598135 2.004085147617083 2.0501011210321587 -0.5200046160127103 1.1399895127138917
1.68369889259 0.0471295954839005 -0.1967251473774716 -1.1153126972598135 2.004085147617083 2.0501011210321587 -0.5200046160127103 1.1399895127138917
1.6937520504 0.0471295954839005 -0.1967251473774716 -1.1153126972598135 2.004085147617083 2.0501011210321587 -0.5200046160127103 1.1399895127138917
1.6937520504 0.0471295954839005 -0.1967251473774716 -1.1153126972598135 2.004085147617083 2.0501011210321587 -0.5200046160127103 1.1399895127138917
1.70385289192 0.0471295954839005 -0.1967251473774716 -1.1153126972598135 2.004085147617083 2.0501011210321587 -0.5200046160127103 1.1399895127138917
1.70385289192 0.0471295954839005 -0.1967251473774716 -1.1153126972598135 2.004085147617083 2.0501011210321587 -0.5200046160127103 1.1399895127138917
1.71389603615 0.0471295954839005 -0.1967251473774716 -1.1153126972598135 2.004085147617083 2.0501011210321587 -0.5200046160127103 1.1399895127138917
1.71389603615 0.0471295954839005 -0.1967251473774716 -1.1153126972598135 2.004085147617083 2.0501011210321587 -0.5200046160127103 1.1399895127138917
1.72382187843 0.0471295954839005 -0.1967251473774716 -1.1153126972598135 2.004085147617083 2.0501011210321587 -0.5200046160127103 1.1399895127138917
1.72382187843 0.0471295954839005 -0.1967251473774716 -1.1153126972598135 2.004085147617083 2.0501011210321587 -0.5200046160127103 1.1399895127138917
1.73376607895 0.0471295954839005 -0.1967251473774716 -1.1153126972598135 2.004085147617083 2.0501011210321587 -0.5200046160127103 1.1399895127138917
1.73376607895 0.0471295954839005 -0.1967251473774716 -1.1153126972598135 2.004085147617083 2.0501011210321587 -0.5200046160127103 1.1399895127138917
1.743694067 0.0471295954839005 -0.1967251473774716 -1.1153126972598135 2.004085147617083 2.0501011210321587 -0.5200046160127103 1.1399895127138917
1.743694067 0.0471295954839005 -0.1967251473774716 -1.1153126972598135 2.004085147617083 2.0501011210321587 -0.5200046160127103 1.1399895127138917
1.75359201431 0.0471295954839005 -0.1967251473774716 -1.1153126972598135 2.004085147617083 2.0501011210321587 -0.5200046160127103 1.1399895127138917
1.75359201431 0.0471295954839005 -0.1967251473774716 -1.1153126972598135 2.004085147617083 2.0501011210321587 -0.5200046160127103 1.1399895127138917
1.76377391815 0.0471295954839005 -0.1967251473774716 -1.1153126972598135 2.004085147617083 2.0501011210321587 -0.5200046160127103 1.1399895127138917
1.76377391815 0.0471295954839005 -0.1967251473774716 -1.1153126972598135 2.004085147617083 2.0501011210321587 -0.5200046160127103 1.1399895127138917
1.77379202843 0.0471295954839005 -0.1967251473774716 -1.1153126972598135 2.004085147617083 2.0501011210321587 -0.5200046160127103 1.1399895127138917
1.77379202843 0.0471295954839005 -0.1967251473774716 -1.1153126972598135 2.004085147617083 2.0501011210321587 -0.5200046160127103 1.1399895127138917
1.78365588188 0.0471295954839005 -0.1967251473774716 -1.1153126972598135 2.004085147617083 2.0501011210321587 -0.5200046160127103 1.1399895127138917
1.78365588188 0.0471295954839005 -0.1967251473774716 -1.1153126972598135 2.004085147617083 2.0501011210321587 -0.5200046160127103 1.1399895127138917
1.79374694824 0.0471295954839005 -0.1967251473774716 -1.1153126972598135 2.004085147617083 2.0501011210321587 -0.5200046160127103 1.1399895127138917
1.79374694824 0.0471295954839005 -0.1967251473774716 -1.1153126972598135 2.004085147617083 2.0501011210321587 -0.5200046160127103 1.1399895127138917
1.80380702019 0.0471295954839005 -0.1967251473774716 -1.1153126972598135 2.004085147617083 2.0501011210321587 -0.5200046160127103 1.1399895127138917
1.80380702019 0.0471295954839005 -0.1967251473774716 -1.1153126972598135 2.004085147617083 2.0501011210321587 -0.5200046160127103 1.1399895127138917
1.81361603737 0.0471295954839005 -0.1967251473774716 -1.1153126972598135 2.004085147617083 2.0501011210321587 -0.5200046160127103 1.1399895127138917
1.81361603737 0.0471295954839005 -0.1967251473774716 -1.1153126972598135 2.004085147617083 2.0501011210321587 -0.5200046160127103 1.1399895127138917
1.82384490967 0.0471295954839005 -0.1967251473774716 -1.1153126972598135 2.004085147617083 2.0501011210321587 -0.5200046160127103 1.1399895127138917
1.82384490967 0.0471295954839005 -0.1967251473774716 -1.1153126972598135 2.004085147617083 2.0501011210321587 -0.5200046160127103 1.1399895127138917
1.83375692368 0.0471295954839005 -0.1967251473774716 -1.1153126972598135 2.004085147617083 2.0501011210321587 -0.5200046160127103 1.1399895127138917
1.83375692368 0.0471295954839005 -0.1967251473774716 -1.1153126972598135 2.004085147617083 2.0501011210321587 -0.5200046160127103 1.1399895127138917
1.84384799004 0.0471295954839005 -0.1967251473774716 -1.1153126972598135 2.004085147617083 2.0501011210321587 -0.5200046160127103 1.1399895127138917
1.84384799004 0.0471295954839005 -0.1967251473774716 -1.1153126972598135 2.004085147617083 2.0501011210321587 -0.5200046160127103 1.1399895127138917
1.8537209034 0.0471295954839005 -0.1967251473774716 -1.1153126972598135 2.004085147617083 2.0501011210321587 -0.5200046160127103 1.1399895127138917
1.8537209034 0.0471295954839005 -0.1967251473774716 -1.1153126972598135 2.004085147617083 2.0501011210321587 -0.5200046160127103 1.1399895127138917
1.86369395256 0.0471295954839005 -0.1967251473774716 -1.1153126972598135 2.004085147617083 2.0501011210321587 -0.5200046160127103 1.1399895127138917
1.86369395256 0.0471295954839005 -0.1967251473774716 -1.1153126972598135 2.004085147617083 2.0501011210321587 -0.5200046160127103 1.1399895127138917
1.8734960556 0.0471295954839005 -0.1967251473774716 -1.1153126972598135 2.004085147617083 2.0501011210321587 -0.5200046160127103 1.1399895127138917
1.8734960556 0.0471295954839005 -0.1967251473774716 -1.1153126972598135 2.004085147617083 2.0501011210321587 -0.5200046160127103 1.1399895127138917
1.88358187675 0.0471295954839005 -0.1967251473774716 -1.1153126972598135 2.004085147617083 2.0501011210321587 -0.5200046160127103 1.1399895127138917
1.88358187675 0.0471295954839005 -0.1967251473774716 -1.1153126972598135 2.004085147617083 2.0501011210321587 -0.5200046160127103 1.1399895127138917
1.89372801781 0.0471295954839005 -0.1967251473774716 -1.1153126972598135 2.004085147617083 2.0501011210321587 -0.5200046160127103 1.1399895127138917
1.89372801781 0.0471295954839005 -0.1967251473774716 -1.1153126972598135 2.004085147617083 2.0501011210321587 -0.5200046160127103 1.1399895127138917
1.90380692482 0.0471295954839005 -0.1967251473774716 -1.1153126972598135 2.004085147617083 2.0501011210321587 -0.5200046160127103 1.1399895127138917
1.90380692482 0.0471295954839005 -0.1967251473774716 -1.1153126972598135 2.004085147617083 2.0501011210321587 -0.5200046160127103 1.1399895127138917
1.91375589371 0.0471295954839005 -0.1967251473774716 -1.1153126972598135 2.004085147617083 2.0501011210321587 -0.5200046160127103 1.1399895127138917
1.91375589371 0.0471295954839005 -0.1967251473774716 -1.1153126972598135 2.004085147617083 2.0501011210321587 -0.5200046160127103 1.1399895127138917
1.92378807068 0.0471295954839005 -0.1967251473774716 -1.1153126972598135 2.004085147617083 2.0501011210321587 -0.5200046160127103 1.1399895127138917
1.92378807068 0.0471295954839005 -0.1967251473774716 -1.1153126972598135 2.004085147617083 2.0501011210321587 -0.5200046160127103 1.1399895127138917
1.93379688263 0.0471295954839005 -0.1967251473774716 -1.1153126972598135 2.004085147617083 2.0501011210321587 -0.5200046160127103 1.1399895127138917
1.93379688263 0.0471295954839005 -0.1967251473774716 -1.1153126972598135 2.004085147617083 2.0501011210321587 -0.5200046160127103 1.1399895127138917
1.94379591942 0.0471295954839005 -0.1967251473774716 -1.1153126972598135 2.004085147617083 2.0501011210321587 -0.5200046160127103 1.1399895127138917
1.94379591942 0.0471295954839005 -0.1967251473774716 -1.1153126972598135 2.004085147617083 2.0501011210321587 -0.5200046160127103 1.1399895127138917
1.95373797417 0.0471295954839005 -0.1967251473774716 -1.1153126972598135 2.004085147617083 2.0501011210321587 -0.5200046160127103 1.1399895127138917
1.95373797417 0.0471295954839005 -0.1967251473774716 -1.1153126972598135 2.004085147617083 2.0501011210321587 -0.5200046160127103 1.1399895127138917
1.96387505531 0.0471295954839005 -0.1967251473774716 -1.1153126972598135 2.004085147617083 2.0501011210321587 -0.5200046160127103 1.1399895127138917
1.96387505531 0.0471295954839005 -0.1967251473774716 -1.1153126972598135 2.004085147617083 2.0501011210321587 -0.5200046160127103 1.1399895127138917
1.97372698784 0.0471295954839005 -0.1967251473774716 -1.1153126972598135 2.004085147617083 2.0501011210321587 -0.5200046160127103 1.1399895127138917
1.97372698784 0.0471295954839005 -0.1967251473774716 -1.1153126972598135 2.004085147617083 2.0501011210321587 -0.5200046160127103 1.1399895127138917
1.98358392715 0.0471295954839005 -0.1967251473774716 -1.1153126972598135 2.004085147617083 2.0501011210321587 -0.5200046160127103 1.1399895127138917
1.98358392715 0.0471295954839005 -0.1967251473774716 -1.1153126972598135 2.004085147617083 2.0501011210321587 -0.5200046160127103 1.1399895127138917
1.99345207214 0.0471295954839005 -0.1967251473774716 -1.1153126972598135 2.004085147617083 2.0501011210321587 -0.5200046160127103 1.1399895127138917
1.99345207214 0.0471295954839005 -0.1967251473774716 -1.1153126972598135 2.004085147617083 2.0501011210321587 -0.5200046160127103 1.1399895127138917
2.00371789932 0.0471295954839005 -0.1967251473774716 -1.1153126972598135 2.004085147617083 2.0501011210321587 -0.5200046160127103 1.1399895127138917
2.00371789932 0.0471295954839005 -0.1967251473774716 -1.1153126972598135 2.004085147617083 2.0501011210321587 -0.5200046160127103 1.1399895127138917
2.01355600357 0.0471295954839005 -0.1967251473774716 -1.1153126972598135 2.004085147617083 2.0501011210321587 -0.5200046160127103 1.1399895127138917
2.01355600357 0.0471295954839005 -0.1967251473774716 -1.1153126972598135 2.004085147617083 2.0501011210321587 -0.5200046160127103 1.1399895127138917
2.02375006676 0.0471295954839005 -0.1967251473774716 -1.1153126972598135 2.004085147617083 2.0501011210321587 -0.5200046160127103 1.1399895127138917
2.02375006676 0.0471295954839005 -0.1967251473774716 -1.1153126972598135 2.004085147617083 2.0501011210321587 -0.5200046160127103 1.1399895127138917
2.03384304047 0.0471295954839005 -0.1967251473774716 -1.1153126972598135 2.004085147617083 2.0501011210321587 -0.5200046160127103 1.1399895127138917
2.03384304047 0.0471295954839005 -0.1967251473774716 -1.1153126972598135 2.004085147617083 2.0501011210321587 -0.5200046160127103 1.1399895127138917
2.04379892349 0.0471295954839005 -0.1967251473774716 -1.1153126972598135 2.004085147617083 2.0501011210321587 -0.5200046160127103 1.1399895127138917
2.04379892349 0.0471295954839005 -0.1967251473774716 -1.1153126972598135 2.004085147617083 2.0501011210321587 -0.5200046160127103 1.1399895127138917
2.05387496948 0.0471295954839005 -0.1967251473774716 -1.1153126972598135 2.004085147617083 2.0501011210321587 -0.5200046160127103 1.1399895127138917
2.05387496948 0.0471295954839005 -0.1967251473774716 -1.1153126972598135 2.004085147617083 2.0501011210321587 -0.5200046160127103 1.1399895127138917
2.06382393837 0.0471295954839005 -0.1967251473774716 -1.1153126972598135 2.004085147617083 2.0501011210321587 -0.5200046160127103 1.1399895127138917
2.06382393837 0.0471295954839005 -0.1967251473774716 -1.1153126972598135 2.004085147617083 2.0501011210321587 -0.5200046160127103 1.1399895127138917
2.07375097275 0.0471295954839005 -0.1967251473774716 -1.1153126972598135 2.004085147617083 2.0501011210321587 -0.5200046160127103 1.1399895127138917
2.07375097275 0.0471295954839005 -0.1967251473774716 -1.1153126972598135 2.004085147617083 2.0501011210321587 -0.5200046160127103 1.1399895127138917
2.08391499519 0.0471295954839005 -0.1967251473774716 -1.1153126972598135 2.004085147617083 2.0501011210321587 -0.5200046160127103 1.1399895127138917
2.08391499519 0.0471295954839005 -0.1967251473774716 -1.1153126972598135 2.004085147617083 2.0501011210321587 -0.5200046160127103 1.1399895127138917
2.09367203712 0.0471295954839005 -0.1967251473774716 -1.1153126972598135 2.004085147617083 2.0501011210321587 -0.5200046160127103 1.1399895127138917
2.09367203712 0.0471295954839005 -0.1967251473774716 -1.1153126972598135 2.004085147617083 2.0501011210321587 -0.5200046160127103 1.1399895127138917
2.10357999802 0.0471295954839005 -0.1967251473774716 -1.1153126972598135 2.004085147617083 2.0501011210321587 -0.5200046160127103 1.1399895127138917
2.10357999802 0.0471295954839005 -0.1967251473774716 -1.1153126972598135 2.004085147617083 2.0501011210321587 -0.5200046160127103 1.1399895127138917
2.11339306831 0.0471295954839005 -0.1967251473774716 -1.1153126972598135 2.004085147617083 2.0501011210321587 -0.5200046160127103 1.1399895127138917
2.11339306831 0.0471295954839005 -0.1967251473774716 -1.1153126972598135 2.004085147617083 2.0501011210321587 -0.5200046160127103 1.1399895127138917
2.12382698059 0.0471295954839005 -0.1967251473774716 -1.1153126972598135 2.004085147617083 2.0501011210321587 -0.5200046160127103 1.1399895127138917
2.12382698059 0.0471295954839005 -0.1967251473774716 -1.1153126972598135 2.004085147617083 2.0501011210321587 -0.5200046160127103 1.1399895127138917
2.13372397423 0.0471295954839005 -0.1967251473774716 -1.1153126972598135 2.004085147617083 2.0501011210321587 -0.5200046160127103 1.1399895127138917
2.13372397423 0.0471295954839005 -0.1967251473774716 -1.1153126972598135 2.004085147617083 2.0501011210321587 -0.5200046160127103 1.1399895127138917
2.14380097389 0.0471295954839005 -0.1967251473774716 -1.1153126972598135 2.004085147617083 2.0501011210321587 -0.5200046160127103 1.1399895127138917
2.14380097389 0.0471295954839005 -0.1967251473774716 -1.1153126972598135 2.004085147617083 2.0501011210321587 -0.5200046160127103 1.1399895127138917
2.15383791924 0.0471295954839005 -0.1967251473774716 -1.1153126972598135 2.004085147617083 2.0501011210321587 -0.5200046160127103 1.1399895127138917
2.15383791924 0.0471295954839005 -0.1967251473774716 -1.1153126972598135 2.004085147617083 2.0501011210321587 -0.5200046160127103 1.1399895127138917
2.16379094124 0.0471295954839005 -0.1967251473774716 -1.1153126972598135 2.004085147617083 2.0501011210321587 -0.5200046160127103 1.1399895127138917
2.16379094124 0.0471295954839005 -0.1967251473774716 -1.1153126972598135 2.004085147617083 2.0501011210321587 -0.5200046160127103 1.1399895127138917
2.17372608185 0.0471295954839005 -0.1967251473774716 -1.1153126972598135 2.004085147617083 2.0501011210321587 -0.5200046160127103 1.1399895127138917
2.17372608185 0.0471295954839005 -0.1967251473774716 -1.1153126972598135 2.004085147617083 2.0501011210321587 -0.5200046160127103 1.1399895127138917
2.183604002 0.0471295954839005 -0.1967251473774716 -1.1153126972598135 2.004085147617083 2.0501011210321587 -0.5200046160127103 1.1399895127138917
2.183604002 0.0471295954839005 -0.1967251473774716 -1.1153126972598135 2.004085147617083 2.0501011210321587 -0.5200046160127103 1.1399895127138917
2.19372296333 0.0471295954839005 -0.1967251473774716 -1.1153126972598135 2.004085147617083 2.0501011210321587 -0.5200046160127103 1.1399895127138917
2.19372296333 0.0471295954839005 -0.1967251473774716 -1.1153126972598135 2.004085147617083 2.0501011210321587 -0.5200046160127103 1.1399895127138917
2.20381808281 0.0471295954839005 -0.1967251473774716 -1.1153126972598135 2.004085147617083 2.0501011210321587 -0.5200046160127103 1.1399895127138917
2.20381808281 0.0471295954839005 -0.1967251473774716 -1.1153126972598135 2.004085147617083 2.0501011210321587 -0.5200046160127103 1.1399895127138917
2.21374797821 0.0471295954839005 -0.1967251473774716 -1.1153126972598135 2.004085147617083 2.0501011210321587 -0.5200046160127103 1.1399895127138917
2.21374797821 0.0471295954839005 -0.1967251473774716 -1.1153126972598135 2.004085147617083 2.0501011210321587 -0.5200046160127103 1.1399895127138917
2.22365403175 0.0471295954839005 -0.1967251473774716 -1.1153126972598135 2.004085147617083 2.0501011210321587 -0.5200046160127103 1.1399895127138917
2.22365403175 0.0471295954839005 -0.1967251473774716 -1.1153126972598135 2.004085147617083 2.0501011210321587 -0.5200046160127103 1.1399895127138917
2.23351693153 0.0471295954839005 -0.1967251473774716 -1.1153126972598135 2.004085147617083 2.0501011210321587 -0.5200046160127103 1.1399895127138917
2.23351693153 0.0471295954839005 -0.1967251473774716 -1.1153126972598135 2.004085147617083 2.0501011210321587 -0.5200046160127103 1.1399895127138917
2.24383592606 0.0471295954839005 -0.1967251473774716 -1.1153126972598135 2.004085147617083 2.0501011210321587 -0.5200046160127103 1.1399895127138917
2.24383592606 0.0471295954839005 -0.1967251473774716 -1.1153126972598135 2.004085147617083 2.0501011210321587 -0.5200046160127103 1.1399895127138917
2.25371909142 0.0471295954839005 -0.1967251473774716 -1.1153126972598135 2.004085147617083 2.0501011210321587 -0.5200046160127103 1.1399895127138917
2.25371909142 0.0471295954839005 -0.1967251473774716 -1.1153126972598135 2.004085147617083 2.0501011210321587 -0.5200046160127103 1.1399895127138917
2.2637720108 0.0471295954839005 -0.1967251473774716 -1.1153126972598135 2.004085147617083 2.0501011210321587 -0.5200046160127103 1.1399895127138917
2.2637720108 0.0471295954839005 -0.1967251473774716 -1.1153126972598135 2.004085147617083 2.0501011210321587 -0.5200046160127103 1.1399895127138917
2.27374196053 0.0471295954839005 -0.1967251473774716 -1.1153126972598135 2.004085147617083 2.0501011210321587 -0.5200046160127103 1.1399895127138917
2.27374196053 0.0471295954839005 -0.1967251473774716 -1.1153126972598135 2.004085147617083 2.0501011210321587 -0.5200046160127103 1.1399895127138917
2.28364801407 0.0471295954839005 -0.1967251473774716 -1.1153126972598135 2.004085147617083 2.0501011210321587 -0.5200046160127103 1.1399895127138917
2.28364801407 0.0471295954839005 -0.1967251473774716 -1.1153126972598135 2.004085147617083 2.0501011210321587 -0.5200046160127103 1.1399895127138917
2.29372596741 0.0471295954839005 -0.1967251473774716 -1.1153126972598135 2.004085147617083 2.0501011210321587 -0.5200046160127103 1.1399895127138917
2.29372596741 0.0471295954839005 -0.1967251473774716 -1.1153126972598135 2.004085147617083 2.0501011210321587 -0.5200046160127103 1.1399895127138917
2.30367994308 0.0471295954839005 -0.1967251473774716 -1.1153126972598135 2.004085147617083 2.0501011210321587 -0.5200046160127103 1.1399895127138917
2.30367994308 0.0471295954839005 -0.1967251473774716 -1.1153126972598135 2.004085147617083 2.0501011210321587 -0.5200046160127103 1.1399895127138917
2.31372904778 0.0471295954839005 -0.1967251473774716 -1.1153126972598135 2.004085147617083 2.0501011210321587 -0.5200046160127103 1.1399895127138917
2.31372904778 0.0471295954839005 -0.1967251473774716 -1.1153126972598135 2.004085147617083 2.0501011210321587 -0.5200046160127103 1.1399895127138917
2.32381105423 0.0471295954839005 -0.1967251473774716 -1.1153126972598135 2.004085147617083 2.0501011210321587 -0.5200046160127103 1.1399895127138917
2.32381105423 0.0471295954839005 -0.1967251473774716 -1.1153126972598135 2.004085147617083 2.0501011210321587 -0.5200046160127103 1.1399895127138917
2.33371496201 0.0471295954839005 -0.1967251473774716 -1.1153126972598135 2.004085147617083 2.0501011210321587 -0.5200046160127103 1.1399895127138917
2.33371496201 0.0471295954839005 -0.1967251473774716 -1.1153126972598135 2.004085147617083 2.0501011210321587 -0.5200046160127103 1.1399895127138917
2.34364891052 0.0471295954839005 -0.1967251473774716 -1.1153126972598135 2.004085147617083 2.0501011210321587 -0.5200046160127103 1.1399895127138917
2.34364891052 0.0471295954839005 -0.1967251473774716 -1.1153126972598135 2.004085147617083 2.0501011210321587 -0.5200046160127103 1.1399895127138917
2.35344791412 0.0471295954839005 -0.1967251473774716 -1.1153126972598135 2.004085147617083 2.0501011210321587 -0.5200046160127103 1.1399895127138917
2.35344791412 0.0471295954839005 -0.1967251473774716 -1.1153126972598135 2.004085147617083 2.0501011210321587 -0.5200046160127103 1.1399895127138917
2.3637509346 0.0471295954839005 -0.1967251473774716 -1.1153126972598135 2.004085147617083 2.0501011210321587 -0.5200046160127103 1.1399895127138917
2.3637509346 0.0471295954839005 -0.1967251473774716 -1.1153126972598135 2.004085147617083 2.0501011210321587 -0.5200046160127103 1.1399895127138917
2.37362098694 0.0471295954839005 -0.1967251473774716 -1.1153126972598135 2.004085147617083 2.0501011210321587 -0.5200046160127103 1.1399895127138917
2.37362098694 0.0471295954839005 -0.1967251473774716 -1.1153126972598135 2.004085147617083 2.0501011210321587 -0.5200046160127103 1.1399895127138917
2.38380789757 0.0471295954839005 -0.1967251473774716 -1.1153126972598135 2.004085147617083 2.0501011210321587 -0.5200046160127103 1.1399895127138917
2.38380789757 0.0471295954839005 -0.1967251473774716 -1.1153126972598135 2.004085147617083 2.0501011210321587 -0.5200046160127103 1.1399895127138917
2.39380192757 0.0471295954839005 -0.1967251473774716 -1.1153126972598135 2.004085147617083 2.0501011210321587 -0.5200046160127103 1.1399895127138917
2.39380192757 0.0471295954839005 -0.1967251473774716 -1.1153126972598135 2.004085147617083 2.0501011210321587 -0.5200046160127103 1.1399895127138917
2.40369987488 0.0471295954839005 -0.1967251473774716 -1.1153126972598135 2.004085147617083 2.0501011210321587 -0.5200046160127103 1.1399895127138917
2.40369987488 0.0471295954839005 -0.1967251473774716 -1.1153126972598135 2.004085147617083 2.0501011210321587 -0.5200046160127103 1.1399895127138917
2.41373205185 0.0471295954839005 -0.1967251473774716 -1.1153126972598135 2.004085147617083 2.0501011210321587 -0.5200046160127103 1.1399895127138917
2.41373205185 0.0471295954839005 -0.1967251473774716 -1.1153126972598135 2.004085147617083 2.0501011210321587 -0.5200046160127103 1.1399895127138917
2.42382001877 0.0471295954839005 -0.1967251473774716 -1.1153126972598135 2.004085147617083 2.0501011210321587 -0.5200046160127103 1.1399895127138917
2.42382001877 0.0471295954839005 -0.1967251473774716 -1.1153126972598135 2.004085147617083 2.0501011210321587 -0.5200046160127103 1.1399895127138917
2.43364787102 0.0471295954839005 -0.1967251473774716 -1.1153126972598135 2.004085147617083 2.0501011210321587 -0.5200046160127103 1.1399895127138917
2.43364787102 0.0471295954839005 -0.1967251473774716 -1.1153126972598135 2.004085147617083 2.0501011210321587 -0.5200046160127103 1.1399895127138917
2.44386792183 0.0471295954839005 -0.1967251473774716 -1.1153126972598135 2.004085147617083 2.0501011210321587 -0.5200046160127103 1.1399895127138917
2.44386792183 0.0471295954839005 -0.1967251473774716 -1.1153126972598135 2.004085147617083 2.0501011210321587 -0.5200046160127103 1.1399895127138917
2.45375204086 0.0471295954839005 -0.1967251473774716 -1.1153126972598135 2.004085147617083 2.0501011210321587 -0.5200046160127103 1.1399895127138917
2.45375204086 0.0471295954839005 -0.1967251473774716 -1.1153126972598135 2.004085147617083 2.0501011210321587 -0.5200046160127103 1.1399895127138917
2.4636259079 0.0471295954839005 -0.1967251473774716 -1.1153126972598135 2.004085147617083 2.0501011210321587 -0.5200046160127103 1.1399895127138917
2.4636259079 0.0471295954839005 -0.1967251473774716 -1.1153126972598135 2.004085147617083 2.0501011210321587 -0.5200046160127103 1.1399895127138917
2.47354793549 0.0471295954839005 -0.1967251473774716 -1.1153126972598135 2.004085147617083 2.0501011210321587 -0.5200046160127103 1.1399895127138917
2.47354793549 0.0471295954839005 -0.1967251473774716 -1.1153126972598135 2.004085147617083 2.0501011210321587 -0.5200046160127103 1.1399895127138917
2.48381209373 0.0471295954839005 -0.1967251473774716 -1.1153126972598135 2.004085147617083 2.0501011210321587 -0.5200046160127103 1.1399895127138917
2.48381209373 0.0471295954839005 -0.1967251473774716 -1.1153126972598135 2.004085147617083 2.0501011210321587 -0.5200046160127103 1.1399895127138917
2.49367809296 0.0471295954839005 -0.1967251473774716 -1.1153126972598135 2.004085147617083 2.0501011210321587 -0.5200046160127103 1.1399895127138917
2.49367809296 0.0471295954839005 -0.1967251473774716 -1.1153126972598135 2.004085147617083 2.0501011210321587 -0.5200046160127103 1.1399895127138917
2.50380206108 0.0471295954839005 -0.1967251473774716 -1.1153126972598135 2.004085147617083 2.0501011210321587 -0.5200046160127103 1.1399895127138917
2.50380206108 0.0471295954839005 -0.1967251473774716 -1.1153126972598135 2.004085147617083 2.0501011210321587 -0.5200046160127103 1.1399895127138917
2.51373887062 0.0471295954839005 -0.1967251473774716 -1.1153126972598135 2.004085147617083 2.0501011210321587 -0.5200046160127103 1.1399895127138917
2.51373887062 0.0471295954839005 -0.1967251473774716 -1.1153126972598135 2.004085147617083 2.0501011210321587 -0.5200046160127103 1.1399895127138917
2.52384805679 0.0471295954839005 -0.1967251473774716 -1.1153126972598135 2.004085147617083 2.0501011210321587 -0.5200046160127103 1.1399895127138917
2.52384805679 0.0471295954839005 -0.1967251473774716 -1.1153126972598135 2.004085147617083 2.0501011210321587 -0.5200046160127103 1.1399895127138917
2.53375005722 0.0471295954839005 -0.1967251473774716 -1.1153126972598135 2.004085147617083 2.0501011210321587 -0.5200046160127103 1.1399895127138917
2.53375005722 0.0471295954839005 -0.1967251473774716 -1.1153126972598135 2.004085147617083 2.0501011210321587 -0.5200046160127103 1.1399895127138917
2.54385709763 0.0471295954839005 -0.1967251473774716 -1.1153126972598135 2.004085147617083 2.0501011210321587 -0.5200046160127103 1.1399895127138917
2.54385709763 0.0471295954839005 -0.1967251473774716 -1.1153126972598135 2.004085147617083 2.0501011210321587 -0.5200046160127103 1.1399895127138917
2.55388092995 0.0471295954839005 -0.1967251473774716 -1.1153126972598135 2.004085147617083 2.0501011210321587 -0.5200046160127103 1.1399895127138917
2.55388092995 0.0471295954839005 -0.1967251473774716 -1.1153126972598135 2.004085147617083 2.0501011210321587 -0.5200046160127103 1.1399895127138917
2.56384396553 0.0471295954839005 -0.1967251473774716 -1.1153126972598135 2.004085147617083 2.0501011210321587 -0.5200046160127103 1.1399895127138917
2.56384396553 0.0471295954839005 -0.1967251473774716 -1.1153126972598135 2.004085147617083 2.0501011210321587 -0.5200046160127103 1.1399895127138917
2.57372188568 0.0471295954839005 -0.1967251473774716 -1.1153126972598135 2.004085147617083 2.0501011210321587 -0.5200046160127103 1.1399895127138917
2.57372188568 0.0471295954839005 -0.1967251473774716 -1.1153126972598135 2.004085147617083 2.0501011210321587 -0.5200046160127103 1.1399895127138917
2.58360695839 0.0471295954839005 -0.1967251473774716 -1.1153126972598135 2.004085147617083 2.0501011210321587 -0.5200046160127103 1.1399895127138917
2.58360695839 0.0471295954839005 -0.1967251473774716 -1.1153126972598135 2.004085147617083 2.0501011210321587 -0.5200046160127103 1.1399895127138917
2.59352493286 0.0471295954839005 -0.1967251473774716 -1.1153126972598135 2.004085147617083 2.0501011210321587 -0.5200046160127103 1.1399895127138917
2.59352493286 0.0471295954839005 -0.1967251473774716 -1.1153126972598135 2.004085147617083 2.0501011210321587 -0.5200046160127103 1.1399895127138917
2.60365700722 0.0471295954839005 -0.1967251473774716 -1.1153126972598135 2.004085147617083 2.0501011210321587 -0.5200046160127103 1.1399895127138917
2.60365700722 0.0471295954839005 -0.1967251473774716 -1.1153126972598135 2.004085147617083 2.0501011210321587 -0.5200046160127103 1.1399895127138917
2.61374092102 0.0471295954839005 -0.1967251473774716 -1.1153126972598135 2.004085147617083 2.0501011210321587 -0.5200046160127103 1.1399895127138917
2.61374092102 0.0471295954839005 -0.1967251473774716 -1.1153126972598135 2.004085147617083 2.0501011210321587 -0.5200046160127103 1.1399895127138917
2.62375688553 0.0471295954839005 -0.1967251473774716 -1.1153126972598135 2.004085147617083 2.0501011210321587 -0.5200046160127103 1.1399895127138917
2.62375688553 0.0471295954839005 -0.1967251473774716 -1.1153126972598135 2.004085147617083 2.0501011210321587 -0.5200046160127103 1.1399895127138917
2.63361692429 0.0471295954839005 -0.1967251473774716 -1.1153126972598135 2.004085147617083 2.0501011210321587 -0.5200046160127103 1.1399895127138917
2.63361692429 0.0471295954839005 -0.1967251473774716 -1.1153126972598135 2.004085147617083 2.0501011210321587 -0.5200046160127103 1.1399895127138917
2.64377593994 0.0471295954839005 -0.1967251473774716 -1.1153126972598135 2.004085147617083 2.0501011210321587 -0.5200046160127103 1.1399895127138917
2.64377593994 0.0471295954839005 -0.1967251473774716 -1.1153126972598135 2.004085147617083 2.0501011210321587 -0.5200046160127103 1.1399895127138917
2.65356588364 0.0471295954839005 -0.1967251473774716 -1.1153126972598135 2.004085147617083 2.0501011210321587 -0.5200046160127103 1.1399895127138917
2.65356588364 0.0471295954839005 -0.1967251473774716 -1.1153126972598135 2.004085147617083 2.0501011210321587 -0.5200046160127103 1.1399895127138917
2.66375994682 0.0471295954839005 -0.1967251473774716 -1.1153126972598135 2.004085147617083 2.0501011210321587 -0.5200046160127103 1.1399895127138917
2.66375994682 0.0471295954839005 -0.1967251473774716 -1.1153126972598135 2.004085147617083 2.0501011210321587 -0.5200046160127103 1.1399895127138917
2.67371296883 0.0471295954839005 -0.1967251473774716 -1.1153126972598135 2.004085147617083 2.0501011210321587 -0.5200046160127103 1.1399895127138917
2.67371296883 0.0471295954839005 -0.1967251473774716 -1.1153126972598135 2.004085147617083 2.0501011210321587 -0.5200046160127103 1.1399895127138917
2.68379306793 0.0471295954839005 -0.1967251473774716 -1.1153126972598135 2.004085147617083 2.0501011210321587 -0.5200046160127103 1.1399895127138917
2.68379306793 0.0471295954839005 -0.1967251473774716 -1.1153126972598135 2.004085147617083 2.0501011210321587 -0.5200046160127103 1.1399895127138917
2.69357895851 0.0471295954839005 -0.1967251473774716 -1.1153126972598135 2.004085147617083 2.0501011210321587 -0.5200046160127103 1.1399895127138917
2.69357895851 0.0471295954839005 -0.1967251473774716 -1.1153126972598135 2.004085147617083 2.0501011210321587 -0.5200046160127103 1.1399895127138917
2.70351696014 0.0471295954839005 -0.1967251473774716 -1.1153126972598135 2.004085147617083 2.0501011210321587 -0.5200046160127103 1.1399895127138917
2.70351696014 0.0471295954839005 -0.1967251473774716 -1.1153126972598135 2.004085147617083 2.0501011210321587 -0.5200046160127103 1.1399895127138917
2.71382594109 0.0471295954839005 -0.1967251473774716 -1.1153126972598135 2.004085147617083 2.0501011210321587 -0.5200046160127103 1.1399895127138917
2.71382594109 0.0471295954839005 -0.1967251473774716 -1.1153126972598135 2.004085147617083 2.0501011210321587 -0.5200046160127103 1.1399895127138917
2.72376704216 0.0471295954839005 -0.1967251473774716 -1.1153126972598135 2.004085147617083 2.0501011210321587 -0.5200046160127103 1.1399895127138917
2.72376704216 0.0471295954839005 -0.1967251473774716 -1.1153126972598135 2.004085147617083 2.0501011210321587 -0.5200046160127103 1.1399895127138917
2.73371696472 0.0471295954839005 -0.1967251473774716 -1.1153126972598135 2.004085147617083 2.0501011210321587 -0.5200046160127103 1.1399895127138917
2.73371696472 0.0471295954839005 -0.1967251473774716 -1.1153126972598135 2.004085147617083 2.0501011210321587 -0.5200046160127103 1.1399895127138917
2.74381995201 0.0471295954839005 -0.1967251473774716 -1.1153126972598135 2.004085147617083 2.0501011210321587 -0.5200046160127103 1.1399895127138917
2.74381995201 0.0471295954839005 -0.1967251473774716 -1.1153126972598135 2.004085147617083 2.0501011210321587 -0.5200046160127103 1.1399895127138917
2.75362586975 0.0471295954839005 -0.1967251473774716 -1.1153126972598135 2.004085147617083 2.0501011210321587 -0.5200046160127103 1.1399895127138917
2.75362586975 0.0471295954839005 -0.1967251473774716 -1.1153126972598135 2.004085147617083 2.0501011210321587 -0.5200046160127103 1.1399895127138917
2.76381087303 0.0471295954839005 -0.1967251473774716 -1.1153126972598135 2.004085147617083 2.0501011210321587 -0.5200046160127103 1.1399895127138917
2.76381087303 0.0471295954839005 -0.1967251473774716 -1.1153126972598135 2.004085147617083 2.0501011210321587 -0.5200046160127103 1.1399895127138917
2.77360296249 0.0471295954839005 -0.1967251473774716 -1.1153126972598135 2.004085147617083 2.0501011210321587 -0.5200046160127103 1.1399895127138917
2.77360296249 0.0471295954839005 -0.1967251473774716 -1.1153126972598135 2.004085147617083 2.0501011210321587 -0.5200046160127103 1.1399895127138917
2.78380489349 0.0471295954839005 -0.1967251473774716 -1.1153126972598135 2.004085147617083 2.0501011210321587 -0.5200046160127103 1.1399895127138917
2.78380489349 0.0471295954839005 -0.1967251473774716 -1.1153126972598135 2.004085147617083 2.0501011210321587 -0.5200046160127103 1.1399895127138917
2.79379010201 0.0471295954839005 -0.1967251473774716 -1.1153126972598135 2.004085147617083 2.0501011210321587 -0.5200046160127103 1.1399895127138917
2.79379010201 0.0471295954839005 -0.1967251473774716 -1.1153126972598135 2.004085147617083 2.0501011210321587 -0.5200046160127103 1.1399895127138917
2.80375409126 0.0471295954839005 -0.1967251473774716 -1.1153126972598135 2.004085147617083 2.0501011210321587 -0.5200046160127103 1.1399895127138917
2.80375409126 0.0471295954839005 -0.1967251473774716 -1.1153126972598135 2.004085147617083 2.0501011210321587 -0.5200046160127103 1.1399895127138917
2.81357908249 0.0471295954839005 -0.1967251473774716 -1.1153126972598135 2.004085147617083 2.0501011210321587 -0.5200046160127103 1.1399895127138917
2.81357908249 0.0471295954839005 -0.1967251473774716 -1.1153126972598135 2.004085147617083 2.0501011210321587 -0.5200046160127103 1.1399895127138917
2.82348203659 0.0471295954839005 -0.1967251473774716 -1.1153126972598135 2.004085147617083 2.0501011210321587 -0.5200046160127103 1.1399895127138917
2.82348203659 0.0471295954839005 -0.1967251473774716 -1.1153126972598135 2.004085147617083 2.0501011210321587 -0.5200046160127103 1.1399895127138917
2.83387207985 0.0471295954839005 -0.1967251473774716 -1.1153126972598135 2.004085147617083 2.0501011210321587 -0.5200046160127103 1.1399895127138917
2.83387207985 0.0471295954839005 -0.1967251473774716 -1.1153126972598135 2.004085147617083 2.0501011210321587 -0.5200046160127103 1.1399895127138917
2.84361696243 0.0471295954839005 -0.1967251473774716 -1.1153126972598135 2.004085147617083 2.0501011210321587 -0.5200046160127103 1.1399895127138917
2.84361696243 0.0471295954839005 -0.1967251473774716 -1.1153126972598135 2.004085147617083 2.0501011210321587 -0.5200046160127103 1.1399895127138917
2.85374498367 0.0471295954839005 -0.1967251473774716 -1.1153126972598135 2.004085147617083 2.0501011210321587 -0.5200046160127103 1.1399895127138917
2.85374498367 0.0471295954839005 -0.1967251473774716 -1.1153126972598135 2.004085147617083 2.0501011210321587 -0.5200046160127103 1.1399895127138917
2.86379790306 0.0471295954839005 -0.1967251473774716 -1.1153126972598135 2.004085147617083 2.0501011210321587 -0.5200046160127103 1.1399895127138917
2.86379790306 0.0471295954839005 -0.1967251473774716 -1.1153126972598135 2.004085147617083 2.0501011210321587 -0.5200046160127103 1.1399895127138917
2.8737719059 0.0471295954839005 -0.1967251473774716 -1.1153126972598135 2.004085147617083 2.0501011210321587 -0.5200046160127103 1.1399895127138917
2.8737719059 0.0471295954839005 -0.1967251473774716 -1.1153126972598135 2.004085147617083 2.0501011210321587 -0.5200046160127103 1.1399895127138917
2.88382387161 0.0471295954839005 -0.1967251473774716 -1.1153126972598135 2.004085147617083 2.0501011210321587 -0.5200046160127103 1.1399895127138917
2.88382387161 0.0471295954839005 -0.1967251473774716 -1.1153126972598135 2.004085147617083 2.0501011210321587 -0.5200046160127103 1.1399895127138917
2.89390087128 0.0471295954839005 -0.1967251473774716 -1.1153126972598135 2.004085147617083 2.0501011210321587 -0.5200046160127103 1.1399895127138917
2.89390087128 0.0471295954839005 -0.1967251473774716 -1.1153126972598135 2.004085147617083 2.0501011210321587 -0.5200046160127103 1.1399895127138917
2.90383410454 0.0471295954839005 -0.1967251473774716 -1.1153126972598135 2.004085147617083 2.0501011210321587 -0.5200046160127103 1.1399895127138917
2.90383410454 0.0471295954839005 -0.1967251473774716 -1.1153126972598135 2.004085147617083 2.0501011210321587 -0.5200046160127103 1.1399895127138917
2.9137969017 0.0471295954839005 -0.1967251473774716 -1.1153126972598135 2.004085147617083 2.0501011210321587 -0.5200046160127103 1.1399895127138917
2.9137969017 0.0471295954839005 -0.1967251473774716 -1.1153126972598135 2.004085147617083 2.0501011210321587 -0.5200046160127103 1.1399895127138917
2.92385697365 0.0471295954839005 -0.1967251473774716 -1.1153126972598135 2.004085147617083 2.0501011210321587 -0.5200046160127103 1.1399895127138917
2.92385697365 0.0471295954839005 -0.1967251473774716 -1.1153126972598135 2.004085147617083 2.0501011210321587 -0.5200046160127103 1.1399895127138917
2.93376088142 0.0471295954839005 -0.1967251473774716 -1.1153126972598135 2.004085147617083 2.0501011210321587 -0.5200046160127103 1.1399895127138917
2.93376088142 0.0471295954839005 -0.1967251473774716 -1.1153126972598135 2.004085147617083 2.0501011210321587 -0.5200046160127103 1.1399895127138917
2.94366002083 0.0471295954839005 -0.1967251473774716 -1.1153126972598135 2.004085147617083 2.0501011210321587 -0.5200046160127103 1.1399895127138917
2.94366002083 0.0471295954839005 -0.1967251473774716 -1.1153126972598135 2.004085147617083 2.0501011210321587 -0.5200046160127103 1.1399895127138917
2.95375704765 0.0471295954839005 -0.1967251473774716 -1.1153126972598135 2.004085147617083 2.0501011210321587 -0.5200046160127103 1.1399895127138917
2.95375704765 0.0471295954839005 -0.1967251473774716 -1.1153126972598135 2.004085147617083 2.0501011210321587 -0.5200046160127103 1.1399895127138917
2.96368908882 0.0471295954839005 -0.1967251473774716 -1.1153126972598135 2.004085147617083 2.0501011210321587 -0.5200046160127103 1.1399895127138917
2.96368908882 0.0471295954839005 -0.1967251473774716 -1.1153126972598135 2.004085147617083 2.0501011210321587 -0.5200046160127103 1.1399895127138917
2.97377705574 0.0471295954839005 -0.1967251473774716 -1.1153126972598135 2.004085147617083 2.0501011210321587 -0.5200046160127103 1.1399895127138917
2.97377705574 0.0471295954839005 -0.1967251473774716 -1.1153126972598135 2.004085147617083 2.0501011210321587 -0.5200046160127103 1.1399895127138917
2.98380088806 0.0471295954839005 -0.1967251473774716 -1.1153126972598135 2.004085147617083 2.0501011210321587 -0.5200046160127103 1.1399895127138917
2.98380088806 0.0471295954839005 -0.1967251473774716 -1.1153126972598135 2.004085147617083 2.0501011210321587 -0.5200046160127103 1.1399895127138917
2.9937069416 0.0471295954839005 -0.1967251473774716 -1.1153126972598135 2.004085147617083 2.0501011210321587 -0.5200046160127103 1.1399895127138917
2.9937069416 0.0471295954839005 -0.1967251473774716 -1.1153126972598135 2.004085147617083 2.0501011210321587 -0.5200046160127103 1.1399895127138917
3.00381994247 0.0471295954839005 -0.1967251473774716 -1.1153126972598135 2.004085147617083 2.0501011210321587 -0.5200046160127103 1.1399895127138917
3.00381994247 0.0471295954839005 -0.1967251473774716 -1.1153126972598135 2.004085147617083 2.0501011210321587 -0.5200046160127103 1.1399895127138917
3.01373887062 0.0471295954839005 -0.1967251473774716 -1.1153126972598135 2.004085147617083 2.0501011210321587 -0.5200046160127103 1.1399895127138917
3.01373887062 0.0471295954839005 -0.1967251473774716 -1.1153126972598135 2.004085147617083 2.0501011210321587 -0.5200046160127103 1.1399895127138917
3.02381110191 0.0471295954839005 -0.1967251473774716 -1.1153126972598135 2.004085147617083 2.0501011210321587 -0.5200046160127103 1.1399895127138917
3.02381110191 0.0471295954839005 -0.1967251473774716 -1.1153126972598135 2.004085147617083 2.0501011210321587 -0.5200046160127103 1.1399895127138917
3.03378510475 0.0471295954839005 -0.1967251473774716 -1.1153126972598135 2.004085147617083 2.0501011210321587 -0.5200046160127103 1.1399895127138917
3.03378510475 0.0471295954839005 -0.1967251473774716 -1.1153126972598135 2.004085147617083 2.0501011210321587 -0.5200046160127103 1.1399895127138917
3.04384493828 0.0471295954839005 -0.1967251473774716 -1.1153126972598135 2.004085147617083 2.0501011210321587 -0.5200046160127103 1.1399895127138917
3.04384493828 0.0471295954839005 -0.1967251473774716 -1.1153126972598135 2.004085147617083 2.0501011210321587 -0.5200046160127103 1.1399895127138917
3.05362296104 0.0471295954839005 -0.1967251473774716 -1.1153126972598135 2.004085147617083 2.0501011210321587 -0.5200046160127103 1.1399895127138917
3.05362296104 0.0471295954839005 -0.1967251473774716 -1.1153126972598135 2.004085147617083 2.0501011210321587 -0.5200046160127103 1.1399895127138917
3.06361699104 0.0471295954839005 -0.1967251473774716 -1.1153126972598135 2.004085147617083 2.0501011210321587 -0.5200046160127103 1.1399895127138917
3.06361699104 0.0471295954839005 -0.1967251473774716 -1.1153126972598135 2.004085147617083 2.0501011210321587 -0.5200046160127103 1.1399895127138917
3.07370305061 0.0471295954839005 -0.1967251473774716 -1.1153126972598135 2.004085147617083 2.0501011210321587 -0.5200046160127103 1.1399895127138917
3.07370305061 0.0471295954839005 -0.1967251473774716 -1.1153126972598135 2.004085147617083 2.0501011210321587 -0.5200046160127103 1.1399895127138917
3.08360791206 0.0471295954839005 -0.1967251473774716 -1.1153126972598135 2.004085147617083 2.0501011210321587 -0.5200046160127103 1.1399895127138917
3.08360791206 0.0471295954839005 -0.1967251473774716 -1.1153126972598135 2.004085147617083 2.0501011210321587 -0.5200046160127103 1.1399895127138917
3.09375596046 0.0471295954839005 -0.1967251473774716 -1.1153126972598135 2.004085147617083 2.0501011210321587 -0.5200046160127103 1.1399895127138917
3.09375596046 0.0471295954839005 -0.1967251473774716 -1.1153126972598135 2.004085147617083 2.0501011210321587 -0.5200046160127103 1.1399895127138917
3.10385107994 0.0471295954839005 -0.1967251473774716 -1.1153126972598135 2.004085147617083 2.0501011210321587 -0.5200046160127103 1.1399895127138917
3.10385107994 0.0471295954839005 -0.1967251473774716 -1.1153126972598135 2.004085147617083 2.0501011210321587 -0.5200046160127103 1.1399895127138917
3.11367988586 0.0471295954839005 -0.1967251473774716 -1.1153126972598135 2.004085147617083 2.0501011210321587 -0.5200046160127103 1.1399895127138917
3.11367988586 0.0471295954839005 -0.1967251473774716 -1.1153126972598135 2.004085147617083 2.0501011210321587 -0.5200046160127103 1.1399895127138917
3.12385606766 0.0471295954839005 -0.1967251473774716 -1.1153126972598135 2.004085147617083 2.0501011210321587 -0.5200046160127103 1.1399895127138917
3.12385606766 0.0471295954839005 -0.1967251473774716 -1.1153126972598135 2.004085147617083 2.0501011210321587 -0.5200046160127103 1.1399895127138917
3.13360691071 0.0471295954839005 -0.1967251473774716 -1.1153126972598135 2.004085147617083 2.0501011210321587 -0.5200046160127103 1.1399895127138917
3.13360691071 0.0471295954839005 -0.1967251473774716 -1.1153126972598135 2.004085147617083 2.0501011210321587 -0.5200046160127103 1.1399895127138917
3.14385199547 0.0471295954839005 -0.1967251473774716 -1.1153126972598135 2.004085147617083 2.0501011210321587 -0.5200046160127103 1.1399895127138917
3.14385199547 0.0471295954839005 -0.1967251473774716 -1.1153126972598135 2.004085147617083 2.0501011210321587 -0.5200046160127103 1.1399895127138917
3.15375208855 0.0471295954839005 -0.1967251473774716 -1.1153126972598135 2.004085147617083 2.0501011210321587 -0.5200046160127103 1.1399895127138917
3.15375208855 0.0471295954839005 -0.1967251473774716 -1.1153126972598135 2.004085147617083 2.0501011210321587 -0.5200046160127103 1.1399895127138917
3.16379499435 0.0471295954839005 -0.1967251473774716 -1.1153126972598135 2.004085147617083 2.0501011210321587 -0.5200046160127103 1.1399895127138917
3.16379499435 0.0471295954839005 -0.1967251473774716 -1.1153126972598135 2.004085147617083 2.0501011210321587 -0.5200046160127103 1.1399895127138917
3.17371797562 0.0471295954839005 -0.1967251473774716 -1.1153126972598135 2.004085147617083 2.0501011210321587 -0.5200046160127103 1.1399895127138917
3.17371797562 0.0471295954839005 -0.1967251473774716 -1.1153126972598135 2.004085147617083 2.0501011210321587 -0.5200046160127103 1.1399895127138917
3.18362402916 0.0471295954839005 -0.1967251473774716 -1.1153126972598135 2.004085147617083 2.0501011210321587 -0.5200046160127103 1.1399895127138917
3.18362402916 0.0471295954839005 -0.1967251473774716 -1.1153126972598135 2.004085147617083 2.0501011210321587 -0.5200046160127103 1.1399895127138917
3.19372296333 0.0471295954839005 -0.1967251473774716 -1.1153126972598135 2.004085147617083 2.0501011210321587 -0.5200046160127103 1.1399895127138917
3.19372296333 0.0471295954839005 -0.1967251473774716 -1.1153126972598135 2.004085147617083 2.0501011210321587 -0.5200046160127103 1.1399895127138917
3.20371007919 0.0471295954839005 -0.1967251473774716 -1.1153126972598135 2.004085147617083 2.0501011210321587 -0.5200046160127103 1.1399895127138917
3.20371007919 0.0471295954839005 -0.1967251473774716 -1.1153126972598135 2.004085147617083 2.0501011210321587 -0.5200046160127103 1.1399895127138917
3.21373391151 0.0471295954839005 -0.1967251473774716 -1.1153126972598135 2.004085147617083 2.0501011210321587 -0.5200046160127103 1.1399895127138917
3.21373391151 0.0471295954839005 -0.1967251473774716 -1.1153126972598135 2.004085147617083 2.0501011210321587 -0.5200046160127103 1.1399895127138917
3.22379589081 0.0471295954839005 -0.1967251473774716 -1.1153126972598135 2.004085147617083 2.0501011210321587 -0.5200046160127103 1.1399895127138917
3.22379589081 0.0471295954839005 -0.1967251473774716 -1.1153126972598135 2.004085147617083 2.0501011210321587 -0.5200046160127103 1.1399895127138917
3.23378396034 0.0471295954839005 -0.1967251473774716 -1.1153126972598135 2.004085147617083 2.0501011210321587 -0.5200046160127103 1.1399895127138917
3.23378396034 0.0471295954839005 -0.1967251473774716 -1.1153126972598135 2.004085147617083 2.0501011210321587 -0.5200046160127103 1.1399895127138917
3.24383401871 0.0471295954839005 -0.1967251473774716 -1.1153126972598135 2.004085147617083 2.0501011210321587 -0.5200046160127103 1.1399895127138917
3.24383401871 0.0471295954839005 -0.1967251473774716 -1.1153126972598135 2.004085147617083 2.0501011210321587 -0.5200046160127103 1.1399895127138917
3.25379896164 0.0471295954839005 -0.1967251473774716 -1.1153126972598135 2.004085147617083 2.0501011210321587 -0.5200046160127103 1.1399895127138917
3.25379896164 0.0471295954839005 -0.1967251473774716 -1.1153126972598135 2.004085147617083 2.0501011210321587 -0.5200046160127103 1.1399895127138917
3.26375389099 0.0471295954839005 -0.1967251473774716 -1.1153126972598135 2.004085147617083 2.0501011210321587 -0.5200046160127103 1.1399895127138917
3.26375389099 0.0471295954839005 -0.1967251473774716 -1.1153126972598135 2.004085147617083 2.0501011210321587 -0.5200046160127103 1.1399895127138917
3.27361106873 0.0471295954839005 -0.1967251473774716 -1.1153126972598135 2.004085147617083 2.0501011210321587 -0.5200046160127103 1.1399895127138917
3.27361106873 0.0471295954839005 -0.1967251473774716 -1.1153126972598135 2.004085147617083 2.0501011210321587 -0.5200046160127103 1.1399895127138917
3.28378605843 0.0471295954839005 -0.1967251473774716 -1.1153126972598135 2.004085147617083 2.0501011210321587 -0.5200046160127103 1.1399895127138917
3.28378605843 0.0471295954839005 -0.1967251473774716 -1.1153126972598135 2.004085147617083 2.0501011210321587 -0.5200046160127103 1.1399895127138917
3.29351997375 0.0471295954839005 -0.1967251473774716 -1.1153126972598135 2.004085147617083 2.0501011210321587 -0.5200046160127103 1.1399895127138917
3.29351997375 0.0471295954839005 -0.1967251473774716 -1.1153126972598135 2.004085147617083 2.0501011210321587 -0.5200046160127103 1.1399895127138917
3.30348396301 0.0471295954839005 -0.1967251473774716 -1.1153126972598135 2.004085147617083 2.0501011210321587 -0.5200046160127103 1.1399895127138917
3.30348396301 0.0471295954839005 -0.1967251473774716 -1.1153126972598135 2.004085147617083 2.0501011210321587 -0.5200046160127103 1.1399895127138917
3.31379699707 0.0471295954839005 -0.1967251473774716 -1.1153126972598135 2.004085147617083 2.0501011210321587 -0.5200046160127103 1.1399895127138917
3.31379699707 0.0471295954839005 -0.1967251473774716 -1.1153126972598135 2.004085147617083 2.0501011210321587 -0.5200046160127103 1.1399895127138917
3.32376003265 0.0471295954839005 -0.1967251473774716 -1.1153126972598135 2.004085147617083 2.0501011210321587 -0.5200046160127103 1.1399895127138917
3.32376003265 0.0471295954839005 -0.1967251473774716 -1.1153126972598135 2.004085147617083 2.0501011210321587 -0.5200046160127103 1.1399895127138917
3.33374595642 0.0471295954839005 -0.1967251473774716 -1.1153126972598135 2.004085147617083 2.0501011210321587 -0.5200046160127103 1.1399895127138917
3.33374595642 0.0471295954839005 -0.1967251473774716 -1.1153126972598135 2.004085147617083 2.0501011210321587 -0.5200046160127103 1.1399895127138917
3.34385204315 0.0471295954839005 -0.1967251473774716 -1.1153126972598135 2.004085147617083 2.0501011210321587 -0.5200046160127103 1.1399895127138917
3.34385204315 0.0471295954839005 -0.1967251473774716 -1.1153126972598135 2.004085147617083 2.0501011210321587 -0.5200046160127103 1.1399895127138917
3.35372591019 0.0471295954839005 -0.1967251473774716 -1.1153126972598135 2.004085147617083 2.0501011210321587 -0.5200046160127103 1.1399895127138917
3.35372591019 0.0471295954839005 -0.1967251473774716 -1.1153126972598135 2.004085147617083 2.0501011210321587 -0.5200046160127103 1.1399895127138917
3.36380791664 0.0471295954839005 -0.1967251473774716 -1.1153126972598135 2.004085147617083 2.0501011210321587 -0.5200046160127103 1.1399895127138917
3.36380791664 0.0471295954839005 -0.1967251473774716 -1.1153126972598135 2.004085147617083 2.0501011210321587 -0.5200046160127103 1.1399895127138917
3.37373709679 0.0471295954839005 -0.1967251473774716 -1.1153126972598135 2.004085147617083 2.0501011210321587 -0.5200046160127103 1.1399895127138917
3.37373709679 0.0471295954839005 -0.1967251473774716 -1.1153126972598135 2.004085147617083 2.0501011210321587 -0.5200046160127103 1.1399895127138917
3.38380098343 0.0471295954839005 -0.1967251473774716 -1.1153126972598135 2.004085147617083 2.0501011210321587 -0.5200046160127103 1.1399895127138917
3.38380098343 0.0471295954839005 -0.1967251473774716 -1.1153126972598135 2.004085147617083 2.0501011210321587 -0.5200046160127103 1.1399895127138917
3.39361405373 0.0471295954839005 -0.1967251473774716 -1.1153126972598135 2.004085147617083 2.0501011210321587 -0.5200046160127103 1.1399895127138917
3.39361405373 0.0471295954839005 -0.1967251473774716 -1.1153126972598135 2.004085147617083 2.0501011210321587 -0.5200046160127103 1.1399895127138917
3.40378403664 0.0471295954839005 -0.1967251473774716 -1.1153126972598135 2.004085147617083 2.0501011210321587 -0.5200046160127103 1.1399895127138917
3.40378403664 0.0471295954839005 -0.1967251473774716 -1.1153126972598135 2.004085147617083 2.0501011210321587 -0.5200046160127103 1.1399895127138917
3.41338205338 0.0471295954839005 -0.1967251473774716 -1.1153126972598135 2.004085147617083 2.0501011210321587 -0.5200046160127103 1.1399895127138917
3.41338205338 0.0471295954839005 -0.1967251473774716 -1.1153126972598135 2.004085147617083 2.0501011210321587 -0.5200046160127103 1.1399895127138917
3.42363905907 0.0471295954839005 -0.1967251473774716 -1.1153126972598135 2.004085147617083 2.0501011210321587 -0.5200046160127103 1.1399895127138917
3.42363905907 0.0471295954839005 -0.1967251473774716 -1.1153126972598135 2.004085147617083 2.0501011210321587 -0.5200046160127103 1.1399895127138917
3.43353104591 0.0471295954839005 -0.1967251473774716 -1.1153126972598135 2.004085147617083 2.0501011210321587 -0.5200046160127103 1.1399895127138917
3.43353104591 0.0471295954839005 -0.1967251473774716 -1.1153126972598135 2.004085147617083 2.0501011210321587 -0.5200046160127103 1.1399895127138917
3.44378995895 0.0471295954839005 -0.1967251473774716 -1.1153126972598135 2.004085147617083 2.0501011210321587 -0.5200046160127103 1.1399895127138917
3.44378995895 0.0471295954839005 -0.1967251473774716 -1.1153126972598135 2.004085147617083 2.0501011210321587 -0.5200046160127103 1.1399895127138917
3.45377802849 0.0471295954839005 -0.1967251473774716 -1.1153126972598135 2.004085147617083 2.0501011210321587 -0.5200046160127103 1.1399895127138917
3.45377802849 0.0471295954839005 -0.1967251473774716 -1.1153126972598135 2.004085147617083 2.0501011210321587 -0.5200046160127103 1.1399895127138917
3.4638209343 0.0471295954839005 -0.1967251473774716 -1.1153126972598135 2.004085147617083 2.0501011210321587 -0.5200046160127103 1.1399895127138917
3.4638209343 0.0471295954839005 -0.1967251473774716 -1.1153126972598135 2.004085147617083 2.0501011210321587 -0.5200046160127103 1.1399895127138917
3.47371292114 0.0471295954839005 -0.1967251473774716 -1.1153126972598135 2.004085147617083 2.0501011210321587 -0.5200046160127103 1.1399895127138917
3.47371292114 0.0471295954839005 -0.1967251473774716 -1.1153126972598135 2.004085147617083 2.0501011210321587 -0.5200046160127103 1.1399895127138917
3.48361802101 0.0471295954839005 -0.1967251473774716 -1.1153126972598135 2.004085147617083 2.0501011210321587 -0.5200046160127103 1.1399895127138917
3.48361802101 0.0471295954839005 -0.1967251473774716 -1.1153126972598135 2.004085147617083 2.0501011210321587 -0.5200046160127103 1.1399895127138917
3.49375295639 0.0471295954839005 -0.1967251473774716 -1.1153126972598135 2.004085147617083 2.0501011210321587 -0.5200046160127103 1.1399895127138917
3.49375295639 0.0471295954839005 -0.1967251473774716 -1.1153126972598135 2.004085147617083 2.0501011210321587 -0.5200046160127103 1.1399895127138917
3.5038599968 0.0471295954839005 -0.1967251473774716 -1.1153126972598135 2.004085147617083 2.0501011210321587 -0.5200046160127103 1.1399895127138917
3.5038599968 0.0471295954839005 -0.1967251473774716 -1.1153126972598135 2.004085147617083 2.0501011210321587 -0.5200046160127103 1.1399895127138917
3.51387500763 0.0471295954839005 -0.1967251473774716 -1.1153126972598135 2.004085147617083 2.0501011210321587 -0.5200046160127103 1.1399895127138917
3.51387500763 0.0471295954839005 -0.1967251473774716 -1.1153126972598135 2.004085147617083 2.0501011210321587 -0.5200046160127103 1.1399895127138917
3.52361989021 0.0471295954839005 -0.1967251473774716 -1.1153126972598135 2.004085147617083 2.0501011210321587 -0.5200046160127103 1.1399895127138917
3.52361989021 0.0471295954839005 -0.1967251473774716 -1.1153126972598135 2.004085147617083 2.0501011210321587 -0.5200046160127103 1.1399895127138917
3.53339910507 0.0471295954839005 -0.1967251473774716 -1.1153126972598135 2.004085147617083 2.0501011210321587 -0.5200046160127103 1.1399895127138917
3.53339910507 0.0471295954839005 -0.1967251473774716 -1.1153126972598135 2.004085147617083 2.0501011210321587 -0.5200046160127103 1.1399895127138917
3.54377603531 0.0471295954839005 -0.1967251473774716 -1.1153126972598135 2.004085147617083 2.0501011210321587 -0.5200046160127103 1.1399895127138917
3.54377603531 0.0471295954839005 -0.1967251473774716 -1.1153126972598135 2.004085147617083 2.0501011210321587 -0.5200046160127103 1.1399895127138917
3.55368089676 0.0471295954839005 -0.1967251473774716 -1.1153126972598135 2.004085147617083 2.0501011210321587 -0.5200046160127103 1.1399895127138917
3.55368089676 0.0471295954839005 -0.1967251473774716 -1.1153126972598135 2.004085147617083 2.0501011210321587 -0.5200046160127103 1.1399895127138917
3.56380701065 0.0471295954839005 -0.1967251473774716 -1.1153126972598135 2.004085147617083 2.0501011210321587 -0.5200046160127103 1.1399895127138917
3.56380701065 0.0471295954839005 -0.1967251473774716 -1.1153126972598135 2.004085147617083 2.0501011210321587 -0.5200046160127103 1.1399895127138917
3.57376503944 0.0471295954839005 -0.1967251473774716 -1.1153126972598135 2.004085147617083 2.0501011210321587 -0.5200046160127103 1.1399895127138917
3.57376503944 0.0471295954839005 -0.1967251473774716 -1.1153126972598135 2.004085147617083 2.0501011210321587 -0.5200046160127103 1.1399895127138917
3.58369803429 0.0471295954839005 -0.1967251473774716 -1.1153126972598135 2.004085147617083 2.0501011210321587 -0.5200046160127103 1.1399895127138917
3.58369803429 0.0471295954839005 -0.1967251473774716 -1.1153126972598135 2.004085147617083 2.0501011210321587 -0.5200046160127103 1.1399895127138917
3.59374403954 0.0471295954839005 -0.1967251473774716 -1.1153126972598135 2.004085147617083 2.0501011210321587 -0.5200046160127103 1.1399895127138917
3.59374403954 0.0471295954839005 -0.1967251473774716 -1.1153126972598135 2.004085147617083 2.0501011210321587 -0.5200046160127103 1.1399895127138917
3.60369300842 0.0471295954839005 -0.1967251473774716 -1.1153126972598135 2.004085147617083 2.0501011210321587 -0.5200046160127103 1.1399895127138917
3.60369300842 0.0471295954839005 -0.1967251473774716 -1.1153126972598135 2.004085147617083 2.0501011210321587 -0.5200046160127103 1.1399895127138917
3.61375308037 0.0471295954839005 -0.1967251473774716 -1.1153126972598135 2.004085147617083 2.0501011210321587 -0.5200046160127103 1.1399895127138917
3.61375308037 0.0471295954839005 -0.1967251473774716 -1.1153126972598135 2.004085147617083 2.0501011210321587 -0.5200046160127103 1.1399895127138917
3.62381410599 0.0471295954839005 -0.1967251473774716 -1.1153126972598135 2.004085147617083 2.0501011210321587 -0.5200046160127103 1.1399895127138917
3.62381410599 0.0471295954839005 -0.1967251473774716 -1.1153126972598135 2.004085147617083 2.0501011210321587 -0.5200046160127103 1.1399895127138917
3.6339058876 0.0471295954839005 -0.1967251473774716 -1.1153126972598135 2.004085147617083 2.0501011210321587 -0.5200046160127103 1.1399895127138917
3.6339058876 0.0471295954839005 -0.1967251473774716 -1.1153126972598135 2.004085147617083 2.0501011210321587 -0.5200046160127103 1.1399895127138917
3.64366102219 0.0471295954839005 -0.1967251473774716 -1.1153126972598135 2.004085147617083 2.0501011210321587 -0.5200046160127103 1.1399895127138917
3.64366102219 0.0471295954839005 -0.1967251473774716 -1.1153126972598135 2.004085147617083 2.0501011210321587 -0.5200046160127103 1.1399895127138917
3.6535949707 0.0471295954839005 -0.1967251473774716 -1.1153126972598135 2.004085147617083 2.0501011210321587 -0.5200046160127103 1.1399895127138917
3.6535949707 0.0471295954839005 -0.1967251473774716 -1.1153126972598135 2.004085147617083 2.0501011210321587 -0.5200046160127103 1.1399895127138917
3.66374707222 0.0471295954839005 -0.1967251473774716 -1.1153126972598135 2.004085147617083 2.0501011210321587 -0.5200046160127103 1.1399895127138917
3.66374707222 0.0471295954839005 -0.1967251473774716 -1.1153126972598135 2.004085147617083 2.0501011210321587 -0.5200046160127103 1.1399895127138917
3.67358899117 0.0471295954839005 -0.1967251473774716 -1.1153126972598135 2.004085147617083 2.0501011210321587 -0.5200046160127103 1.1399895127138917
3.67358899117 0.0471295954839005 -0.1967251473774716 -1.1153126972598135 2.004085147617083 2.0501011210321587 -0.5200046160127103 1.1399895127138917
3.68381690979 0.0471295954839005 -0.1967251473774716 -1.1153126972598135 2.004085147617083 2.0501011210321587 -0.5200046160127103 1.1399895127138917
3.68381690979 0.0471295954839005 -0.1967251473774716 -1.1153126972598135 2.004085147617083 2.0501011210321587 -0.5200046160127103 1.1399895127138917
3.69376993179 0.0471295954839005 -0.1967251473774716 -1.1153126972598135 2.004085147617083 2.0501011210321587 -0.5200046160127103 1.1399895127138917
3.69376993179 0.0471295954839005 -0.1967251473774716 -1.1153126972598135 2.004085147617083 2.0501011210321587 -0.5200046160127103 1.1399895127138917
3.70383000374 0.0471295954839005 -0.1967251473774716 -1.1153126972598135 2.004085147617083 2.0501011210321587 -0.5200046160127103 1.1399895127138917
3.70383000374 0.0471295954839005 -0.1967251473774716 -1.1153126972598135 2.004085147617083 2.0501011210321587 -0.5200046160127103 1.1399895127138917
3.71377897263 0.0471295954839005 -0.1967251473774716 -1.1153126972598135 2.004085147617083 2.0501011210321587 -0.5200046160127103 1.1399895127138917
3.71377897263 0.0471295954839005 -0.1967251473774716 -1.1153126972598135 2.004085147617083 2.0501011210321587 -0.5200046160127103 1.1399895127138917
3.72381401062 0.0471295954839005 -0.1967251473774716 -1.1153126972598135 2.004085147617083 2.0501011210321587 -0.5200046160127103 1.1399895127138917
3.72381401062 0.0471295954839005 -0.1967251473774716 -1.1153126972598135 2.004085147617083 2.0501011210321587 -0.5200046160127103 1.1399895127138917
3.73364591599 0.0471295954839005 -0.1967251473774716 -1.1153126972598135 2.004085147617083 2.0501011210321587 -0.5200046160127103 1.1399895127138917
3.73364591599 0.0471295954839005 -0.1967251473774716 -1.1153126972598135 2.004085147617083 2.0501011210321587 -0.5200046160127103 1.1399895127138917
3.74384999275 0.0471295954839005 -0.1967251473774716 -1.1153126972598135 2.004085147617083 2.0501011210321587 -0.5200046160127103 1.1399895127138917
3.74384999275 0.0471295954839005 -0.1967251473774716 -1.1153126972598135 2.004085147617083 2.0501011210321587 -0.5200046160127103 1.1399895127138917
3.7537279129 0.0471295954839005 -0.1967251473774716 -1.1153126972598135 2.004085147617083 2.0501011210321587 -0.5200046160127103 1.1399895127138917
3.7537279129 0.0471295954839005 -0.1967251473774716 -1.1153126972598135 2.004085147617083 2.0501011210321587 -0.5200046160127103 1.1399895127138917
3.76380109787 0.0471295954839005 -0.1967251473774716 -1.1153126972598135 2.004085147617083 2.0501011210321587 -0.5200046160127103 1.1399895127138917
3.76380109787 0.0471295954839005 -0.1967251473774716 -1.1153126972598135 2.004085147617083 2.0501011210321587 -0.5200046160127103 1.1399895127138917
3.7737300396 0.0471295954839005 -0.1967251473774716 -1.1153126972598135 2.004085147617083 2.0501011210321587 -0.5200046160127103 1.1399895127138917
3.7737300396 0.0471295954839005 -0.1967251473774716 -1.1153126972598135 2.004085147617083 2.0501011210321587 -0.5200046160127103 1.1399895127138917
3.7838280201 0.0471295954839005 -0.1967251473774716 -1.1153126972598135 2.004085147617083 2.0501011210321587 -0.5200046160127103 1.1399895127138917
3.7838280201 0.0471295954839005 -0.1967251473774716 -1.1153126972598135 2.004085147617083 2.0501011210321587 -0.5200046160127103 1.1399895127138917
3.79373598099 0.0471295954839005 -0.1967251473774716 -1.1153126972598135 2.004085147617083 2.0501011210321587 -0.5200046160127103 1.1399895127138917
3.79373598099 0.0471295954839005 -0.1967251473774716 -1.1153126972598135 2.004085147617083 2.0501011210321587 -0.5200046160127103 1.1399895127138917
3.80386805534 0.0471295954839005 -0.1967251473774716 -1.1153126972598135 2.004085147617083 2.0501011210321587 -0.5200046160127103 1.1399895127138917
3.80386805534 0.0471295954839005 -0.1967251473774716 -1.1153126972598135 2.004085147617083 2.0501011210321587 -0.5200046160127103 1.1399895127138917
3.81379103661 0.0471295954839005 -0.1967251473774716 -1.1153126972598135 2.004085147617083 2.0501011210321587 -0.5200046160127103 1.1399895127138917
3.81379103661 0.0471295954839005 -0.1967251473774716 -1.1153126972598135 2.004085147617083 2.0501011210321587 -0.5200046160127103 1.1399895127138917
3.82388997078 0.0471295954839005 -0.1967251473774716 -1.1153126972598135 2.004085147617083 2.0501011210321587 -0.5200046160127103 1.1399895127138917
3.82388997078 0.0471295954839005 -0.1967251473774716 -1.1153126972598135 2.004085147617083 2.0501011210321587 -0.5200046160127103 1.1399895127138917
3.83378696442 0.0471295954839005 -0.1967251473774716 -1.1153126972598135 2.004085147617083 2.0501011210321587 -0.5200046160127103 1.1399895127138917
3.83378696442 0.0471295954839005 -0.1967251473774716 -1.1153126972598135 2.004085147617083 2.0501011210321587 -0.5200046160127103 1.1399895127138917
3.84387493134 0.0471295954839005 -0.1967251473774716 -1.1153126972598135 2.004085147617083 2.0501011210321587 -0.5200046160127103 1.1399895127138917
3.84387493134 0.0471295954839005 -0.1967251473774716 -1.1153126972598135 2.004085147617083 2.0501011210321587 -0.5200046160127103 1.1399895127138917
3.85387301445 0.0471295954839005 -0.1967251473774716 -1.1153126972598135 2.004085147617083 2.0501011210321587 -0.5200046160127103 1.1399895127138917
3.85387301445 0.0471295954839005 -0.1967251473774716 -1.1153126972598135 2.004085147617083 2.0501011210321587 -0.5200046160127103 1.1399895127138917
3.86383605003 0.0471295954839005 -0.1967251473774716 -1.1153126972598135 2.004085147617083 2.0501011210321587 -0.5200046160127103 1.1399895127138917
3.86383605003 0.0471295954839005 -0.1967251473774716 -1.1153126972598135 2.004085147617083 2.0501011210321587 -0.5200046160127103 1.1399895127138917
3.87381005287 0.0471295954839005 -0.1967251473774716 -1.1153126972598135 2.004085147617083 2.0501011210321587 -0.5200046160127103 1.1399895127138917
3.87381005287 0.0471295954839005 -0.1967251473774716 -1.1153126972598135 2.004085147617083 2.0501011210321587 -0.5200046160127103 1.1399895127138917
3.88378596306 0.0471295954839005 -0.1967251473774716 -1.1153126972598135 2.004085147617083 2.0501011210321587 -0.5200046160127103 1.1399895127138917
3.88378596306 0.0471295954839005 -0.1967251473774716 -1.1153126972598135 2.004085147617083 2.0501011210321587 -0.5200046160127103 1.1399895127138917
3.89344906807 0.0471295954839005 -0.1967251473774716 -1.1153126972598135 2.004085147617083 2.0501011210321587 -0.5200046160127103 1.1399895127138917
3.89344906807 0.0471295954839005 -0.1967251473774716 -1.1153126972598135 2.004085147617083 2.0501011210321587 -0.5200046160127103 1.1399895127138917
3.90380692482 0.0471295954839005 -0.1967251473774716 -1.1153126972598135 2.004085147617083 2.0501011210321587 -0.5200046160127103 1.1399895127138917
3.90380692482 0.0471295954839005 -0.1967251473774716 -1.1153126972598135 2.004085147617083 2.0501011210321587 -0.5200046160127103 1.1399895127138917
3.91373491287 0.0471295954839005 -0.1967251473774716 -1.1153126972598135 2.004085147617083 2.0501011210321587 -0.5200046160127103 1.1399895127138917
3.91373491287 0.0471295954839005 -0.1967251473774716 -1.1153126972598135 2.004085147617083 2.0501011210321587 -0.5200046160127103 1.1399895127138917
3.92379689217 0.0471295954839005 -0.1967251473774716 -1.1153126972598135 2.004085147617083 2.0501011210321587 -0.5200046160127103 1.1399895127138917
3.92379689217 0.0471295954839005 -0.1967251473774716 -1.1153126972598135 2.004085147617083 2.0501011210321587 -0.5200046160127103 1.1399895127138917
3.93374204636 0.0471295954839005 -0.1967251473774716 -1.1153126972598135 2.004085147617083 2.0501011210321587 -0.5200046160127103 1.1399895127138917
3.93374204636 0.0471295954839005 -0.1967251473774716 -1.1153126972598135 2.004085147617083 2.0501011210321587 -0.5200046160127103 1.1399895127138917
3.94387602806 0.0471295954839005 -0.1967251473774716 -1.1153126972598135 2.004085147617083 2.0501011210321587 -0.5200046160127103 1.1399895127138917
3.94387602806 0.0471295954839005 -0.1967251473774716 -1.1153126972598135 2.004085147617083 2.0501011210321587 -0.5200046160127103 1.1399895127138917
3.95356702805 0.0471295954839005 -0.1967251473774716 -1.1153126972598135 2.004085147617083 2.0501011210321587 -0.5200046160127103 1.1399895127138917
3.95356702805 0.0471295954839005 -0.1967251473774716 -1.1153126972598135 2.004085147617083 2.0501011210321587 -0.5200046160127103 1.1399895127138917
3.963793993 0.0471295954839005 -0.1967251473774716 -1.1153126972598135 2.004085147617083 2.0501011210321587 -0.5200046160127103 1.1399895127138917
3.963793993 0.0471295954839005 -0.1967251473774716 -1.1153126972598135 2.004085147617083 2.0501011210321587 -0.5200046160127103 1.1399895127138917
3.97376799583 0.0471295954839005 -0.1967251473774716 -1.1153126972598135 2.004085147617083 2.0501011210321587 -0.5200046160127103 1.1399895127138917
3.97376799583 0.0471295954839005 -0.1967251473774716 -1.1153126972598135 2.004085147617083 2.0501011210321587 -0.5200046160127103 1.1399895127138917
3.98367500305 0.0471295954839005 -0.1967251473774716 -1.1153126972598135 2.004085147617083 2.0501011210321587 -0.5200046160127103 1.1399895127138917
3.98367500305 0.0471295954839005 -0.1967251473774716 -1.1153126972598135 2.004085147617083 2.0501011210321587 -0.5200046160127103 1.1399895127138917
3.99375796318 0.0471295954839005 -0.1967251473774716 -1.1153126972598135 2.004085147617083 2.0501011210321587 -0.5200046160127103 1.1399895127138917
3.99375796318 0.0471295954839005 -0.1967251473774716 -1.1153126972598135 2.004085147617083 2.0501011210321587 -0.5200046160127103 1.1399895127138917
4.00365495682 0.0471295954839005 -0.1967251473774716 -1.1153126972598135 2.004085147617083 2.0501011210321587 -0.5200046160127103 1.1399895127138917
4.00365495682 0.0471295954839005 -0.1967251473774716 -1.1153126972598135 2.004085147617083 2.0501011210321587 -0.5200046160127103 1.1399895127138917
4.01350402832 0.0471295954839005 -0.1967251473774716 -1.1153126972598135 2.004085147617083 2.0501011210321587 -0.5200046160127103 1.1399895127138917
4.01350402832 0.0471295954839005 -0.1967251473774716 -1.1153126972598135 2.004085147617083 2.0501011210321587 -0.5200046160127103 1.1399895127138917
4.02368187904 0.0471295954839005 -0.1967251473774716 -1.1153126972598135 2.004085147617083 2.0501011210321587 -0.5200046160127103 1.1399895127138917
4.02368187904 0.0471295954839005 -0.1967251473774716 -1.1153126972598135 2.004085147617083 2.0501011210321587 -0.5200046160127103 1.1399895127138917
4.03368496895 0.0471295954839005 -0.1967251473774716 -1.1153126972598135 2.004085147617083 2.0501011210321587 -0.5200046160127103 1.1399895127138917
4.03368496895 0.0471295954839005 -0.1967251473774716 -1.1153126972598135 2.004085147617083 2.0501011210321587 -0.5200046160127103 1.1399895127138917
4.04381990433 0.0471295954839005 -0.1967251473774716 -1.1153126972598135 2.004085147617083 2.0501011210321587 -0.5200046160127103 1.1399895127138917
4.04381990433 0.0471295954839005 -0.1967251473774716 -1.1153126972598135 2.004085147617083 2.0501011210321587 -0.5200046160127103 1.1399895127138917
4.053855896 0.0471295954839005 -0.1967251473774716 -1.1153126972598135 2.004085147617083 2.0501011210321587 -0.5200046160127103 1.1399895127138917
4.053855896 0.0471295954839005 -0.1967251473774716 -1.1153126972598135 2.004085147617083 2.0501011210321587 -0.5200046160127103 1.1399895127138917
4.06383991241 0.0471295954839005 -0.1967251473774716 -1.1153126972598135 2.004085147617083 2.0501011210321587 -0.5200046160127103 1.1399895127138917
4.06383991241 0.0471295954839005 -0.1967251473774716 -1.1153126972598135 2.004085147617083 2.0501011210321587 -0.5200046160127103 1.1399895127138917
4.07362794876 0.0471295954839005 -0.1967251473774716 -1.1153126972598135 2.004085147617083 2.0501011210321587 -0.5200046160127103 1.1399895127138917
4.07362794876 0.0471295954839005 -0.1967251473774716 -1.1153126972598135 2.004085147617083 2.0501011210321587 -0.5200046160127103 1.1399895127138917
4.0837790966 0.0471295954839005 -0.1967251473774716 -1.1153126972598135 2.004085147617083 2.0501011210321587 -0.5200046160127103 1.1399895127138917
4.0837790966 0.0471295954839005 -0.1967251473774716 -1.1153126972598135 2.004085147617083 2.0501011210321587 -0.5200046160127103 1.1399895127138917
4.09375190735 0.0471295954839005 -0.1967251473774716 -1.1153126972598135 2.004085147617083 2.0501011210321587 -0.5200046160127103 1.1399895127138917
4.09375190735 0.0471295954839005 -0.1967251473774716 -1.1153126972598135 2.004085147617083 2.0501011210321587 -0.5200046160127103 1.1399895127138917
4.10369110107 0.0471295954839005 -0.1967251473774716 -1.1153126972598135 2.004085147617083 2.0501011210321587 -0.5200046160127103 1.1399895127138917
4.10369110107 0.0471295954839005 -0.1967251473774716 -1.1153126972598135 2.004085147617083 2.0501011210321587 -0.5200046160127103 1.1399895127138917
4.1137919426 0.0471295954839005 -0.1967251473774716 -1.1153126972598135 2.004085147617083 2.0501011210321587 -0.5200046160127103 1.1399895127138917
4.1137919426 0.0471295954839005 -0.1967251473774716 -1.1153126972598135 2.004085147617083 2.0501011210321587 -0.5200046160127103 1.1399895127138917
4.12356305122 0.0471295954839005 -0.1967251473774716 -1.1153126972598135 2.004085147617083 2.0501011210321587 -0.5200046160127103 1.1399895127138917
4.12356305122 0.0471295954839005 -0.1967251473774716 -1.1153126972598135 2.004085147617083 2.0501011210321587 -0.5200046160127103 1.1399895127138917
4.13357305527 0.0471295954839005 -0.1967251473774716 -1.1153126972598135 2.004085147617083 2.0501011210321587 -0.5200046160127103 1.1399895127138917
4.13357305527 0.0471295954839005 -0.1967251473774716 -1.1153126972598135 2.004085147617083 2.0501011210321587 -0.5200046160127103 1.1399895127138917
4.14386296272 0.0471295954839005 -0.1967251473774716 -1.1153126972598135 2.004085147617083 2.0501011210321587 -0.5200046160127103 1.1399895127138917
4.14386296272 0.0471295954839005 -0.1967251473774716 -1.1153126972598135 2.004085147617083 2.0501011210321587 -0.5200046160127103 1.1399895127138917
4.15370202065 0.0471295954839005 -0.1967251473774716 -1.1153126972598135 2.004085147617083 2.0501011210321587 -0.5200046160127103 1.1399895127138917
4.15370202065 0.0471295954839005 -0.1967251473774716 -1.1153126972598135 2.004085147617083 2.0501011210321587 -0.5200046160127103 1.1399895127138917
4.16381502151 0.0471295954839005 -0.1967251473774716 -1.1153126972598135 2.004085147617083 2.0501011210321587 -0.5200046160127103 1.1399895127138917
4.16381502151 0.0471295954839005 -0.1967251473774716 -1.1153126972598135 2.004085147617083 2.0501011210321587 -0.5200046160127103 1.1399895127138917
4.17378592491 0.0471295954839005 -0.1967251473774716 -1.1153126972598135 2.004085147617083 2.0501011210321587 -0.5200046160127103 1.1399895127138917
4.17378592491 0.0471295954839005 -0.1967251473774716 -1.1153126972598135 2.004085147617083 2.0501011210321587 -0.5200046160127103 1.1399895127138917
4.18379998207 0.0471295954839005 -0.1967251473774716 -1.1153126972598135 2.004085147617083 2.0501011210321587 -0.5200046160127103 1.1399895127138917
4.18379998207 0.0471295954839005 -0.1967251473774716 -1.1153126972598135 2.004085147617083 2.0501011210321587 -0.5200046160127103 1.1399895127138917
4.19380307198 0.0471295954839005 -0.1967251473774716 -1.1153126972598135 2.004085147617083 2.0501011210321587 -0.5200046160127103 1.1399895127138917
4.19380307198 0.0471295954839005 -0.1967251473774716 -1.1153126972598135 2.004085147617083 2.0501011210321587 -0.5200046160127103 1.1399895127138917
4.2038359642 0.0471295954839005 -0.1967251473774716 -1.1153126972598135 2.004085147617083 2.0501011210321587 -0.5200046160127103 1.1399895127138917
4.2038359642 0.0471295954839005 -0.1967251473774716 -1.1153126972598135 2.004085147617083 2.0501011210321587 -0.5200046160127103 1.1399895127138917
4.21375799179 0.0471295954839005 -0.1967251473774716 -1.1153126972598135 2.004085147617083 2.0501011210321587 -0.5200046160127103 1.1399895127138917
4.21375799179 0.0471295954839005 -0.1967251473774716 -1.1153126972598135 2.004085147617083 2.0501011210321587 -0.5200046160127103 1.1399895127138917
4.2237598896 0.0471295954839005 -0.1967251473774716 -1.1153126972598135 2.004085147617083 2.0501011210321587 -0.5200046160127103 1.1399895127138917
4.2237598896 0.0471295954839005 -0.1967251473774716 -1.1153126972598135 2.004085147617083 2.0501011210321587 -0.5200046160127103 1.1399895127138917
4.23365688324 0.0471295954839005 -0.1967251473774716 -1.1153126972598135 2.004085147617083 2.0501011210321587 -0.5200046160127103 1.1399895127138917
4.23365688324 0.0471295954839005 -0.1967251473774716 -1.1153126972598135 2.004085147617083 2.0501011210321587 -0.5200046160127103 1.1399895127138917
4.2434720993 0.0471295954839005 -0.1967251473774716 -1.1153126972598135 2.004085147617083 2.0501011210321587 -0.5200046160127103 1.1399895127138917
4.2434720993 0.0471295954839005 -0.1967251473774716 -1.1153126972598135 2.004085147617083 2.0501011210321587 -0.5200046160127103 1.1399895127138917
4.25364804268 0.0471295954839005 -0.1967251473774716 -1.1153126972598135 2.004085147617083 2.0501011210321587 -0.5200046160127103 1.1399895127138917
4.25364804268 0.0471295954839005 -0.1967251473774716 -1.1153126972598135 2.004085147617083 2.0501011210321587 -0.5200046160127103 1.1399895127138917
4.26352310181 0.0471295954839005 -0.1967251473774716 -1.1153126972598135 2.004085147617083 2.0501011210321587 -0.5200046160127103 1.1399895127138917
4.26352310181 0.0471295954839005 -0.1967251473774716 -1.1153126972598135 2.004085147617083 2.0501011210321587 -0.5200046160127103 1.1399895127138917
4.27370691299 0.0471295954839005 -0.1967251473774716 -1.1153126972598135 2.004085147617083 2.0501011210321587 -0.5200046160127103 1.1399895127138917
4.27370691299 0.0471295954839005 -0.1967251473774716 -1.1153126972598135 2.004085147617083 2.0501011210321587 -0.5200046160127103 1.1399895127138917
4.28378891945 0.0471295954839005 -0.1967251473774716 -1.1153126972598135 2.004085147617083 2.0501011210321587 -0.5200046160127103 1.1399895127138917
4.28378891945 0.0471295954839005 -0.1967251473774716 -1.1153126972598135 2.004085147617083 2.0501011210321587 -0.5200046160127103 1.1399895127138917
4.29373288155 0.0471295954839005 -0.1967251473774716 -1.1153126972598135 2.004085147617083 2.0501011210321587 -0.5200046160127103 1.1399895127138917
4.29373288155 0.0471295954839005 -0.1967251473774716 -1.1153126972598135 2.004085147617083 2.0501011210321587 -0.5200046160127103 1.1399895127138917
4.30385899544 0.0471295954839005 -0.1967251473774716 -1.1153126972598135 2.004085147617083 2.0501011210321587 -0.5200046160127103 1.1399895127138917
4.30385899544 0.0471295954839005 -0.1967251473774716 -1.1153126972598135 2.004085147617083 2.0501011210321587 -0.5200046160127103 1.1399895127138917
4.31376791 0.0471295954839005 -0.1967251473774716 -1.1153126972598135 2.004085147617083 2.0501011210321587 -0.5200046160127103 1.1399895127138917
4.31376791 0.0471295954839005 -0.1967251473774716 -1.1153126972598135 2.004085147617083 2.0501011210321587 -0.5200046160127103 1.1399895127138917
4.32381796837 0.0471295954839005 -0.1967251473774716 -1.1153126972598135 2.004085147617083 2.0501011210321587 -0.5200046160127103 1.1399895127138917
4.32381796837 0.0471295954839005 -0.1967251473774716 -1.1153126972598135 2.004085147617083 2.0501011210321587 -0.5200046160127103 1.1399895127138917
4.33375787735 0.0471295954839005 -0.1967251473774716 -1.1153126972598135 2.004085147617083 2.0501011210321587 -0.5200046160127103 1.1399895127138917
4.33375787735 0.0471295954839005 -0.1967251473774716 -1.1153126972598135 2.004085147617083 2.0501011210321587 -0.5200046160127103 1.1399895127138917
4.34355688095 0.0471295954839005 -0.1967251473774716 -1.1153126972598135 2.004085147617083 2.0501011210321587 -0.5200046160127103 1.1399895127138917
4.34355688095 0.0471295954839005 -0.1967251473774716 -1.1153126972598135 2.004085147617083 2.0501011210321587 -0.5200046160127103 1.1399895127138917
4.3534860611 0.0471295954839005 -0.1967251473774716 -1.1153126972598135 2.004085147617083 2.0501011210321587 -0.5200046160127103 1.1399895127138917
