riccardo-csl/Motion-Planning-for-TIAGo-Manipulator/T3_G_7/head_scan/head_scan/tiago_traiettorie_SG/3a-2b/place_2b_rep1.txt
time arm_1_joint arm_2_joint arm_3_joint arm_4_joint arm_5_joint arm_6_joint arm_7_joint
1.31697511673 0.0485101965055454 -0.1585131791006152 -1.1289653073627453 2.0329243689581067 2.050037204598331 -0.5200046160127103 1.1399895127138917
1.32697510719 0.0485101965055454 -0.1585131791006152 -1.1289653073627453 2.0329243689581067 2.050037204598331 -0.5200046160127103 1.1399895127138917
1.32697510719 0.0485101965055454 -0.1585131791006152 -1.1289653073627453 2.0329243689581067 2.050037204598331 -0.5200046160127103 1.1399895127138917
1.33718109131 0.0488016567212259 -0.1589426994184601 -1.1289653073627453 2.0329243689581067 2.050046335517449 -0.5200046160127103 1.1399895127138917
1.33718109131 0.0488016567212259 -0.1589426994184601 -1.1289653073627453 2.0329243689581067 2.050046335517449 -0.5200046160127103 1.1399895127138917
1.34701800346 0.0488016567212259 -0.1589426994184601 -1.1289653073627453 2.0329243689581067 2.050046335517449 -0.5200046160127103 1.1399895127138917
1.34701800346 0.0488016567212259 -0.1589426994184601 -1.1289653073627453 2.0329243689581067 2.050046335517449 -0.5200046160127103 1.1399895127138917
1.35722303391 0.0490317568915001 -0.1592648396568439 -1.1289653073627453 2.0329243689581067 2.050037204598331 -0.5200046160127103 1.1399895127138917
1.35722303391 0.0490317568915001 -0.1592648396568439 -1.1289653073627453 2.0329243689581067 2.050037204598331 -0.5200046160127103 1.1399895127138917
1.36825299263 0.0491237969596096 -0.1593722197363051 -1.1289653073627453 2.0329243689581067 2.050037204598331 -0.5200046160127103 1.1399895127138917
1.36825299263 0.0491237969596096 -0.1593722197363051 -1.1289653073627453 2.0329243689581067 2.050037204598331 -0.5200046160127103 1.1399895127138917
1.37702417374 0.0491237969596096 -0.1594028997590084 -1.1289653073627453 2.0329243689581067 2.050037204598331 -0.5200046160127103 1.1399895127138917
1.37702417374 0.0491237969596096 -0.1594028997590084 -1.1289653073627453 2.0329243689581067 2.050037204598331 -0.5200046160127103 1.1399895127138917
1.38717913628 0.0491237969596096 -0.1594028997590084 -1.1289653073627453 2.0329243689581067 2.050037204598331 -0.5200046160127103 1.1399895127138917
1.38717913628 0.0491237969596096 -0.1594028997590084 -1.1289653073627453 2.0329243689581067 2.050037204598331 -0.5200046160127103 1.1399895127138917
1.39689517021 0.0491237969596096 -0.1594028997590084 -1.1289653073627453 2.0329243689581067 2.050037204598331 -0.5200046160127103 1.1399895127138917
1.39689517021 0.0491237969596096 -0.1594028997590084 -1.1289653073627453 2.0329243689581067 2.050037204598331 -0.5200046160127103 1.1399895127138917
1.40679502487 0.0491237969596096 -0.1594028997590084 -1.1289653073627453 2.0329243689581067 2.050037204598331 -0.5200046160127103 1.1399895127138917
1.40679502487 0.0491237969596096 -0.1594028997590084 -1.1289653073627453 2.0329243689581067 2.050037204598331 -0.5200046160127103 1.1399895127138917
1.41677212715 0.0491237969596096 -0.1594028997590084 -1.1289653073627453 2.0329243689581067 2.050037204598331 -0.5200046160127103 1.1399895127138917
1.41677212715 0.0491237969596096 -0.1594028997590084 -1.1289653073627453 2.0329243689581067 2.050037204598331 -0.5200046160127103 1.1399895127138917
1.42674422264 0.0491237969596096 -0.1594028997590084 -1.1289653073627453 2.0329243689581067 2.050037204598331 -0.5200046160127103 1.1399895127138917
1.42674422264 0.0491237969596096 -0.1594028997590084 -1.1289653073627453 2.0329243689581067 2.050037204598331 -0.5200046160127103 1.1399895127138917
1.43677520752 0.0491237969596096 -0.1594028997590084 -1.1289653073627453 2.0329243689581067 2.050037204598331 -0.5200046160127103 1.1399895127138917
1.43677520752 0.0491237969596096 -0.1594028997590084 -1.1289653073627453 2.0329243689581067 2.050037204598331 -0.5200046160127103 1.1399895127138917
1.44787812233 0.0491237969596096 -0.15941823977036 -1.1289653073627453 2.0329243689581067 2.050037204598331 -0.5200046160127103 1.1399895127138917
1.44787812233 0.0491237969596096 -0.15941823977036 -1.1289653073627453 2.0329243689581067 2.050037204598331 -0.5200046160127103 1.1399895127138917
1.45675301552 0.0491237969596096 -0.15941823977036 -1.1289653073627453 2.0329243689581067 2.050037204598331 -0.5200046160127103 1.1399895127138917
1.45675301552 0.0491237969596096 -0.15941823977036 -1.1289653073627453 2.0329243689581067 2.050037204598331 -0.5200046160127103 1.1399895127138917
1.4680621624 0.0491237969596096 -0.1596790199633374 -1.1289653073627453 2.0329243689581067 2.050037204598331 -0.5200046160127103 1.1399895127138917
1.4680621624 0.0491237969596096 -0.1596790199633374 -1.1289653073627453 2.0329243689581067 2.050037204598331 -0.5200046160127103 1.1399895127138917
1.47677922249 0.0491237969596096 -0.1596790199633374 -1.1289653073627453 2.0329243689581067 2.050037204598331 -0.5200046160127103 1.1399895127138917
1.47677922249 0.0491237969596096 -0.1596790199633374 -1.1289653073627453 2.0329243689581067 2.050037204598331 -0.5200046160127103 1.1399895127138917
1.48674511909 0.0491237969596096 -0.1596790199633374 -1.1289653073627453 2.0329243689581067 2.050037204598331 -0.5200046160127103 1.1399895127138917
1.48674511909 0.0491237969596096 -0.1596790199633374 -1.1289653073627453 2.0329243689581067 2.050037204598331 -0.5200046160127103 1.1399895127138917
1.49674201012 0.0490931169369066 -0.1598017400541502 -1.1289653073627453 2.0329243689581067 2.050037204598331 -0.5200046160127103 1.1399895127138917
1.49674201012 0.0490931169369066 -0.1598017400541502 -1.1289653073627453 2.0329243689581067 2.050037204598331 -0.5200046160127103 1.1399895127138917
1.50676202774 0.0490931169369066 -0.1598017400541502 -1.1289653073627453 2.0329243689581067 2.050037204598331 -0.5200046160127103 1.1399895127138917
1.50676202774 0.0490931169369066 -0.1598017400541502 -1.1289653073627453 2.0329243689581067 2.050037204598331 -0.5200046160127103 1.1399895127138917
1.51677298546 0.0490317568915001 -0.1598170800655018 -1.1289653073627453 2.0329243689581067 2.050037204598331 -0.5200046160127103 1.1399895127138917
1.51677298546 0.0490317568915001 -0.1598170800655018 -1.1289653073627453 2.0329243689581067 2.050037204598331 -0.5200046160127103 1.1399895127138917
1.52676916122 0.0490317568915001 -0.1598170800655018 -1.1289653073627453 2.0329243689581067 2.050037204598331 -0.5200046160127103 1.1399895127138917
1.52676916122 0.0490317568915001 -0.1598170800655018 -1.1289653073627453 2.0329243689581067 2.050037204598331 -0.5200046160127103 1.1399895127138917
1.53676819801 0.0490317568915001 -0.1598170800655018 -1.1289653073627453 2.0329243689581067 2.050037204598331 -0.5200046160127103 1.1399895127138917
1.53676819801 0.0490317568915001 -0.1598170800655018 -1.1289653073627453 2.0329243689581067 2.050037204598331 -0.5200046160127103 1.1399895127138917
1.54674100876 0.0490317568915001 -0.1598170800655018 -1.1289653073627453 2.0329243689581067 2.050037204598331 -0.5200046160127103 1.1399895127138917
1.54674100876 0.0490317568915001 -0.1598170800655018 -1.1289653073627453 2.0329243689581067 2.050037204598331 -0.5200046160127103 1.1399895127138917
1.55678606033 0.0490164168801485 -0.1598170800655018 -1.1289653073627453 2.0329243689581067 2.050037204598331 -0.5200046160127103 1.1399895127138917
1.55678606033 0.0490164168801485 -0.1598170800655018 -1.1289653073627453 2.0329243689581067 2.050037204598331 -0.5200046160127103 1.1399895127138917
1.56673502922 0.0490010768687969 -0.1598170800655018 -1.1289653073627453 2.0329243689581067 2.050037204598331 -0.5200046160127103 1.1399895127138917
1.56673502922 0.0490010768687969 -0.1598170800655018 -1.1289653073627453 2.0329243689581067 2.050037204598331 -0.5200046160127103 1.1399895127138917
1.57677006721 0.0490010768687969 -0.1598170800655018 -1.1289653073627453 2.0329243689581067 2.050037204598331 -0.5200046160127103 1.1399895127138917
1.57677006721 0.0490010768687969 -0.1598170800655018 -1.1289653073627453 2.0329243689581067 2.050037204598331 -0.5200046160127103 1.1399895127138917
1.58678817749 0.0490010768687969 -0.1598170800655018 -1.1289653073627453 2.0329243689581067 2.050037204598331 -0.5200046160127103 1.1399895127138917
1.58678817749 0.0490010768687969 -0.1598170800655018 -1.1289653073627453 2.0329243689581067 2.050037204598331 -0.5200046160127103 1.1399895127138917
1.59688711166 0.0490010768687969 -0.1598170800655018 -1.1289653073627453 2.0329243689581067 2.050037204598331 -0.5200046160127103 1.1399895127138917
1.59688711166 0.0490010768687969 -0.1598170800655018 -1.1289653073627453 2.0329243689581067 2.050037204598331 -0.5200046160127103 1.1399895127138917
1.6068341732 0.0490010768687969 -0.1598170800655018 -1.1289653073627453 2.0329243689581067 2.050037204598331 -0.5200046160127103 1.1399895127138917
1.6068341732 0.0490010768687969 -0.1598170800655018 -1.1289653073627453 2.0329243689581067 2.050037204598331 -0.5200046160127103 1.1399895127138917
1.61676621437 0.0490010768687969 -0.1598170800655018 -1.1289653073627453 2.0329243689581067 2.050037204598331 -0.5200046160127103 1.1399895127138917
1.61676621437 0.0490010768687969 -0.1598170800655018 -1.1289653073627453 2.0329243689581067 2.050037204598331 -0.5200046160127103 1.1399895127138917
1.6268491745 0.0490010768687969 -0.1598170800655018 -1.1289653073627453 2.0329243689581067 2.050037204598331 -0.5200046160127103 1.1399895127138917
1.6268491745 0.0490010768687969 -0.1598170800655018 -1.1289653073627453 2.0329243689581067 2.050037204598331 -0.5200046160127103 1.1399895127138917
1.6368701458 0.0490010768687969 -0.1598170800655018 -1.1289653073627453 2.0329243689581067 2.050037204598331 -0.5200046160127103 1.1399895127138917
1.6368701458 0.0490010768687969 -0.1598170800655018 -1.1289653073627453 2.0329243689581067 2.050037204598331 -0.5200046160127103 1.1399895127138917
1.64683008194 0.0490010768687969 -0.1598170800655018 -1.1289653073627453 2.0329243689581067 2.050037204598331 -0.5200046160127103 1.1399895127138917
1.64683008194 0.0490010768687969 -0.1598170800655018 -1.1289653073627453 2.0329243689581067 2.050037204598331 -0.5200046160127103 1.1399895127138917
1.656894207 0.0490010768687969 -0.1598170800655018 -1.1289653073627453 2.0329243689581067 2.050037204598331 -0.5200046160127103 1.1399895127138917
1.656894207 0.0490010768687969 -0.1598170800655018 -1.1289653073627453 2.0329243689581067 2.050037204598331 -0.5200046160127103 1.1399895127138917
1.66689419746 0.0490010768687969 -0.1598170800655018 -1.1289653073627453 2.0329243689581067 2.050037204598331 -0.5200046160127103 1.1399895127138917
1.66689419746 0.0490010768687969 -0.1598170800655018 -1.1289653073627453 2.0329243689581067 2.050037204598331 -0.5200046160127103 1.1399895127138917
1.67678809166 0.0490010768687969 -0.1598170800655018 -1.1289653073627453 2.0329243689581067 2.050037204598331 -0.5200046160127103 1.1399895127138917
1.67678809166 0.0490010768687969 -0.1598170800655018 -1.1289653073627453 2.0329243689581067 2.050037204598331 -0.5200046160127103 1.1399895127138917
1.68679714203 0.0490010768687969 -0.1598170800655018 -1.1289653073627453 2.0329243689581067 2.050046335517449 -0.5200046160127103 1.1399895127138917
1.68679714203 0.0490010768687969 -0.1598170800655018 -1.1289653073627453 2.0329243689581067 2.050046335517449 -0.5200046160127103 1.1399895127138917
1.69692802429 0.0490010768687969 -0.1598170800655018 -1.1289653073627453 2.0329243689581067 2.050046335517449 -0.5200046160127103 1.1399895127138917
1.69692802429 0.0490010768687969 -0.1598170800655018 -1.1289653073627453 2.0329243689581067 2.050046335517449 -0.5200046160127103 1.1399895127138917
1.70677709579 0.0490010768687969 -0.1598170800655018 -1.1289653073627453 2.0329243689581067 2.050046335517449 -0.5200046160127103 1.1399895127138917
1.70677709579 0.0490010768687969 -0.1598170800655018 -1.1289653073627453 2.0329243689581067 2.050046335517449 -0.5200046160127103 1.1399895127138917
1.71681809425 0.0490010768687969 -0.1598170800655018 -1.1289653073627453 2.0329243689581067 2.050037204598331 -0.5200046160127103 1.1399895127138917
1.71681809425 0.0490010768687969 -0.1598170800655018 -1.1289653073627453 2.0329243689581067 2.050037204598331 -0.5200046160127103 1.1399895127138917
1.72689914703 0.0490010768687969 -0.1598170800655018 -1.1289653073627453 2.0329243689581067 2.050037204598331 -0.5200046160127103 1.1399895127138917
1.72689914703 0.0490010768687969 -0.1598170800655018 -1.1289653073627453 2.0329243689581067 2.050037204598331 -0.5200046160127103 1.1399895127138917
1.7368311882 0.0490010768687969 -0.1598170800655018 -1.1289653073627453 2.0329243689581067 2.050037204598331 -0.5200091814722694 1.1399849472543326
1.7368311882 0.0490010768687969 -0.1598170800655018 -1.1289653073627453 2.0329243689581067 2.050037204598331 -0.5200091814722694 1.1399849472543326
1.74682021141 0.0490010768687969 -0.1598170800655018 -1.1289653073627453 2.0329243689581067 2.050037204598331 -0.5200091814722694 1.1399849472543326
1.74682021141 0.0490010768687969 -0.1598170800655018 -1.1289653073627453 2.0329243689581067 2.050037204598331 -0.5200091814722694 1.1399849472543326
1.75681900978 0.0490010768687969 -0.1598170800655018 -1.1289653073627453 2.0329243689581067 2.050037204598331 -0.5200046160127103 1.1399895127138917
1.75681900978 0.0490010768687969 -0.1598170800655018 -1.1289653073627453 2.0329243689581067 2.050037204598331 -0.5200046160127103 1.1399895127138917
1.76678299904 0.0490010768687969 -0.1598170800655018 -1.1289653073627453 2.0329243689581067 2.050037204598331 -0.5200046160127103 1.1399895127138917
1.76678299904 0.0490010768687969 -0.1598170800655018 -1.1289653073627453 2.0329243689581067 2.050037204598331 -0.5200046160127103 1.1399895127138917
1.77685117722 0.0490010768687969 -0.1598170800655018 -1.1289653073627453 2.0329243689581067 2.050037204598331 -0.5200046160127103 1.1399895127138917
1.77685117722 0.0490010768687969 -0.1598170800655018 -1.1289653073627453 2.0329243689581067 2.050037204598331 -0.5200046160127103 1.1399895127138917
1.78680205345 0.0490010768687969 -0.1598170800655018 -1.1289653073627453 2.0329243689581067 2.050037204598331 -0.5200046160127103 1.1399895127138917
1.78680205345 0.0490010768687969 -0.1598170800655018 -1.1289653073627453 2.0329243689581067 2.050037204598331 -0.5200046160127103 1.1399895127138917
1.79682207108 0.0490010768687969 -0.1598170800655018 -1.1289653073627453 2.0329243689581067 2.050037204598331 -0.5200046160127103 1.1399895127138917
1.79682207108 0.0490010768687969 -0.1598170800655018 -1.1289653073627453 2.0329243689581067 2.050037204598331 -0.5200046160127103 1.1399895127138917
1.80691504478 0.0490010768687969 -0.1598170800655018 -1.1289653073627453 2.0329243689581067 2.050037204598331 -0.5200046160127103 1.1399895127138917
1.80691504478 0.0490010768687969 -0.1598170800655018 -1.1289653073627453 2.0329243689581067 2.050037204598331 -0.5200046160127103 1.1399895127138917
1.8168361187 0.0490010768687969 -0.1598170800655018 -1.1289653073627453 2.0329243689581067 2.050037204598331 -0.5200091814722694 1.1399849472543326
1.8168361187 0.0490010768687969 -0.1598170800655018 -1.1289653073627453 2.0329243689581067 2.050037204598331 -0.5200091814722694 1.1399849472543326
1.82682013512 0.0490010768687969 -0.1598170800655018 -1.1289653073627453 2.0329243689581067 2.050037204598331 -0.5200091814722694 1.1399849472543326
1.82682013512 0.0490010768687969 -0.1598170800655018 -1.1289653073627453 2.0329243689581067 2.050037204598331 -0.5200091814722694 1.1399849472543326
1.83683419228 0.0490010768687969 -0.1598170800655018 -1.1289653073627453 2.0329243689581067 2.050037204598331 -0.5200091814722694 1.1399849472543326
1.83683419228 0.0490010768687969 -0.1598170800655018 -1.1289653073627453 2.0329243689581067 2.050037204598331 -0.5200091814722694 1.1399849472543326
1.84688305855 0.0490010768687969 -0.1598170800655018 -1.1289653073627453 2.0329243689581067 2.050037204598331 -0.5200091814722694 1.1399849472543326
1.84688305855 0.0490010768687969 -0.1598170800655018 -1.1289653073627453 2.0329243689581067 2.050037204598331 -0.5200091814722694 1.1399849472543326
1.85682702065 0.0490010768687969 -0.1598170800655018 -1.1289653073627453 2.0329243689581067 2.050037204598331 -0.5200091814722694 1.1399849472543326
1.85682702065 0.0490010768687969 -0.1598170800655018 -1.1289653073627453 2.0329243689581067 2.050037204598331 -0.5200091814722694 1.1399849472543326
1.86684918404 0.0490010768687969 -0.1598170800655018 -1.1289653073627453 2.0329243689581067 2.050037204598331 -0.5200046160127103 1.1399895127138917
1.86684918404 0.0490010768687969 -0.1598170800655018 -1.1289653073627453 2.0329243689581067 2.050037204598331 -0.5200046160127103 1.1399895127138917
1.87687015533 0.0490010768687969 -0.1598170800655018 -1.1289653073627453 2.0329243689581067 2.050037204598331 -0.5200046160127103 1.1399895127138917
1.87687015533 0.0490010768687969 -0.1598170800655018 -1.1289653073627453 2.0329243689581067 2.050037204598331 -0.5200046160127103 1.1399895127138917
1.88684105873 0.0490010768687969 -0.1598170800655018 -1.1289653073627453 2.0329243689581067 2.050037204598331 -0.5200046160127103 1.1399895127138917
1.88684105873 0.0490010768687969 -0.1598170800655018 -1.1289653073627453 2.0329243689581067 2.050037204598331 -0.5200046160127103 1.1399895127138917
1.89685821533 0.0490010768687969 -0.1598170800655018 -1.1289653073627453 2.0329243689581067 2.050037204598331 -0.5200046160127103 1.1399895127138917
1.89685821533 0.0490010768687969 -0.1598170800655018 -1.1289653073627453 2.0329243689581067 2.050037204598331 -0.5200046160127103 1.1399895127138917
1.90678811073 0.0490010768687969 -0.1598170800655018 -1.1289653073627453 2.0329243689581067 2.050037204598331 -0.5200046160127103 1.1399895127138917
1.90678811073 0.0490010768687969 -0.1598170800655018 -1.1289653073627453 2.0329243689581067 2.050037204598331 -0.5200046160127103 1.1399895127138917
1.91677498817 0.0490010768687969 -0.1598170800655018 -1.1289653073627453 2.0329243689581067 2.050037204598331 -0.5200046160127103 1.1399895127138917
1.91677498817 0.0490010768687969 -0.1598170800655018 -1.1289653073627453 2.0329243689581067 2.050037204598331 -0.5200046160127103 1.1399895127138917
1.92689919472 0.0490010768687969 -0.1598170800655018 -1.1289653073627453 2.0329243689581067 2.050037204598331 -0.5200046160127103 1.1399895127138917
1.92689919472 0.0490010768687969 -0.1598170800655018 -1.1289653073627453 2.0329243689581067 2.050037204598331 -0.5200046160127103 1.1399895127138917
1.93688511848 0.0490010768687969 -0.1598170800655018 -1.1289653073627453 2.0329243689581067 2.050037204598331 -0.5200091814722694 1.1399849472543326
1.93688511848 0.0490010768687969 -0.1598170800655018 -1.1289653073627453 2.0329243689581067 2.050037204598331 -0.5200091814722694 1.1399849472543326
1.94680905342 0.0490010768687969 -0.1598170800655018 -1.1289653073627453 2.0329243689581067 2.050037204598331 -0.5200046160127103 1.1399895127138917
1.94680905342 0.0490010768687969 -0.1598170800655018 -1.1289653073627453 2.0329243689581067 2.050037204598331 -0.5200046160127103 1.1399895127138917
1.95702004433 0.0490010768687969 -0.1598170800655018 -1.1289653073627453 2.0329243689581067 2.050037204598331 -0.5200046160127103 1.1399895127138917
1.95702004433 0.0490010768687969 -0.1598170800655018 -1.1289653073627453 2.0329243689581067 2.050037204598331 -0.5200046160127103 1.1399895127138917
1.9668431282 0.0490010768687969 -0.1598170800655018 -1.1289653073627453 2.0329243689581067 2.050037204598331 -0.5200046160127103 1.1399895127138917
1.9668431282 0.0490010768687969 -0.1598170800655018 -1.1289653073627453 2.0329243689581067 2.050037204598331 -0.5200046160127103 1.1399895127138917
1.97684717178 0.0490010768687969 -0.1598170800655018 -1.1289653073627453 2.0329243689581067 2.050037204598331 -0.5200046160127103 1.1399895127138917
1.97684717178 0.0490010768687969 -0.1598170800655018 -1.1289653073627453 2.0329243689581067 2.050037204598331 -0.5200046160127103 1.1399895127138917
1.98682808876 0.0490010768687969 -0.1598170800655018 -1.1289653073627453 2.0329243689581067 2.050037204598331 -0.5200046160127103 1.1399895127138917
1.98682808876 0.0490010768687969 -0.1598170800655018 -1.1289653073627453 2.0329243689581067 2.050037204598331 -0.5200046160127103 1.1399895127138917
1.99677801132 0.0490010768687969 -0.1598170800655018 -1.1289653073627453 2.0329243689581067 2.050037204598331 -0.5200046160127103 1.1399895127138917
1.99677801132 0.0490010768687969 -0.1598170800655018 -1.1289653073627453 2.0329243689581067 2.050037204598331 -0.5200046160127103 1.1399895127138917
2.00688314438 0.0490010768687969 -0.1598170800655018 -1.1289653073627453 2.0329243689581067 2.050037204598331 -0.5200046160127103 1.1399895127138917
2.00688314438 0.0490010768687969 -0.1598170800655018 -1.1289653073627453 2.0329243689581067 2.050037204598331 -0.5200046160127103 1.1399895127138917
2.01682019234 0.0490010768687969 -0.1598170800655018 -1.1289653073627453 2.0329243689581067 2.050037204598331 -0.5200091814722694 1.1399849472543326
2.01682019234 0.0490010768687969 -0.1598170800655018 -1.1289653073627453 2.0329243689581067 2.050037204598331 -0.5200091814722694 1.1399849472543326
2.02673816681 0.0490010768687969 -0.1598170800655018 -1.1289653073627453 2.0329243689581067 2.050037204598331 -0.5200091814722694 1.1399849472543326
2.02673816681 0.0490010768687969 -0.1598170800655018 -1.1289653073627453 2.0329243689581067 2.050037204598331 -0.5200091814722694 1.1399849472543326
2.03691220284 0.0490010768687969 -0.1598170800655018 -1.1290113273968 2.0329703889921613 2.050037204598331 -0.5200046160127103 1.1399895127138917
2.03691220284 0.0490010768687969 -0.1598170800655018 -1.1290113273968 2.0329703889921613 2.050037204598331 -0.5200046160127103 1.1399895127138917
2.0469930172 0.0490010768687969 -0.1598170800655018 -1.1290113273968 2.0329703889921613 2.050037204598331 -0.5200046160127103 1.1399895127138917
2.0469930172 0.0490010768687969 -0.1598170800655018 -1.1290113273968 2.0329703889921613 2.050037204598331 -0.5200046160127103 1.1399895127138917
2.05684900284 0.0490010768687969 -0.1598170800655018 -1.1290113273968 2.0329703889921613 2.050037204598331 -0.5200046160127103 1.1399895127138917
2.05684900284 0.0490010768687969 -0.1598170800655018 -1.1290113273968 2.0329703889921613 2.050037204598331 -0.5200046160127103 1.1399895127138917
2.06696009636 0.0490010768687969 -0.1598170800655018 -1.1290113273968 2.032985729003513 2.050037204598331 -0.5200046160127103 1.1399895127138917
2.06696009636 0.0490010768687969 -0.1598170800655018 -1.1290113273968 2.032985729003513 2.050037204598331 -0.5200046160127103 1.1399895127138917
2.07688212395 0.0490010768687969 -0.1598170800655018 -1.1290113273968 2.033123789105677 2.050037204598331 -0.5200046160127103 1.1399895127138917
2.07688212395 0.0490010768687969 -0.1598170800655018 -1.1290113273968 2.033123789105677 2.050037204598331 -0.5200046160127103 1.1399895127138917
2.08681416512 0.0490010768687969 -0.1598170800655018 -1.1290113273968 2.033123789105677 2.050037204598331 -0.5200046160127103 1.1399895127138917
2.08681416512 0.0490010768687969 -0.1598170800655018 -1.1290113273968 2.033123789105677 2.050037204598331 -0.5200046160127103 1.1399895127138917
2.09678816795 0.0490010768687969 -0.1598170800655018 -1.1290113273968 2.033123789105677 2.050037204598331 -0.5200046160127103 1.1399895127138917
2.09678816795 0.0490010768687969 -0.1598170800655018 -1.1290113273968 2.033123789105677 2.050037204598331 -0.5200046160127103 1.1399895127138917
2.10684800148 0.0490010768687969 -0.1598170800655018 -1.1290113273968 2.033123789105677 2.050037204598331 -0.5200046160127103 1.1399895127138917
2.10684800148 0.0490010768687969 -0.1598170800655018 -1.1290113273968 2.033123789105677 2.050037204598331 -0.5200046160127103 1.1399895127138917
2.11680221558 0.0490010768687969 -0.1598170800655018 -1.1290113273968 2.033307869241897 2.050037204598331 -0.5200046160127103 1.1399895127138917
2.11680221558 0.0490010768687969 -0.1598170800655018 -1.1290113273968 2.033307869241897 2.050037204598331 -0.5200046160127103 1.1399895127138917
2.12676215172 0.0490010768687969 -0.1598170800655018 -1.1290113273968 2.033307869241897 2.050037204598331 -0.5200046160127103 1.1399895127138917
2.12676215172 0.0490010768687969 -0.1598170800655018 -1.1290113273968 2.033307869241897 2.050037204598331 -0.5200046160127103 1.1399895127138917
2.1367661953 0.0490164168801485 -0.1598170800655018 -1.1290726874422063 2.033691369525687 2.050037204598331 -0.5200046160127103 1.1399895127138917
2.1367661953 0.0490164168801485 -0.1598170800655018 -1.1290726874422063 2.033691369525687 2.050037204598331 -0.5200046160127103 1.1399895127138917
2.14688920975 0.0490164168801485 -0.1598170800655018 -1.1290726874422063 2.033691369525687 2.050037204598331 -0.5200046160127103 1.1399895127138917
2.14688920975 0.0490164168801485 -0.1598170800655018 -1.1290726874422063 2.033691369525687 2.050037204598331 -0.5200046160127103 1.1399895127138917
2.15679812431 0.0490164168801485 -0.1598170800655018 -1.129088027453558 2.034443030081916 2.050046335517449 -0.5200046160127103 1.1399895127138917
2.15679812431 0.0490164168801485 -0.1598170800655018 -1.129088027453558 2.034443030081916 2.050046335517449 -0.5200046160127103 1.1399895127138917
2.16678118706 0.0490470969028517 -0.1598170800655018 -1.129088027453558 2.035378770774364 2.050037204598331 -0.5200046160127103 1.1399895127138917
2.16678118706 0.0490470969028517 -0.1598170800655018 -1.129088027453558 2.035378770774364 2.050037204598331 -0.5200046160127103 1.1399895127138917
2.17681717873 0.049077776925555 -0.1598170800655018 -1.129088027453558 2.036345191489515 2.050037204598331 -0.5200046160127103 1.1399895127138917
2.17681717873 0.049077776925555 -0.1598170800655018 -1.129088027453558 2.036345191489515 2.050037204598331 -0.5200046160127103 1.1399895127138917
2.18690919876 0.049077776925555 -0.1598170800655018 -1.129088027453558 2.036345191489515 2.050037204598331 -0.5200046160127103 1.1399895127138917
2.18690919876 0.049077776925555 -0.1598170800655018 -1.129088027453558 2.036345191489515 2.050037204598331 -0.5200046160127103 1.1399895127138917
2.19682908058 0.049077776925555 -0.1598170800655018 -1.129088027453558 2.037372972250073 2.050037204598331 -0.5200046160127103 1.1399895127138917
2.19682908058 0.049077776925555 -0.1598170800655018 -1.129088027453558 2.037372972250073 2.050037204598331 -0.5200046160127103 1.1399895127138917
2.20677518845 0.049077776925555 -0.1598170800655018 -1.129088027453558 2.037372972250073 2.050037204598331 -0.5200046160127103 1.1399895127138917
2.20677518845 0.049077776925555 -0.1598170800655018 -1.129088027453558 2.037372972250073 2.050037204598331 -0.5200046160127103 1.1399895127138917
2.2169611454 0.049077776925555 -0.1598170800655018 -1.129088027453558 2.037372972250073 2.050037204598331 -0.5200046160127103 1.1399895127138917
2.2169611454 0.049077776925555 -0.1598170800655018 -1.129088027453558 2.037372972250073 2.050037204598331 -0.5200046160127103 1.1399895127138917
2.22682309151 0.049077776925555 -0.1598170800655018 -1.129088027453558 2.037372972250073 2.050037204598331 -0.5200046160127103 1.1399895127138917
2.22682309151 0.049077776925555 -0.1598170800655018 -1.129088027453558 2.037372972250073 2.050037204598331 -0.5200046160127103 1.1399895127138917
2.23682498932 0.049077776925555 -0.1598170800655018 -1.1291033674649096 2.039459213793892 2.050037204598331 -0.5200046160127103 1.1399895127138917
2.23682498932 0.049077776925555 -0.1598170800655018 -1.1291033674649096 2.039459213793892 2.050037204598331 -0.5200046160127103 1.1399895127138917
2.24712300301 0.049077776925555 -0.1598170800655018 -1.1291033674649096 2.039459213793892 2.050037204598331 -0.5200046160127103 1.1399895127138917
2.24712300301 0.049077776925555 -0.1598170800655018 -1.1291033674649096 2.039459213793892 2.050037204598331 -0.5200046160127103 1.1399895127138917
2.25717115402 0.049077776925555 -0.1598170800655018 -1.1291033674649096 2.039459213793892 2.050037204598331 -0.5200046160127103 1.1399895127138917
2.25717115402 0.049077776925555 -0.1598170800655018 -1.1291033674649096 2.039459213793892 2.050037204598331 -0.5200046160127103 1.1399895127138917
2.26722002029 0.049077776925555 -0.1598170800655018 -1.1291033674649096 2.039459213793892 2.050037204598331 -0.5200046160127103 1.1399895127138917
2.26722002029 0.049077776925555 -0.1598170800655018 -1.1291033674649096 2.039459213793892 2.050037204598331 -0.5200046160127103 1.1399895127138917
2.27692508698 0.049077776925555 -0.1598170800655018 -1.1291033674649096 2.0407477747474267 2.050037204598331 -0.5200046160127103 1.1399895127138917
2.27692508698 0.049077776925555 -0.1598170800655018 -1.1291033674649096 2.0407477747474267 2.050037204598331 -0.5200046160127103 1.1399895127138917
2.28700113297 0.049077776925555 -0.1598170800655018 -1.1291033674649096 2.0407477747474267 2.050037204598331 -0.5200046160127103 1.1399895127138917
2.28700113297 0.049077776925555 -0.1598170800655018 -1.1291033674649096 2.0407477747474267 2.050037204598331 -0.5200046160127103 1.1399895127138917
2.29687404633 0.049077776925555 -0.1598170800655018 -1.1291033674649096 2.0407477747474267 2.050037204598331 -0.5200046160127103 1.1399895127138917
2.29687404633 0.049077776925555 -0.1598170800655018 -1.1291033674649096 2.0407477747474267 2.050037204598331 -0.5200046160127103 1.1399895127138917
2.30721402168 0.049077776925555 -0.1598170800655018 -1.1291033674649096 2.0407477747474267 2.050037204598331 -0.5200046160127103 1.1399895127138917
2.30721402168 0.049077776925555 -0.1598170800655018 -1.1291033674649096 2.0407477747474267 2.050037204598331 -0.5200046160127103 1.1399895127138917
2.31715416908 0.049077776925555 -0.1598170800655018 -1.1291187074762612 2.042389155962049 2.050037204598331 -0.5200046160127103 1.1399895127138917
2.31715416908 0.049077776925555 -0.1598170800655018 -1.1291187074762612 2.042389155962049 2.050037204598331 -0.5200046160127103 1.1399895127138917
2.32700800896 0.049077776925555 -0.1598170800655018 -1.1291493874989644 2.0443680174264065 2.050037204598331 -0.5200046160127103 1.1399895127138917
2.32700800896 0.049077776925555 -0.1598170800655018 -1.1291493874989644 2.0443680174264065 2.050037204598331 -0.5200046160127103 1.1399895127138917
2.33700799942 0.049077776925555 -0.1598170800655018 -1.1291493874989644 2.0443680174264065 2.050037204598331 -0.5200046160127103 1.1399895127138917
2.33700799942 0.049077776925555 -0.1598170800655018 -1.1291493874989644 2.0443680174264065 2.050037204598331 -0.5200046160127103 1.1399895127138917
2.34716105461 0.049077776925555 -0.1598170800655018 -1.1291493874989644 2.0443680174264065 2.050037204598331 -0.5200046160127103 1.1399895127138917
2.34716105461 0.049077776925555 -0.1598170800655018 -1.1291493874989644 2.0443680174264065 2.050037204598331 -0.5200046160127103 1.1399895127138917
2.35720801353 0.049077776925555 -0.1598170800655018 -1.1291493874989644 2.0443680174264065 2.050037204598331 -0.5200046160127103 1.1399895127138917
2.35720801353 0.049077776925555 -0.1598170800655018 -1.1291493874989644 2.0443680174264065 2.050037204598331 -0.5200046160127103 1.1399895127138917
2.36721420288 0.049077776925555 -0.1598170800655018 -1.1291493874989644 2.0443680174264065 2.050037204598331 -0.5200046160127103 1.1399895127138917
2.36721420288 0.049077776925555 -0.1598170800655018 -1.1291493874989644 2.0443680174264065 2.050037204598331 -0.5200046160127103 1.1399895127138917
2.37724399567 0.049077776925555 -0.1598170800655018 -1.1291493874989644 2.0443680174264065 2.050037204598331 -0.5200046160127103 1.1399895127138917
2.37724399567 0.049077776925555 -0.1598170800655018 -1.1291493874989644 2.0443680174264065 2.050037204598331 -0.5200046160127103 1.1399895127138917
2.38703918457 0.049077776925555 -0.1597403800087438 -1.1291800675216677 2.048739920661615 2.050037204598331 -0.5200046160127103 1.1399895127138917
2.38703918457 0.049077776925555 -0.1597403800087438 -1.1291800675216677 2.048739920661615 2.050037204598331 -0.5200046160127103 1.1399895127138917
2.39696907997 0.049077776925555 -0.1597403800087438 -1.1291800675216677 2.048739920661615 2.050037204598331 -0.5200046160127103 1.1399895127138917
2.39696907997 0.049077776925555 -0.1597403800087438 -1.1291800675216677 2.048739920661615 2.050037204598331 -0.5200046160127103 1.1399895127138917
2.40702605247 0.049077776925555 -0.1597403800087438 -1.1291800675216677 2.048739920661615 2.050037204598331 -0.5200046160127103 1.1399895127138917
2.40702605247 0.049077776925555 -0.1597403800087438 -1.1291800675216677 2.048739920661615 2.050037204598331 -0.5200046160127103 1.1399895127138917
2.41707801819 0.049108456948258 -0.1595869798952277 -1.129210747544371 2.052759003635736 2.050037204598331 -0.5200046160127103 1.1399895127138917
2.41707801819 0.049108456948258 -0.1595869798952277 -1.129210747544371 2.052759003635736 2.050037204598331 -0.5200046160127103 1.1399895127138917
2.42719101906 0.049108456948258 -0.1595869798952277 -1.129210747544371 2.052759003635736 2.050037204598331 -0.5200046160127103 1.1399895127138917
2.42719101906 0.049108456948258 -0.1595869798952277 -1.129210747544371 2.052759003635736 2.050037204598331 -0.5200046160127103 1.1399895127138917
2.43706917763 0.0491391369709612 -0.15941823977036 -1.129210747544371 2.0544003848503585 2.050037204598331 -0.5200046160127103 1.1399895127138917
2.43706917763 0.0491391369709612 -0.15941823977036 -1.129210747544371 2.0544003848503585 2.050037204598331 -0.5200046160127103 1.1399895127138917
2.44713902473 0.0491698169936644 -0.1590960995319763 -1.1292260875557223 2.055627585758487 2.050037204598331 -0.5200046160127103 1.1399895127138917
2.44713902473 0.0491698169936644 -0.1590960995319763 -1.1292260875557223 2.055627585758487 2.050037204598331 -0.5200046160127103 1.1399895127138917
2.45728707314 0.0491698169936644 -0.1590960995319763 -1.1292260875557223 2.055627585758487 2.050037204598331 -0.5200046160127103 1.1399895127138917
2.45728707314 0.0491698169936644 -0.1590960995319763 -1.1292260875557223 2.055627585758487 2.050037204598331 -0.5200046160127103 1.1399895127138917
2.46711111069 0.0491698169936644 -0.1590960995319763 -1.1292260875557223 2.055627585758487 2.050037204598331 -0.5200046160127103 1.1399895127138917
2.46711111069 0.0491698169936644 -0.1590960995319763 -1.1292260875557223 2.055627585758487 2.050037204598331 -0.5200046160127103 1.1399895127138917
2.47723913193 0.0491698169936644 -0.1590960995319763 -1.1292260875557223 2.055627585758487 2.050037204598331 -0.5200046160127103 1.1399895127138917
2.47723913193 0.0491698169936644 -0.1590960995319763 -1.1292260875557223 2.055627585758487 2.050037204598331 -0.5200046160127103 1.1399895127138917
2.48727011681 0.0491698169936644 -0.1590960995319763 -1.1292260875557223 2.055627585758487 2.050037204598331 -0.5200046160127103 1.1399895127138917
2.48727011681 0.0491698169936644 -0.1590960995319763 -1.1292260875557223 2.055627585758487 2.050037204598331 -0.5200046160127103 1.1399895127138917
2.49711108208 0.0492158370277193 -0.1583904590098022 -1.129379487669239 2.056409926337419 2.050037204598331 -0.5200046160127103 1.1399895127138917
2.49711108208 0.0492158370277193 -0.1583904590098022 -1.129379487669239 2.056409926337419 2.050037204598331 -0.5200046160127103 1.1399895127138917
2.50702619553 0.049537977266103 -0.1540032157632422 -1.130499308497906 2.057667807268251 2.050037204598331 -0.5200046160127103 1.1399895127138917
2.50702619553 0.049537977266103 -0.1540032157632422 -1.130499308497906 2.057667807268251 2.050037204598331 -0.5200046160127103 1.1399895127138917
2.5170340538 0.0496606973569159 -0.1522544544691589 -1.1312663090654864 2.0576831472796027 2.050037204598331 -0.5200046160127103 1.1399895127138917
2.5170340538 0.0496606973569159 -0.1522544544691589 -1.1312663090654864 2.0576831472796027 2.050037204598331 -0.5200046160127103 1.1399895127138917
2.52703118324 0.0498140974704321 -0.1506590932885916 -1.13253953000767 2.057713827302306 2.050037204598331 -0.5200046160127103 1.1399895127138917
2.52703118324 0.0498140974704321 -0.1506590932885916 -1.13253953000767 2.057713827302306 2.050037204598331 -0.5200046160127103 1.1399895127138917
2.53685522079 0.0498140974704321 -0.1506590932885916 -1.13253953000767 2.057713827302306 2.050037204598331 -0.5200046160127103 1.1399895127138917
2.53685522079 0.0498140974704321 -0.1506590932885916 -1.13253953000767 2.057713827302306 2.050037204598331 -0.5200046160127103 1.1399895127138917
2.54684400558 0.0498140974704321 -0.1506590932885916 -1.13253953000767 2.057713827302306 2.050037204598331 -0.5200046160127103 1.1399895127138917
2.54684400558 0.0498140974704321 -0.1506590932885916 -1.13253953000767 2.057713827302306 2.050037204598331 -0.5200046160127103 1.1399895127138917
2.55679321289 0.0498140974704321 -0.1506590932885916 -1.13253953000767 2.057713827302306 2.050037204598331 -0.5200046160127103 1.1399895127138917
2.55679321289 0.0498140974704321 -0.1506590932885916 -1.13253953000767 2.057713827302306 2.050037204598331 -0.5200046160127103 1.1399895127138917
2.56679821014 0.0498140974704321 -0.1506590932885916 -1.13253953000767 2.057713827302306 2.050037204598331 -0.5200046160127103 1.1399895127138917
2.56679821014 0.0498140974704321 -0.1506590932885916 -1.13253953000767 2.057713827302306 2.050037204598331 -0.5200046160127103 1.1399895127138917
2.57686305046 0.0502742978109804 -0.1480819713815214 -1.1361597726866497 2.057744507325009 2.050037204598331 -0.5200046160127103 1.1399895127138917
2.57686305046 0.0502742978109804 -0.1480819713815214 -1.1361597726866497 2.057744507325009 2.050037204598331 -0.5200046160127103 1.1399895127138917
2.58698511124 0.0502742978109804 -0.1480819713815214 -1.1361597726866497 2.057744507325009 2.050037204598331 -0.5200046160127103 1.1399895127138917
2.58698511124 0.0502742978109804 -0.1480819713815214 -1.1361597726866497 2.057744507325009 2.050037204598331 -0.5200046160127103 1.1399895127138917
2.59688210487 0.0502742978109804 -0.1480819713815214 -1.1361597726866497 2.057744507325009 2.050037204598331 -0.5200046160127103 1.1399895127138917
2.59688210487 0.0502742978109804 -0.1480819713815214 -1.1361597726866497 2.057744507325009 2.050037204598331 -0.5200046160127103 1.1399895127138917
2.60683512688 0.0505504180153093 -0.1470541906209636 -1.1386141745029068 2.0577598473363605 2.050037204598331 -0.5200046160127103 1.1399895127138917
2.60683512688 0.0505504180153093 -0.1470541906209636 -1.1386141745029068 2.0577598473363605 2.050037204598331 -0.5200046160127103 1.1399895127138917
2.61688899994 0.0505504180153093 -0.1470541906209636 -1.1386141745029068 2.0577598473363605 2.050037204598331 -0.5200046160127103 1.1399895127138917
2.61688899994 0.0505504180153093 -0.1470541906209636 -1.1386141745029068 2.0577598473363605 2.050037204598331 -0.5200046160127103 1.1399895127138917
2.62694811821 0.0505504180153093 -0.1470541906209636 -1.1386141745029068 2.0577598473363605 2.050037204598331 -0.5200046160127103 1.1399895127138917
2.62694811821 0.0505504180153093 -0.1470541906209636 -1.1386141745029068 2.0577598473363605 2.050037204598331 -0.5200046160127103 1.1399895127138917
2.63685417175 0.0505504180153093 -0.1470541906209636 -1.1386141745029068 2.0577598473363605 2.050037204598331 -0.5200046160127103 1.1399895127138917
2.63685417175 0.0505504180153093 -0.1470541906209636 -1.1386141745029068 2.0577598473363605 2.050037204598331 -0.5200046160127103 1.1399895127138917
2.64718914032 0.0509799383331543 -0.145980389826351 -1.140884496182945 2.0577751873477124 2.050037204598331 -0.5200046160127103 1.1399895127138917
2.64718914032 0.0509799383331543 -0.145980389826351 -1.140884496182945 2.0577751873477124 2.050037204598331 -0.5200046160127103 1.1399895127138917
2.65718817711 0.0509799383331543 -0.145980389826351 -1.140884496182945 2.0577751873477124 2.050037204598331 -0.5200046160127103 1.1399895127138917
2.65718817711 0.0509799383331543 -0.145980389826351 -1.140884496182945 2.0577751873477124 2.050037204598331 -0.5200046160127103 1.1399895127138917
2.66706418991 0.0509799383331543 -0.145980389826351 -1.140884496182945 2.0577751873477124 2.050037204598331 -0.5200046160127103 1.1399895127138917
2.66706418991 0.0509799383331543 -0.145980389826351 -1.140884496182945 2.0577751873477124 2.050037204598331 -0.5200046160127103 1.1399895127138917
2.67718911171 0.0517009188666798 -0.1447685289295739 -1.142955397715412 2.0578518874044702 2.050037204598331 -0.5200046160127103 1.1399895127138917
2.67718911171 0.0517009188666798 -0.1447685289295739 -1.142955397715412 2.0578518874044702 2.050037204598331 -0.5200046160127103 1.1399895127138917
2.68714404106 0.0533576400926536 -0.1424215071927779 -1.1471278808030496 2.058342767767721 2.050037204598331 -0.5200046160127103 1.1399895127138917
2.68714404106 0.0533576400926536 -0.1424215071927779 -1.1471278808030496 2.058342767767721 2.050037204598331 -0.5200046160127103 1.1399895127138917
2.69717621803 0.0533576400926536 -0.1424215071927779 -1.1471278808030496 2.058342767767721 2.050037204598331 -0.5200046160127103 1.1399895127138917
2.69717621803 0.0533576400926536 -0.1424215071927779 -1.1471278808030496 2.058342767767721 2.050037204598331 -0.5200046160127103 1.1399895127138917
2.70713806152 0.0533576400926536 -0.1424215071927779 -1.1471278808030496 2.058342767767721 2.050037204598331 -0.5200046160127103 1.1399895127138917
2.70713806152 0.0533576400926536 -0.1424215071927779 -1.1471278808030496 2.058342767767721 2.050037204598331 -0.5200046160127103 1.1399895127138917
2.71688008308 0.0543394008191566 -0.1413937264322202 -1.1496743226874164 2.058879668165028 2.050037204598331 -0.5200046160127103 1.1399895127138917
2.71688008308 0.0543394008191566 -0.1413937264322202 -1.1496743226874164 2.058879668165028 2.050037204598331 -0.5200046160127103 1.1399895127138917
2.72682905197 0.0553058215343078 -0.1404426457284204 -1.1525582448215188 2.059738708800718 2.050037204598331 -0.5200046160127103 1.1399895127138917
2.72682905197 0.0553058215343078 -0.1404426457284204 -1.1525582448215188 2.059738708800718 2.050037204598331 -0.5200046160127103 1.1399895127138917
2.73686218262 0.0553058215343078 -0.1404426457284204 -1.1525582448215188 2.059738708800718 2.050037204598331 -0.5200046160127103 1.1399895127138917
2.73686218262 0.0553058215343078 -0.1404426457284204 -1.1525582448215188 2.059738708800718 2.050037204598331 -0.5200046160127103 1.1399895127138917
2.74676299095 0.0553058215343078 -0.1404426457284204 -1.1525582448215188 2.059738708800718 2.050037204598331 -0.5200046160127103 1.1399895127138917
2.74676299095 0.0553058215343078 -0.1404426457284204 -1.1525582448215188 2.059738708800718 2.050037204598331 -0.5200046160127103 1.1399895127138917
2.75675415993 0.0553058215343078 -0.1404426457284204 -1.1525582448215188 2.059738708800718 2.050037204598331 -0.5200046160127103 1.1399895127138917
2.75675415993 0.0553058215343078 -0.1404426457284204 -1.1525582448215188 2.059738708800718 2.050037204598331 -0.5200046160127103 1.1399895127138917
2.76712608337 0.0553058215343078 -0.1404426457284204 -1.1525582448215188 2.059738708800718 2.050037204598331 -0.5200046160127103 1.1399895127138917
2.76712608337 0.0553058215343078 -0.1404426457284204 -1.1525582448215188 2.059738708800718 2.050037204598331 -0.5200046160127103 1.1399895127138917
2.77702522278 0.0563336022948656 -0.1394302049792142 -1.1560097473756308 2.0608585296293853 2.050037204598331 -0.5200046160127103 1.1399895127138917
2.77702522278 0.0563336022948656 -0.1394302049792142 -1.1560097473756308 2.0608585296293853 2.050037204598331 -0.5200046160127103 1.1399895127138917
2.7870349884 0.0583738238046295 -0.1375740636056696 -1.1636950930627863 2.063466331559159 2.050037204598331 -0.5200046160127103 1.1399895127138917
2.7870349884 0.0583738238046295 -0.1375740636056696 -1.1636950930627863 2.063466331559159 2.050037204598331 -0.5200046160127103 1.1399895127138917
2.798153162 0.0591715043949132 -0.136929783128902 -1.167714176036908 2.064938972648913 2.050037204598331 -0.5200046160127103 1.1399895127138917
2.798153162 0.0591715043949132 -0.136929783128902 -1.167714176036908 2.064938972648913 2.050037204598331 -0.5200046160127103 1.1399895127138917
2.80701804161 0.0600305450306033 -0.1362088025953765 -1.1721474393175229 2.066442293761371 2.050037204598331 -0.5200091814722694 1.1399849472543326
2.80701804161 0.0600305450306033 -0.1362088025953765 -1.1721474393175229 2.066442293761371 2.050037204598331 -0.5200091814722694 1.1399849472543326
2.81709599495 0.0600305450306033 -0.1362088025953765 -1.1721474393175229 2.066442293761371 2.050037204598331 -0.5200091814722694 1.1399849472543326
2.81709599495 0.0600305450306033 -0.1362088025953765 -1.1721474393175229 2.066442293761371 2.050037204598331 -0.5200091814722694 1.1399849472543326
2.82692503929 0.0600305450306033 -0.1362088025953765 -1.1721474393175229 2.066442293761371 2.050037204598331 -0.5200091814722694 1.1399849472543326
2.82692503929 0.0600305450306033 -0.1362088025953765 -1.1721474393175229 2.066442293761371 2.050037204598331 -0.5200091814722694 1.1399849472543326
2.83695316315 0.0600305450306033 -0.1362088025953765 -1.1721474393175229 2.066442293761371 2.050037204598331 -0.5200091814722694 1.1399849472543326
2.83695316315 0.0600305450306033 -0.1362088025953765 -1.1721474393175229 2.066442293761371 2.050037204598331 -0.5200091814722694 1.1399849472543326
2.84678316116 0.0600305450306033 -0.1362088025953765 -1.1721474393175229 2.066442293761371 2.050037204598331 -0.5200091814722694 1.1399849472543326
2.84678316116 0.0600305450306033 -0.1362088025953765 -1.1721474393175229 2.066442293761371 2.050037204598331 -0.5200091814722694 1.1399849472543326
2.85681509972 0.0600305450306033 -0.1362088025953765 -1.1721474393175229 2.066442293761371 2.050037204598331 -0.5200091814722694 1.1399849472543326
2.85681509972 0.0600305450306033 -0.1362088025953765 -1.1721474393175229 2.066442293761371 2.050037204598331 -0.5200091814722694 1.1399849472543326
2.86681318283 0.0600305450306033 -0.1362088025953765 -1.1721474393175229 2.066442293761371 2.050037204598331 -0.5200091814722694 1.1399849472543326
2.86681318283 0.0600305450306033 -0.1362088025953765 -1.1721474393175229 2.066442293761371 2.050037204598331 -0.5200091814722694 1.1399849472543326
2.87685012817 0.0600305450306033 -0.1362088025953765 -1.1721474393175229 2.066442293761371 2.050037204598331 -0.5200091814722694 1.1399849472543326
2.87685012817 0.0600305450306033 -0.1362088025953765 -1.1721474393175229 2.066442293761371 2.050037204598331 -0.5200091814722694 1.1399849472543326
2.88679218292 0.0634053475279571 -0.1342913011764254 -1.1843274083306998 2.070031856417647 2.050037204598331 -0.5200046160127103 1.1399895127138917
2.88679218292 0.0634053475279571 -0.1342913011764254 -1.1843274083306998 2.070031856417647 2.050037204598331 -0.5200046160127103 1.1399895127138917
2.89685201645 0.0634053475279571 -0.1342913011764254 -1.1843274083306998 2.070031856417647 2.050037204598331 -0.5200046160127103 1.1399895127138917
2.89685201645 0.0634053475279571 -0.1342913011764254 -1.1843274083306998 2.070031856417647 2.050037204598331 -0.5200046160127103 1.1399895127138917
2.90679812431 0.0643564282317567 -0.1333402204726257 -1.1885459114523922 2.071044297166853 2.050037204598331 -0.5200046160127103 1.1399895127138917
2.90679812431 0.0643564282317567 -0.1333402204726257 -1.1885459114523922 2.071044297166853 2.050037204598331 -0.5200046160127103 1.1399895127138917
2.91685318947 0.0643564282317567 -0.1333402204726257 -1.1885459114523922 2.071044297166853 2.050037204598331 -0.5200046160127103 1.1399895127138917
2.91685318947 0.0643564282317567 -0.1333402204726257 -1.1885459114523922 2.071044297166853 2.050037204598331 -0.5200046160127103 1.1399895127138917
2.92684602737 0.0643564282317567 -0.1333402204726257 -1.1885459114523922 2.071044297166853 2.050037204598331 -0.5200046160127103 1.1399895127138917
2.92684602737 0.0643564282317567 -0.1333402204726257 -1.1885459114523922 2.071044297166853 2.050037204598331 -0.5200046160127103 1.1399895127138917
2.93684601784 0.0654762490604243 -0.1324811798369357 -1.1926416944832716 2.0719033378025435 2.050037204598331 -0.5200046160127103 1.1399895127138917
2.93684601784 0.0654762490604243 -0.1324811798369357 -1.1926416944832716 2.0719033378025435 2.050037204598331 -0.5200046160127103 1.1399895127138917
2.94683408737 0.0666267499117949 -0.1312999989628618 -1.197213017866051 2.0725782983020142 2.050037204598331 -0.5200046160127103 1.1399895127138917
2.94683408737 0.0666267499117949 -0.1312999989628618 -1.197213017866051 2.0725782983020142 2.050037204598331 -0.5200046160127103 1.1399895127138917
2.95695400238 0.0666267499117949 -0.1312999989628618 -1.197213017866051 2.0725782983020142 2.050037204598331 -0.5200046160127103 1.1399895127138917
2.95695400238 0.0666267499117949 -0.1312999989628618 -1.197213017866051 2.0725782983020142 2.050037204598331 -0.5200046160127103 1.1399895127138917
2.96692299843 0.0666267499117949 -0.1312999989628618 -1.197213017866051 2.0725782983020142 2.050037204598331 -0.5200046160127103 1.1399895127138917
2.96692299843 0.0666267499117949 -0.1312999989628618 -1.197213017866051 2.0725782983020142 2.050037204598331 -0.5200046160127103 1.1399895127138917
2.9768371582 0.0666267499117949 -0.1312999989628618 -1.197213017866051 2.0725782983020142 2.050037204598331 -0.5200046160127103 1.1399895127138917
2.9768371582 0.0666267499117949 -0.1312999989628618 -1.197213017866051 2.0725782983020142 2.050037204598331 -0.5200046160127103 1.1399895127138917
2.98689103127 0.0670562702296399 -0.1299347379525686 -1.2015542410785562 2.073023158631211 2.050037204598331 -0.5200046160127103 1.1399895127138917
2.98689103127 0.0670562702296399 -0.1299347379525686 -1.2015542410785562 2.073023158631211 2.050037204598331 -0.5200046160127103 1.1399895127138917
2.99682998657 0.067363070456672 -0.1276644162725306 -1.2058034242229516 2.0735447190171654 2.050037204598331 -0.5200046160127103 1.1399895127138917
2.99682998657 0.067363070456672 -0.1276644162725306 -1.2058034242229516 2.0735447190171654 2.050037204598331 -0.5200046160127103 1.1399895127138917
3.00681114197 0.067363070456672 -0.1276644162725306 -1.2058034242229516 2.0735447190171654 2.050037204598331 -0.5200046160127103 1.1399895127138917
3.00681114197 0.067363070456672 -0.1276644162725306 -1.2058034242229516 2.0735447190171654 2.050037204598331 -0.5200046160127103 1.1399895127138917
3.01690602303 0.0685289113193942 -0.1253327345470862 -1.2094543469246344 2.074173659482581 2.050037204598331 -0.5200046160127103 1.1399895127138917
3.01690602303 0.0685289113193942 -0.1253327345470862 -1.2094543469246344 2.074173659482581 2.050037204598331 -0.5200046160127103 1.1399895127138917
3.02686405182 0.0685289113193942 -0.1253327345470862 -1.2094543469246344 2.074173659482581 2.050037204598331 -0.5200046160127103 1.1399895127138917
3.02686405182 0.0685289113193942 -0.1253327345470862 -1.2094543469246344 2.074173659482581 2.050037204598331 -0.5200046160127103 1.1399895127138917
3.03674006462 0.0685289113193942 -0.1253327345470862 -1.2094543469246344 2.074173659482581 2.050037204598331 -0.5200046160127103 1.1399895127138917
3.03674006462 0.0685289113193942 -0.1253327345470862 -1.2094543469246344 2.074173659482581 2.050037204598331 -0.5200046160127103 1.1399895127138917
3.0468981266 0.069602712114007 -0.1222954122994676 -1.2136575100349751 2.0746798798571846 2.050037204598331 -0.5200046160127103 1.1399895127138917
3.0468981266 0.069602712114007 -0.1222954122994676 -1.2136575100349751 2.0746798798571846 2.050037204598331 -0.5200046160127103 1.1399895127138917
3.05684900284 0.0703083526361809 -0.1192887700745524 -1.2174004728047676 2.0749253200388105 2.050037204598331 -0.5200046160127103 1.1399895127138917
3.05684900284 0.0703083526361809 -0.1192887700745524 -1.2174004728047676 2.0749253200388105 2.050037204598331 -0.5200046160127103 1.1399895127138917
3.06687617302 0.071044673181058 -0.1161287277361211 -1.2216343159378116 2.07510940017503 2.050046335517449 -0.5200046160127103 1.1399895127138917
3.06687617302 0.071044673181058 -0.1161287277361211 -1.2216343159378116 2.07510940017503 2.050046335517449 -0.5200046160127103 1.1399895127138917
3.07679915428 0.071044673181058 -0.1161287277361211 -1.2216343159378116 2.07510940017503 2.050046335517449 -0.5200046160127103 1.1399895127138917
3.07679915428 0.071044673181058 -0.1161287277361211 -1.2216343159378116 2.07510940017503 2.050046335517449 -0.5200046160127103 1.1399895127138917
3.08682608604 0.071044673181058 -0.1161287277361211 -1.2216343159378116 2.07510940017503 2.050046335517449 -0.5200046160127103 1.1399895127138917
3.08682608604 0.071044673181058 -0.1161287277361211 -1.2216343159378116 2.07510940017503 2.050046335517449 -0.5200046160127103 1.1399895127138917
3.09678506851 0.0732382948043381 -0.1090263024803264 -1.2302554023174157 2.0755082404701715 2.050046335517449 -0.5200046160127103 1.1399895127138917
3.09678506851 0.0732382948043381 -0.1090263024803264 -1.2302554023174157 2.0755082404701715 2.050046335517449 -0.5200046160127103 1.1399895127138917
3.10680508614 0.0732382948043381 -0.1090263024803264 -1.2302554023174157 2.0755082404701715 2.050046335517449 -0.5200046160127103 1.1399895127138917
3.10680508614 0.0732382948043381 -0.1090263024803264 -1.2302554023174157 2.0755082404701715 2.050046335517449 -0.5200046160127103 1.1399895127138917
3.11684799194 0.0743427756216538 -0.1054520798354016 -1.2348880857456013 2.0757690206631487 2.050219822980697 -0.5200046160127103 1.1399895127138917
3.11684799194 0.0743427756216538 -0.1054520798354016 -1.2348880857456013 2.0757690206631487 2.050219822980697 -0.5200046160127103 1.1399895127138917
3.1269030571 0.0756773566092438 -0.1018164971450704 -1.2390912488559418 2.075999120833423 2.0502106920615786 -0.5200046160127103 1.1399895127138917
3.1269030571 0.0756773566092438 -0.1018164971450704 -1.2390912488559418 2.075999120833423 2.0502106920615786 -0.5200046160127103 1.1399895127138917
3.13684415817 0.0756773566092438 -0.1018164971450704 -1.2390912488559418 2.075999120833423 2.0502106920615786 -0.5200046160127103 1.1399895127138917
3.13684415817 0.0756773566092438 -0.1018164971450704 -1.2390912488559418 2.075999120833423 2.0502106920615786 -0.5200046160127103 1.1399895127138917
3.14683818817 0.0756773566092438 -0.1018164971450704 -1.2390912488559418 2.075999120833423 2.0502106920615786 -0.5200046160127103 1.1399895127138917
3.14683818817 0.0756773566092438 -0.1018164971450704 -1.2390912488559418 2.075999120833423 2.0502106920615786 -0.5200046160127103 1.1399895127138917
3.15708017349 0.0756773566092438 -0.1018164971450704 -1.2390912488559418 2.075999120833423 2.0502106920615786 -0.5200046160127103 1.1399895127138917
3.15708017349 0.0756773566092438 -0.1018164971450704 -1.2390912488559418 2.075999120833423 2.0502106920615786 -0.5200046160127103 1.1399895127138917
3.16683316231 0.0756773566092438 -0.1018164971450704 -1.2390912488559418 2.075999120833423 2.0502106920615786 -0.5200046160127103 1.1399895127138917
3.16683316231 0.0756773566092438 -0.1018164971450704 -1.2390912488559418 2.075999120833423 2.0502106920615786 -0.5200046160127103 1.1399895127138917
3.17683005333 0.0756773566092438 -0.1018164971450704 -1.2390912488559418 2.075999120833423 2.0502106920615786 -0.5200046160127103 1.1399895127138917
3.17683005333 0.0756773566092438 -0.1018164971450704 -1.2390912488559418 2.075999120833423 2.0502106920615786 -0.5200046160127103 1.1399895127138917
3.18677806854 0.0806321802758133 -0.0917381096870637 -1.2532347393221248 2.077226321741552 2.050137644708632 -0.5200046160127103 1.1399895127138917
3.18677806854 0.0806321802758133 -0.0917381096870637 -1.2532347393221248 2.077226321741552 2.050137644708632 -0.5200046160127103 1.1399895127138917
3.19694209099 0.0806321802758133 -0.0917381096870637 -1.2532347393221248 2.077226321741552 2.050137644708632 -0.5200046160127103 1.1399895127138917
3.19694209099 0.0806321802758133 -0.0917381096870637 -1.2532347393221248 2.077226321741552 2.050137644708632 -0.5200046160127103 1.1399895127138917
3.20681905746 0.0819821012747549 -0.0888388475416097 -1.2581742229773427 2.077533121968584 2.050128513789514 -0.5200046160127103 1.1399895127138917
3.20681905746 0.0819821012747549 -0.0888388475416097 -1.2581742229773427 2.077533121968584 2.050128513789514 -0.5200046160127103 1.1399895127138917
3.21716713905 0.0819821012747549 -0.0888388475416097 -1.2581742229773427 2.077533121968584 2.050128513789514 -0.5200046160127103 1.1399895127138917
3.21716713905 0.0819821012747549 -0.0888388475416097 -1.2581742229773427 2.077533121968584 2.050128513789514 -0.5200046160127103 1.1399895127138917
3.22711920738 0.0819821012747549 -0.0888388475416097 -1.2581742229773427 2.077533121968584 2.050128513789514 -0.5200046160127103 1.1399895127138917
3.22711920738 0.0819821012747549 -0.0888388475416097 -1.2581742229773427 2.077533121968584 2.050128513789514 -0.5200046160127103 1.1399895127138917
3.23719906807 0.0819821012747549 -0.0888388475416097 -1.2581742229773427 2.077533121968584 2.050128513789514 -0.5200046160127103 1.1399895127138917
3.23719906807 0.0819821012747549 -0.0888388475416097 -1.2581742229773427 2.077533121968584 2.050128513789514 -0.5200046160127103 1.1399895127138917
3.24717998505 0.0819821012747549 -0.0888388475416097 -1.2581742229773427 2.077533121968584 2.050128513789514 -0.5200046160127103 1.1399895127138917
3.24717998505 0.0819821012747549 -0.0888388475416097 -1.2581742229773427 2.077533121968584 2.050128513789514 -0.5200046160127103 1.1399895127138917
3.25705313683 0.0845899032045282 -0.0835772236480081 -1.2688662108894138 2.077916622252374 2.050155906546869 -0.5200046160127103 1.1399895127138917
3.25705313683 0.0845899032045282 -0.0835772236480081 -1.2688662108894138 2.077916622252374 2.050155906546869 -0.5200046160127103 1.1399895127138917
3.2669801712 0.0845899032045282 -0.0835772236480081 -1.2688662108894138 2.077916622252374 2.050155906546869 -0.5200046160127103 1.1399895127138917
3.2669801712 0.0845899032045282 -0.0835772236480081 -1.2688662108894138 2.077916622252374 2.050155906546869 -0.5200046160127103 1.1399895127138917
3.27689313889 0.0845899032045282 -0.0835772236480081 -1.2688662108894138 2.077916622252374 2.050155906546869 -0.5200046160127103 1.1399895127138917
3.27689313889 0.0845899032045282 -0.0835772236480081 -1.2688662108894138 2.077916622252374 2.050155906546869 -0.5200046160127103 1.1399895127138917
3.28710818291 0.0858017641013053 -0.0811074818203991 -1.2743119149192348 2.0779779822977806 2.050155906546869 -0.5200046160127103 1.1399895127138917
3.28710818291 0.0858017641013053 -0.0811074818203991 -1.2743119149192348 2.0779779822977806 2.050155906546869 -0.5200046160127103 1.1399895127138917
3.29701709747 0.0869062449186212 -0.0788371601403611 -1.2795428587901332 2.078008662320484 2.0502289538998157 -0.5200046160127103 1.1399895127138917
3.29701709747 0.0869062449186212 -0.0788371601403611 -1.2795428587901332 2.078008662320484 2.0502289538998157 -0.5200046160127103 1.1399895127138917
3.30704712868 0.0869062449186212 -0.0788371601403611 -1.2795428587901332 2.078008662320484 2.0502289538998157 -0.5200046160127103 1.1399895127138917
3.30704712868 0.0869062449186212 -0.0788371601403611 -1.2795428587901332 2.078008662320484 2.0502289538998157 -0.5200046160127103 1.1399895127138917
3.31723713875 0.0869062449186212 -0.0788371601403611 -1.2795428587901332 2.078008662320484 2.0502289538998157 -0.5200046160127103 1.1399895127138917
3.31723713875 0.0869062449186212 -0.0788371601403611 -1.2795428587901332 2.078008662320484 2.0502289538998157 -0.5200046160127103 1.1399895127138917
3.32716012001 0.0879953857245853 -0.0770730588349261 -1.2850039028313058 2.0780240023318357 2.050165037465987 -0.5200046160127103 1.1399895127138917
3.32716012001 0.0879953857245853 -0.0770730588349261 -1.2850039028313058 2.0780240023318357 2.050165037465987 -0.5200046160127103 1.1399895127138917
3.33713412285 0.0892992866894721 -0.0755237176884137 -1.2906030069746428 2.0780240023318357 2.0501193828703954 -0.5200046160127103 1.1399895127138917
3.33713412285 0.0892992866894721 -0.0755237176884137 -1.2906030069746428 2.0780240023318357 2.0501193828703954 -0.5200046160127103 1.1399895127138917
3.34714508057 0.0892992866894721 -0.0755237176884137 -1.2906030069746428 2.0780240023318357 2.0501193828703954 -0.5200046160127103 1.1399895127138917
3.34714508057 0.0892992866894721 -0.0755237176884137 -1.2906030069746428 2.0780240023318357 2.0501193828703954 -0.5200046160127103 1.1399895127138917
3.3572280407 0.0899435671662396 -0.0744192368710978 -1.2964935713336605 2.078039342343187 2.0502289538998157 -0.5200046160127103 1.1399895127138917
3.3572280407 0.0899435671662396 -0.0744192368710978 -1.2964935713336605 2.078039342343187 2.0502289538998157 -0.5200046160127103 1.1399895127138917
3.36722707748 0.0899435671662396 -0.0744192368710978 -1.2964935713336605 2.078039342343187 2.0502289538998157 -0.5200046160127103 1.1399895127138917
3.36722707748 0.0899435671662396 -0.0744192368710978 -1.2964935713336605 2.078039342343187 2.0502289538998157 -0.5200046160127103 1.1399895127138917
3.37705421448 0.0899435671662396 -0.0744192368710978 -1.2964935713336605 2.078039342343187 2.0502289538998157 -0.5200046160127103 1.1399895127138917
3.37705421448 0.0899435671662396 -0.0744192368710978 -1.2964935713336605 2.078039342343187 2.0502289538998157 -0.5200046160127103 1.1399895127138917
3.38690400124 0.0899435671662396 -0.0744192368710978 -1.2964935713336605 2.078039342343187 2.0502289538998157 -0.5200046160127103 1.1399895127138917
3.38690400124 0.0899435671662396 -0.0744192368710978 -1.2964935713336605 2.078039342343187 2.0502289538998157 -0.5200046160127103 1.1399895127138917
3.39700698853 0.0899435671662396 -0.0744192368710978 -1.2964935713336605 2.078039342343187 2.0502289538998157 -0.5200046160127103 1.1399895127138917
3.39700698853 0.0899435671662396 -0.0744192368710978 -1.2964935713336605 2.078039342343187 2.0502289538998157 -0.5200046160127103 1.1399895127138917
3.40834307671 0.0899435671662396 -0.0744192368710978 -1.2964935713336605 2.078039342343187 2.0502289538998157 -0.5200046160127103 1.1399895127138917
3.40834307671 0.0899435671662396 -0.0744192368710978 -1.2964935713336605 2.078039342343187 2.0502289538998157 -0.5200046160127103 1.1399895127138917
3.41724514961 0.0899435671662396 -0.0744192368710978 -1.2964935713336605 2.078039342343187 2.0502289538998157 -0.5200046160127103 1.1399895127138917
3.41724514961 0.0899435671662396 -0.0744192368710978 -1.2964935713336605 2.078039342343187 2.0502289538998157 -0.5200046160127103 1.1399895127138917
3.4271531105 0.0899435671662396 -0.0744192368710978 -1.2964935713336605 2.078039342343187 2.0502289538998157 -0.5200046160127103 1.1399895127138917
3.4271531105 0.0899435671662396 -0.0744192368710978 -1.2964935713336605 2.078039342343187 2.0502289538998157 -0.5200046160127103 1.1399895127138917
3.43733620644 0.0899435671662396 -0.0744192368710978 -1.2964935713336605 2.078039342343187 2.0502289538998157 -0.5200046160127103 1.1399895127138917
3.43733620644 0.0899435671662396 -0.0744192368710978 -1.2964935713336605 2.078039342343187 2.0502289538998157 -0.5200046160127103 1.1399895127138917
3.44686102867 0.0914622282900489 -0.0732687360197272 -1.3196569884745892 2.0780240023318357 2.050192430223342 -0.5200046160127103 1.1399895127138917
3.44686102867 0.0914622282900489 -0.0732687360197272 -1.3196569884745892 2.0780240023318357 2.050192430223342 -0.5200046160127103 1.1399895127138917
3.45680117607 0.0914775683014006 -0.0732533960083756 -1.3253634726973875 2.078008662320484 2.0501011210321587 -0.5200046160127103 1.1399895127138917
3.45680117607 0.0914775683014006 -0.0732533960083756 -1.3253634726973875 2.078008662320484 2.0501011210321587 -0.5200046160127103 1.1399895127138917
3.46703600883 0.0914775683014006 -0.0732533960083756 -1.3253634726973875 2.078008662320484 2.0501011210321587 -0.5200046160127103 1.1399895127138917
3.46703600883 0.0914775683014006 -0.0732533960083756 -1.3253634726973875 2.078008662320484 2.0501011210321587 -0.5200046160127103 1.1399895127138917
3.47721815109 0.0914775683014006 -0.0732533960083756 -1.3253634726973875 2.078008662320484 2.0501011210321587 -0.5200046160127103 1.1399895127138917
3.47721815109 0.0914775683014006 -0.0732533960083756 -1.3253634726973875 2.078008662320484 2.0501011210321587 -0.5200046160127103 1.1399895127138917
3.48716521263 0.0914775683014006 -0.0732533960083756 -1.3253634726973875 2.078008662320484 2.0501011210321587 -0.5200046160127103 1.1399895127138917
3.48716521263 0.0914775683014006 -0.0732533960083756 -1.3253634726973875 2.078008662320484 2.0501011210321587 -0.5200046160127103 1.1399895127138917
3.49713516235 0.0914775683014006 -0.0732533960083756 -1.3253634726973875 2.078008662320484 2.0501011210321587 -0.5200046160127103 1.1399895127138917
3.49713516235 0.0914775683014006 -0.0732533960083756 -1.3253634726973875 2.078008662320484 2.0501011210321587 -0.5200046160127103 1.1399895127138917
3.50684499741 0.0914775683014006 -0.0732533960083756 -1.3253634726973875 2.078008662320484 2.0501011210321587 -0.5200046160127103 1.1399895127138917
3.50684499741 0.0914775683014006 -0.0732533960083756 -1.3253634726973875 2.078008662320484 2.0501011210321587 -0.5200046160127103 1.1399895127138917
3.51701903343 0.0914775683014006 -0.0732533960083756 -1.3253634726973875 2.078008662320484 2.0501011210321587 -0.5200046160127103 1.1399895127138917
3.51701903343 0.0914775683014006 -0.0732533960083756 -1.3253634726973875 2.078008662320484 2.0501011210321587 -0.5200046160127103 1.1399895127138917
3.52719020844 0.0914775683014006 -0.0732533960083756 -1.3253634726973875 2.078008662320484 2.0501011210321587 -0.5200046160127103 1.1399895127138917
3.52719020844 0.0914775683014006 -0.0732533960083756 -1.3253634726973875 2.078008662320484 2.0501011210321587 -0.5200046160127103 1.1399895127138917
3.53691601753 0.0914775683014006 -0.0720568751229501 -1.3490177702015678 2.0776711820707483 2.050137644708632 -0.5200046160127103 1.1399895127138917
3.53691601753 0.0914775683014006 -0.0720568751229501 -1.3490177702015678 2.0776711820707483 2.050137644708632 -0.5200046160127103 1.1399895127138917
3.54682612419 0.0914775683014006 -0.0720568751229501 -1.3490177702015678 2.0776711820707483 2.050137644708632 -0.5200046160127103 1.1399895127138917
3.54682612419 0.0914775683014006 -0.0720568751229501 -1.3490177702015678 2.0776711820707483 2.050137644708632 -0.5200046160127103 1.1399895127138917
3.55717015266 0.0914775683014006 -0.071121134430502 -1.3553992149238367 2.077364381843716 2.0502289538998157 -0.5200046160127103 1.1399895127138917
3.55717015266 0.0914775683014006 -0.071121134430502 -1.3553992149238367 2.077364381843716 2.0502289538998157 -0.5200046160127103 1.1399895127138917
3.56713819504 0.0914775683014006 -0.071121134430502 -1.3553992149238367 2.077364381843716 2.0502289538998157 -0.5200046160127103 1.1399895127138917
3.56713819504 0.0914775683014006 -0.071121134430502 -1.3553992149238367 2.077364381843716 2.0502289538998157 -0.5200046160127103 1.1399895127138917
3.57717108727 0.0914775683014006 -0.071121134430502 -1.3553992149238367 2.077364381843716 2.0502289538998157 -0.5200046160127103 1.1399895127138917
3.57717108727 0.0914775683014006 -0.071121134430502 -1.3553992149238367 2.077364381843716 2.0502289538998157 -0.5200046160127103 1.1399895127138917
3.58723807335 0.0914775683014006 -0.071121134430502 -1.3553992149238367 2.077364381843716 2.0502289538998157 -0.5200046160127103 1.1399895127138917
3.58723807335 0.0914775683014006 -0.071121134430502 -1.3553992149238367 2.077364381843716 2.0502289538998157 -0.5200046160127103 1.1399895127138917
3.59724712372 0.0914775683014006 -0.071121134430502 -1.3553992149238367 2.077364381843716 2.0502289538998157 -0.5200046160127103 1.1399895127138917
3.59724712372 0.0914775683014006 -0.071121134430502 -1.3553992149238367 2.077364381843716 2.0502289538998157 -0.5200046160127103 1.1399895127138917
3.60709214211 0.0914775683014006 -0.0701393737039991 -1.36153521946448 2.0769808815599258 2.0501741683851056 -0.5200046160127103 1.1399895127138917
3.60709214211 0.0914775683014006 -0.0701393737039991 -1.36153521946448 2.0769808815599258 2.0501741683851056 -0.5200046160127103 1.1399895127138917
3.61695218086 0.0914775683014006 -0.0688354727391124 -1.3680854043116168 2.076597381276136 2.0501193828703954 -0.5200046160127103 1.1399895127138917
3.61695218086 0.0914775683014006 -0.0688354727391124 -1.3680854043116168 2.076597381276136 2.0501193828703954 -0.5200046160127103 1.1399895127138917
3.62695407867 0.0914775683014006 -0.0673321516266548 -1.3743441289430731 2.076229221003697 2.050219822980697 -0.5200046160127103 1.1399895127138917
3.62695407867 0.0914775683014006 -0.0673321516266548 -1.3743441289430731 2.076229221003697 2.050219822980697 -0.5200046160127103 1.1399895127138917
3.63700914383 0.0914775683014006 -0.0653532901622973 -1.3805875135631778 2.075907080765313 2.0502015611424604 -0.5200046160127103 1.1399895127138917
3.63700914383 0.0914775683014006 -0.0653532901622973 -1.3805875135631778 2.075907080765313 2.0502015611424604 -0.5200046160127103 1.1399895127138917
3.64725112915 0.0914775683014006 -0.0653532901622973 -1.3805875135631778 2.075907080765313 2.0502015611424604 -0.5200046160127103 1.1399895127138917
3.64725112915 0.0914775683014006 -0.0653532901622973 -1.3805875135631778 2.075907080765313 2.0502015611424604 -0.5200046160127103 1.1399895127138917
3.65726399422 0.0914775683014006 -0.0631750085503689 -1.386922938251392 2.075446880424765 2.0501193828703954 -0.5200046160127103 1.1399895127138917
3.65726399422 0.0914775683014006 -0.0631750085503689 -1.386922938251392 2.075446880424765 2.0501193828703954 -0.5200046160127103 1.1399895127138917
3.6671731472 0.0914775683014006 -0.0631750085503689 -1.386922938251392 2.075446880424765 2.0501193828703954 -0.5200046160127103 1.1399895127138917
3.6671731472 0.0914775683014006 -0.0631750085503689 -1.386922938251392 2.075446880424765 2.0501193828703954 -0.5200046160127103 1.1399895127138917
3.6773211956 0.0914775683014006 -0.0631750085503689 -1.386922938251392 2.075446880424765 2.0501193828703954 -0.5200046160127103 1.1399895127138917
3.6773211956 0.0914775683014006 -0.0631750085503689 -1.386922938251392 2.075446880424765 2.0501193828703954 -0.5200046160127103 1.1399895127138917
3.68715810776 0.0914775683014006 -0.0631750085503689 -1.386922938251392 2.075446880424765 2.0501193828703954 -0.5200046160127103 1.1399895127138917
3.68715810776 0.0914775683014006 -0.0631750085503689 -1.386922938251392 2.075446880424765 2.0501193828703954 -0.5200046160127103 1.1399895127138917
3.69736814499 0.0914775683014006 -0.0631750085503689 -1.386922938251392 2.075446880424765 2.0501193828703954 -0.5200046160127103 1.1399895127138917
3.69736814499 0.0914775683014006 -0.0631750085503689 -1.386922938251392 2.075446880424765 2.0501193828703954 -0.5200046160127103 1.1399895127138917
3.70699715614 0.0914775683014006 -0.0631750085503689 -1.386922938251392 2.075446880424765 2.0501193828703954 -0.5200046160127103 1.1399895127138917
3.70699715614 0.0914775683014006 -0.0631750085503689 -1.386922938251392 2.075446880424765 2.0501193828703954 -0.5200046160127103 1.1399895127138917
3.7170791626 0.0914775683014006 -0.0631750085503689 -1.386922938251392 2.075446880424765 2.0501193828703954 -0.5200046160127103 1.1399895127138917
3.7170791626 0.0914775683014006 -0.0631750085503689 -1.386922938251392 2.075446880424765 2.0501193828703954 -0.5200046160127103 1.1399895127138917
3.72723913193 0.0914775683014006 -0.0631750085503689 -1.386922938251392 2.075446880424765 2.0501193828703954 -0.5200046160127103 1.1399895127138917
3.72723913193 0.0914775683014006 -0.0631750085503689 -1.386922938251392 2.075446880424765 2.0501193828703954 -0.5200046160127103 1.1399895127138917
3.7370660305 0.0914775683014006 -0.0631750085503689 -1.386922938251392 2.075446880424765 2.0501193828703954 -0.5200046160127103 1.1399895127138917
3.7370660305 0.0914775683014006 -0.0631750085503689 -1.386922938251392 2.075446880424765 2.0501193828703954 -0.5200046160127103 1.1399895127138917
3.74688100815 0.0914775683014006 -0.0631750085503689 -1.386922938251392 2.075446880424765 2.0501193828703954 -0.5200046160127103 1.1399895127138917
3.74688100815 0.0914775683014006 -0.0631750085503689 -1.386922938251392 2.075446880424765 2.0501193828703954 -0.5200046160127103 1.1399895127138917
3.75700211525 0.0914775683014006 -0.0631750085503689 -1.386922938251392 2.075446880424765 2.0501193828703954 -0.5200046160127103 1.1399895127138917
3.75700211525 0.0914775683014006 -0.0631750085503689 -1.386922938251392 2.075446880424765 2.0501193828703954 -0.5200046160127103 1.1399895127138917
3.76714920998 0.0914775683014006 -0.0631750085503689 -1.386922938251392 2.075446880424765 2.0501193828703954 -0.5200046160127103 1.1399895127138917
3.76714920998 0.0914775683014006 -0.0631750085503689 -1.386922938251392 2.075446880424765 2.0501193828703954 -0.5200046160127103 1.1399895127138917
3.77692008018 0.0914775683014006 -0.0510257195598951 -1.4193670622600438 2.070047196428999 2.0502015611424604 -0.5200046160127103 1.1399895127138917
3.77692008018 0.0914775683014006 -0.0510257195598951 -1.4193670622600438 2.070047196428999 2.0502015611424604 -0.5200046160127103 1.1399895127138917
3.78720211983 0.0914775683014006 -0.0510257195598951 -1.4193670622600438 2.070047196428999 2.0502015611424604 -0.5200046160127103 1.1399895127138917
3.78720211983 0.0914775683014006 -0.0510257195598951 -1.4193670622600438 2.070047196428999 2.0502015611424604 -0.5200046160127103 1.1399895127138917
3.79720520973 0.0914775683014006 -0.046561776256577 -1.4334338526694688 2.066104813511636 2.0501741683851056 -0.5200046160127103 1.1399895127138917
3.79720520973 0.0914775683014006 -0.046561776256577 -1.4334338526694688 2.066104813511636 2.0501741683851056 -0.5200046160127103 1.1399895127138917
3.80702614784 0.0914775683014006 -0.046561776256577 -1.4334338526694688 2.066104813511636 2.0501741683851056 -0.5200046160127103 1.1399895127138917
3.80702614784 0.0914775683014006 -0.046561776256577 -1.4334338526694688 2.066104813511636 2.0501741683851056 -0.5200046160127103 1.1399895127138917
3.81707811356 0.0914775683014006 -0.0445368947581647 -1.440551617936615 2.0639111918883555 2.0502015611424604 -0.5200046160127103 1.1399895127138917
3.81707811356 0.0914775683014006 -0.0445368947581647 -1.440551617936615 2.0639111918883555 2.0502015611424604 -0.5200046160127103 1.1399895127138917
3.82719612122 0.0914775683014006 -0.0427574534413781 -1.448114243532958 2.062055050514811 2.050155906546869 -0.5200046160127103 1.1399895127138917
3.82719612122 0.0914775683014006 -0.0427574534413781 -1.448114243532958 2.062055050514811 2.050155906546869 -0.5200046160127103 1.1399895127138917
3.83726620674 0.0914775683014006 -0.0427574534413781 -1.448114243532958 2.062055050514811 2.050155906546869 -0.5200046160127103 1.1399895127138917
3.83726620674 0.0914775683014006 -0.0427574534413781 -1.448114243532958 2.062055050514811 2.050155906546869 -0.5200046160127103 1.1399895127138917
3.84712910652 0.0914775683014006 -0.0427574534413781 -1.448114243532958 2.062055050514811 2.050155906546869 -0.5200046160127103 1.1399895127138917
3.84712910652 0.0914775683014006 -0.0427574534413781 -1.448114243532958 2.062055050514811 2.050155906546869 -0.5200046160127103 1.1399895127138917
3.85710120201 0.0914775683014006 -0.0427574534413781 -1.448114243532958 2.062055050514811 2.050155906546869 -0.5200046160127103 1.1399895127138917
3.85710120201 0.0914775683014006 -0.0427574534413781 -1.448114243532958 2.062055050514811 2.050155906546869 -0.5200046160127103 1.1399895127138917
3.86716103554 0.0914775683014006 -0.0427574534413781 -1.448114243532958 2.062055050514811 2.050155906546869 -0.5200046160127103 1.1399895127138917
3.86716103554 0.0914775683014006 -0.0427574534413781 -1.448114243532958 2.062055050514811 2.050155906546869 -0.5200046160127103 1.1399895127138917
3.87731409073 0.0914775683014006 -0.0412234523062173 -1.4560910494357944 2.06013754909586 2.0501467756277503 -0.5200046160127103 1.1399895127138917
3.87731409073 0.0914775683014006 -0.0412234523062173 -1.4560910494357944 2.06013754909586 2.0501467756277503 -0.5200046160127103 1.1399895127138917
3.88780117035 0.0914775683014006 -0.0398888713186274 -1.464359315554311 2.0583734477904247 2.050192430223342 -0.5200046160127103 1.1399895127138917
3.88780117035 0.0914775683014006 -0.0398888713186274 -1.464359315554311 2.0583734477904247 2.050192430223342 -0.5200046160127103 1.1399895127138917
3.89694309235 0.0914775683014006 -0.0398888713186274 -1.464359315554311 2.0583734477904247 2.050192430223342 -0.5200046160127103 1.1399895127138917
3.89694309235 0.0914775683014006 -0.0398888713186274 -1.464359315554311 2.0583734477904247 2.050192430223342 -0.5200046160127103 1.1399895127138917
3.9073600769 0.0914775683014006 -0.0398888713186274 -1.464359315554311 2.0583734477904247 2.050192430223342 -0.5200046160127103 1.1399895127138917
3.9073600769 0.0914775683014006 -0.0398888713186274 -1.464359315554311 2.0583734477904247 2.050192430223342 -0.5200046160127103 1.1399895127138917
3.91713905334 0.0914775683014006 -0.0392292508305082 -1.4727963217976958 2.0569008067006704 2.0501467756277503 -0.5200046160127103 1.1399895127138917
3.91713905334 0.0914775683014006 -0.0392292508305082 -1.4727963217976958 2.0569008067006704 2.0501467756277503 -0.5200046160127103 1.1399895127138917
3.92705821991 0.0914775683014006 -0.0392292508305082 -1.4727963217976958 2.0569008067006704 2.0501467756277503 -0.5200046160127103 1.1399895127138917
3.92705821991 0.0914775683014006 -0.0392292508305082 -1.4727963217976958 2.0569008067006704 2.0501467756277503 -0.5200046160127103 1.1399895127138917
3.93704104424 0.0914775683014006 -0.0392292508305082 -1.4727963217976958 2.0569008067006704 2.0501467756277503 -0.5200046160127103 1.1399895127138917
3.93704104424 0.0914775683014006 -0.0392292508305082 -1.4727963217976958 2.0569008067006704 2.0501467756277503 -0.5200046160127103 1.1399895127138917
3.947286129 0.0914775683014006 -0.0392292508305082 -1.4727963217976958 2.0569008067006704 2.0501467756277503 -0.5200046160127103 1.1399895127138917
3.947286129 0.0914775683014006 -0.0392292508305082 -1.4727963217976958 2.0569008067006704 2.0501467756277503 -0.5200046160127103 1.1399895127138917
3.95725011826 0.0914775683014006 -0.0392292508305082 -1.4727963217976958 2.0569008067006704 2.0501467756277503 -0.5200046160127103 1.1399895127138917
3.95725011826 0.0914775683014006 -0.0392292508305082 -1.4727963217976958 2.0569008067006704 2.0501467756277503 -0.5200046160127103 1.1399895127138917
3.96719121933 0.0914775683014006 -0.0392292508305082 -1.4727963217976958 2.0569008067006704 2.0501467756277503 -0.5200046160127103 1.1399895127138917
3.96719121933 0.0914775683014006 -0.0392292508305082 -1.4727963217976958 2.0569008067006704 2.0501467756277503 -0.5200046160127103 1.1399895127138917
3.97710299492 0.0914775683014006 -0.0392292508305082 -1.4727963217976958 2.0569008067006704 2.0501467756277503 -0.5200046160127103 1.1399895127138917
3.97710299492 0.0914775683014006 -0.0392292508305082 -1.4727963217976958 2.0569008067006704 2.0501467756277503 -0.5200046160127103 1.1399895127138917
3.98804020882 0.0914468882786973 -0.0391985708078049 -1.4903759748066392 2.053387944101152 2.050165037465987 -0.5200046160127103 1.1399895127138917
3.98804020882 0.0914468882786973 -0.0391985708078049 -1.4903759748066392 2.053387944101152 2.050165037465987 -0.5200046160127103 1.1399895127138917
3.9968521595 0.0914468882786973 -0.0391985708078049 -1.4903759748066392 2.053387944101152 2.050165037465987 -0.5200046160127103 1.1399895127138917
3.9968521595 0.0914468882786973 -0.0391985708078049 -1.4903759748066392 2.053387944101152 2.050165037465987 -0.5200046160127103 1.1399895127138917
4.00681209564 0.0914008682446425 -0.0391985708078049 -1.516776134342757 2.046270178834006 2.050137644708632 -0.5200046160127103 1.1399895127138917
4.00681209564 0.0914008682446425 -0.0391985708078049 -1.516776134342757 2.046270178834006 2.050137644708632 -0.5200046160127103 1.1399895127138917
4.01703810692 0.0912781481538295 -0.0391832307964533 -1.526072181221832 2.0434629567566613 2.050137644708632 -0.5200046160127103 1.1399895127138917
4.01703810692 0.0912781481538295 -0.0391832307964533 -1.526072181221832 2.0434629567566613 2.050137644708632 -0.5200046160127103 1.1399895127138917
4.02724909782 0.0912781481538295 -0.0391832307964533 -1.526072181221832 2.0434629567566613 2.050137644708632 -0.5200046160127103 1.1399895127138917
4.02724909782 0.0912781481538295 -0.0391832307964533 -1.526072181221832 2.0434629567566613 2.050137644708632 -0.5200046160127103 1.1399895127138917
4.03702616692 0.0912781481538295 -0.0391832307964533 -1.526072181221832 2.0434629567566613 2.050137644708632 -0.5200046160127103 1.1399895127138917
4.03702616692 0.0912781481538295 -0.0391832307964533 -1.526072181221832 2.0434629567566613 2.050137644708632 -0.5200046160127103 1.1399895127138917
4.04722619057 0.0912781481538295 -0.0391832307964533 -1.526072181221832 2.0434629567566613 2.050137644708632 -0.5200046160127103 1.1399895127138917
4.04722619057 0.0912781481538295 -0.0391832307964533 -1.526072181221832 2.0434629567566613 2.050137644708632 -0.5200046160127103 1.1399895127138917
4.05722999573 0.0910327079722039 -0.0391832307964533 -1.5350154078398195 2.040241554372824 2.050137644708632 -0.5200046160127103 1.1399895127138917
4.05722999573 0.0910327079722039 -0.0391832307964533 -1.5350154078398195 2.040241554372824 2.050137644708632 -0.5200046160127103 1.1399895127138917
4.06723308563 0.0910327079722039 -0.0391832307964533 -1.5350154078398195 2.040241554372824 2.050137644708632 -0.5200046160127103 1.1399895127138917
4.06723308563 0.0910327079722039 -0.0391832307964533 -1.5350154078398195 2.040241554372824 2.050137644708632 -0.5200046160127103 1.1399895127138917
4.07720518112 0.0907719277792264 -0.0391832307964533 -1.5444034947870038 2.036314511466812 2.0501011210321587 -0.5200046160127103 1.1399895127138917
4.07720518112 0.0907719277792264 -0.0391832307964533 -1.5444034947870038 2.036314511466812 2.0501011210321587 -0.5200046160127103 1.1399895127138917
4.08715319633 0.0906185276657105 -0.0391832307964533 -1.553760901711485 2.0321573683905263 2.0501102519512773 -0.5200046160127103 1.1399895127138917
4.08715319633 0.0906185276657105 -0.0391832307964533 -1.553760901711485 2.0321573683905263 2.0501102519512773 -0.5200046160127103 1.1399895127138917
4.09726715088 0.0903730874840846 -0.0391832307964533 -1.5635324889424596 2.0281536254277563 2.0501102519512773 -0.5200046160127103 1.1399895127138917
4.09726715088 0.0903730874840846 -0.0391832307964533 -1.5635324889424596 2.0281536254277563 2.0501102519512773 -0.5200046160127103 1.1399895127138917
4.10698103905 0.089774827041372 -0.0391832307964533 -1.572644455685315 2.024379982635261 2.0501102519512773 -0.5200046160127103 1.1399895127138917
4.10698103905 0.089774827041372 -0.0391832307964533 -1.572644455685315 2.024379982635261 2.0501102519512773 -0.5200046160127103 1.1399895127138917
4.11699914932 0.089774827041372 -0.0391832307964533 -1.572644455685315 2.024379982635261 2.0501102519512773 -0.5200046160127103 1.1399895127138917
4.11699914932 0.089774827041372 -0.0391832307964533 -1.572644455685315 2.024379982635261 2.0501102519512773 -0.5200046160127103 1.1399895127138917
4.12724018097 0.089774827041372 -0.0391832307964533 -1.572644455685315 2.024379982635261 2.0501102519512773 -0.5200046160127103 1.1399895127138917
4.12724018097 0.089774827041372 -0.0391832307964533 -1.572644455685315 2.024379982635261 2.0501102519512773 -0.5200046160127103 1.1399895127138917
4.13711118698 0.089774827041372 -0.0391832307964533 -1.572644455685315 2.024379982635261 2.0501102519512773 -0.5200046160127103 1.1399895127138917
4.13711118698 0.089774827041372 -0.0391832307964533 -1.572644455685315 2.024379982635261 2.0501102519512773 -0.5200046160127103 1.1399895127138917
4.14722514153 0.089774827041372 -0.0391832307964533 -1.572644455685315 2.024379982635261 2.0501102519512773 -0.5200046160127103 1.1399895127138917
4.14722514153 0.089774827041372 -0.0391832307964533 -1.572644455685315 2.024379982635261 2.0501102519512773 -0.5200046160127103 1.1399895127138917
4.15709900856 0.0890691865191981 -0.0391832307964533 -1.5823240028481798 2.020529639786007 2.0501102519512773 -0.5200046160127103 1.1399895127138917
4.15709900856 0.0890691865191981 -0.0391832307964533 -1.5823240028481798 2.020529639786007 2.0501102519512773 -0.5200046160127103 1.1399895127138917
4.1672642231 0.0890691865191981 -0.0391832307964533 -1.5823240028481798 2.020529639786007 2.0501102519512773 -0.5200046160127103 1.1399895127138917
4.1672642231 0.0890691865191981 -0.0391832307964533 -1.5823240028481798 2.020529639786007 2.0501102519512773 -0.5200046160127103 1.1399895127138917
4.17728304863 0.0890691865191981 -0.0391832307964533 -1.5823240028481798 2.020529639786007 2.0501102519512773 -0.5200046160127103 1.1399895127138917
4.17728304863 0.0890691865191981 -0.0391832307964533 -1.5823240028481798 2.020529639786007 2.0501102519512773 -0.5200046160127103 1.1399895127138917
4.18707799911 0.0890691865191981 -0.0391832307964533 -1.5823240028481798 2.020529639786007 2.0501102519512773 -0.5200046160127103 1.1399895127138917
4.18707799911 0.0890691865191981 -0.0391832307964533 -1.5823240028481798 2.020529639786007 2.0501102519512773 -0.5200046160127103 1.1399895127138917
4.19775700569 0.0876885854975532 -0.0391832307964533 -1.600885416583626 2.0115403931339646 2.0501102519512773 -0.5200046160127103 1.1399895127138917
4.19775700569 0.0876885854975532 -0.0391832307964533 -1.600885416583626 2.0115403931339646 2.0501102519512773 -0.5200046160127103 1.1399895127138917
4.20689606667 0.0876885854975532 -0.0391832307964533 -1.600885416583626 2.0115403931339646 2.0501102519512773 -0.5200046160127103 1.1399895127138917
4.20689606667 0.0876885854975532 -0.0391832307964533 -1.600885416583626 2.0115403931339646 2.0501102519512773 -0.5200046160127103 1.1399895127138917
4.2168161869 0.0867835248278083 -0.0391832307964533 -1.610288843542162 2.006846349660372 2.0501102519512773 -0.5200046160127103 1.1399895127138917
4.2168161869 0.0867835248278083 -0.0391832307964533 -1.610288843542162 2.006846349660372 2.0501102519512773 -0.5200046160127103 1.1399895127138917
4.22684407234 0.0858631241467117 -0.0391832307964533 -1.6192934302055562 2.0019835660619125 2.0501102519512773 -0.5200046160127103 1.1399895127138917
4.22684407234 0.0858631241467117 -0.0391832307964533 -1.6192934302055562 2.0019835660619125 2.0501102519512773 -0.5200046160127103 1.1399895127138917
4.23708510399 0.0858631241467117 -0.0391832307964533 -1.6192934302055562 2.0019835660619125 2.0501102519512773 -0.5200046160127103 1.1399895127138917
4.23708510399 0.0858631241467117 -0.0391832307964533 -1.6192934302055562 2.0019835660619125 2.0501102519512773 -0.5200046160127103 1.1399895127138917
4.24723410606 0.0858631241467117 -0.0391832307964533 -1.6192934302055562 2.0019835660619125 2.0501102519512773 -0.5200046160127103 1.1399895127138917
4.24723410606 0.0858631241467117 -0.0391832307964533 -1.6192934302055562 2.0019835660619125 2.0501102519512773 -0.5200046160127103 1.1399895127138917
4.25703120232 0.0858631241467117 -0.0391832307964533 -1.6192934302055562 2.0019835660619125 2.0501102519512773 -0.5200046160127103 1.1399895127138917
4.25703120232 0.0858631241467117 -0.0391832307964533 -1.6192934302055562 2.0019835660619125 2.0501102519512773 -0.5200046160127103 1.1399895127138917
4.2672162056 0.0858631241467117 -0.0391832307964533 -1.6192934302055562 2.0019835660619125 2.0501102519512773 -0.5200046160127103 1.1399895127138917
4.2672162056 0.0858631241467117 -0.0391832307964533 -1.6192934302055562 2.0019835660619125 2.0501102519512773 -0.5200046160127103 1.1399895127138917
4.27730512619 0.0858631241467117 -0.0391832307964533 -1.6192934302055562 2.0019835660619125 2.0501102519512773 -0.5200046160127103 1.1399895127138917
4.27730512619 0.0858631241467117 -0.0391832307964533 -1.6192934302055562 2.0019835660619125 2.0501102519512773 -0.5200046160127103 1.1399895127138917
4.28721499443 0.0858631241467117 -0.0391832307964533 -1.6192934302055562 2.0019835660619125 2.0501102519512773 -0.5200046160127103 1.1399895127138917
4.28721499443 0.0858631241467117 -0.0391832307964533 -1.6192934302055562 2.0019835660619125 2.0501102519512773 -0.5200046160127103 1.1399895127138917
4.2972381115 0.0858631241467117 -0.0391832307964533 -1.6192934302055562 2.0019835660619125 2.0501102519512773 -0.5200046160127103 1.1399895127138917
4.2972381115 0.0858631241467117 -0.0391832307964533 -1.6192934302055562 2.0019835660619125 2.0501102519512773 -0.5200046160127103 1.1399895127138917
4.30738115311 0.0858631241467117 -0.0391832307964533 -1.6192934302055562 2.0019835660619125 2.0501102519512773 -0.5200046160127103 1.1399895127138917
4.30738115311 0.0858631241467117 -0.0391832307964533 -1.6192934302055562 2.0019835660619125 2.0501102519512773 -0.5200046160127103 1.1399895127138917
4.31707406044 0.0858631241467117 -0.0391832307964533 -1.6192934302055562 2.0019835660619125 2.0501102519512773 -0.5200046160127103 1.1399895127138917
4.31707406044 0.0858631241467117 -0.0391832307964533 -1.6192934302055562 2.0019835660619125 2.0501102519512773 -0.5200046160127103 1.1399895127138917
4.32703614235 0.0858631241467117 -0.0391832307964533 -1.6192934302055562 2.0019835660619125 2.0501102519512773 -0.5200046160127103 1.1399895127138917
4.32703614235 0.0858631241467117 -0.0391832307964533 -1.6192934302055562 2.0019835660619125 2.0501102519512773 -0.5200046160127103 1.1399895127138917
4.33725404739 0.0858631241467117 -0.0391832307964533 -1.6192934302055562 2.0019835660619125 2.0501102519512773 -0.5200046160127103 1.1399895127138917
4.33725404739 0.0858631241467117 -0.0391832307964533 -1.6192934302055562 2.0019835660619125 2.0501102519512773 -0.5200046160127103 1.1399895127138917
4.34720206261 0.0858631241467117 -0.0391832307964533 -1.6192934302055562 2.0019835660619125 2.0501102519512773 -0.5200046160127103 1.1399895127138917
4.34720206261 0.0858631241467117 -0.0391832307964533 -1.6192934302055562 2.0019835660619125 2.0501102519512773 -0.5200046160127103 1.1399895127138917
4.35722899437 0.0858631241467117 -0.0391832307964533 -1.6192934302055562 2.0019835660619125 2.0501102519512773 -0.5200046160127103 1.1399895127138917
4.35722899437 0.0858631241467117 -0.0391832307964533 -1.6192934302055562 2.0019835660619125 2.0501102519512773 -0.5200046160127103 1.1399895127138917
4.3678290844 0.0858631241467117 -0.0391832307964533 -1.6192934302055562 2.0019835660619125 2.0501102519512773 -0.5200046160127103 1.1399895127138917
4.3678290844 0.0858631241467117 -0.0391832307964533 -1.6192934302055562 2.0019835660619125 2.0501102519512773 -0.5200046160127103 1.1399895127138917
4.37698602676 0.0858631241467117 -0.0391832307964533 -1.6192934302055562 2.0019835660619125 2.0501102519512773 -0.5200046160127103 1.1399895127138917
4.37698602676 0.0858631241467117 -0.0391832307964533 -1.6192934302055562 2.0019835660619125 2.0501102519512773 -0.5200046160127103 1.1399895127138917
4.38720417023 0.0858631241467117 -0.0391832307964533 -1.6192934302055562 2.0019835660619125 2.0501102519512773 -0.5200046160127103 1.1399895127138917
4.38720417023 0.0858631241467117 -0.0391832307964533 -1.6192934302055562 2.0019835660619125 2.0501102519512773 -0.5200046160127103 1.1399895127138917
4.39741206169 0.0858631241467117 -0.0391832307964533 -1.6192934302055562 2.0019835660619125 2.0501102519512773 -0.5200046160127103 1.1399895127138917
4.39741206169 0.0858631241467117 -0.0391832307964533 -1.6192934302055562 2.0019835660619125 2.0501102519512773 -0.5200046160127103 1.1399895127138917
4.40684509277 0.0721338139870224 -0.0391832307964533 -1.681558536281735 1.9588627941525407 2.0501102519512773 -0.5200091814722694 1.1399849472543326
4.40684509277 0.0721338139870224 -0.0391832307964533 -1.681558536281735 1.9588627941525407 2.0501102519512773 -0.5200091814722694 1.1399849472543326
4.41675305367 0.0662892696620595 -0.0391832307964533 -1.6927567445684086 1.9450874639587965 2.0501011210321587 -0.5200046160127103 1.1399895127138917
4.41675305367 0.0662892696620595 -0.0391832307964533 -1.6927567445684086 1.9450874639587965 2.0501011210321587 -0.5200046160127103 1.1399895127138917
4.42707300186 0.0662892696620595 -0.0391832307964533 -1.6927567445684086 1.9450874639587965 2.0501011210321587 -0.5200046160127103 1.1399895127138917
4.42707300186 0.0662892696620595 -0.0391832307964533 -1.6927567445684086 1.9450874639587965 2.0501011210321587 -0.5200046160127103 1.1399895127138917
4.43698310852 0.0635280676187699 -0.0391832307964533 -1.697680888212275 1.937708918498673 2.0501102519512773 -0.5200046160127103 1.1399895127138917
4.43698310852 0.0635280676187699 -0.0391832307964533 -1.697680888212275 1.937708918498673 2.0501102519512773 -0.5200046160127103 1.1399895127138917
4.44711899757 0.0635280676187699 -0.0391832307964533 -1.697680888212275 1.937708918498673 2.0501102519512773 -0.5200046160127103 1.1399895127138917
4.44711899757 0.0635280676187699 -0.0391832307964533 -1.697680888212275 1.937708918498673 2.0501102519512773 -0.5200046160127103 1.1399895127138917
4.45724701881 0.0635280676187699 -0.0391832307964533 -1.697680888212275 1.937708918498673 2.0501102519512773 -0.5200046160127103 1.1399895127138917
4.45724701881 0.0635280676187699 -0.0391832307964533 -1.697680888212275 1.937708918498673 2.0501102519512773 -0.5200046160127103 1.1399895127138917
4.46723008156 0.0635280676187699 -0.0391832307964533 -1.697680888212275 1.937708918498673 2.0501102519512773 -0.5200046160127103 1.1399895127138917
4.46723008156 0.0635280676187699 -0.0391832307964533 -1.697680888212275 1.937708918498673 2.0501102519512773 -0.5200046160127103 1.1399895127138917
4.47721219063 0.0607361855527772 -0.0391832307964533 -1.7021448315155931 1.9301616329136817 2.0501102519512773 -0.5200046160127103 1.1399895127138917
4.47721219063 0.0607361855527772 -0.0391832307964533 -1.7021448315155931 1.9301616329136817 2.0501102519512773 -0.5200046160127103 1.1399895127138917
4.48723816872 0.0580977036003007 -0.0391832307964533 -1.7060718744216048 1.9225223072605808 2.0501102519512773 -0.5200046160127103 1.1399895127138917
4.48723816872 0.0580977036003007 -0.0391832307964533 -1.7060718744216048 1.9225223072605808 2.0501102519512773 -0.5200046160127103 1.1399895127138917
4.49726915359 0.0551677614321434 -0.0391832307964533 -1.709124536680575 1.914637541425854 2.0501102519512773 -0.5200046160127103 1.1399895127138917
4.49726915359 0.0551677614321434 -0.0391832307964533 -1.709124536680575 1.914637541425854 2.0501102519512773 -0.5200046160127103 1.1399895127138917
4.50714921951 0.0522531592753378 -0.0391832307964533 -1.7116556385535902 1.906722095568424 2.0501102519512773 -0.5200046160127103 1.1399895127138917
4.50714921951 0.0522531592753378 -0.0391832307964533 -1.7116556385535902 1.906722095568424 2.0501102519512773 -0.5200046160127103 1.1399895127138917
4.51717305183 0.0522531592753378 -0.0391832307964533 -1.7116556385535902 1.906722095568424 2.0501102519512773 -0.5200046160127103 1.1399895127138917
4.51717305183 0.0522531592753378 -0.0391832307964533 -1.7116556385535902 1.906722095568424 2.0501102519512773 -0.5200046160127103 1.1399895127138917
4.52735900879 0.0522531592753378 -0.0391832307964533 -1.7116556385535902 1.906722095568424 2.0501102519512773 -0.5200046160127103 1.1399895127138917
4.52735900879 0.0522531592753378 -0.0391832307964533 -1.7116556385535902 1.906722095568424 2.0501102519512773 -0.5200046160127103 1.1399895127138917
4.53691411018 0.0522531592753378 -0.0391832307964533 -1.7116556385535902 1.906722095568424 2.0501102519512773 -0.5200046160127103 1.1399895127138917
4.53691411018 0.0522531592753378 -0.0391832307964533 -1.7116556385535902 1.906722095568424 2.0501102519512773 -0.5200046160127103 1.1399895127138917
4.54719901085 0.0492158370277193 -0.0391832307964533 -1.7136498400292994 1.8986839296201807 2.0501102519512773 -0.5200046160127103 1.1399895127138917
4.54719901085 0.0492158370277193 -0.0391832307964533 -1.7136498400292994 1.8986839296201807 2.0501102519512773 -0.5200046160127103 1.1399895127138917
4.55697417259 0.046638715120649 -0.0391832307964533 -1.7151378211304054 1.891059943978432 2.0501102519512773 -0.5200046160127103 1.1399895127138917
4.55697417259 0.046638715120649 -0.0391832307964533 -1.7151378211304054 1.891059943978432 2.0501102519512773 -0.5200046160127103 1.1399895127138917
4.56704902649 0.046638715120649 -0.0391832307964533 -1.7151378211304054 1.891059943978432 2.0501102519512773 -0.5200046160127103 1.1399895127138917
4.56704902649 0.046638715120649 -0.0391832307964533 -1.7151378211304054 1.891059943978432 2.0501102519512773 -0.5200046160127103 1.1399895127138917
4.5772330761 0.046960855359033 -0.0391832307964533 -1.7161656018909632 1.8830524580528925 2.0501102519512773 -0.5200046160127103 1.1399895127138917
4.5772330761 0.046960855359033 -0.0391832307964533 -1.7161656018909632 1.8830524580528925 2.0501102519512773 -0.5200046160127103 1.1399895127138917
4.58712100983 0.046960855359033 -0.0391832307964533 -1.7161656018909632 1.8830524580528925 2.0501102519512773 -0.5200046160127103 1.1399895127138917
4.58712100983 0.046960855359033 -0.0391832307964533 -1.7161656018909632 1.8830524580528925 2.0501102519512773 -0.5200046160127103 1.1399895127138917
4.59709620476 0.0468534752795716 -0.0391832307964533 -1.7169632824812469 1.874124571446256 2.0501102519512773 -0.5200046160127103 1.1399895127138917
4.59709620476 0.0468534752795716 -0.0391832307964533 -1.7169632824812469 1.874124571446256 2.0501102519512773 -0.5200046160127103 1.1399895127138917
4.60705304146 0.0468534752795716 -0.0391832307964533 -1.7169632824812469 1.874124571446256 2.0501102519512773 -0.5200046160127103 1.1399895127138917
4.60705304146 0.0468534752795716 -0.0391832307964533 -1.7169632824812469 1.874124571446256 2.0501102519512773 -0.5200046160127103 1.1399895127138917
4.61710906029 0.0468534752795716 -0.0391832307964533 -1.7169632824812469 1.874124571446256 2.0501102519512773 -0.5200046160127103 1.1399895127138917
4.61710906029 0.0468534752795716 -0.0391832307964533 -1.7169632824812469 1.874124571446256 2.0501102519512773 -0.5200046160127103 1.1399895127138917
4.62720012665 0.0468534752795716 -0.0391832307964533 -1.7169632824812469 1.874124571446256 2.0501102519512773 -0.5200046160127103 1.1399895127138917
4.62720012665 0.0468534752795716 -0.0391832307964533 -1.7169632824812469 1.874124571446256 2.0501102519512773 -0.5200046160127103 1.1399895127138917
4.63725805283 0.0468534752795716 -0.0391832307964533 -1.7190495240250656 1.85517965742702 2.0501102519512773 -0.5200046160127103 1.1399895127138917
4.63725805283 0.0468534752795716 -0.0391832307964533 -1.7190495240250656 1.85517965742702 2.0501102519512773 -0.5200046160127103 1.1399895127138917
4.64718818665 0.0468534752795716 -0.0391832307964533 -1.7201079848083265 1.8452700100938808 2.0501102519512773 -0.5200046160127103 1.1399895127138917
4.64718818665 0.0468534752795716 -0.0391832307964533 -1.7201079848083265 1.8452700100938808 2.0501102519512773 -0.5200046160127103 1.1399895127138917
4.65719509125 0.0468534752795716 -0.0391832307964533 -1.7201079848083265 1.8452700100938808 2.0501102519512773 -0.5200046160127103 1.1399895127138917
4.65719509125 0.0468534752795716 -0.0391832307964533 -1.7201079848083265 1.8452700100938808 2.0501102519512773 -0.5200046160127103 1.1399895127138917
