riccardo-csl/Motion-Planning-for-TIAGo-Manipulator/T3_G_7/head_scan/head_scan/tiago_traiettorie_SG/4a-2b/pick_4a_rep2.txt
time arm_1_joint arm_2_joint arm_3_joint arm_4_joint arm_5_joint arm_6_joint arm_7_joint
6.22327899933 0.0699708723864455 0.101193213082115 -3.099205685340625 1.3632715134149933 2.050046335517449 -0.5200274433105061 1.139966685416096
6.23321819305 0.0699708723864455 0.101193213082115 -3.099205685340625 1.3632715134149933 2.050046335517449 -0.5200274433105061 1.139966685416096
6.23321819305 0.0699708723864455 0.101193213082115 -3.099205685340625 1.3632715134149933 2.050046335517449 -0.5200274433105061 1.139966685416096
6.2433052063 0.0699708723864455 0.101193213082115 -3.099205685340625 1.3632715134149933 2.050046335517449 -0.5200274433105061 1.139966685416096
6.2433052063 0.0699708723864455 0.101193213082115 -3.099205685340625 1.3632715134149933 2.050046335517449 -0.5200274433105061 1.139966685416096
6.25340509415 0.0699708723864455 0.101193213082115 -3.099205685340625 1.3632715134149933 2.050046335517449 -0.5200274433105061 1.139966685416096
6.25340509415 0.0699708723864455 0.101193213082115 -3.099205685340625 1.3632715134149933 2.050046335517449 -0.5200274433105061 1.139966685416096
6.26314902306 0.0699708723864455 0.101193213082115 -3.099205685340625 1.3632715134149933 2.050046335517449 -0.5200274433105061 1.139966685416096
6.26314902306 0.0699708723864455 0.101193213082115 -3.099205685340625 1.3632715134149933 2.050046335517449 -0.5200274433105061 1.139966685416096
6.27334308624 0.0699708723864455 0.101193213082115 -3.099205685340625 1.3632715134149933 2.050046335517449 -0.5200274433105061 1.139966685416096
6.27334308624 0.0699708723864455 0.101193213082115 -3.099205685340625 1.3632715134149933 2.050046335517449 -0.5200274433105061 1.139966685416096
6.28311419487 0.0699708723864455 0.101193213082115 -3.099205685340625 1.3632715134149933 2.050046335517449 -0.5200274433105061 1.139966685416096
6.28311419487 0.0699708723864455 0.101193213082115 -3.099205685340625 1.3632715134149933 2.050046335517449 -0.5200274433105061 1.139966685416096
6.2931830883 0.0699708723864455 0.101193213082115 -3.099205685340625 1.3632715134149933 2.050046335517449 -0.5200274433105061 1.139966685416096
6.2931830883 0.0699708723864455 0.101193213082115 -3.099205685340625 1.3632715134149933 2.050046335517449 -0.5200274433105061 1.139966685416096
6.30302405357 0.0699708723864455 0.101193213082115 -3.099205685340625 1.3632715134149933 2.050046335517449 -0.5200274433105061 1.139966685416096
6.30302405357 0.0699708723864455 0.101193213082115 -3.099205685340625 1.3632715134149933 2.050046335517449 -0.5200274433105061 1.139966685416096
6.31311702728 0.0699708723864455 0.101193213082115 -3.099205685340625 1.3632715134149933 2.050046335517449 -0.5200274433105061 1.139966685416096
6.31311702728 0.0699708723864455 0.101193213082115 -3.099205685340625 1.3632715134149933 2.050046335517449 -0.5200274433105061 1.139966685416096
6.32313013077 0.0699708723864455 0.101193213082115 -3.099205685340625 1.3632715134149933 2.050046335517449 -0.5200274433105061 1.139966685416096
6.32313013077 0.0699708723864455 0.101193213082115 -3.099205685340625 1.3632715134149933 2.050046335517449 -0.5200274433105061 1.139966685416096
6.33321809769 0.0699708723864455 0.101193213082115 -3.099205685340625 1.3632715134149933 2.050046335517449 -0.5200274433105061 1.139966685416096
6.33321809769 0.0699708723864455 0.101193213082115 -3.099205685340625 1.3632715134149933 2.050046335517449 -0.5200274433105061 1.139966685416096
6.34309315681 0.0699708723864455 0.101193213082115 -3.099205685340625 1.3632715134149933 2.050046335517449 -0.5200274433105061 1.139966685416096
6.34309315681 0.0699708723864455 0.101193213082115 -3.099205685340625 1.3632715134149933 2.050046335517449 -0.5200274433105061 1.139966685416096
6.35313105583 0.0699708723864455 0.101193213082115 -3.099205685340625 1.3632715134149933 2.050046335517449 -0.5200274433105061 1.139966685416096
6.35313105583 0.0699708723864455 0.101193213082115 -3.099205685340625 1.3632715134149933 2.050046335517449 -0.5200274433105061 1.139966685416096
6.36310911179 0.0699708723864455 0.101193213082115 -3.099205685340625 1.3632715134149933 2.050046335517449 -0.5200274433105061 1.139966685416096
6.36310911179 0.0699708723864455 0.101193213082115 -3.099205685340625 1.3632715134149933 2.050046335517449 -0.5200274433105061 1.139966685416096
6.37309408188 0.0699708723864455 0.101193213082115 -3.099205685340625 1.3632715134149933 2.050046335517449 -0.5200274433105061 1.139966685416096
6.37309408188 0.0699708723864455 0.101193213082115 -3.099205685340625 1.3632715134149933 2.050046335517449 -0.5200274433105061 1.139966685416096
6.38298201561 0.0699708723864455 0.101193213082115 -3.099205685340625 1.3632715134149933 2.050046335517449 -0.5200274433105061 1.139966685416096
6.38298201561 0.0699708723864455 0.101193213082115 -3.099205685340625 1.3632715134149933 2.050046335517449 -0.5200274433105061 1.139966685416096
6.39318299294 0.0699708723864455 0.101193213082115 -3.099205685340625 1.3632715134149933 2.050046335517449 -0.5200274433105061 1.139966685416096
6.39318299294 0.0699708723864455 0.101193213082115 -3.099205685340625 1.3632715134149933 2.050046335517449 -0.5200274433105061 1.139966685416096
6.40327215195 0.0699708723864455 0.101193213082115 -3.099205685340625 1.3632715134149933 2.050046335517449 -0.5200274433105061 1.139966685416096
6.40327215195 0.0699708723864455 0.101193213082115 -3.099205685340625 1.3632715134149933 2.050046335517449 -0.5200274433105061 1.139966685416096
6.41339612007 0.0699708723864455 0.101193213082115 -3.099205685340625 1.3632715134149933 2.050046335517449 -0.5200274433105061 1.139966685416096
6.41339612007 0.0699708723864455 0.101193213082115 -3.099205685340625 1.3632715134149933 2.050046335517449 -0.5200274433105061 1.139966685416096
6.4232211113 0.0699708723864455 0.101193213082115 -3.099205685340625 1.3632715134149933 2.050046335517449 -0.5200274433105061 1.139966685416096
6.4232211113 0.0699708723864455 0.101193213082115 -3.099205685340625 1.3632715134149933 2.050046335517449 -0.5200274433105061 1.139966685416096
6.43340921402 0.0699708723864455 0.101193213082115 -3.099205685340625 1.3632715134149933 2.050046335517449 -0.5200274433105061 1.139966685416096
6.43340921402 0.0699708723864455 0.101193213082115 -3.099205685340625 1.3632715134149933 2.050046335517449 -0.5200274433105061 1.139966685416096
6.44324207306 0.0699708723864455 0.101193213082115 -3.099205685340625 1.3632715134149933 2.050046335517449 -0.5200274433105061 1.139966685416096
6.44324207306 0.0699708723864455 0.101193213082115 -3.099205685340625 1.3632715134149933 2.050046335517449 -0.5200274433105061 1.139966685416096
6.45340108871 0.0699708723864455 0.101193213082115 -3.099205685340625 1.3632715134149933 2.050046335517449 -0.5200274433105061 1.139966685416096
6.45340108871 0.0699708723864455 0.101193213082115 -3.099205685340625 1.3632715134149933 2.050046335517449 -0.5200274433105061 1.139966685416096
6.46316719055 0.0699708723864455 0.101193213082115 -3.099205685340625 1.3632715134149933 2.050046335517449 -0.5200274433105061 1.139966685416096
6.46316719055 0.0699708723864455 0.101193213082115 -3.099205685340625 1.3632715134149933 2.050046335517449 -0.5200274433105061 1.139966685416096
6.47336006165 0.0699708723864455 0.101193213082115 -3.099205685340625 1.3632715134149933 2.050046335517449 -0.5200274433105061 1.139966685416096
6.47336006165 0.0699708723864455 0.101193213082115 -3.099205685340625 1.3632715134149933 2.050046335517449 -0.5200274433105061 1.139966685416096
6.48328018188 0.0699708723864455 0.101193213082115 -3.099205685340625 1.3632715134149933 2.050046335517449 -0.5200274433105061 1.139966685416096
6.48328018188 0.0699708723864455 0.101193213082115 -3.099205685340625 1.3632715134149933 2.050046335517449 -0.5200274433105061 1.139966685416096
6.49314498901 0.0699708723864455 0.101193213082115 -3.099205685340625 1.3632715134149933 2.050046335517449 -0.5200274433105061 1.139966685416096
6.49314498901 0.0699708723864455 0.101193213082115 -3.099205685340625 1.3632715134149933 2.050046335517449 -0.5200274433105061 1.139966685416096
6.50326919556 0.0699708723864455 0.101193213082115 -3.099205685340625 1.3632715134149933 2.050046335517449 -0.5200274433105061 1.139966685416096
6.50326919556 0.0699708723864455 0.101193213082115 -3.099205685340625 1.3632715134149933 2.050046335517449 -0.5200274433105061 1.139966685416096
6.51336407661 0.0699708723864455 0.101193213082115 -3.099205685340625 1.3632715134149933 2.050046335517449 -0.5200274433105061 1.139966685416096
6.51336407661 0.0699708723864455 0.101193213082115 -3.099205685340625 1.3632715134149933 2.050046335517449 -0.5200274433105061 1.139966685416096
6.52327919006 0.0699708723864455 0.101193213082115 -3.099205685340625 1.3632715134149933 2.050046335517449 -0.5200274433105061 1.139966685416096
6.52327919006 0.0699708723864455 0.101193213082115 -3.099205685340625 1.3632715134149933 2.050046335517449 -0.5200274433105061 1.139966685416096
6.53346610069 0.0699708723864455 0.101193213082115 -3.099205685340625 1.3632715134149933 2.050046335517449 -0.5200274433105061 1.139966685416096
6.53346610069 0.0699708723864455 0.101193213082115 -3.099205685340625 1.3632715134149933 2.050046335517449 -0.5200274433105061 1.139966685416096
6.5432062149 0.0699708723864455 0.101193213082115 -3.099205685340625 1.3632715134149933 2.050046335517449 -0.5200274433105061 1.139966685416096
6.5432062149 0.0699708723864455 0.101193213082115 -3.099205685340625 1.3632715134149933 2.050046335517449 -0.5200274433105061 1.139966685416096
6.55321216583 0.0699708723864455 0.101193213082115 -3.099205685340625 1.3632715134149933 2.050046335517449 -0.5200274433105061 1.139966685416096
6.55321216583 0.0699708723864455 0.101193213082115 -3.099205685340625 1.3632715134149933 2.050046335517449 -0.5200274433105061 1.139966685416096
6.56330299377 0.0699708723864455 0.101193213082115 -3.099205685340625 1.3632715134149933 2.050046335517449 -0.5200274433105061 1.139966685416096
6.56330299377 0.0699708723864455 0.101193213082115 -3.099205685340625 1.3632715134149933 2.050046335517449 -0.5200274433105061 1.139966685416096
6.57342720032 0.0699708723864455 0.101193213082115 -3.099205685340625 1.3632715134149933 2.050046335517449 -0.5200274433105061 1.139966685416096
6.57342720032 0.0699708723864455 0.101193213082115 -3.099205685340625 1.3632715134149933 2.050046335517449 -0.5200274433105061 1.139966685416096
6.58330202103 0.0699708723864455 0.101193213082115 -3.099205685340625 1.3632715134149933 2.050046335517449 -0.5200274433105061 1.139966685416096
6.58330202103 0.0699708723864455 0.101193213082115 -3.099205685340625 1.3632715134149933 2.050046335517449 -0.5200274433105061 1.139966685416096
6.59340810776 0.0699708723864455 0.101193213082115 -3.099205685340625 1.3632715134149933 2.050046335517449 -0.5200274433105061 1.139966685416096
6.59340810776 0.0699708723864455 0.101193213082115 -3.099205685340625 1.3632715134149933 2.050046335517449 -0.5200274433105061 1.139966685416096
6.60319519043 0.0699708723864455 0.101193213082115 -3.099205685340625 1.3632715134149933 2.050046335517449 -0.5200274433105061 1.139966685416096
6.60319519043 0.0699708723864455 0.101193213082115 -3.099205685340625 1.3632715134149933 2.050046335517449 -0.5200274433105061 1.139966685416096
6.61340308189 0.0699708723864455 0.101193213082115 -3.099205685340625 1.3632715134149933 2.050046335517449 -0.5200274433105061 1.139966685416096
6.61340308189 0.0699708723864455 0.101193213082115 -3.099205685340625 1.3632715134149933 2.050046335517449 -0.5200274433105061 1.139966685416096
6.62333011627 0.0699708723864455 0.101193213082115 -3.099205685340625 1.3632715134149933 2.050046335517449 -0.5200274433105061 1.139966685416096
6.62333011627 0.0699708723864455 0.101193213082115 -3.099205685340625 1.3632715134149933 2.050046335517449 -0.5200274433105061 1.139966685416096
6.63325214386 0.0699708723864455 0.101193213082115 -3.099205685340625 1.3632715134149933 2.050046335517449 -0.5200274433105061 1.139966685416096
6.63325214386 0.0699708723864455 0.101193213082115 -3.099205685340625 1.3632715134149933 2.050046335517449 -0.5200274433105061 1.139966685416096
6.64328217506 0.0699708723864455 0.101193213082115 -3.099205685340625 1.3632715134149933 2.050046335517449 -0.5200274433105061 1.139966685416096
6.64328217506 0.0699708723864455 0.101193213082115 -3.099205685340625 1.3632715134149933 2.050046335517449 -0.5200274433105061 1.139966685416096
6.65336608887 0.0699708723864455 0.101193213082115 -3.099205685340625 1.3632715134149933 2.050046335517449 -0.5200274433105061 1.139966685416096
6.65336608887 0.0699708723864455 0.101193213082115 -3.099205685340625 1.3632715134149933 2.050046335517449 -0.5200274433105061 1.139966685416096
6.66315603256 0.0699708723864455 0.101193213082115 -3.099205685340625 1.3632715134149933 2.050046335517449 -0.5200274433105061 1.139966685416096
6.66315603256 0.0699708723864455 0.101193213082115 -3.099205685340625 1.3632715134149933 2.050046335517449 -0.5200274433105061 1.139966685416096
6.67340302467 0.0699708723864455 0.101193213082115 -3.099205685340625 1.3632715134149933 2.050046335517449 -0.5200274433105061 1.139966685416096
6.67340302467 0.0699708723864455 0.101193213082115 -3.099205685340625 1.3632715134149933 2.050046335517449 -0.5200274433105061 1.139966685416096
6.6832921505 0.0699708723864455 0.101193213082115 -3.099205685340625 1.3632715134149933 2.050046335517449 -0.5200274433105061 1.139966685416096
6.6832921505 0.0699708723864455 0.101193213082115 -3.099205685340625 1.3632715134149933 2.050046335517449 -0.5200274433105061 1.139966685416096
6.69336605072 0.0699708723864455 0.101193213082115 -3.099205685340625 1.3632715134149933 2.050046335517449 -0.5200274433105061 1.139966685416096
6.69336605072 0.0699708723864455 0.101193213082115 -3.099205685340625 1.3632715134149933 2.050046335517449 -0.5200274433105061 1.139966685416096
6.70327210426 0.0699708723864455 0.101193213082115 -3.099205685340625 1.3632715134149933 2.050046335517449 -0.5200274433105061 1.139966685416096
6.70327210426 0.0699708723864455 0.101193213082115 -3.099205685340625 1.3632715134149933 2.050046335517449 -0.5200274433105061 1.139966685416096
6.71336817741 0.0699708723864455 0.101193213082115 -3.099205685340625 1.3632715134149933 2.050046335517449 -0.5200274433105061 1.139966685416096
6.71336817741 0.0699708723864455 0.101193213082115 -3.099205685340625 1.3632715134149933 2.050046335517449 -0.5200274433105061 1.139966685416096
6.72344112396 0.0699708723864455 0.101193213082115 -3.099205685340625 1.3632715134149933 2.050046335517449 -0.5200274433105061 1.139966685416096
6.72344112396 0.0699708723864455 0.101193213082115 -3.099205685340625 1.3632715134149933 2.050046335517449 -0.5200274433105061 1.139966685416096
6.7333650589 0.0699708723864455 0.101193213082115 -3.099205685340625 1.3632715134149933 2.050046335517449 -0.5200274433105061 1.139966685416096
6.7333650589 0.0699708723864455 0.101193213082115 -3.099205685340625 1.3632715134149933 2.050046335517449 -0.5200274433105061 1.139966685416096
6.74328112602 0.0699708723864455 0.101193213082115 -3.099205685340625 1.3632715134149933 2.050046335517449 -0.5200274433105061 1.139966685416096
6.74328112602 0.0699708723864455 0.101193213082115 -3.099205685340625 1.3632715134149933 2.050046335517449 -0.5200274433105061 1.139966685416096
6.75329017639 0.0699708723864455 0.101193213082115 -3.099205685340625 1.3632715134149933 2.050046335517449 -0.5200274433105061 1.139966685416096
6.75329017639 0.0699708723864455 0.101193213082115 -3.099205685340625 1.3632715134149933 2.050046335517449 -0.5200274433105061 1.139966685416096
6.76328420639 0.0699708723864455 0.101193213082115 -3.099205685340625 1.3632715134149933 2.050046335517449 -0.5200274433105061 1.139966685416096
6.76328420639 0.0699708723864455 0.101193213082115 -3.099205685340625 1.3632715134149933 2.050046335517449 -0.5200274433105061 1.139966685416096
6.77323412895 0.0699708723864455 0.101193213082115 -3.099175005317922 1.3632715134149933 2.050046335517449 -0.5200274433105061 1.139966685416096
6.77323412895 0.0699708723864455 0.101193213082115 -3.099175005317922 1.3632715134149933 2.050046335517449 -0.5200274433105061 1.139966685416096
6.78298306465 0.0700168924205004 0.101193213082115 -3.097840424330332 1.36324083339229 2.050046335517449 -0.5200274433105061 1.139966685416096
6.78298306465 0.0700168924205004 0.101193213082115 -3.097840424330332 1.36324083339229 2.050046335517449 -0.5200274433105061 1.139966685416096
6.79310011864 0.0700168924205004 0.101193213082115 -3.097840424330332 1.36324083339229 2.050046335517449 -0.5200274433105061 1.139966685416096
6.79310011864 0.0700168924205004 0.101193213082115 -3.097840424330332 1.36324083339229 2.050046335517449 -0.5200274433105061 1.139966685416096
6.80323505402 0.0700168924205004 0.101193213082115 -3.097840424330332 1.36324083339229 2.050046335517449 -0.5200274433105061 1.139966685416096
6.80323505402 0.0700168924205004 0.101193213082115 -3.097840424330332 1.36324083339229 2.050046335517449 -0.5200274433105061 1.139966685416096
6.8133020401 0.0700168924205004 0.101193213082115 -3.097840424330332 1.36324083339229 2.050046335517449 -0.5200274433105061 1.139966685416096
6.8133020401 0.0700168924205004 0.101193213082115 -3.097840424330332 1.36324083339229 2.050046335517449 -0.5200274433105061 1.139966685416096
6.8232421875 0.0700168924205004 0.101193213082115 -3.097840424330332 1.36324083339229 2.050046335517449 -0.5200274433105061 1.139966685416096
6.8232421875 0.0700168924205004 0.101193213082115 -3.097840424330332 1.36324083339229 2.050046335517449 -0.5200274433105061 1.139966685416096
6.83340001106 0.0700168924205004 0.101193213082115 -3.097840424330332 1.36324083339229 2.050046335517449 -0.5200274433105061 1.139966685416096
6.83340001106 0.0700168924205004 0.101193213082115 -3.097840424330332 1.36324083339229 2.050046335517449 -0.5200274433105061 1.139966685416096
6.84332609177 0.0700168924205004 0.101193213082115 -3.0973495439670806 1.36324083339229 2.050046335517449 -0.5200274433105061 1.139966685416096
6.84332609177 0.0700168924205004 0.101193213082115 -3.0973495439670806 1.36324083339229 2.050046335517449 -0.5200274433105061 1.139966685416096
6.85336709023 0.0700168924205004 0.101193213082115 -3.0973495439670806 1.36324083339229 2.050046335517449 -0.5200274433105061 1.139966685416096
6.85336709023 0.0700168924205004 0.101193213082115 -3.0973495439670806 1.36324083339229 2.050046335517449 -0.5200274433105061 1.139966685416096
6.86294817924 0.0703543726702357 0.101193213082115 -3.0948798021394714 1.36324083339229 2.050046335517449 -0.5200274433105061 1.139966685416096
6.86294817924 0.0703543726702357 0.101193213082115 -3.0948798021394714 1.36324083339229 2.050046335517449 -0.5200274433105061 1.139966685416096
6.87301206589 0.0703543726702357 0.101193213082115 -3.0948798021394714 1.36324083339229 2.050046335517449 -0.5200274433105061 1.139966685416096
6.87301206589 0.0703543726702357 0.101193213082115 -3.0948798021394714 1.36324083339229 2.050046335517449 -0.5200274433105061 1.139966685416096
6.88315010071 0.0719804138735062 0.101193213082115 -3.089065937837212 1.36324083339229 2.050046335517449 -0.5200274433105061 1.139966685416096
6.88315010071 0.0719804138735062 0.101193213082115 -3.089065937837212 1.36324083339229 2.050046335517449 -0.5200274433105061 1.139966685416096
6.89298820496 0.0719804138735062 0.101193213082115 -3.089065937837212 1.36324083339229 2.050046335517449 -0.5200274433105061 1.139966685416096
6.89298820496 0.0719804138735062 0.101193213082115 -3.089065937837212 1.36324083339229 2.050046335517449 -0.5200274433105061 1.139966685416096
6.90289020538 0.0719804138735062 0.101193213082115 -3.089065937837212 1.36324083339229 2.050046335517449 -0.5200274433105061 1.139966685416096
6.90289020538 0.0719804138735062 0.101193213082115 -3.089065937837212 1.36324083339229 2.050046335517449 -0.5200274433105061 1.139966685416096
6.91331219673 0.075079096166531 0.101193213082115 -3.071148804578533 1.363164133335532 2.050046335517449 -0.5200274433105061 1.139966685416096
6.91331219673 0.075079096166531 0.101193213082115 -3.071148804578533 1.363164133335532 2.050046335517449 -0.5200274433105061 1.139966685416096
6.92327404022 0.0785612787433462 0.101193213082115 -3.037508159684456 1.3627806330517418 2.050046335517449 -0.5200274433105061 1.139966685416096
6.92327404022 0.0785612787433462 0.101193213082115 -3.037508159684456 1.3627806330517418 2.050046335517449 -0.5200274433105061 1.139966685416096
6.93335604668 0.0785612787433462 0.101193213082115 -3.037508159684456 1.3627806330517418 2.050046335517449 -0.5200274433105061 1.139966685416096
6.93335604668 0.0785612787433462 0.101193213082115 -3.037508159684456 1.3627806330517418 2.050046335517449 -0.5200274433105061 1.139966685416096
6.9432311058 0.0786839988341591 0.101193213082115 -3.029638733861081 1.3625965529155224 2.050046335517449 -0.5200274433105061 1.139966685416096
6.9432311058 0.0786839988341591 0.101193213082115 -3.029638733861081 1.3625965529155224 2.050046335517449 -0.5200274433105061 1.139966685416096
6.95335316658 0.0786839988341591 0.101193213082115 -3.029638733861081 1.3625965529155224 2.050046335517449 -0.5200274433105061 1.139966685416096
6.95335316658 0.0786839988341591 0.101193213082115 -3.029638733861081 1.3625965529155224 2.050046335517449 -0.5200274433105061 1.139966685416096
6.96327710152 0.0786839988341591 0.101193213082115 -3.029638733861081 1.3625965529155224 2.050046335517449 -0.5200274433105061 1.139966685416096
6.96327710152 0.0786839988341591 0.101193213082115 -3.029638733861081 1.3625965529155224 2.050046335517449 -0.5200274433105061 1.139966685416096
6.9734082222 0.0786839988341591 0.101193213082115 -3.029638733861081 1.3625965529155224 2.050046335517449 -0.5200274433105061 1.139966685416096
6.9734082222 0.0786839988341591 0.101193213082115 -3.029638733861081 1.3625965529155224 2.050046335517449 -0.5200274433105061 1.139966685416096
6.98297405243 0.0786839988341591 0.101193213082115 -3.029638733861081 1.3625965529155224 2.050046335517449 -0.5200274433105061 1.139966685416096
6.98297405243 0.0786839988341591 0.101193213082115 -3.029638733861081 1.3625965529155224 2.050046335517449 -0.5200274433105061 1.139966685416096
6.99316501617 0.0790521591065977 0.101193213082115 -2.9821767387392044 1.361722172268481 2.050046335517449 -0.5200274433105061 1.139966685416096
6.99316501617 0.0790521591065977 0.101193213082115 -2.9821767387392044 1.361722172268481 2.050046335517449 -0.5200274433105061 1.139966685416096
7.00369501114 0.0654762490604243 0.100840392821028 -2.079002890390557 1.3600654510425072 2.050046335517449 -0.5200274433105061 1.139966685416096
7.00369501114 0.0654762490604243 0.100840392821028 -2.079002890390557 1.3600654510425072 2.050046335517449 -0.5200274433105061 1.139966685416096
7.01334214211 0.0654762490604243 0.100840392821028 -2.079002890390557 1.3600654510425072 2.050046335517449 -0.5200274433105061 1.139966685416096
7.01334214211 0.0654762490604243 0.100840392821028 -2.079002890390557 1.3600654510425072 2.050046335517449 -0.5200274433105061 1.139966685416096
7.02325105667 0.0654762490604243 0.100840392821028 -2.079002890390557 1.3600654510425072 2.050046335517449 -0.5200274433105061 1.139966685416096
7.02325105667 0.0654762490604243 0.100840392821028 -2.079002890390557 1.3600654510425072 2.050046335517449 -0.5200274433105061 1.139966685416096
7.03325009346 0.063098547300925 0.100840392821028 -1.97898601637807 1.3600654510425072 2.050046335517449 -0.5200274433105061 1.139966685416096
7.03325009346 0.063098547300925 0.100840392821028 -1.97898601637807 1.3600654510425072 2.050046335517449 -0.5200274433105061 1.139966685416096
7.04317522049 0.063098547300925 0.100840392821028 -1.97898601637807 1.3600654510425072 2.050046335517449 -0.5200274433105061 1.139966685416096
7.04317522049 0.063098547300925 0.100840392821028 -1.97898601637807 1.3600654510425072 2.050046335517449 -0.5200274433105061 1.139966685416096
7.05337500572 0.063098547300925 0.100840392821028 -1.97898601637807 1.3600654510425072 2.050046335517449 -0.5200274433105061 1.139966685416096
7.05337500572 0.063098547300925 0.100840392821028 -1.97898601637807 1.3600654510425072 2.050046335517449 -0.5200274433105061 1.139966685416096
7.06327009201 0.063098547300925 0.100840392821028 -1.97898601637807 1.3600654510425072 2.050046335517449 -0.5200274433105061 1.139966685416096
7.06327009201 0.063098547300925 0.100840392821028 -1.97898601637807 1.3600654510425072 2.050046335517449 -0.5200274433105061 1.139966685416096
7.07332515717 0.063098547300925 0.100840392821028 -1.97898601637807 1.3600654510425072 2.050046335517449 -0.5200274433105061 1.139966685416096
7.07332515717 0.063098547300925 0.100840392821028 -1.97898601637807 1.3600654510425072 2.050046335517449 -0.5200274433105061 1.139966685416096
7.08328700066 0.063098547300925 0.100840392821028 -1.97898601637807 1.3600654510425072 2.050046335517449 -0.5200274433105061 1.139966685416096
7.08328700066 0.063098547300925 0.100840392821028 -1.97898601637807 1.3600654510425072 2.050046335517449 -0.5200274433105061 1.139966685416096
7.09299111366 0.063098547300925 0.100840392821028 -1.97898601637807 1.3600654510425072 2.050046335517449 -0.5200274433105061 1.139966685416096
7.09299111366 0.063098547300925 0.100840392821028 -1.97898601637807 1.3600654510425072 2.050046335517449 -0.5200274433105061 1.139966685416096
7.10331320763 0.063098547300925 0.100840392821028 -1.97898601637807 1.3600654510425072 2.050046335517449 -0.5200274433105061 1.139966685416096
7.10331320763 0.063098547300925 0.100840392821028 -1.97898601637807 1.3600654510425072 2.050046335517449 -0.5200274433105061 1.139966685416096
7.11405920982 0.0612730859500835 0.100840392821028 -1.7191722441158783 1.3600654510425072 2.050046335517449 -0.5200274433105061 1.139966685416096
7.11405920982 0.0612730859500835 0.100840392821028 -1.7191722441158783 1.3600654510425072 2.050046335517449 -0.5200274433105061 1.139966685416096
7.12288403511 0.0610429857798095 0.100840392821028 -1.6990308092112163 1.3600654510425072 2.050046335517449 -0.5200274433105061 1.139966685416096
7.12288403511 0.0610429857798095 0.100840392821028 -1.6990308092112163 1.3600654510425072 2.050046335517449 -0.5200274433105061 1.139966685416096
7.13296508789 0.0577602233505651 0.100840392821028 -1.629279777595453 1.3601728311219683 2.050046335517449 -0.5200274433105061 1.139966685416096
7.13296508789 0.0577602233505651 0.100840392821028 -1.629279777595453 1.3601728311219683 2.050046335517449 -0.5200274433105061 1.139966685416096
7.14291906357 0.0577602233505651 0.100840392821028 -1.629279777595453 1.3601728311219683 2.050046335517449 -0.5200274433105061 1.139966685416096
7.14291906357 0.0577602233505651 0.100840392821028 -1.629279777595453 1.3601728311219683 2.050046335517449 -0.5200274433105061 1.139966685416096
7.1557071209 0.0486175765850067 0.1008097127983248 -1.5721228952993602 1.3602035111446715 2.050046335517449 -0.5200274433105061 1.139966685416096
7.1557071209 0.0486175765850067 0.1008097127983248 -1.5721228952993602 1.3602035111446715 2.050046335517449 -0.5200274433105061 1.139966685416096
7.16294717789 0.0486175765850067 0.1008097127983248 -1.5721228952993602 1.3602035111446715 2.050046335517449 -0.5200274433105061 1.139966685416096
7.16294717789 0.0486175765850067 0.1008097127983248 -1.5721228952993602 1.3602035111446715 2.050046335517449 -0.5200274433105061 1.139966685416096
7.17311000824 0.0486175765850067 0.1008097127983248 -1.5721228952993602 1.3602035111446715 2.050046335517449 -0.5200274433105061 1.139966685416096
7.17311000824 0.0486175765850067 0.1008097127983248 -1.5721228952993602 1.3602035111446715 2.050046335517449 -0.5200274433105061 1.139966685416096
7.18325805664 0.0473596956541748 0.1008097127983248 -1.5648824099414012 1.3602035111446715 2.050046335517449 -0.5200274433105061 1.139966685416096
7.18325805664 0.0473596956541748 0.1008097127983248 -1.5648824099414012 1.3602035111446715 2.050046335517449 -0.5200274433105061 1.139966685416096
7.19302105904 0.0473596956541748 0.1008097127983248 -1.5648824099414012 1.3602035111446715 2.050046335517449 -0.5200274433105061 1.139966685416096
7.19302105904 0.0473596956541748 0.1008097127983248 -1.5648824099414012 1.3602035111446715 2.050046335517449 -0.5200274433105061 1.139966685416096
7.20319199562 0.0473596956541748 0.1008097127983248 -1.5648824099414012 1.3602035111446715 2.050046335517449 -0.5200274433105061 1.139966685416096
7.20319199562 0.0473596956541748 0.1008097127983248 -1.5648824099414012 1.3602035111446715 2.050046335517449 -0.5200274433105061 1.139966685416096
7.2133641243 0.0473596956541748 0.1008097127983248 -1.5648824099414012 1.3602035111446715 2.050046335517449 -0.5200274433105061 1.139966685416096
7.2133641243 0.0473596956541748 0.1008097127983248 -1.5648824099414012 1.3602035111446715 2.050046335517449 -0.5200274433105061 1.139966685416096
7.22315502167 0.0473596956541748 0.1008097127983248 -1.5648824099414012 1.3602035111446715 2.050046335517449 -0.5200274433105061 1.139966685416096
7.22315502167 0.0473596956541748 0.1008097127983248 -1.5648824099414012 1.3602035111446715 2.050046335517449 -0.5200274433105061 1.139966685416096
7.23333501816 0.0473596956541748 0.1008097127983248 -1.5648824099414012 1.3602035111446715 2.050046335517449 -0.5200274433105061 1.139966685416096
7.23333501816 0.0473596956541748 0.1008097127983248 -1.5648824099414012 1.3602035111446715 2.050046335517449 -0.5200274433105061 1.139966685416096
7.24332213402 0.0473596956541748 0.1008097127983248 -1.5648824099414012 1.3602035111446715 2.050046335517449 -0.5200274433105061 1.139966685416096
7.24332213402 0.0473596956541748 0.1008097127983248 -1.5648824099414012 1.3602035111446715 2.050046335517449 -0.5200274433105061 1.139966685416096
7.25320219994 0.0473596956541748 0.1008097127983248 -1.5648824099414012 1.3602035111446715 2.050046335517449 -0.5200274433105061 1.139966685416096
7.25320219994 0.0473596956541748 0.1008097127983248 -1.5648824099414012 1.3602035111446715 2.050046335517449 -0.5200274433105061 1.139966685416096
7.26324415207 0.0473596956541748 0.1008097127983248 -1.5648824099414012 1.3602035111446715 2.050046335517449 -0.5200274433105061 1.139966685416096
7.26324415207 0.0473596956541748 0.1008097127983248 -1.5648824099414012 1.3602035111446715 2.050046335517449 -0.5200274433105061 1.139966685416096
7.27336215973 0.0473596956541748 0.1008097127983248 -1.5648824099414012 1.3602035111446715 2.050046335517449 -0.5200274433105061 1.139966685416096
7.27336215973 0.0473596956541748 0.1008097127983248 -1.5648824099414012 1.3602035111446715 2.050046335517449 -0.5200274433105061 1.139966685416096
7.28345513344 0.0473596956541748 0.1008097127983248 -1.5648824099414012 1.3602035111446715 2.050046335517449 -0.5200274433105061 1.139966685416096
7.28345513344 0.0473596956541748 0.1008097127983248 -1.5648824099414012 1.3602035111446715 2.050046335517449 -0.5200274433105061 1.139966685416096
7.29338002205 0.0473596956541748 0.1008097127983248 -1.5648824099414012 1.3602035111446715 2.050046335517449 -0.5200274433105061 1.139966685416096
7.29338002205 0.0473596956541748 0.1008097127983248 -1.5648824099414012 1.3602035111446715 2.050046335517449 -0.5200274433105061 1.139966685416096
7.30309414864 0.0473596956541748 0.1008097127983248 -1.5648824099414012 1.3602035111446715 2.050046335517449 -0.5200274433105061 1.139966685416096
7.30309414864 0.0473596956541748 0.1008097127983248 -1.5648824099414012 1.3602035111446715 2.050046335517449 -0.5200274433105061 1.139966685416096
7.31303119659 0.0473596956541748 0.1008097127983248 -1.5648824099414012 1.3602035111446715 2.050046335517449 -0.5200274433105061 1.139966685416096
7.31303119659 0.0473596956541748 0.1008097127983248 -1.5648824099414012 1.3602035111446715 2.050046335517449 -0.5200274433105061 1.139966685416096
7.32293820381 0.0473596956541748 0.1008097127983248 -1.5648824099414012 1.3602035111446715 2.050046335517449 -0.5200274433105061 1.139966685416096
7.32293820381 0.0473596956541748 0.1008097127983248 -1.5648824099414012 1.3602035111446715 2.050046335517449 -0.5200274433105061 1.139966685416096
7.33298921585 0.0473596956541748 0.1008097127983248 -1.5648824099414012 1.3602035111446715 2.050046335517449 -0.5200274433105061 1.139966685416096
7.33298921585 0.0473596956541748 0.1008097127983248 -1.5648824099414012 1.3602035111446715 2.050046335517449 -0.5200274433105061 1.139966685416096
7.34324502945 0.0473596956541748 0.1008097127983248 -1.5648824099414012 1.3602035111446715 2.050046335517449 -0.5200274433105061 1.139966685416096
7.34324502945 0.0473596956541748 0.1008097127983248 -1.5648824099414012 1.3602035111446715 2.050046335517449 -0.5200274433105061 1.139966685416096
7.35324406624 0.0473596956541748 0.1008097127983248 -1.5648824099414012 1.3602035111446715 2.050046335517449 -0.5200274433105061 1.139966685416096
7.35324406624 0.0473596956541748 0.1008097127983248 -1.5648824099414012 1.3602035111446715 2.050046335517449 -0.5200274433105061 1.139966685416096
7.36327815056 0.0473596956541748 0.1008097127983248 -1.5648824099414012 1.3602035111446715 2.050046335517449 -0.5200274433105061 1.139966685416096
7.36327815056 0.0473596956541748 0.1008097127983248 -1.5648824099414012 1.3602035111446715 2.050046335517449 -0.5200274433105061 1.139966685416096
7.37330412865 0.0473596956541748 0.1008097127983248 -1.5648824099414012 1.3602035111446715 2.050046335517449 -0.5200274433105061 1.139966685416096
7.37330412865 0.0473596956541748 0.1008097127983248 -1.5648824099414012 1.3602035111446715 2.050046335517449 -0.5200274433105061 1.139966685416096
7.38326501846 0.0473596956541748 0.1008097127983248 -1.5648824099414012 1.3602035111446715 2.050046335517449 -0.5200274433105061 1.139966685416096
7.38326501846 0.0473596956541748 0.1008097127983248 -1.5648824099414012 1.3602035111446715 2.050046335517449 -0.5200274433105061 1.139966685416096
7.39336204529 0.0473596956541748 0.1008097127983248 -1.5648824099414012 1.3602035111446715 2.050046335517449 -0.5200274433105061 1.139966685416096
7.39336204529 0.0473596956541748 0.1008097127983248 -1.5648824099414012 1.3602035111446715 2.050046335517449 -0.5200274433105061 1.139966685416096
7.40332007408 0.0473596956541748 0.1008097127983248 -1.5648824099414012 1.3602035111446715 2.050046335517449 -0.5200274433105061 1.139966685416096
7.40332007408 0.0473596956541748 0.1008097127983248 -1.5648824099414012 1.3602035111446715 2.050046335517449 -0.5200274433105061 1.139966685416096
7.41323804855 0.0473596956541748 0.1008097127983248 -1.5648824099414012 1.3602035111446715 2.050046335517449 -0.5200274433105061 1.139966685416096
7.41323804855 0.0473596956541748 0.1008097127983248 -1.5648824099414012 1.3602035111446715 2.050046335517449 -0.5200274433105061 1.139966685416096
7.42329120636 0.0473596956541748 0.1008097127983248 -1.5648824099414012 1.3602035111446715 2.050046335517449 -0.5200274433105061 1.139966685416096
7.42329120636 0.0473596956541748 0.1008097127983248 -1.5648824099414012 1.3602035111446715 2.050046335517449 -0.5200274433105061 1.139966685416096
7.43326711655 0.0473596956541748 0.1008097127983248 -1.5648824099414012 1.3602035111446715 2.050046335517449 -0.5200274433105061 1.139966685416096
7.43326711655 0.0473596956541748 0.1008097127983248 -1.5648824099414012 1.3602035111446715 2.050046335517449 -0.5200274433105061 1.139966685416096
7.44317817688 0.0473596956541748 0.1008097127983248 -1.5648824099414012 1.3602035111446715 2.050046335517449 -0.5200274433105061 1.139966685416096
7.44317817688 0.0473596956541748 0.1008097127983248 -1.5648824099414012 1.3602035111446715 2.050046335517449 -0.5200274433105061 1.139966685416096
7.45337200165 0.0473596956541748 0.1008097127983248 -1.5648824099414012 1.3602035111446715 2.050046335517449 -0.5200274433105061 1.139966685416096
7.45337200165 0.0473596956541748 0.1008097127983248 -1.5648824099414012 1.3602035111446715 2.050046335517449 -0.5200274433105061 1.139966685416096
7.46348810196 0.0473596956541748 0.1008097127983248 -1.5648824099414012 1.3602035111446715 2.050046335517449 -0.5200274433105061 1.139966685416096
7.46348810196 0.0473596956541748 0.1008097127983248 -1.5648824099414012 1.3602035111446715 2.050046335517449 -0.5200274433105061 1.139966685416096
7.47338008881 0.0473596956541748 0.1008097127983248 -1.5648824099414012 1.3602035111446715 2.050046335517449 -0.5200274433105061 1.139966685416096
7.47338008881 0.0473596956541748 0.1008097127983248 -1.5648824099414012 1.3602035111446715 2.050046335517449 -0.5200274433105061 1.139966685416096
7.48332500458 0.0473596956541748 0.1008097127983248 -1.5648824099414012 1.3602035111446715 2.050046335517449 -0.5200274433105061 1.139966685416096
7.48332500458 0.0473596956541748 0.1008097127983248 -1.5648824099414012 1.3602035111446715 2.050046335517449 -0.5200274433105061 1.139966685416096
7.49349522591 0.0473596956541748 0.1008097127983248 -1.5648824099414012 1.3602035111446715 2.050046335517449 -0.5200274433105061 1.139966685416096
7.49349522591 0.0473596956541748 0.1008097127983248 -1.5648824099414012 1.3602035111446715 2.050046335517449 -0.5200274433105061 1.139966685416096
7.50320410728 0.0473596956541748 0.1008097127983248 -1.5648824099414012 1.3602035111446715 2.050046335517449 -0.5200274433105061 1.139966685416096
7.50320410728 0.0473596956541748 0.1008097127983248 -1.5648824099414012 1.3602035111446715 2.050046335517449 -0.5200274433105061 1.139966685416096
7.51341915131 0.0473596956541748 0.1008097127983248 -1.5648824099414012 1.3602035111446715 2.050046335517449 -0.5200274433105061 1.139966685416096
7.51341915131 0.0473596956541748 0.1008097127983248 -1.5648824099414012 1.3602035111446715 2.050046335517449 -0.5200274433105061 1.139966685416096
7.52329421043 0.0473596956541748 0.1008097127983248 -1.5648824099414012 1.3602035111446715 2.050046335517449 -0.5200274433105061 1.139966685416096
7.52329421043 0.0473596956541748 0.1008097127983248 -1.5648824099414012 1.3602035111446715 2.050046335517449 -0.5200274433105061 1.139966685416096
7.53342604637 0.0473596956541748 0.1008097127983248 -1.5648824099414012 1.3602035111446715 2.050046335517449 -0.5200274433105061 1.139966685416096
7.53342604637 0.0473596956541748 0.1008097127983248 -1.5648824099414012 1.3602035111446715 2.050046335517449 -0.5200274433105061 1.139966685416096
7.5432100296 0.0473596956541748 0.1008097127983248 -1.5648824099414012 1.3602035111446715 2.050046335517449 -0.5200274433105061 1.139966685416096
7.5432100296 0.0473596956541748 0.1008097127983248 -1.5648824099414012 1.3602035111446715 2.050046335517449 -0.5200274433105061 1.139966685416096
7.55337405205 0.0473596956541748 0.1008097127983248 -1.5648824099414012 1.3602035111446715 2.050046335517449 -0.5200274433105061 1.139966685416096
7.55337405205 0.0473596956541748 0.1008097127983248 -1.5648824099414012 1.3602035111446715 2.050046335517449 -0.5200274433105061 1.139966685416096
7.56329417229 0.0473596956541748 0.1008097127983248 -1.5648824099414012 1.3602035111446715 2.050046335517449 -0.5200274433105061 1.139966685416096
7.56329417229 0.0473596956541748 0.1008097127983248 -1.5648824099414012 1.3602035111446715 2.050046335517449 -0.5200274433105061 1.139966685416096
7.57336711884 0.0473596956541748 0.1008097127983248 -1.5648824099414012 1.3602035111446715 2.050046335517449 -0.5200274433105061 1.139966685416096
7.57336711884 0.0473596956541748 0.1008097127983248 -1.5648824099414012 1.3602035111446715 2.050046335517449 -0.5200274433105061 1.139966685416096
7.58329415321 0.0473596956541748 0.1008097127983248 -1.5648824099414012 1.3602035111446715 2.050046335517449 -0.5200274433105061 1.139966685416096
7.58329415321 0.0473596956541748 0.1008097127983248 -1.5648824099414012 1.3602035111446715 2.050046335517449 -0.5200274433105061 1.139966685416096
7.59317207336 0.0473596956541748 0.1008097127983248 -1.5648824099414012 1.3602035111446715 2.050046335517449 -0.5200274433105061 1.139966685416096
7.59317207336 0.0473596956541748 0.1008097127983248 -1.5648824099414012 1.3602035111446715 2.050046335517449 -0.5200274433105061 1.139966685416096
7.60327315331 0.0473596956541748 0.1008097127983248 -1.5648824099414012 1.3602035111446715 2.050046335517449 -0.5200274433105061 1.139966685416096
7.60327315331 0.0473596956541748 0.1008097127983248 -1.5648824099414012 1.3602035111446715 2.050046335517449 -0.5200274433105061 1.139966685416096
7.61341619492 0.0473596956541748 0.1008097127983248 -1.5648824099414012 1.3602035111446715 2.050046335517449 -0.5200274433105061 1.139966685416096
7.61341619492 0.0473596956541748 0.1008097127983248 -1.5648824099414012 1.3602035111446715 2.050046335517449 -0.5200274433105061 1.139966685416096
7.62337112427 0.0473596956541748 0.1008097127983248 -1.5648824099414012 1.3602035111446715 2.050046335517449 -0.5200274433105061 1.139966685416096
7.62337112427 0.0473596956541748 0.1008097127983248 -1.5648824099414012 1.3602035111446715 2.050046335517449 -0.5200274433105061 1.139966685416096
7.63339209557 0.0473596956541748 0.1008097127983248 -1.5648824099414012 1.3602035111446715 2.050046335517449 -0.5200274433105061 1.139966685416096
7.63339209557 0.0473596956541748 0.1008097127983248 -1.5648824099414012 1.3602035111446715 2.050046335517449 -0.5200274433105061 1.139966685416096
7.64329600334 0.0473596956541748 0.1008097127983248 -1.5648824099414012 1.3602035111446715 2.050046335517449 -0.5200274433105061 1.139966685416096
7.64329600334 0.0473596956541748 0.1008097127983248 -1.5648824099414012 1.3602035111446715 2.050046335517449 -0.5200274433105061 1.139966685416096
7.65346908569 0.0473596956541748 0.1008097127983248 -1.5648824099414012 1.3602035111446715 2.050046335517449 -0.5200274433105061 1.139966685416096
7.65346908569 0.0473596956541748 0.1008097127983248 -1.5648824099414012 1.3602035111446715 2.050046335517449 -0.5200274433105061 1.139966685416096
7.66327404976 0.0473596956541748 0.1008097127983248 -1.5648824099414012 1.3602035111446715 2.050046335517449 -0.5200274433105061 1.139966685416096
7.66327404976 0.0473596956541748 0.1008097127983248 -1.5648824099414012 1.3602035111446715 2.050046335517449 -0.5200274433105061 1.139966685416096
7.67336702347 0.0473596956541748 0.1008097127983248 -1.5648824099414012 1.3602035111446715 2.050046335517449 -0.5200274433105061 1.139966685416096
7.67336702347 0.0473596956541748 0.1008097127983248 -1.5648824099414012 1.3602035111446715 2.050046335517449 -0.5200274433105061 1.139966685416096
7.68335819244 0.0473596956541748 0.1008097127983248 -1.5648824099414012 1.3602035111446715 2.050046335517449 -0.5200274433105061 1.139966685416096
7.68335819244 0.0473596956541748 0.1008097127983248 -1.5648824099414012 1.3602035111446715 2.050046335517449 -0.5200274433105061 1.139966685416096
7.69336819649 0.0473596956541748 0.1008097127983248 -1.5648824099414012 1.3602035111446715 2.050046335517449 -0.5200274433105061 1.139966685416096
7.69336819649 0.0473596956541748 0.1008097127983248 -1.5648824099414012 1.3602035111446715 2.050046335517449 -0.5200274433105061 1.139966685416096
7.70327711105 0.0473596956541748 0.1008097127983248 -1.5648824099414012 1.3602035111446715 2.050046335517449 -0.5200274433105061 1.139966685416096
7.70327711105 0.0473596956541748 0.1008097127983248 -1.5648824099414012 1.3602035111446715 2.050046335517449 -0.5200274433105061 1.139966685416096
7.71322202682 0.0473596956541748 0.1008097127983248 -1.5648824099414012 1.3602035111446715 2.050046335517449 -0.5200274433105061 1.139966685416096
7.71322202682 0.0473596956541748 0.1008097127983248 -1.5648824099414012 1.3602035111446715 2.050046335517449 -0.5200274433105061 1.139966685416096
7.72325015068 0.0473596956541748 0.1008097127983248 -1.5648824099414012 1.3602035111446715 2.050046335517449 -0.5200274433105061 1.139966685416096
7.72325015068 0.0473596956541748 0.1008097127983248 -1.5648824099414012 1.3602035111446715 2.050046335517449 -0.5200274433105061 1.139966685416096
7.73327207565 0.0470068753930878 0.10076369276427 -1.495944398927273 1.3604336113149456 2.050046335517449 -0.5200274433105061 1.139966685416096
7.73327207565 0.0470068753930878 0.10076369276427 -1.495944398927273 1.3604336113149456 2.050046335517449 -0.5200274433105061 1.139966685416096
7.74325299263 0.0470068753930878 0.10076369276427 -1.495944398927273 1.3604336113149456 2.050046335517449 -0.5200274433105061 1.139966685416096
7.74325299263 0.0470068753930878 0.10076369276427 -1.495944398927273 1.3604336113149456 2.050046335517449 -0.5200274433105061 1.139966685416096
7.75334620476 0.0470068753930878 0.10076369276427 -1.495944398927273 1.3604336113149456 2.050046335517449 -0.5200274433105061 1.139966685416096
7.75334620476 0.0470068753930878 0.10076369276427 -1.495944398927273 1.3604336113149456 2.050046335517449 -0.5200274433105061 1.139966685416096
7.76334500313 0.0470068753930878 0.10076369276427 -1.495944398927273 1.3604336113149456 2.050046335517449 -0.5200274433105061 1.139966685416096
7.76334500313 0.0470068753930878 0.10076369276427 -1.495944398927273 1.3604336113149456 2.050046335517449 -0.5200274433105061 1.139966685416096
7.77334904671 0.0470068753930878 0.10076369276427 -1.495944398927273 1.3604336113149456 2.050046335517449 -0.5200274433105061 1.139966685416096
7.77334904671 0.0470068753930878 0.10076369276427 -1.495944398927273 1.3604336113149456 2.050046335517449 -0.5200274433105061 1.139966685416096
7.78343319893 0.0470068753930878 0.10076369276427 -1.495944398927273 1.3604336113149456 2.050046335517449 -0.5200274433105061 1.139966685416096
7.78343319893 0.0470068753930878 0.10076369276427 -1.495944398927273 1.3604336113149456 2.050046335517449 -0.5200274433105061 1.139966685416096
7.79335522652 0.0470068753930878 0.10076369276427 -1.495944398927273 1.3604336113149456 2.050046335517449 -0.5200274433105061 1.139966685416096
7.79335522652 0.0470068753930878 0.10076369276427 -1.495944398927273 1.3604336113149456 2.050046335517449 -0.5200274433105061 1.139966685416096
7.8033041954 0.0470068753930878 0.10076369276427 -1.495944398927273 1.3604336113149456 2.050046335517449 -0.5200274433105061 1.139966685416096
7.8033041954 0.0470068753930878 0.10076369276427 -1.495944398927273 1.3604336113149456 2.050046335517449 -0.5200274433105061 1.139966685416096
7.81335020065 0.0470068753930878 0.10076369276427 -1.495944398927273 1.3604336113149456 2.050046335517449 -0.5200274433105061 1.139966685416096
7.81335020065 0.0470068753930878 0.10076369276427 -1.495944398927273 1.3604336113149456 2.050046335517449 -0.5200274433105061 1.139966685416096
7.8231420517 0.0470068753930878 0.0996898919696574 -1.4255030668006872 1.3631487933241804 2.050046335517449 -0.5200274433105061 1.139966685416096
7.8231420517 0.0470068753930878 0.0996898919696574 -1.4255030668006872 1.3631487933241804 2.050046335517449 -0.5200274433105061 1.139966685416096
7.83336520195 0.0470068753930878 0.0996898919696574 -1.4255030668006872 1.3631487933241804 2.050046335517449 -0.5200274433105061 1.139966685416096
7.83336520195 0.0470068753930878 0.0996898919696574 -1.4255030668006872 1.3631487933241804 2.050046335517449 -0.5200274433105061 1.139966685416096
7.84319019318 0.0470068753930878 0.0996898919696574 -1.4255030668006872 1.3631487933241804 2.050046335517449 -0.5200274433105061 1.139966685416096
7.84319019318 0.0470068753930878 0.0996898919696574 -1.4255030668006872 1.3631487933241804 2.050046335517449 -0.5200274433105061 1.139966685416096
7.85318422318 0.0470068753930878 0.0996898919696574 -1.4255030668006872 1.3631487933241804 2.050046335517449 -0.5200274433105061 1.139966685416096
7.85318422318 0.0470068753930878 0.0996898919696574 -1.4255030668006872 1.3631487933241804 2.050046335517449 -0.5200274433105061 1.139966685416096
7.86327719688 0.0470068753930878 0.0996898919696574 -1.4255030668006872 1.3631487933241804 2.050046335517449 -0.5200274433105061 1.139966685416096
7.86327719688 0.0470068753930878 0.0996898919696574 -1.4255030668006872 1.3631487933241804 2.050046335517449 -0.5200274433105061 1.139966685416096
7.87324213982 0.0470068753930878 0.0996898919696574 -1.4255030668006872 1.3631487933241804 2.050046335517449 -0.5200274433105061 1.139966685416096
7.87324213982 0.0470068753930878 0.0996898919696574 -1.4255030668006872 1.3631487933241804 2.050046335517449 -0.5200274433105061 1.139966685416096
7.88324809074 0.0470068753930878 0.0996898919696574 -1.4255030668006872 1.3631487933241804 2.050046335517449 -0.5200274433105061 1.139966685416096
7.88324809074 0.0470068753930878 0.0996898919696574 -1.4255030668006872 1.3631487933241804 2.050046335517449 -0.5200274433105061 1.139966685416096
7.89335203171 0.0470068753930878 0.0996898919696574 -1.4255030668006872 1.3631487933241804 2.050046335517449 -0.5200274433105061 1.139966685416096
7.89335203171 0.0470068753930878 0.0996898919696574 -1.4255030668006872 1.3631487933241804 2.050046335517449 -0.5200274433105061 1.139966685416096
7.90321707726 0.0470068753930878 0.0996898919696574 -1.4255030668006872 1.3631487933241804 2.050046335517449 -0.5200274433105061 1.139966685416096
7.90321707726 0.0470068753930878 0.0996898919696574 -1.4255030668006872 1.3631487933241804 2.050046335517449 -0.5200274433105061 1.139966685416096
7.91334104538 0.0470068753930878 0.0996898919696574 -1.4255030668006872 1.3631487933241804 2.050046335517449 -0.5200274433105061 1.139966685416096
7.91334104538 0.0470068753930878 0.0996898919696574 -1.4255030668006872 1.3631487933241804 2.050046335517449 -0.5200274433105061 1.139966685416096
7.92327404022 0.0470068753930878 0.0996898919696574 -1.4255030668006872 1.3631487933241804 2.050046335517449 -0.5200274433105061 1.139966685416096
7.92327404022 0.0470068753930878 0.0996898919696574 -1.4255030668006872 1.3631487933241804 2.050046335517449 -0.5200274433105061 1.139966685416096
7.93341803551 0.0470068753930878 0.0996898919696574 -1.4255030668006872 1.3631487933241804 2.050046335517449 -0.5200274433105061 1.139966685416096
7.93341803551 0.0470068753930878 0.0996898919696574 -1.4255030668006872 1.3631487933241804 2.050046335517449 -0.5200274433105061 1.139966685416096
7.94327306747 0.0470068753930878 0.0996898919696574 -1.4255030668006872 1.3631487933241804 2.050046335517449 -0.5200274433105061 1.139966685416096
7.94327306747 0.0470068753930878 0.0996898919696574 -1.4255030668006872 1.3631487933241804 2.050046335517449 -0.5200274433105061 1.139966685416096
7.95325303078 0.0470068753930878 0.09198920627115 -1.3873984786032918 1.3632561734036417 2.050046335517449 -0.5200274433105061 1.139966685416096
7.95325303078 0.0470068753930878 0.09198920627115 -1.3873984786032918 1.3632561734036417 2.050046335517449 -0.5200274433105061 1.139966685416096
7.96313619614 0.0470068753930878 0.09198920627115 -1.3873984786032918 1.3632561734036417 2.050046335517449 -0.5200274433105061 1.139966685416096
7.96313619614 0.0470068753930878 0.09198920627115 -1.3873984786032918 1.3632561734036417 2.050046335517449 -0.5200274433105061 1.139966685416096
7.97323417664 0.0470068753930878 0.0856691215942873 -1.3640356413147925 1.3633788934944546 2.050046335517449 -0.5200274433105061 1.139966685416096
7.97323417664 0.0470068753930878 0.0856691215942873 -1.3640356413147925 1.3633788934944546 2.050046335517449 -0.5200274433105061 1.139966685416096
7.98328113556 0.0470068753930878 0.0835828800504686 -1.3600318983520223 1.3633788934944546 2.050046335517449 -0.5200274433105061 1.139966685416096
7.98328113556 0.0470068753930878 0.0835828800504686 -1.3600318983520223 1.3633788934944546 2.050046335517449 -0.5200274433105061 1.139966685416096
7.99315905571 0.0470068753930878 0.0835828800504686 -1.3600318983520223 1.3633788934944546 2.050046335517449 -0.5200274433105061 1.139966685416096
7.99315905571 0.0470068753930878 0.0835828800504686 -1.3600318983520223 1.3633788934944546 2.050046335517449 -0.5200274433105061 1.139966685416096
8.00329113007 0.0470068753930878 0.0835828800504686 -1.3600318983520223 1.3633788934944546 2.050046335517449 -0.5200274433105061 1.139966685416096
8.00329113007 0.0470068753930878 0.0835828800504686 -1.3600318983520223 1.3633788934944546 2.050046335517449 -0.5200274433105061 1.139966685416096
8.01336812973 0.0470068753930878 0.0835828800504686 -1.3600318983520223 1.3633788934944546 2.050046335517449 -0.5200274433105061 1.139966685416096
8.01336812973 0.0470068753930878 0.0835828800504686 -1.3600318983520223 1.3633788934944546 2.050046335517449 -0.5200274433105061 1.139966685416096
8.02324819565 0.0470068753930878 0.0835828800504686 -1.3600318983520223 1.3633788934944546 2.050046335517449 -0.5200274433105061 1.139966685416096
8.02324819565 0.0470068753930878 0.0835828800504686 -1.3600318983520223 1.3633788934944546 2.050046335517449 -0.5200274433105061 1.139966685416096
8.03336310387 0.0470068753930878 0.0835828800504686 -1.3600318983520223 1.3633788934944546 2.050046335517449 -0.5200274433105061 1.139966685416096
8.03336310387 0.0470068753930878 0.0835828800504686 -1.3600318983520223 1.3633788934944546 2.050046335517449 -0.5200274433105061 1.139966685416096
8.04332113266 0.0470068753930878 0.0835828800504686 -1.3600318983520223 1.3633788934944546 2.050046335517449 -0.5200274433105061 1.139966685416096
8.04332113266 0.0470068753930878 0.0835828800504686 -1.3600318983520223 1.3633788934944546 2.050046335517449 -0.5200274433105061 1.139966685416096
8.05326914787 0.0470068753930878 0.0835828800504686 -1.3600318983520223 1.3633788934944546 2.050046335517449 -0.5200274433105061 1.139966685416096
8.05326914787 0.0470068753930878 0.0835828800504686 -1.3600318983520223 1.3633788934944546 2.050046335517449 -0.5200274433105061 1.139966685416096
8.06319713593 0.0470068753930878 0.0835828800504686 -1.3600318983520223 1.3633788934944546 2.050046335517449 -0.5200274433105061 1.139966685416096
8.06319713593 0.0470068753930878 0.0835828800504686 -1.3600318983520223 1.3633788934944546 2.050046335517449 -0.5200274433105061 1.139966685416096
8.07330417633 0.0470068753930878 0.0835828800504686 -1.3600318983520223 1.3633788934944546 2.050046335517449 -0.5200274433105061 1.139966685416096
8.07330417633 0.0470068753930878 0.0835828800504686 -1.3600318983520223 1.3633788934944546 2.050046335517449 -0.5200274433105061 1.139966685416096
8.08361816406 0.0470068753931 0.0813432383931 -1.35648835573 1.36339423351 2.05004633552 -0.520027443311 1.13996668542
8.08361816406 0.0470068753931 0.0813432383931 -1.35648835573 1.36339423351 2.05004633552 -0.520027443311 1.13996668542
8.09307312965 0.0470068753930878 0.0790422366903925 -1.35323627332326 1.363394233505806 2.050046335517449 -0.5200274433105061 1.139966685416096
8.09307312965 0.0470068753930878 0.0790422366903925 -1.35323627332326 1.363394233505806 2.050046335517449 -0.5200274433105061 1.139966685416096
8.10326600075 0.0470068753930878 0.0790422366903925 -1.35323627332326 1.363394233505806 2.050046335517449 -0.5200274433105061 1.139966685416096
8.10326600075 0.0470068753930878 0.0790422366903925 -1.35323627332326 1.363394233505806 2.050046335517449 -0.5200274433105061 1.139966685416096
8.11344003677 0.0470068753930878 0.0790422366903925 -1.35323627332326 1.363394233505806 2.050046335517449 -0.5200274433105061 1.139966685416096
8.11344003677 0.0470068753930878 0.0790422366903925 -1.35323627332326 1.363394233505806 2.050046335517449 -0.5200274433105061 1.139966685416096
8.12319421768 0.0470068753930878 0.0790422366903925 -1.35323627332326 1.363394233505806 2.050046335517449 -0.5200274433105061 1.139966685416096
8.12319421768 0.0470068753930878 0.0790422366903925 -1.35323627332326 1.363394233505806 2.050046335517449 -0.5200274433105061 1.139966685416096
8.13338899612 0.0470068753930878 0.0790422366903925 -1.35323627332326 1.363394233505806 2.050046335517449 -0.5200274433105061 1.139966685416096
8.13338899612 0.0470068753930878 0.0790422366903925 -1.35323627332326 1.363394233505806 2.050046335517449 -0.5200274433105061 1.139966685416096
8.14334607124 0.0470068753930878 0.0790422366903925 -1.35323627332326 1.363394233505806 2.050046335517449 -0.5200274433105061 1.139966685416096
8.14334607124 0.0470068753930878 0.0790422366903925 -1.35323627332326 1.363394233505806 2.050046335517449 -0.5200274433105061 1.139966685416096
8.1533010006 0.0470068753930878 0.0790422366903925 -1.35323627332326 1.363394233505806 2.050046335517449 -0.5200274433105061 1.139966685416096
8.1533010006 0.0470068753930878 0.0790422366903925 -1.35323627332326 1.363394233505806 2.050046335517449 -0.5200274433105061 1.139966685416096
8.16334605217 0.0470068753930878 0.0790422366903925 -1.35323627332326 1.363394233505806 2.050046335517449 -0.5200274433105061 1.139966685416096
8.16334605217 0.0470068753930878 0.0790422366903925 -1.35323627332326 1.363394233505806 2.050046335517449 -0.5200274433105061 1.139966685416096
8.17327618599 0.0470068753930878 0.0790422366903925 -1.35323627332326 1.363394233505806 2.050046335517449 -0.5200274433105061 1.139966685416096
8.17327618599 0.0470068753930878 0.0790422366903925 -1.35323627332326 1.363394233505806 2.050046335517449 -0.5200274433105061 1.139966685416096
8.18330407143 0.0470068753930878 0.0790422366903925 -1.35323627332326 1.363394233505806 2.050046335517449 -0.5200274433105061 1.139966685416096
8.18330407143 0.0470068753930878 0.0790422366903925 -1.35323627332326 1.363394233505806 2.050046335517449 -0.5200274433105061 1.139966685416096
8.19321417809 0.0470068753930878 0.0790422366903925 -1.35323627332326 1.363394233505806 2.050046335517449 -0.5200274433105061 1.139966685416096
8.19321417809 0.0470068753930878 0.0790422366903925 -1.35323627332326 1.363394233505806 2.050046335517449 -0.5200274433105061 1.139966685416096
8.20330715179 0.0470068753930878 0.0790422366903925 -1.35323627332326 1.363394233505806 2.050046335517449 -0.5200274433105061 1.139966685416096
8.20330715179 0.0470068753930878 0.0790422366903925 -1.35323627332326 1.363394233505806 2.050046335517449 -0.5200274433105061 1.139966685416096
8.21339321136 0.0470068753930878 0.0790422366903925 -1.35323627332326 1.363394233505806 2.050046335517449 -0.5200274433105061 1.139966685416096
8.21339321136 0.0470068753930878 0.0790422366903925 -1.35323627332326 1.363394233505806 2.050046335517449 -0.5200274433105061 1.139966685416096
8.22329521179 0.0470068753930878 0.0790422366903925 -1.35323627332326 1.363394233505806 2.050046335517449 -0.5200274433105061 1.139966685416096
8.22329521179 0.0470068753930878 0.0790422366903925 -1.35323627332326 1.363394233505806 2.050046335517449 -0.5200274433105061 1.139966685416096
8.23338508606 0.0470068753930878 0.0790422366903925 -1.35323627332326 1.363394233505806 2.050046335517449 -0.5200274433105061 1.139966685416096
8.23338508606 0.0470068753930878 0.0790422366903925 -1.35323627332326 1.363394233505806 2.050046335517449 -0.5200274433105061 1.139966685416096
8.24340701103 0.0470068753930878 0.0790422366903925 -1.35323627332326 1.363394233505806 2.050046335517449 -0.5200274433105061 1.139966685416096
8.24340701103 0.0470068753930878 0.0790422366903925 -1.35323627332326 1.363394233505806 2.050046335517449 -0.5200274433105061 1.139966685416096
8.25337815285 0.0470068753930878 0.0790422366903925 -1.35323627332326 1.363394233505806 2.050046335517449 -0.5200274433105061 1.139966685416096
8.25337815285 0.0470068753930878 0.0790422366903925 -1.35323627332326 1.363394233505806 2.050046335517449 -0.5200274433105061 1.139966685416096
8.26330709457 0.0470068753930878 0.0790422366903925 -1.35323627332326 1.363394233505806 2.050046335517449 -0.5200274433105061 1.139966685416096
8.26330709457 0.0470068753930878 0.0790422366903925 -1.35323627332326 1.363394233505806 2.050046335517449 -0.5200274433105061 1.139966685416096
8.2734541893 0.0470068753930878 0.0790422366903925 -1.35323627332326 1.363394233505806 2.050046335517449 -0.5200274433105061 1.139966685416096
8.2734541893 0.0470068753930878 0.0790422366903925 -1.35323627332326 1.363394233505806 2.050046335517449 -0.5200274433105061 1.139966685416096
8.28321409225 0.0470068753930878 0.0790422366903925 -1.35323627332326 1.363394233505806 2.050046335517449 -0.5200274433105061 1.139966685416096
8.28321409225 0.0470068753930878 0.0790422366903925 -1.35323627332326 1.363394233505806 2.050046335517449 -0.5200274433105061 1.139966685416096
8.29336309433 0.0470068753930878 0.0790422366903925 -1.35323627332326 1.363394233505806 2.050046335517449 -0.5200274433105061 1.139966685416096
8.29336309433 0.0470068753930878 0.0790422366903925 -1.35323627332326 1.363394233505806 2.050046335517449 -0.5200274433105061 1.139966685416096
8.30344200134 0.0470068753930878 0.0790422366903925 -1.35323627332326 1.363394233505806 2.050046335517449 -0.5200274433105061 1.139966685416096
8.30344200134 0.0470068753930878 0.0790422366903925 -1.35323627332326 1.363394233505806 2.050046335517449 -0.5200274433105061 1.139966685416096
8.31340813637 0.0470068753930878 0.0790422366903925 -1.35323627332326 1.363394233505806 2.050046335517449 -0.5200274433105061 1.139966685416096
8.31340813637 0.0470068753930878 0.0790422366903925 -1.35323627332326 1.363394233505806 2.050046335517449 -0.5200274433105061 1.139966685416096
8.32331418991 0.0470068753930878 0.0790422366903925 -1.35323627332326 1.363394233505806 2.050046335517449 -0.5200274433105061 1.139966685416096
8.32331418991 0.0470068753930878 0.0790422366903925 -1.35323627332326 1.363394233505806 2.050046335517449 -0.5200274433105061 1.139966685416096
8.33332920074 0.0470068753930878 0.0790422366903925 -1.35323627332326 1.363394233505806 2.050046335517449 -0.5200274433105061 1.139966685416096
8.33332920074 0.0470068753930878 0.0790422366903925 -1.35323627332326 1.363394233505806 2.050046335517449 -0.5200274433105061 1.139966685416096
8.34319210052 0.0470068753930878 0.0790422366903925 -1.35323627332326 1.363394233505806 2.050046335517449 -0.5200274433105061 1.139966685416096
8.34319210052 0.0470068753930878 0.0790422366903925 -1.35323627332326 1.363394233505806 2.050046335517449 -0.5200274433105061 1.139966685416096
8.35338521004 0.0470068753930878 0.0790422366903925 -1.35323627332326 1.363394233505806 2.050046335517449 -0.5200274433105061 1.139966685416096
8.35338521004 0.0470068753930878 0.0790422366903925 -1.35323627332326 1.363394233505806 2.050046335517449 -0.5200274433105061 1.139966685416096
8.36339616776 0.0470068753930878 0.0790422366903925 -1.35323627332326 1.363394233505806 2.050046335517449 -0.5200274433105061 1.139966685416096
8.36339616776 0.0470068753930878 0.0790422366903925 -1.35323627332326 1.363394233505806 2.050046335517449 -0.5200274433105061 1.139966685416096
8.37342619896 0.0470068753930878 0.0790422366903925 -1.35323627332326 1.363394233505806 2.050046335517449 -0.5200274433105061 1.139966685416096
8.37342619896 0.0470068753930878 0.0790422366903925 -1.35323627332326 1.363394233505806 2.050046335517449 -0.5200274433105061 1.139966685416096
8.38335418701 0.0470068753930878 0.0790422366903925 -1.35323627332326 1.363394233505806 2.050046335517449 -0.5200274433105061 1.139966685416096
8.38335418701 0.0470068753930878 0.0790422366903925 -1.35323627332326 1.363394233505806 2.050046335517449 -0.5200274433105061 1.139966685416096
8.39334917068 0.0470068753930878 0.0790422366903925 -1.35323627332326 1.363394233505806 2.050046335517449 -0.5200274433105061 1.139966685416096
8.39334917068 0.0470068753930878 0.0790422366903925 -1.35323627332326 1.363394233505806 2.050046335517449 -0.5200274433105061 1.139966685416096
8.40341114998 0.0470068753930878 0.0790422366903925 -1.35323627332326 1.363394233505806 2.050046335517449 -0.5200274433105061 1.139966685416096
8.40341114998 0.0470068753930878 0.0790422366903925 -1.35323627332326 1.363394233505806 2.050046335517449 -0.5200274433105061 1.139966685416096
8.41337108612 0.0470068753930878 0.0790422366903925 -1.35323627332326 1.363394233505806 2.050046335517449 -0.5200274433105061 1.139966685416096
8.41337108612 0.0470068753930878 0.0790422366903925 -1.35323627332326 1.363394233505806 2.050046335517449 -0.5200274433105061 1.139966685416096
8.42330503464 0.0470068753930878 0.0790422366903925 -1.35323627332326 1.363394233505806 2.050046335517449 -0.5200274433105061 1.139966685416096
8.42330503464 0.0470068753930878 0.0790422366903925 -1.35323627332326 1.363394233505806 2.050046335517449 -0.5200274433105061 1.139966685416096
8.43346309662 0.0470068753930878 0.0790422366903925 -1.35323627332326 1.363394233505806 2.050046335517449 -0.5200274433105061 1.139966685416096
8.43346309662 0.0470068753930878 0.0790422366903925 -1.35323627332326 1.363394233505806 2.050046335517449 -0.5200274433105061 1.139966685416096
8.4433259964 0.0470068753930878 0.0790422366903925 -1.35323627332326 1.363394233505806 2.050046335517449 -0.5200274433105061 1.139966685416096
8.4433259964 0.0470068753930878 0.0790422366903925 -1.35323627332326 1.363394233505806 2.050046335517449 -0.5200274433105061 1.139966685416096
8.45341014862 0.0470068753930878 0.0790422366903925 -1.35323627332326 1.363394233505806 2.050046335517449 -0.5200274433105061 1.139966685416096
8.45341014862 0.0470068753930878 0.0790422366903925 -1.35323627332326 1.363394233505806 2.050046335517449 -0.5200274433105061 1.139966685416096
8.46321606636 0.0470068753930878 0.0790422366903925 -1.35323627332326 1.363394233505806 2.050046335517449 -0.5200274433105061 1.139966685416096
8.46321606636 0.0470068753930878 0.0790422366903925 -1.35323627332326 1.363394233505806 2.050046335517449 -0.5200274433105061 1.139966685416096
8.47338914871 0.0470068753930878 0.0790422366903925 -1.35323627332326 1.363394233505806 2.050046335517449 -0.5200274433105061 1.139966685416096
8.47338914871 0.0470068753930878 0.0790422366903925 -1.35323627332326 1.363394233505806 2.050046335517449 -0.5200274433105061 1.139966685416096
8.48332118988 0.0470068753930878 0.0790422366903925 -1.35323627332326 1.363394233505806 2.050046335517449 -0.5200274433105061 1.139966685416096
8.48332118988 0.0470068753930878 0.0790422366903925 -1.35323627332326 1.363394233505806 2.050046335517449 -0.5200274433105061 1.139966685416096
8.49317908287 0.0470068753930878 0.0790422366903925 -1.35323627332326 1.363394233505806 2.050046335517449 -0.5200274433105061 1.139966685416096
8.49317908287 0.0470068753930878 0.0790422366903925 -1.35323627332326 1.363394233505806 2.050046335517449 -0.5200274433105061 1.139966685416096
8.50329208374 0.0470068753930878 0.0790422366903925 -1.35323627332326 1.363394233505806 2.050046335517449 -0.5200274433105061 1.139966685416096
8.50329208374 0.0470068753930878 0.0790422366903925 -1.35323627332326 1.363394233505806 2.050046335517449 -0.5200274433105061 1.139966685416096
8.51340413094 0.0470068753930878 0.0790422366903925 -1.35323627332326 1.363394233505806 2.050046335517449 -0.5200274433105061 1.139966685416096
8.51340413094 0.0470068753930878 0.0790422366903925 -1.35323627332326 1.363394233505806 2.050046335517449 -0.5200274433105061 1.139966685416096
8.52330112457 0.0470068753930878 0.0790422366903925 -1.35323627332326 1.363394233505806 2.050046335517449 -0.5200274433105061 1.139966685416096
8.52330112457 0.0470068753930878 0.0790422366903925 -1.35323627332326 1.363394233505806 2.050046335517449 -0.5200274433105061 1.139966685416096
8.53342700005 0.0470068753930878 0.0790422366903925 -1.35323627332326 1.363394233505806 2.050046335517449 -0.5200274433105061 1.139966685416096
8.53342700005 0.0470068753930878 0.0790422366903925 -1.35323627332326 1.363394233505806 2.050046335517449 -0.5200274433105061 1.139966685416096
8.54343008995 0.0470068753930878 0.0790422366903925 -1.35323627332326 1.363394233505806 2.050046335517449 -0.5200274433105061 1.139966685416096
8.54343008995 0.0470068753930878 0.0790422366903925 -1.35323627332326 1.363394233505806 2.050046335517449 -0.5200274433105061 1.139966685416096
8.55346798897 0.0470068753930878 0.0790422366903925 -1.35323627332326 1.363394233505806 2.050046335517449 -0.5200274433105061 1.139966685416096
8.55346798897 0.0470068753930878 0.0790422366903925 -1.35323627332326 1.363394233505806 2.050046335517449 -0.5200274433105061 1.139966685416096
8.56338906288 0.0470068753930878 0.0790422366903925 -1.35323627332326 1.363394233505806 2.050046335517449 -0.5200274433105061 1.139966685416096
8.56338906288 0.0470068753930878 0.0790422366903925 -1.35323627332326 1.363394233505806 2.050046335517449 -0.5200274433105061 1.139966685416096
8.57344222069 0.0470068753930878 0.0790422366903925 -1.35323627332326 1.363394233505806 2.050046335517449 -0.5200274433105061 1.139966685416096
8.57344222069 0.0470068753930878 0.0790422366903925 -1.35323627332326 1.363394233505806 2.050046335517449 -0.5200274433105061 1.139966685416096
8.58347606659 0.0470068753930878 0.0790422366903925 -1.35323627332326 1.363394233505806 2.050046335517449 -0.5200274433105061 1.139966685416096
8.58347606659 0.0470068753930878 0.0790422366903925 -1.35323627332326 1.363394233505806 2.050046335517449 -0.5200274433105061 1.139966685416096
8.59349799156 0.0470068753930878 0.0790422366903925 -1.35323627332326 1.363394233505806 2.050046335517449 -0.5200274433105061 1.139966685416096
8.59349799156 0.0470068753930878 0.0790422366903925 -1.35323627332326 1.363394233505806 2.050046335517449 -0.5200274433105061 1.139966685416096
8.60319900513 0.0470068753930878 0.0790422366903925 -1.35323627332326 1.363394233505806 2.050046335517449 -0.5200274433105061 1.139966685416096
8.60319900513 0.0470068753930878 0.0790422366903925 -1.35323627332326 1.363394233505806 2.050046335517449 -0.5200274433105061 1.139966685416096
8.61339211464 0.0470068753930878 0.0790422366903925 -1.35323627332326 1.363394233505806 2.050046335517449 -0.5200274433105061 1.139966685416096
8.61339211464 0.0470068753930878 0.0790422366903925 -1.35323627332326 1.363394233505806 2.050046335517449 -0.5200274433105061 1.139966685416096
8.62348818779 0.0470068753930878 0.0790422366903925 -1.35323627332326 1.363394233505806 2.050046335517449 -0.5200274433105061 1.139966685416096
8.62348818779 0.0470068753930878 0.0790422366903925 -1.35323627332326 1.363394233505806 2.050046335517449 -0.5200274433105061 1.139966685416096
8.63342905045 0.0470068753930878 0.0790422366903925 -1.35323627332326 1.363394233505806 2.050046335517449 -0.5200274433105061 1.139966685416096
8.63342905045 0.0470068753930878 0.0790422366903925 -1.35323627332326 1.363394233505806 2.050046335517449 -0.5200274433105061 1.139966685416096
8.64331412315 0.0470068753930878 0.0790422366903925 -1.35323627332326 1.363394233505806 2.050046335517449 -0.5200274433105061 1.139966685416096
8.64331412315 0.0470068753930878 0.0790422366903925 -1.35323627332326 1.363394233505806 2.050046335517449 -0.5200274433105061 1.139966685416096
8.6535050869 0.0470068753930878 0.0790422366903925 -1.35323627332326 1.363394233505806 2.050046335517449 -0.5200274433105061 1.139966685416096
8.6535050869 0.0470068753930878 0.0790422366903925 -1.35323627332326 1.363394233505806 2.050046335517449 -0.5200274433105061 1.139966685416096
8.66333317757 0.0470068753930878 0.0790422366903925 -1.35323627332326 1.363394233505806 2.050046335517449 -0.5200274433105061 1.139966685416096
8.66333317757 0.0470068753930878 0.0790422366903925 -1.35323627332326 1.363394233505806 2.050046335517449 -0.5200274433105061 1.139966685416096
8.67331004143 0.0470068753930878 0.0790422366903925 -1.35323627332326 1.363394233505806 2.050046335517449 -0.5200274433105061 1.139966685416096
8.67331004143 0.0470068753930878 0.0790422366903925 -1.35323627332326 1.363394233505806 2.050046335517449 -0.5200274433105061 1.139966685416096
8.68331718445 0.0470068753930878 0.0790422366903925 -1.35323627332326 1.363394233505806 2.050046335517449 -0.5200274433105061 1.139966685416096
8.68331718445 0.0470068753930878 0.0790422366903925 -1.35323627332326 1.363394233505806 2.050046335517449 -0.5200274433105061 1.139966685416096
8.69343519211 0.0470068753930878 0.0790422366903925 -1.35323627332326 1.363394233505806 2.050046335517449 -0.5200274433105061 1.139966685416096
8.69343519211 0.0470068753930878 0.0790422366903925 -1.35323627332326 1.363394233505806 2.050046335517449 -0.5200274433105061 1.139966685416096
8.703343153 0.0470068753930878 0.0790422366903925 -1.35323627332326 1.363394233505806 2.050046335517449 -0.5200274433105061 1.139966685416096
8.703343153 0.0470068753930878 0.0790422366903925 -1.35323627332326 1.363394233505806 2.050046335517449 -0.5200274433105061 1.139966685416096
8.71317100525 0.0470068753930878 0.0790422366903925 -1.35323627332326 1.363394233505806 2.050046335517449 -0.5200274433105061 1.139966685416096
8.71317100525 0.0470068753930878 0.0790422366903925 -1.35323627332326 1.363394233505806 2.050046335517449 -0.5200274433105061 1.139966685416096
8.72330522537 0.0470068753930878 0.0790422366903925 -1.35323627332326 1.363394233505806 2.050046335517449 -0.5200274433105061 1.139966685416096
8.72330522537 0.0470068753930878 0.0790422366903925 -1.35323627332326 1.363394233505806 2.050046335517449 -0.5200274433105061 1.139966685416096
8.73342418671 0.0470068753930878 0.0790422366903925 -1.35323627332326 1.363394233505806 2.050046335517449 -0.5200274433105061 1.139966685416096
8.73342418671 0.0470068753930878 0.0790422366903925 -1.35323627332326 1.363394233505806 2.050046335517449 -0.5200274433105061 1.139966685416096
8.74329018593 0.0470068753930878 0.0790422366903925 -1.35323627332326 1.363394233505806 2.050046335517449 -0.5200274433105061 1.139966685416096
8.74329018593 0.0470068753930878 0.0790422366903925 -1.35323627332326 1.363394233505806 2.050046335517449 -0.5200274433105061 1.139966685416096
8.75339603424 0.0470068753930878 0.0790422366903925 -1.35323627332326 1.363394233505806 2.050046335517449 -0.5200274433105061 1.139966685416096
8.75339603424 0.0470068753930878 0.0790422366903925 -1.35323627332326 1.363394233505806 2.050046335517449 -0.5200274433105061 1.139966685416096
8.76327610016 0.0470068753930878 0.0790422366903925 -1.35323627332326 1.363394233505806 2.050046335517449 -0.5200274433105061 1.139966685416096
8.76327610016 0.0470068753930878 0.0790422366903925 -1.35323627332326 1.363394233505806 2.050046335517449 -0.5200274433105061 1.139966685416096
8.77338504791 0.0470068753930878 0.0790422366903925 -1.35323627332326 1.363394233505806 2.050046335517449 -0.5200274433105061 1.139966685416096
8.77338504791 0.0470068753930878 0.0790422366903925 -1.35323627332326 1.363394233505806 2.050046335517449 -0.5200274433105061 1.139966685416096
8.78329610825 0.0470068753930878 0.0790422366903925 -1.35323627332326 1.363394233505806 2.050046335517449 -0.5200274433105061 1.139966685416096
8.78329610825 0.0470068753930878 0.0790422366903925 -1.35323627332326 1.363394233505806 2.050046335517449 -0.5200274433105061 1.139966685416096
8.79328799248 0.0470068753930878 0.0790422366903925 -1.35323627332326 1.363394233505806 2.050046335517449 -0.5200274433105061 1.139966685416096
8.79328799248 0.0470068753930878 0.0790422366903925 -1.35323627332326 1.363394233505806 2.050046335517449 -0.5200274433105061 1.139966685416096
8.80323004723 0.0470068753930878 0.0790422366903925 -1.35323627332326 1.363394233505806 2.050046335517449 -0.5200274433105061 1.139966685416096
8.80323004723 0.0470068753930878 0.0790422366903925 -1.35323627332326 1.363394233505806 2.050046335517449 -0.5200274433105061 1.139966685416096
8.81338000298 0.0470068753930878 0.0790422366903925 -1.35323627332326 1.363394233505806 2.050046335517449 -0.5200274433105061 1.139966685416096
8.81338000298 0.0470068753930878 0.0790422366903925 -1.35323627332326 1.363394233505806 2.050046335517449 -0.5200274433105061 1.139966685416096
8.82317519188 0.0470068753930878 0.0790422366903925 -1.35323627332326 1.363394233505806 2.050046335517449 -0.5200274433105061 1.139966685416096
8.82317519188 0.0470068753930878 0.0790422366903925 -1.35323627332326 1.363394233505806 2.050046335517449 -0.5200274433105061 1.139966685416096
8.83327722549 0.0470068753930878 0.0790422366903925 -1.35323627332326 1.363394233505806 2.050046335517449 -0.5200274433105061 1.139966685416096
8.83327722549 0.0470068753930878 0.0790422366903925 -1.35323627332326 1.363394233505806 2.050046335517449 -0.5200274433105061 1.139966685416096
8.84318399429 0.0470068753930878 0.0790422366903925 -1.35323627332326 1.363394233505806 2.050046335517449 -0.5200274433105061 1.139966685416096
8.84318399429 0.0470068753930878 0.0790422366903925 -1.35323627332326 1.363394233505806 2.050046335517449 -0.5200274433105061 1.139966685416096
8.85337901115 0.0470068753930878 0.0790422366903925 -1.35323627332326 1.363394233505806 2.050046335517449 -0.5200274433105061 1.139966685416096
8.85337901115 0.0470068753930878 0.0790422366903925 -1.35323627332326 1.363394233505806 2.050046335517449 -0.5200274433105061 1.139966685416096
8.86328816414 0.0470068753930878 0.0790422366903925 -1.35323627332326 1.363394233505806 2.050046335517449 -0.5200274433105061 1.139966685416096
8.86328816414 0.0470068753930878 0.0790422366903925 -1.35323627332326 1.363394233505806 2.050046335517449 -0.5200274433105061 1.139966685416096
8.87328910828 0.0470068753930878 0.0790422366903925 -1.35323627332326 1.363394233505806 2.050046335517449 -0.5200274433105061 1.139966685416096
8.87328910828 0.0470068753930878 0.0790422366903925 -1.35323627332326 1.363394233505806 2.050046335517449 -0.5200274433105061 1.139966685416096
8.88327407837 0.0470068753930878 0.0790422366903925 -1.35323627332326 1.363394233505806 2.050046335517449 -0.5200274433105061 1.139966685416096
8.88327407837 0.0470068753930878 0.0790422366903925 -1.35323627332326 1.363394233505806 2.050046335517449 -0.5200274433105061 1.139966685416096
8.89321804047 0.0470068753930878 0.0790422366903925 -1.35323627332326 1.363394233505806 2.050046335517449 -0.5200274433105061 1.139966685416096
8.89321804047 0.0470068753930878 0.0790422366903925 -1.35323627332326 1.363394233505806 2.050046335517449 -0.5200274433105061 1.139966685416096
8.90328121185 0.0470068753930878 0.0790422366903925 -1.35323627332326 1.363394233505806 2.050046335517449 -0.5200274433105061 1.139966685416096
8.90328121185 0.0470068753930878 0.0790422366903925 -1.35323627332326 1.363394233505806 2.050046335517449 -0.5200274433105061 1.139966685416096
8.9133951664 0.0470068753930878 0.0790422366903925 -1.35323627332326 1.363394233505806 2.050046335517449 -0.5200274433105061 1.139966685416096
8.9133951664 0.0470068753930878 0.0790422366903925 -1.35323627332326 1.363394233505806 2.050046335517449 -0.5200274433105061 1.139966685416096
8.92345309258 0.0470068753930878 0.0790422366903925 -1.35323627332326 1.363394233505806 2.050046335517449 -0.5200274433105061 1.139966685416096
8.92345309258 0.0470068753930878 0.0790422366903925 -1.35323627332326 1.363394233505806 2.050046335517449 -0.5200274433105061 1.139966685416096
8.93340611458 0.0470068753930878 0.0790422366903925 -1.35323627332326 1.363394233505806 2.050046335517449 -0.5200274433105061 1.139966685416096
8.93340611458 0.0470068753930878 0.0790422366903925 -1.35323627332326 1.363394233505806 2.050046335517449 -0.5200274433105061 1.139966685416096
8.94330120087 0.0470068753930878 0.0790422366903925 -1.35323627332326 1.363394233505806 2.050046335517449 -0.5200274433105061 1.139966685416096
8.94330120087 0.0470068753930878 0.0790422366903925 -1.35323627332326 1.363394233505806 2.050046335517449 -0.5200274433105061 1.139966685416096
8.95353722572 0.0470068753930878 0.0790422366903925 -1.35323627332326 1.363394233505806 2.050046335517449 -0.5200274433105061 1.139966685416096
8.95353722572 0.0470068753930878 0.0790422366903925 -1.35323627332326 1.363394233505806 2.050046335517449 -0.5200274433105061 1.139966685416096
8.96330904961 0.0470068753930878 0.0790422366903925 -1.35323627332326 1.363394233505806 2.050046335517449 -0.5200274433105061 1.139966685416096
8.96330904961 0.0470068753930878 0.0790422366903925 -1.35323627332326 1.363394233505806 2.050046335517449 -0.5200274433105061 1.139966685416096
8.97341299057 0.0470068753930878 0.0790422366903925 -1.35323627332326 1.363394233505806 2.050046335517449 -0.5200274433105061 1.139966685416096
8.97341299057 0.0470068753930878 0.0790422366903925 -1.35323627332326 1.363394233505806 2.050046335517449 -0.5200274433105061 1.139966685416096
8.98337101936 0.0470068753930878 0.0790422366903925 -1.35323627332326 1.363394233505806 2.050046335517449 -0.5200274433105061 1.139966685416096
8.98337101936 0.0470068753930878 0.0790422366903925 -1.35323627332326 1.363394233505806 2.050046335517449 -0.5200274433105061 1.139966685416096
8.99341011047 0.0470068753930878 0.0790422366903925 -1.35323627332326 1.363394233505806 2.050046335517449 -0.5200274433105061 1.139966685416096
8.99341011047 0.0470068753930878 0.0790422366903925 -1.35323627332326 1.363394233505806 2.050046335517449 -0.5200274433105061 1.139966685416096
9.0033390522 0.0470068753930878 0.0790422366903925 -1.35323627332326 1.363394233505806 2.050046335517449 -0.5200274433105061 1.139966685416096
9.0033390522 0.0470068753930878 0.0790422366903925 -1.35323627332326 1.363394233505806 2.050046335517449 -0.5200274433105061 1.139966685416096
9.01332306862 0.0470068753930878 0.0790422366903925 -1.35323627332326 1.363394233505806 2.050046335517449 -0.5200274433105061 1.139966685416096
9.01332306862 0.0470068753930878 0.0790422366903925 -1.35323627332326 1.363394233505806 2.050046335517449 -0.5200274433105061 1.139966685416096
9.02331519127 0.0470068753930878 0.0790422366903925 -1.35323627332326 1.363394233505806 2.050046335517449 -0.5200274433105061 1.139966685416096
9.02331519127 0.0470068753930878 0.0790422366903925 -1.35323627332326 1.363394233505806 2.050046335517449 -0.5200274433105061 1.139966685416096
9.03339314461 0.0470068753930878 0.0790422366903925 -1.35323627332326 1.363394233505806 2.050046335517449 -0.5200274433105061 1.139966685416096
9.03339314461 0.0470068753930878 0.0790422366903925 -1.35323627332326 1.363394233505806 2.050046335517449 -0.5200274433105061 1.139966685416096
9.04316401482 0.0470068753930878 0.0790422366903925 -1.35323627332326 1.363394233505806 2.050046335517449 -0.5200274433105061 1.139966685416096
9.04316401482 0.0470068753930878 0.0790422366903925 -1.35323627332326 1.363394233505806 2.050046335517449 -0.5200274433105061 1.139966685416096
9.05343413353 0.0470068753930878 0.0790422366903925 -1.35323627332326 1.363394233505806 2.050046335517449 -0.5200274433105061 1.139966685416096
9.05343413353 0.0470068753930878 0.0790422366903925 -1.35323627332326 1.363394233505806 2.050046335517449 -0.5200274433105061 1.139966685416096
9.06332421303 0.0470068753930878 0.0790422366903925 -1.35323627332326 1.363394233505806 2.050046335517449 -0.5200274433105061 1.139966685416096
9.06332421303 0.0470068753930878 0.0790422366903925 -1.35323627332326 1.363394233505806 2.050046335517449 -0.5200274433105061 1.139966685416096
9.07336807251 0.0470068753930878 0.0790422366903925 -1.35323627332326 1.363394233505806 2.050046335517449 -0.5200274433105061 1.139966685416096
9.07336807251 0.0470068753930878 0.0790422366903925 -1.35323627332326 1.363394233505806 2.050046335517449 -0.5200274433105061 1.139966685416096
9.08346700668 0.0470068753930878 0.0790422366903925 -1.35323627332326 1.363394233505806 2.050046335517449 -0.5200274433105061 1.139966685416096
9.08346700668 0.0470068753930878 0.0790422366903925 -1.35323627332326 1.363394233505806 2.050046335517449 -0.5200274433105061 1.139966685416096
9.09341001511 0.0470068753930878 0.0790422366903925 -1.35323627332326 1.363394233505806 2.050046335517449 -0.5200274433105061 1.139966685416096
9.09341001511 0.0470068753930878 0.0790422366903925 -1.35323627332326 1.363394233505806 2.050046335517449 -0.5200274433105061 1.139966685416096
9.10331511497 0.0470068753930878 0.0790422366903925 -1.35323627332326 1.363394233505806 2.050046335517449 -0.5200274433105061 1.139966685416096
9.10331511497 0.0470068753930878 0.0790422366903925 -1.35323627332326 1.363394233505806 2.050046335517449 -0.5200274433105061 1.139966685416096
9.11338710785 0.0470068753930878 0.0790422366903925 -1.35323627332326 1.363394233505806 2.050046335517449 -0.5200274433105061 1.139966685416096
9.11338710785 0.0470068753930878 0.0790422366903925 -1.35323627332326 1.363394233505806 2.050046335517449 -0.5200274433105061 1.139966685416096
9.12335920334 0.0470068753930878 0.0790422366903925 -1.35323627332326 1.363394233505806 2.050046335517449 -0.5200274433105061 1.139966685416096
9.12335920334 0.0470068753930878 0.0790422366903925 -1.35323627332326 1.363394233505806 2.050046335517449 -0.5200274433105061 1.139966685416096
9.13340806961 0.0470068753930878 0.0790422366903925 -1.35323627332326 1.363394233505806 2.050046335517449 -0.5200274433105061 1.139966685416096
9.13340806961 0.0470068753930878 0.0790422366903925 -1.35323627332326 1.363394233505806 2.050046335517449 -0.5200274433105061 1.139966685416096
9.14336299896 0.0470068753930878 0.0790422366903925 -1.35323627332326 1.363394233505806 2.050046335517449 -0.5200274433105061 1.139966685416096
9.14336299896 0.0470068753930878 0.0790422366903925 -1.35323627332326 1.363394233505806 2.050046335517449 -0.5200274433105061 1.139966685416096
9.15341520309 0.0470068753930878 0.0790422366903925 -1.35323627332326 1.363394233505806 2.050046335517449 -0.5200274433105061 1.139966685416096
9.15341520309 0.0470068753930878 0.0790422366903925 -1.35323627332326 1.363394233505806 2.050046335517449 -0.5200274433105061 1.139966685416096
9.16331410408 0.0470068753930878 0.0790422366903925 -1.35323627332326 1.363394233505806 2.050046335517449 -0.5200274433105061 1.139966685416096
9.16331410408 0.0470068753930878 0.0790422366903925 -1.35323627332326 1.363394233505806 2.050046335517449 -0.5200274433105061 1.139966685416096
9.17348504066 0.0470068753930878 0.0790422366903925 -1.35323627332326 1.363394233505806 2.050046335517449 -0.5200274433105061 1.139966685416096
9.17348504066 0.0470068753930878 0.0790422366903925 -1.35323627332326 1.363394233505806 2.050046335517449 -0.5200274433105061 1.139966685416096
9.18315815926 0.0470068753930878 0.0790422366903925 -1.35323627332326 1.363394233505806 2.050046335517449 -0.5200274433105061 1.139966685416096
9.18315815926 0.0470068753930878 0.0790422366903925 -1.35323627332326 1.363394233505806 2.050046335517449 -0.5200274433105061 1.139966685416096
9.19338512421 0.0470068753930878 0.0790422366903925 -1.35323627332326 1.363394233505806 2.050046335517449 -0.5200274433105061 1.139966685416096
9.19338512421 0.0470068753930878 0.0790422366903925 -1.35323627332326 1.363394233505806 2.050046335517449 -0.5200274433105061 1.139966685416096
9.20326113701 0.0470068753930878 0.0790422366903925 -1.35323627332326 1.363394233505806 2.050046335517449 -0.5200274433105061 1.139966685416096
9.20326113701 0.0470068753930878 0.0790422366903925 -1.35323627332326 1.363394233505806 2.050046335517449 -0.5200274433105061 1.139966685416096
9.21335816383 0.0470068753930878 0.0790422366903925 -1.35323627332326 1.363394233505806 2.050046335517449 -0.5200274433105061 1.139966685416096
9.21335816383 0.0470068753930878 0.0790422366903925 -1.35323627332326 1.363394233505806 2.050046335517449 -0.5200274433105061 1.139966685416096
9.22330403328 0.0470068753930878 0.0790422366903925 -1.35323627332326 1.363394233505806 2.050046335517449 -0.5200274433105061 1.139966685416096
9.22330403328 0.0470068753930878 0.0790422366903925 -1.35323627332326 1.363394233505806 2.050046335517449 -0.5200274433105061 1.139966685416096
9.23339319229 0.0470068753930878 0.0790422366903925 -1.35323627332326 1.363394233505806 2.050046335517449 -0.5200274433105061 1.139966685416096
9.23339319229 0.0470068753930878 0.0790422366903925 -1.35323627332326 1.363394233505806 2.050046335517449 -0.5200274433105061 1.139966685416096
9.24329710007 0.0470068753930878 0.0790422366903925 -1.35323627332326 1.363394233505806 2.050046335517449 -0.5200274433105061 1.139966685416096
9.24329710007 0.0470068753930878 0.0790422366903925 -1.35323627332326 1.363394233505806 2.050046335517449 -0.5200274433105061 1.139966685416096
9.25340914726 0.0470068753930878 0.0790422366903925 -1.35323627332326 1.363394233505806 2.050046335517449 -0.5200274433105061 1.139966685416096
9.25340914726 0.0470068753930878 0.0790422366903925 -1.35323627332326 1.363394233505806 2.050046335517449 -0.5200274433105061 1.139966685416096
9.26331806183 0.0470068753930878 0.0790422366903925 -1.35323627332326 1.363394233505806 2.050046335517449 -0.5200274433105061 1.139966685416096
9.26331806183 0.0470068753930878 0.0790422366903925 -1.35323627332326 1.363394233505806 2.050046335517449 -0.5200274433105061 1.139966685416096
9.27343201637 0.0470068753930878 0.0790422366903925 -1.35323627332326 1.363394233505806 2.050046335517449 -0.5200274433105061 1.139966685416096
9.27343201637 0.0470068753930878 0.0790422366903925 -1.35323627332326 1.363394233505806 2.050046335517449 -0.5200274433105061 1.139966685416096
9.28333210945 0.0470068753930878 0.0790422366903925 -1.35323627332326 1.363394233505806 2.050046335517449 -0.5200274433105061 1.139966685416096
9.28333210945 0.0470068753930878 0.0790422366903925 -1.35323627332326 1.363394233505806 2.050046335517449 -0.5200274433105061 1.139966685416096
9.293405056 0.0470068753930878 0.0790422366903925 -1.35323627332326 1.363394233505806 2.050046335517449 -0.5200274433105061 1.139966685416096
9.293405056 0.0470068753930878 0.0790422366903925 -1.35323627332326 1.363394233505806 2.050046335517449 -0.5200274433105061 1.139966685416096
9.30347108841 0.0470068753930878 0.0790422366903925 -1.35323627332326 1.363394233505806 2.050046335517449 -0.5200274433105061 1.139966685416096
9.30347108841 0.0470068753930878 0.0790422366903925 -1.35323627332326 1.363394233505806 2.050046335517449 -0.5200274433105061 1.139966685416096
9.31334519386 0.0470068753930878 0.0790422366903925 -1.35323627332326 1.363394233505806 2.050046335517449 -0.5200274433105061 1.139966685416096
9.31334519386 0.0470068753930878 0.0790422366903925 -1.35323627332326 1.363394233505806 2.050046335517449 -0.5200274433105061 1.139966685416096
9.32323813438 0.0470068753930878 0.0790422366903925 -1.35323627332326 1.363394233505806 2.050046335517449 -0.5200274433105061 1.139966685416096
9.32323813438 0.0470068753930878 0.0790422366903925 -1.35323627332326 1.363394233505806 2.050046335517449 -0.5200274433105061 1.139966685416096
9.33344507217 0.0470068753930878 0.0790422366903925 -1.35323627332326 1.363394233505806 2.050046335517449 -0.5200274433105061 1.139966685416096
9.33344507217 0.0470068753930878 0.0790422366903925 -1.35323627332326 1.363394233505806 2.050046335517449 -0.5200274433105061 1.139966685416096
9.34331607819 0.0470068753930878 0.0790422366903925 -1.35323627332326 1.363394233505806 2.050046335517449 -0.5200274433105061 1.139966685416096
9.34331607819 0.0470068753930878 0.0790422366903925 -1.35323627332326 1.363394233505806 2.050046335517449 -0.5200274433105061 1.139966685416096
9.35349106789 0.0470068753930878 0.0790422366903925 -1.35323627332326 1.363394233505806 2.050046335517449 -0.5200274433105061 1.139966685416096
9.35349106789 0.0470068753930878 0.0790422366903925 -1.35323627332326 1.363394233505806 2.050046335517449 -0.5200274433105061 1.139966685416096
9.36327409744 0.0470068753930878 0.0790422366903925 -1.35323627332326 1.363394233505806 2.050046335517449 -0.5200274433105061 1.139966685416096
9.36327409744 0.0470068753930878 0.0790422366903925 -1.35323627332326 1.363394233505806 2.050046335517449 -0.5200274433105061 1.139966685416096
9.37341117859 0.0470068753930878 0.0790422366903925 -1.35323627332326 1.363394233505806 2.050046335517449 -0.5200274433105061 1.139966685416096
9.37341117859 0.0470068753930878 0.0790422366903925 -1.35323627332326 1.363394233505806 2.050046335517449 -0.5200274433105061 1.139966685416096
9.3831820488 0.0470068753930878 0.0790422366903925 -1.35323627332326 1.363394233505806 2.050046335517449 -0.5200274433105061 1.139966685416096
9.3831820488 0.0470068753930878 0.0790422366903925 -1.35323627332326 1.363394233505806 2.050046335517449 -0.5200274433105061 1.139966685416096
9.3932352066 0.0470068753930878 0.0790422366903925 -1.35323627332326 1.363394233505806 2.050046335517449 -0.5200274433105061 1.139966685416096
9.3932352066 0.0470068753930878 0.0790422366903925 -1.35323627332326 1.363394233505806 2.050046335517449 -0.5200274433105061 1.139966685416096
9.40308213234 0.0470068753930878 0.0790422366903925 -1.35323627332326 1.363394233505806 2.050046335517449 -0.5200274433105061 1.139966685416096
9.40308213234 0.0470068753930878 0.0790422366903925 -1.35323627332326 1.363394233505806 2.050046335517449 -0.5200274433105061 1.139966685416096
9.41332602501 0.0470068753930878 0.0790422366903925 -1.35323627332326 1.363394233505806 2.050046335517449 -0.5200274433105061 1.139966685416096
9.41332602501 0.0470068753930878 0.0790422366903925 -1.35323627332326 1.363394233505806 2.050046335517449 -0.5200274433105061 1.139966685416096
9.42316508293 0.0470068753930878 0.0790422366903925 -1.35323627332326 1.363394233505806 2.050046335517449 -0.5200274433105061 1.139966685416096
9.42316508293 0.0470068753930878 0.0790422366903925 -1.35323627332326 1.363394233505806 2.050046335517449 -0.5200274433105061 1.139966685416096
9.43338608742 0.0470068753930878 0.0790422366903925 -1.35323627332326 1.363394233505806 2.050046335517449 -0.5200274433105061 1.139966685416096
9.43338608742 0.0470068753930878 0.0790422366903925 -1.35323627332326 1.363394233505806 2.050046335517449 -0.5200274433105061 1.139966685416096
9.44336915016 0.0470068753930878 0.0790422366903925 -1.35323627332326 1.363394233505806 2.050046335517449 -0.5200274433105061 1.139966685416096
9.44336915016 0.0470068753930878 0.0790422366903925 -1.35323627332326 1.363394233505806 2.050046335517449 -0.5200274433105061 1.139966685416096
9.45339918137 0.0470068753930878 0.0790422366903925 -1.35323627332326 1.363394233505806 2.050046335517449 -0.5200274433105061 1.139966685416096
9.45339918137 0.0470068753930878 0.0790422366903925 -1.35323627332326 1.363394233505806 2.050046335517449 -0.5200274433105061 1.139966685416096
9.46332502365 0.0470068753930878 0.0790422366903925 -1.35323627332326 1.363394233505806 2.050046335517449 -0.5200274433105061 1.139966685416096
9.46332502365 0.0470068753930878 0.0790422366903925 -1.35323627332326 1.363394233505806 2.050046335517449 -0.5200274433105061 1.139966685416096
9.47326421738 0.0470068753930878 0.0790422366903925 -1.35323627332326 1.363394233505806 2.050046335517449 -0.5200274433105061 1.139966685416096
9.47326421738 0.0470068753930878 0.0790422366903925 -1.35323627332326 1.363394233505806 2.050046335517449 -0.5200274433105061 1.139966685416096
9.48331022263 0.0470068753930878 0.0790422366903925 -1.35323627332326 1.363394233505806 2.050046335517449 -0.5200274433105061 1.139966685416096
9.48331022263 0.0470068753930878 0.0790422366903925 -1.35323627332326 1.363394233505806 2.050046335517449 -0.5200274433105061 1.139966685416096
9.49324703217 0.0470068753930878 0.0790422366903925 -1.35323627332326 1.363394233505806 2.050046335517449 -0.5200274433105061 1.139966685416096
9.49324703217 0.0470068753930878 0.0790422366903925 -1.35323627332326 1.363394233505806 2.050046335517449 -0.5200274433105061 1.139966685416096
9.50331401825 0.0470068753930878 0.0790422366903925 -1.35323627332326 1.363394233505806 2.050046335517449 -0.5200274433105061 1.139966685416096
9.50331401825 0.0470068753930878 0.0790422366903925 -1.35323627332326 1.363394233505806 2.050046335517449 -0.5200274433105061 1.139966685416096
9.51341915131 0.0470068753930878 0.0790422366903925 -1.35323627332326 1.363394233505806 2.050046335517449 -0.5200274433105061 1.139966685416096
9.51341915131 0.0470068753930878 0.0790422366903925 -1.35323627332326 1.363394233505806 2.050046335517449 -0.5200274433105061 1.139966685416096
9.52335715294 0.0470068753930878 0.0790422366903925 -1.35323627332326 1.363394233505806 2.050046335517449 -0.5200274433105061 1.139966685416096
9.52335715294 0.0470068753930878 0.0790422366903925 -1.35323627332326 1.363394233505806 2.050046335517449 -0.5200274433105061 1.139966685416096
9.53344011307 0.0470068753930878 0.0790422366903925 -1.35323627332326 1.363394233505806 2.050046335517449 -0.5200274433105061 1.139966685416096
9.53344011307 0.0470068753930878 0.0790422366903925 -1.35323627332326 1.363394233505806 2.050046335517449 -0.5200274433105061 1.139966685416096
9.5432100296 0.0470068753930878 0.0790422366903925 -1.35323627332326 1.363394233505806 2.050046335517449 -0.5200274433105061 1.139966685416096
9.5432100296 0.0470068753930878 0.0790422366903925 -1.35323627332326 1.363394233505806 2.050046335517449 -0.5200274433105061 1.139966685416096
9.55339121819 0.0470068753930878 0.0790422366903925 -1.35323627332326 1.363394233505806 2.050046335517449 -0.5200274433105061 1.139966685416096
9.55339121819 0.0470068753930878 0.0790422366903925 -1.35323627332326 1.363394233505806 2.050046335517449 -0.5200274433105061 1.139966685416096
9.56335806847 0.0470068753930878 0.0790422366903925 -1.35323627332326 1.363394233505806 2.050046335517449 -0.5200274433105061 1.139966685416096
9.56335806847 0.0470068753930878 0.0790422366903925 -1.35323627332326 1.363394233505806 2.050046335517449 -0.5200274433105061 1.139966685416096
9.57348704338 0.0470068753930878 0.0790422366903925 -1.35323627332326 1.363394233505806 2.050046335517449 -0.5200274433105061 1.139966685416096
9.57348704338 0.0470068753930878 0.0790422366903925 -1.35323627332326 1.363394233505806 2.050046335517449 -0.5200274433105061 1.139966685416096
9.5833261013 0.0470068753930878 0.0790422366903925 -1.35323627332326 1.363394233505806 2.050046335517449 -0.5200274433105061 1.139966685416096
9.5833261013 0.0470068753930878 0.0790422366903925 -1.35323627332326 1.363394233505806 2.050046335517449 -0.5200274433105061 1.139966685416096
9.59340500832 0.0470068753930878 0.0790422366903925 -1.35323627332326 1.363394233505806 2.050046335517449 -0.5200274433105061 1.139966685416096
9.59340500832 0.0470068753930878 0.0790422366903925 -1.35323627332326 1.363394233505806 2.050046335517449 -0.5200274433105061 1.139966685416096
9.6033141613 0.0470068753930878 0.0790422366903925 -1.35323627332326 1.363394233505806 2.050046335517449 -0.5200274433105061 1.139966685416096
9.6033141613 0.0470068753930878 0.0790422366903925 -1.35323627332326 1.363394233505806 2.050046335517449 -0.5200274433105061 1.139966685416096
9.61341309547 0.0470068753930878 0.0790422366903925 -1.35323627332326 1.363394233505806 2.050046335517449 -0.5200274433105061 1.139966685416096
9.61341309547 0.0470068753930878 0.0790422366903925 -1.35323627332326 1.363394233505806 2.050046335517449 -0.5200274433105061 1.139966685416096
9.62337803841 0.0470068753930878 0.0790422366903925 -1.35323627332326 1.363394233505806 2.050046335517449 -0.5200274433105061 1.139966685416096
9.62337803841 0.0470068753930878 0.0790422366903925 -1.35323627332326 1.363394233505806 2.050046335517449 -0.5200274433105061 1.139966685416096
9.63340401649 0.0470068753930878 0.0790422366903925 -1.35323627332326 1.363394233505806 2.050046335517449 -0.5200274433105061 1.139966685416096
9.63340401649 0.0470068753930878 0.0790422366903925 -1.35323627332326 1.363394233505806 2.050046335517449 -0.5200274433105061 1.139966685416096
9.64335608482 0.0470068753930878 0.0790422366903925 -1.35323627332326 1.363394233505806 2.050046335517449 -0.5200274433105061 1.139966685416096
9.64335608482 0.0470068753930878 0.0790422366903925 -1.35323627332326 1.363394233505806 2.050046335517449 -0.5200274433105061 1.139966685416096
