riccardo-csl/Motion-Planning-for-TIAGo-Manipulator/T3_G_7/head_scan/head_scan/tiago_traiettorie_SG/4a-2b/place_2b_rep2.txt
time arm_1_joint arm_2_joint arm_3_joint arm_4_joint arm_5_joint arm_6_joint arm_7_joint
0.530912160873 0.0468074552455168 -0.2140900402274924 -1.1492908224036262 1.8294084383563176 2.0501102519512773 -0.5200274433105061 1.139966685416096
0.531435966492 0.0468074552455168 -0.2140900402274924 -1.1492908224036262 1.8294084383563176 2.0501102519512773 -0.5200274433105061 1.139966685416096
0.531435966492 0.0468074552455168 -0.2140900402274924 -1.1492908224036262 1.8294084383563176 2.0501102519512773 -0.5200274433105061 1.139966685416096
0.54137802124 0.0468074552455168 -0.2140900402274924 -1.1492908224036262 1.8294084383563176 2.0501102519512773 -0.5200274433105061 1.139966685416096
0.54137802124 0.0468074552455168 -0.2140900402274924 -1.1492908224036262 1.8294084383563176 2.0501102519512773 -0.5200274433105061 1.139966685416096
0.551419973373 0.0468074552455168 -0.2140900402274924 -1.1492908224036262 1.8294084383563176 2.0501102519512773 -0.5200274433105061 1.139966685416096
0.551419973373 0.0468074552455168 -0.2140900402274924 -1.1492908224036262 1.8294084383563176 2.0501102519512773 -0.5200274433105061 1.139966685416096
0.56153011322 0.0468074552455168 -0.2140900402274924 -1.1492908224036262 1.8294084383563176 2.0501102519512773 -0.5200274433105061 1.139966685416096
0.56153011322 0.0468074552455168 -0.2140900402274924 -1.1492908224036262 1.8294084383563176 2.0501102519512773 -0.5200274433105061 1.139966685416096
0.571613073349 0.0468074552455168 -0.2140900402274924 -1.1492908224036262 1.8294084383563176 2.0501102519512773 -0.5200274433105061 1.139966685416096
0.571613073349 0.0468074552455168 -0.2140900402274924 -1.1492908224036262 1.8294084383563176 2.0501102519512773 -0.5200274433105061 1.139966685416096
0.581732034683 0.0468074552455168 -0.2140900402274924 -1.1492908224036262 1.8294084383563176 2.0501102519512773 -0.5200274433105061 1.139966685416096
0.581732034683 0.0468074552455168 -0.2140900402274924 -1.1492908224036262 1.8294084383563176 2.0501102519512773 -0.5200274433105061 1.139966685416096
0.591737985611 0.0468074552455168 -0.2140900402274924 -1.1492908224036262 1.8294084383563176 2.0501102519512773 -0.5200274433105061 1.139966685416096
0.591737985611 0.0468074552455168 -0.2140900402274924 -1.1492908224036262 1.8294084383563176 2.0501102519512773 -0.5200274433105061 1.139966685416096
0.601572036743 0.0468074552455168 -0.2140900402274924 -1.1492908224036262 1.8294084383563176 2.0501102519512773 -0.5200274433105061 1.139966685416096
0.601572036743 0.0468074552455168 -0.2140900402274924 -1.1492908224036262 1.8294084383563176 2.0501102519512773 -0.5200274433105061 1.139966685416096
0.611744165421 0.0468074552455168 -0.2140900402274924 -1.1492908224036262 1.8294084383563176 2.0501102519512773 -0.5200274433105061 1.139966685416096
0.611744165421 0.0468074552455168 -0.2140900402274924 -1.1492908224036262 1.8294084383563176 2.0501102519512773 -0.5200274433105061 1.139966685416096
0.621881008148 0.0468074552455168 -0.2140900402274924 -1.1492908224036262 1.8294084383563176 2.0501102519512773 -0.5200274433105061 1.139966685416096
0.621881008148 0.0468074552455168 -0.2140900402274924 -1.1492908224036262 1.8294084383563176 2.0501102519512773 -0.5200274433105061 1.139966685416096
0.631779193878 0.0468074552455168 -0.2140900402274924 -1.1492908224036262 1.8294084383563176 2.0501102519512773 -0.5200274433105061 1.139966685416096
0.631779193878 0.0468074552455168 -0.2140900402274924 -1.1492908224036262 1.8294084383563176 2.0501102519512773 -0.5200274433105061 1.139966685416096
0.641803026199 0.0468074552455168 -0.2140900402274924 -1.1492908224036262 1.8294084383563176 2.0501102519512773 -0.5200274433105061 1.139966685416096
0.641803026199 0.0468074552455168 -0.2140900402274924 -1.1492908224036262 1.8294084383563176 2.0501102519512773 -0.5200274433105061 1.139966685416096
0.651759147644 0.0468074552455168 -0.2140900402274924 -1.1492908224036262 1.8294084383563176 2.0501102519512773 -0.5200274433105061 1.139966685416096
0.651759147644 0.0468074552455168 -0.2140900402274924 -1.1492908224036262 1.8294084383563176 2.0501102519512773 -0.5200274433105061 1.139966685416096
0.661565065384 0.0468074552455168 -0.2140900402274924 -1.1492908224036262 1.8294084383563176 2.0501102519512773 -0.5200274433105061 1.139966685416096
0.661565065384 0.0468074552455168 -0.2140900402274924 -1.1492908224036262 1.8294084383563176 2.0501102519512773 -0.5200274433105061 1.139966685416096
0.671396970749 0.0468074552455168 -0.2140900402274924 -1.1492908224036262 1.8294084383563176 2.0501102519512773 -0.5200274433105061 1.139966685416096
0.671396970749 0.0468074552455168 -0.2140900402274924 -1.1492908224036262 1.8294084383563176 2.0501102519512773 -0.5200274433105061 1.139966685416096
0.681615114212 0.0468074552455168 -0.2140900402274924 -1.1492908224036262 1.8294084383563176 2.0501102519512773 -0.5200274433105061 1.139966685416096
0.681615114212 0.0468074552455168 -0.2140900402274924 -1.1492908224036262 1.8294084383563176 2.0501102519512773 -0.5200274433105061 1.139966685416096
0.691637992859 0.0468074552455168 -0.2140900402274924 -1.1492908224036262 1.8294084383563176 2.0501102519512773 -0.5200274433105061 1.139966685416096
0.691637992859 0.0468074552455168 -0.2140900402274924 -1.1492908224036262 1.8294084383563176 2.0501102519512773 -0.5200274433105061 1.139966685416096
0.701819181442 0.0468074552455168 -0.2140900402274924 -1.1492908224036262 1.8294084383563176 2.0501102519512773 -0.5200274433105061 1.139966685416096
0.701819181442 0.0468074552455168 -0.2140900402274924 -1.1492908224036262 1.8294084383563176 2.0501102519512773 -0.5200274433105061 1.139966685416096
0.711789131165 0.0468074552455168 -0.2140900402274924 -1.1492908224036262 1.8294084383563176 2.0501102519512773 -0.5200274433105061 1.139966685416096
0.711789131165 0.0468074552455168 -0.2140900402274924 -1.1492908224036262 1.8294084383563176 2.0501102519512773 -0.5200274433105061 1.139966685416096
0.721768140793 0.0468074552455168 -0.2140900402274924 -1.1492908224036262 1.8294084383563176 2.0501102519512773 -0.5200274433105061 1.139966685416096
0.721768140793 0.0468074552455168 -0.2140900402274924 -1.1492908224036262 1.8294084383563176 2.0501102519512773 -0.5200274433105061 1.139966685416096
0.731849193573 0.0468074552455168 -0.2140900402274924 -1.1492908224036262 1.8294084383563176 2.0501102519512773 -0.5200274433105061 1.139966685416096
0.731849193573 0.0468074552455168 -0.2140900402274924 -1.1492908224036262 1.8294084383563176 2.0501102519512773 -0.5200274433105061 1.139966685416096
0.741832971573 0.0468074552455168 -0.2140900402274924 -1.1492908224036262 1.8294084383563176 2.0501102519512773 -0.5200274433105061 1.139966685416096
0.741832971573 0.0468074552455168 -0.2140900402274924 -1.1492908224036262 1.8294084383563176 2.0501102519512773 -0.5200274433105061 1.139966685416096
0.751679182053 0.0468074552455168 -0.2140900402274924 -1.1492908224036262 1.8294084383563176 2.0501102519512773 -0.5200274433105061 1.139966685416096
0.751679182053 0.0468074552455168 -0.2140900402274924 -1.1492908224036262 1.8294084383563176 2.0501102519512773 -0.5200274433105061 1.139966685416096
0.761511087418 0.0468074552455168 -0.2140900402274924 -1.1492908224036262 1.8294084383563176 2.0501102519512773 -0.5200274433105061 1.139966685416096
0.761511087418 0.0468074552455168 -0.2140900402274924 -1.1492908224036262 1.8294084383563176 2.0501102519512773 -0.5200274433105061 1.139966685416096
0.771465063095 0.0468074552455168 -0.2140900402274924 -1.1492908224036262 1.8294084383563176 2.0501102519512773 -0.5200274433105061 1.139966685416096
0.771465063095 0.0468074552455168 -0.2140900402274924 -1.1492908224036262 1.8294084383563176 2.0501102519512773 -0.5200274433105061 1.139966685416096
0.7815990448 0.0468074552455168 -0.2140900402274924 -1.1492908224036262 1.8294084383563176 2.0501102519512773 -0.5200274433105061 1.139966685416096
0.7815990448 0.0468074552455168 -0.2140900402274924 -1.1492908224036262 1.8294084383563176 2.0501102519512773 -0.5200274433105061 1.139966685416096
0.791476964951 0.0468074552455168 -0.2140900402274924 -1.1492908224036262 1.8294084383563176 2.0501102519512773 -0.5200274433105061 1.139966685416096
0.791476964951 0.0468074552455168 -0.2140900402274924 -1.1492908224036262 1.8294084383563176 2.0501102519512773 -0.5200274433105061 1.139966685416096
0.80179309845 0.0468074552455168 -0.2140900402274924 -1.1492908224036262 1.8294084383563176 2.0501102519512773 -0.5200274433105061 1.139966685416096
0.80179309845 0.0468074552455168 -0.2140900402274924 -1.1492908224036262 1.8294084383563176 2.0501102519512773 -0.5200274433105061 1.139966685416096
0.811765193939 0.0468074552455168 -0.2140900402274924 -1.1492908224036262 1.8294084383563176 2.0501102519512773 -0.5200274433105061 1.139966685416096
0.811765193939 0.0468074552455168 -0.2140900402274924 -1.1492908224036262 1.8294084383563176 2.0501102519512773 -0.5200274433105061 1.139966685416096
0.821793079376 0.0468074552455168 -0.2140900402274924 -1.1492908224036262 1.8294084383563176 2.0501102519512773 -0.5200274433105061 1.139966685416096
0.821793079376 0.0468074552455168 -0.2140900402274924 -1.1492908224036262 1.8294084383563176 2.0501102519512773 -0.5200274433105061 1.139966685416096
0.831645965576 0.0468074552455168 -0.2140900402274924 -1.1492908224036262 1.8294084383563176 2.0501102519512773 -0.5200274433105061 1.139966685416096
0.831645965576 0.0468074552455168 -0.2140900402274924 -1.1492908224036262 1.8294084383563176 2.0501102519512773 -0.5200274433105061 1.139966685416096
0.841682195663 0.0468074552455168 -0.2140900402274924 -1.1492908224036262 1.8294084383563176 2.0501102519512773 -0.5200274433105061 1.139966685416096
0.841682195663 0.0468074552455168 -0.2140900402274924 -1.1492908224036262 1.8294084383563176 2.0501102519512773 -0.5200274433105061 1.139966685416096
0.851819038391 0.0468074552455168 -0.2140900402274924 -1.1492908224036262 1.8294084383563176 2.0501102519512773 -0.5200274433105061 1.139966685416096
0.851819038391 0.0468074552455168 -0.2140900402274924 -1.1492908224036262 1.8294084383563176 2.0501102519512773 -0.5200274433105061 1.139966685416096
0.861807107925 0.0468074552455168 -0.2140900402274924 -1.1492908224036262 1.8294084383563176 2.0501102519512773 -0.5200274433105061 1.139966685416096
0.861807107925 0.0468074552455168 -0.2140900402274924 -1.1492908224036262 1.8294084383563176 2.0501102519512773 -0.5200274433105061 1.139966685416096
0.871504068375 0.0468074552455168 -0.2140900402274924 -1.1492908224036262 1.8294084383563176 2.0501102519512773 -0.5200274433105061 1.139966685416096
0.871504068375 0.0468074552455168 -0.2140900402274924 -1.1492908224036262 1.8294084383563176 2.0501102519512773 -0.5200274433105061 1.139966685416096
0.881508111954 0.0468074552455168 -0.2140900402274924 -1.1492908224036262 1.8294084383563176 2.0501102519512773 -0.5200274433105061 1.139966685416096
0.881508111954 0.0468074552455168 -0.2140900402274924 -1.1492908224036262 1.8294084383563176 2.0501102519512773 -0.5200274433105061 1.139966685416096
0.891765117645 0.0468074552455168 -0.2140900402274924 -1.1492908224036262 1.8294084383563176 2.0501102519512773 -0.5200274433105061 1.139966685416096
0.891765117645 0.0468074552455168 -0.2140900402274924 -1.1492908224036262 1.8294084383563176 2.0501102519512773 -0.5200274433105061 1.139966685416096
0.901690006256 0.0468074552455168 -0.2140900402274924 -1.1492908224036262 1.8294084383563176 2.0501102519512773 -0.5200274433105061 1.139966685416096
0.901690006256 0.0468074552455168 -0.2140900402274924 -1.1492908224036262 1.8294084383563176 2.0501102519512773 -0.5200274433105061 1.139966685416096
0.911659002304 0.0468074552455168 -0.2140900402274924 -1.1492908224036262 1.8294084383563176 2.0501102519512773 -0.5200274433105061 1.139966685416096
0.911659002304 0.0468074552455168 -0.2140900402274924 -1.1492908224036262 1.8294084383563176 2.0501102519512773 -0.5200274433105061 1.139966685416096
0.921782970428 0.0468074552455168 -0.2140900402274924 -1.1492908224036262 1.8294084383563176 2.0501102519512773 -0.5200274433105061 1.139966685416096
0.921782970428 0.0468074552455168 -0.2140900402274924 -1.1492908224036262 1.8294084383563176 2.0501102519512773 -0.5200274433105061 1.139966685416096
0.931634187698 0.0468074552455168 -0.2140900402274924 -1.1492908224036262 1.8294084383563176 2.0501102519512773 -0.5200274433105061 1.139966685416096
0.931634187698 0.0468074552455168 -0.2140900402274924 -1.1492908224036262 1.8294084383563176 2.0501102519512773 -0.5200274433105061 1.139966685416096
0.941639184952 0.0468074552455168 -0.2140900402274924 -1.1492908224036262 1.8294084383563176 2.0501102519512773 -0.5200274433105061 1.139966685416096
0.941639184952 0.0468074552455168 -0.2140900402274924 -1.1492908224036262 1.8294084383563176 2.0501102519512773 -0.5200274433105061 1.139966685416096
0.951789140701 0.0468074552455168 -0.2140900402274924 -1.1492908224036262 1.8294084383563176 2.0501102519512773 -0.5200274433105061 1.139966685416096
0.951789140701 0.0468074552455168 -0.2140900402274924 -1.1492908224036262 1.8294084383563176 2.0501102519512773 -0.5200274433105061 1.139966685416096
0.961696147919 0.0468074552455168 -0.2140900402274924 -1.1492908224036262 1.8294084383563176 2.0501102519512773 -0.5200274433105061 1.139966685416096
0.961696147919 0.0468074552455168 -0.2140900402274924 -1.1492908224036262 1.8294084383563176 2.0501102519512773 -0.5200274433105061 1.139966685416096
0.971764087677 0.0468074552455168 -0.2140900402274924 -1.1492908224036262 1.8294084383563176 2.0501102519512773 -0.5200274433105061 1.139966685416096
0.971764087677 0.0468074552455168 -0.2140900402274924 -1.1492908224036262 1.8294084383563176 2.0501102519512773 -0.5200274433105061 1.139966685416096
0.981814146042 0.0468074552455168 -0.2140900402274924 -1.1492908224036262 1.8294084383563176 2.0501102519512773 -0.5200274433105061 1.139966685416096
0.981814146042 0.0468074552455168 -0.2140900402274924 -1.1492908224036262 1.8294084383563176 2.0501102519512773 -0.5200274433105061 1.139966685416096
0.991893053055 0.0468074552455168 -0.2140900402274924 -1.1492908224036262 1.8294084383563176 2.0501102519512773 -0.5200274433105061 1.139966685416096
0.991893053055 0.0468074552455168 -0.2140900402274924 -1.1492908224036262 1.8294084383563176 2.0501102519512773 -0.5200274433105061 1.139966685416096
1.00174212456 0.0468074552455168 -0.2140900402274924 -1.1492908224036262 1.8294084383563176 2.0501102519512773 -0.5200274433105061 1.139966685416096
1.00174212456 0.0468074552455168 -0.2140900402274924 -1.1492908224036262 1.8294084383563176 2.0501102519512773 -0.5200274433105061 1.139966685416096
1.01185417175 0.0468074552455168 -0.2140900402274924 -1.1492908224036262 1.8294084383563176 2.0501102519512773 -0.5200274433105061 1.139966685416096
1.01185417175 0.0468074552455168 -0.2140900402274924 -1.1492908224036262 1.8294084383563176 2.0501102519512773 -0.5200274433105061 1.139966685416096
1.02165699005 0.0468074552455168 -0.2140900402274924 -1.1492908224036262 1.8294084383563176 2.0501102519512773 -0.5200274433105061 1.139966685416096
1.02165699005 0.0468074552455168 -0.2140900402274924 -1.1492908224036262 1.8294084383563176 2.0501102519512773 -0.5200274433105061 1.139966685416096
1.03157997131 0.0468074552455168 -0.2140900402274924 -1.1492908224036262 1.8294084383563176 2.0501102519512773 -0.5200274433105061 1.139966685416096
1.03157997131 0.0468074552455168 -0.2140900402274924 -1.1492908224036262 1.8294084383563176 2.0501102519512773 -0.5200274433105061 1.139966685416096
1.04179000854 0.0468074552455168 -0.2140900402274924 -1.1492908224036262 1.8294084383563176 2.0501102519512773 -0.5200274433105061 1.139966685416096
1.04179000854 0.0468074552455168 -0.2140900402274924 -1.1492908224036262 1.8294084383563176 2.0501102519512773 -0.5200274433105061 1.139966685416096
1.05161809921 0.0468074552455168 -0.2140900402274924 -1.1492908224036262 1.8294084383563176 2.0501102519512773 -0.5200274433105061 1.139966685416096
1.05161809921 0.0468074552455168 -0.2140900402274924 -1.1492908224036262 1.8294084383563176 2.0501102519512773 -0.5200274433105061 1.139966685416096
1.06159901619 0.0468074552455168 -0.2140900402274924 -1.1492908224036262 1.8294084383563176 2.0501102519512773 -0.5200274433105061 1.139966685416096
1.06159901619 0.0468074552455168 -0.2140900402274924 -1.1492908224036262 1.8294084383563176 2.0501102519512773 -0.5200274433105061 1.139966685416096
1.07162117958 0.0468074552455168 -0.2140900402274924 -1.1492908224036262 1.8294084383563176 2.0501102519512773 -0.5200274433105061 1.139966685416096
1.07162117958 0.0468074552455168 -0.2140900402274924 -1.1492908224036262 1.8294084383563176 2.0501102519512773 -0.5200274433105061 1.139966685416096
1.08180308342 0.0468074552455168 -0.2140900402274924 -1.1492908224036262 1.8294084383563176 2.0501102519512773 -0.5200274433105061 1.139966685416096
1.08180308342 0.0468074552455168 -0.2140900402274924 -1.1492908224036262 1.8294084383563176 2.0501102519512773 -0.5200274433105061 1.139966685416096
1.09160399437 0.0468074552455168 -0.2140900402274924 -1.1492908224036262 1.8294084383563176 2.0501102519512773 -0.5200274433105061 1.139966685416096
1.09160399437 0.0468074552455168 -0.2140900402274924 -1.1492908224036262 1.8294084383563176 2.0501102519512773 -0.5200274433105061 1.139966685416096
1.1018140316 0.0468074552455168 -0.2140900402274924 -1.1492908224036262 1.8294084383563176 2.0501102519512773 -0.5200274433105061 1.139966685416096
1.1018140316 0.0468074552455168 -0.2140900402274924 -1.1492908224036262 1.8294084383563176 2.0501102519512773 -0.5200274433105061 1.139966685416096
1.11184716225 0.0468074552455168 -0.2140900402274924 -1.1492908224036262 1.8294084383563176 2.0501102519512773 -0.5200274433105061 1.139966685416096
1.11184716225 0.0468074552455168 -0.2140900402274924 -1.1492908224036262 1.8294084383563176 2.0501102519512773 -0.5200274433105061 1.139966685416096
1.12159109116 0.0468074552455168 -0.2140900402274924 -1.1492908224036262 1.8294084383563176 2.0501102519512773 -0.5200274433105061 1.139966685416096
1.12159109116 0.0468074552455168 -0.2140900402274924 -1.1492908224036262 1.8294084383563176 2.0501102519512773 -0.5200274433105061 1.139966685416096
1.13179016113 0.0468074552455168 -0.2140900402274924 -1.1492908224036262 1.8294084383563176 2.0501102519512773 -0.5200274433105061 1.139966685416096
1.13179016113 0.0468074552455168 -0.2140900402274924 -1.1492908224036262 1.8294084383563176 2.0501102519512773 -0.5200274433105061 1.139966685416096
1.14166903496 0.0468074552455168 -0.2140900402274924 -1.1492908224036262 1.8294084383563176 2.0501102519512773 -0.5200274433105061 1.139966685416096
1.14166903496 0.0468074552455168 -0.2140900402274924 -1.1492908224036262 1.8294084383563176 2.0501102519512773 -0.5200274433105061 1.139966685416096
1.1515481472 0.0468074552455168 -0.2140900402274924 -1.1492908224036262 1.8294084383563176 2.0501102519512773 -0.5200274433105061 1.139966685416096
1.1515481472 0.0468074552455168 -0.2140900402274924 -1.1492908224036262 1.8294084383563176 2.0501102519512773 -0.5200274433105061 1.139966685416096
1.16173410416 0.0468074552455168 -0.2140900402274924 -1.1492908224036262 1.8294084383563176 2.0501102519512773 -0.5200274433105061 1.139966685416096
1.16173410416 0.0468074552455168 -0.2140900402274924 -1.1492908224036262 1.8294084383563176 2.0501102519512773 -0.5200274433105061 1.139966685416096
1.17174911499 0.0468074552455168 -0.2140900402274924 -1.1492908224036262 1.8294084383563176 2.0501102519512773 -0.5200274433105061 1.139966685416096
1.17174911499 0.0468074552455168 -0.2140900402274924 -1.1492908224036262 1.8294084383563176 2.0501102519512773 -0.5200274433105061 1.139966685416096
1.18175005913 0.0468074552455168 -0.2140900402274924 -1.1492908224036262 1.8294084383563176 2.0501102519512773 -0.5200274433105061 1.139966685416096
1.18175005913 0.0468074552455168 -0.2140900402274924 -1.1492908224036262 1.8294084383563176 2.0501102519512773 -0.5200274433105061 1.139966685416096
1.19178819656 0.0468074552455168 -0.2140900402274924 -1.1492908224036262 1.8294084383563176 2.0501102519512773 -0.5200274433105061 1.139966685416096
1.19178819656 0.0468074552455168 -0.2140900402274924 -1.1492908224036262 1.8294084383563176 2.0501102519512773 -0.5200274433105061 1.139966685416096
1.20176696777 0.0468074552455168 -0.2140900402274924 -1.1492908224036262 1.8294084383563176 2.0501102519512773 -0.5200274433105061 1.139966685416096
1.20176696777 0.0468074552455168 -0.2140900402274924 -1.1492908224036262 1.8294084383563176 2.0501102519512773 -0.5200274433105061 1.139966685416096
1.21187710762 0.0468074552455168 -0.2140900402274924 -1.1492908224036262 1.8294084383563176 2.0501102519512773 -0.5200274433105061 1.139966685416096
1.21187710762 0.0468074552455168 -0.2140900402274924 -1.1492908224036262 1.8294084383563176 2.0501102519512773 -0.5200274433105061 1.139966685416096
1.22177505493 0.0468074552455168 -0.2140900402274924 -1.1492908224036262 1.8294084383563176 2.0501102519512773 -0.5200274433105061 1.139966685416096
1.22177505493 0.0468074552455168 -0.2140900402274924 -1.1492908224036262 1.8294084383563176 2.0501102519512773 -0.5200274433105061 1.139966685416096
1.23179006577 0.0468074552455168 -0.2140900402274924 -1.1492908224036262 1.8294084383563176 2.0501102519512773 -0.5200274433105061 1.139966685416096
1.23179006577 0.0468074552455168 -0.2140900402274924 -1.1492908224036262 1.8294084383563176 2.0501102519512773 -0.5200274433105061 1.139966685416096
1.24173116684 0.0468074552455168 -0.2140900402274924 -1.1492908224036262 1.8294084383563176 2.0501102519512773 -0.5200274433105061 1.139966685416096
1.24173116684 0.0468074552455168 -0.2140900402274924 -1.1492908224036262 1.8294084383563176 2.0501102519512773 -0.5200274433105061 1.139966685416096
1.25161099434 0.0468074552455168 -0.2140900402274924 -1.1492908224036262 1.8294084383563176 2.0501102519512773 -0.5200274433105061 1.139966685416096
1.25161099434 0.0468074552455168 -0.2140900402274924 -1.1492908224036262 1.8294084383563176 2.0501102519512773 -0.5200274433105061 1.139966685416096
1.26164412498 0.0468074552455168 -0.2140900402274924 -1.1492908224036262 1.8294084383563176 2.0501102519512773 -0.5200274433105061 1.139966685416096
1.26164412498 0.0468074552455168 -0.2140900402274924 -1.1492908224036262 1.8294084383563176 2.0501102519512773 -0.5200274433105061 1.139966685416096
1.27145004272 0.0468074552455168 -0.2140900402274924 -1.1492908224036262 1.8294084383563176 2.0501102519512773 -0.5200274433105061 1.139966685416096
1.27145004272 0.0468074552455168 -0.2140900402274924 -1.1492908224036262 1.8294084383563176 2.0501102519512773 -0.5200274433105061 1.139966685416096
1.28172302246 0.0468074552455168 -0.2140900402274924 -1.1492908224036262 1.8294084383563176 2.0501102519512773 -0.5200274433105061 1.139966685416096
1.28172302246 0.0468074552455168 -0.2140900402274924 -1.1492908224036262 1.8294084383563176 2.0501102519512773 -0.5200274433105061 1.139966685416096
1.29176306725 0.0468074552455168 -0.2140900402274924 -1.1492908224036262 1.8294084383563176 2.0501102519512773 -0.5200274433105061 1.139966685416096
1.29176306725 0.0468074552455168 -0.2140900402274924 -1.1492908224036262 1.8294084383563176 2.0501102519512773 -0.5200274433105061 1.139966685416096
1.30177497864 0.0468074552455168 -0.2140900402274924 -1.1492908224036262 1.8294084383563176 2.0501102519512773 -0.5200274433105061 1.139966685416096
1.30177497864 0.0468074552455168 -0.2140900402274924 -1.1492908224036262 1.8294084383563176 2.0501102519512773 -0.5200274433105061 1.139966685416096
1.31178712845 0.0468074552455168 -0.2140900402274924 -1.1492908224036262 1.8294084383563176 2.0501102519512773 -0.5200274433105061 1.139966685416096
1.31178712845 0.0468074552455168 -0.2140900402274924 -1.1492908224036262 1.8294084383563176 2.0501102519512773 -0.5200274433105061 1.139966685416096
1.32179903984 0.0468074552455168 -0.2140900402274924 -1.1492908224036262 1.8294084383563176 2.0501102519512773 -0.5200274433105061 1.139966685416096
1.32179903984 0.0468074552455168 -0.2140900402274924 -1.1492908224036262 1.8294084383563176 2.0501102519512773 -0.5200274433105061 1.139966685416096
1.3317899704 0.0468074552455168 -0.2140900402274924 -1.1492908224036262 1.8294084383563176 2.0501102519512773 -0.5200274433105061 1.139966685416096
1.3317899704 0.0468074552455168 -0.2140900402274924 -1.1492908224036262 1.8294084383563176 2.0501102519512773 -0.5200274433105061 1.139966685416096
1.34179615974 0.0468074552455168 -0.2140900402274924 -1.1492908224036262 1.8294084383563176 2.0501102519512773 -0.5200274433105061 1.139966685416096
1.34179615974 0.0468074552455168 -0.2140900402274924 -1.1492908224036262 1.8294084383563176 2.0501102519512773 -0.5200274433105061 1.139966685416096
1.35182619095 0.0468074552455168 -0.2140900402274924 -1.1492908224036262 1.8294084383563176 2.0501102519512773 -0.5200274433105061 1.139966685416096
1.35182619095 0.0468074552455168 -0.2140900402274924 -1.1492908224036262 1.8294084383563176 2.0501102519512773 -0.5200274433105061 1.139966685416096
1.36180520058 0.0468074552455168 -0.2140900402274924 -1.1492908224036262 1.8294084383563176 2.0501102519512773 -0.5200274433105061 1.139966685416096
1.36180520058 0.0468074552455168 -0.2140900402274924 -1.1492908224036262 1.8294084383563176 2.0501102519512773 -0.5200274433105061 1.139966685416096
1.37169003487 0.0468074552455168 -0.2140900402274924 -1.1492908224036262 1.8294084383563176 2.0501102519512773 -0.5200274433105061 1.139966685416096
1.37169003487 0.0468074552455168 -0.2140900402274924 -1.1492908224036262 1.8294084383563176 2.0501102519512773 -0.5200274433105061 1.139966685416096
1.38161206245 0.0468074552455168 -0.2140900402274924 -1.1492908224036262 1.8294084383563176 2.0501102519512773 -0.5200274433105061 1.139966685416096
1.38161206245 0.0468074552455168 -0.2140900402274924 -1.1492908224036262 1.8294084383563176 2.0501102519512773 -0.5200274433105061 1.139966685416096
1.39142203331 0.0468074552455168 -0.2140900402274924 -1.1492908224036262 1.8294084383563176 2.0501102519512773 -0.5200274433105061 1.139966685416096
1.39142203331 0.0468074552455168 -0.2140900402274924 -1.1492908224036262 1.8294084383563176 2.0501102519512773 -0.5200274433105061 1.139966685416096
1.40182805061 0.0468074552455168 -0.2140900402274924 -1.1492908224036262 1.8294084383563176 2.0501102519512773 -0.5200274433105061 1.139966685416096
1.40182805061 0.0468074552455168 -0.2140900402274924 -1.1492908224036262 1.8294084383563176 2.0501102519512773 -0.5200274433105061 1.139966685416096
1.41183209419 0.0468074552455168 -0.2140900402274924 -1.1492908224036262 1.8294084383563176 2.0501102519512773 -0.5200274433105061 1.139966685416096
1.41183209419 0.0468074552455168 -0.2140900402274924 -1.1492908224036262 1.8294084383563176 2.0501102519512773 -0.5200274433105061 1.139966685416096
1.421833992 0.0468074552455168 -0.2140900402274924 -1.1492908224036262 1.8294084383563176 2.0501102519512773 -0.5200274433105061 1.139966685416096
1.421833992 0.0468074552455168 -0.2140900402274924 -1.1492908224036262 1.8294084383563176 2.0501102519512773 -0.5200274433105061 1.139966685416096
1.43178915977 0.0468074552455168 -0.2140900402274924 -1.1492908224036262 1.8294084383563176 2.0501102519512773 -0.5200274433105061 1.139966685416096
1.43178915977 0.0468074552455168 -0.2140900402274924 -1.1492908224036262 1.8294084383563176 2.0501102519512773 -0.5200274433105061 1.139966685416096
1.44184112549 0.0468074552455168 -0.2140900402274924 -1.1492908224036262 1.8294084383563176 2.0501102519512773 -0.5200274433105061 1.139966685416096
1.44184112549 0.0468074552455168 -0.2140900402274924 -1.1492908224036262 1.8294084383563176 2.0501102519512773 -0.5200274433105061 1.139966685416096
1.45174813271 0.0468074552455168 -0.2140900402274924 -1.1492908224036262 1.8294084383563176 2.0501102519512773 -0.5200274433105061 1.139966685416096
1.45174813271 0.0468074552455168 -0.2140900402274924 -1.1492908224036262 1.8294084383563176 2.0501102519512773 -0.5200274433105061 1.139966685416096
1.46162414551 0.0468074552455168 -0.2140900402274924 -1.1492908224036262 1.8294084383563176 2.0501102519512773 -0.5200274433105061 1.139966685416096
1.46162414551 0.0468074552455168 -0.2140900402274924 -1.1492908224036262 1.8294084383563176 2.0501102519512773 -0.5200274433105061 1.139966685416096
1.47187519073 0.0468074552455 -0.214090040227 -1.1492908224 1.82940843836 2.05011025195 -0.520027443311 1.13996668542
1.47187519073 0.0468074552455 -0.214090040227 -1.1492908224 1.82940843836 2.05011025195 -0.520027443311 1.13996668542
1.48140311241 0.0468074552455168 -0.2139519801253278 -1.1510702637204129 1.8294084383563176 2.0501102519512773 -0.5200274433105061 1.139966685416096
1.48140311241 0.0468074552455168 -0.2139519801253278 -1.1510702637204129 1.8294084383563176 2.0501102519512773 -0.5200274433105061 1.139966685416096
1.49137711525 0.0468074552455168 -0.212494679046925 -1.1639098532217091 1.8309731195141816 2.0501102519512773 -0.5200274433105061 1.139966685416096
1.49137711525 0.0468074552455168 -0.212494679046925 -1.1639098532217091 1.8309731195141816 2.0501102519512773 -0.5200274433105061 1.139966685416096
1.50139212608 0.0468227952568684 -0.2113901982296093 -1.1800782251863045 1.8343786020342387 2.0501102519512773 -0.5200274433105061 1.139966685416096
1.50139212608 0.0468227952568684 -0.2113901982296093 -1.1800782251863045 1.8343786020342387 2.0501102519512773 -0.5200274433105061 1.139966685416096
1.51139998436 0.0468227952568684 -0.2113901982296093 -1.1800782251863045 1.8343786020342387 2.0501102519512773 -0.5200274433105061 1.139966685416096
1.51139998436 0.0468227952568684 -0.2113901982296093 -1.1800782251863045 1.8343786020342387 2.0501102519512773 -0.5200274433105061 1.139966685416096
1.52135109901 0.0468227952568684 -0.2113901982296093 -1.1800782251863045 1.8343786020342387 2.0501102519512773 -0.5200274433105061 1.139966685416096
1.52135109901 0.0468227952568684 -0.2113901982296093 -1.1800782251863045 1.8343786020342387 2.0501102519512773 -0.5200274433105061 1.139966685416096
1.5313911438 0.0468227952568684 -0.2113901982296093 -1.1800782251863045 1.8343786020342387 2.0501102519512773 -0.5200274433105061 1.139966685416096
1.5313911438 0.0468227952568684 -0.2113901982296093 -1.1800782251863045 1.8343786020342387 2.0501102519512773 -0.5200274433105061 1.139966685416096
1.54154205322 0.04683813526822 -0.210929997889061 -1.1837444878993388 1.8350995825677645 2.0501102519512773 -0.5200274433105061 1.139966685416096
1.54154205322 0.04683813526822 -0.210929997889061 -1.1837444878993388 1.8350995825677645 2.0501102519512773 -0.5200274433105061 1.139966685416096
1.55143117905 0.04683813526822 -0.210929997889061 -1.1837444878993388 1.8350995825677645 2.0501102519512773 -0.5200274433105061 1.139966685416096
1.55143117905 0.04683813526822 -0.210929997889061 -1.1837444878993388 1.8350995825677645 2.0501102519512773 -0.5200274433105061 1.139966685416096
1.5613861084 0.04683813526822 -0.210929997889061 -1.1837444878993388 1.8350995825677645 2.0501102519512773 -0.5200274433105061 1.139966685416096
1.5613861084 0.04683813526822 -0.210929997889061 -1.1837444878993388 1.8350995825677645 2.0501102519512773 -0.5200274433105061 1.139966685416096
1.57172012329 0.04683813526822 -0.210929997889061 -1.1837444878993388 1.8350995825677645 2.0501102519512773 -0.5200274433105061 1.139966685416096
1.57172012329 0.04683813526822 -0.210929997889061 -1.1837444878993388 1.8350995825677645 2.0501102519512773 -0.5200274433105061 1.139966685416096
1.58178901672 0.04683813526822 -0.210929997889061 -1.1837444878993388 1.8350995825677645 2.0501102519512773 -0.5200274433105061 1.139966685416096
1.58178901672 0.04683813526822 -0.210929997889061 -1.1837444878993388 1.8350995825677645 2.0501102519512773 -0.5200274433105061 1.139966685416096
1.59162998199 0.04683813526822 -0.210929997889061 -1.1837444878993388 1.8350995825677645 2.0501102519512773 -0.5200274433105061 1.139966685416096
1.59162998199 0.04683813526822 -0.210929997889061 -1.1837444878993388 1.8350995825677645 2.0501102519512773 -0.5200274433105061 1.139966685416096
1.60173010826 0.04683813526822 -0.2095647368787679 -1.1868891902264185 1.835421722806148 2.0501102519512773 -0.5200274433105061 1.139966685416096
1.60173010826 0.04683813526822 -0.2095647368787679 -1.1868891902264185 1.835421722806148 2.0501102519512773 -0.5200274433105061 1.139966685416096
1.61192297935 0.0478965960514809 -0.1984585686602034 -1.1953415364811548 1.8354830828515547 2.0501102519512773 -0.5200274433105061 1.139966685416096
1.61192297935 0.0478965960514809 -0.1984585686602034 -1.1953415364811548 1.8354830828515547 2.0501102519512773 -0.5200274433105061 1.139966685416096
1.62134599686 0.0478965960514809 -0.1984585686602034 -1.1953415364811548 1.8354830828515547 2.0501102519512773 -0.5200274433105061 1.139966685416096
1.62134599686 0.0478965960514809 -0.1984585686602034 -1.1953415364811548 1.8354830828515547 2.0501102519512773 -0.5200274433105061 1.139966685416096
1.63166999817 0.0478965960514809 -0.1984585686602034 -1.1953415364811548 1.8354830828515547 2.0501102519512773 -0.5200274433105061 1.139966685416096
1.63166999817 0.0478965960514809 -0.1984585686602034 -1.1953415364811548 1.8354830828515547 2.0501102519512773 -0.5200274433105061 1.139966685416096
1.64180707932 0.0479426160855358 -0.1953292063444753 -1.197289717922809 1.8354830828515547 2.0501102519512773 -0.5200274433105061 1.139966685416096
1.64180707932 0.0479426160855358 -0.1953292063444753 -1.197289717922809 1.8354830828515547 2.0501102519512773 -0.5200274433105061 1.139966685416096
1.65244913101 0.0479579560968874 -0.191969743858473 -1.19968275969366 1.835513762874258 2.0501102519512773 -0.5200274433105061 1.139966685416096
1.65244913101 0.0479579560968874 -0.191969743858473 -1.19968275969366 1.835513762874258 2.0501102519512773 -0.5200274433105061 1.139966685416096
1.66157412529 0.0479579560968874 -0.191969743858473 -1.19968275969366 1.835513762874258 2.0501102519512773 -0.5200274433105061 1.139966685416096
1.66157412529 0.0479579560968874 -0.191969743858473 -1.19968275969366 1.835513762874258 2.0501102519512773 -0.5200274433105061 1.139966685416096
1.67176413536 0.0479579560968874 -0.1888097015200416 -1.2017383212147754 1.835529102885609 2.0501102519512773 -0.5200274433105061 1.139966685416096
1.67176413536 0.0479579560968874 -0.1888097015200416 -1.2017383212147754 1.835529102885609 2.0501102519512773 -0.5200274433105061 1.139966685416096
1.68157219887 0.0479579560968874 -0.1888097015200416 -1.2017383212147754 1.835529102885609 2.0501102519512773 -0.5200274433105061 1.139966685416096
1.68157219887 0.0479579560968874 -0.1888097015200416 -1.2017383212147754 1.835529102885609 2.0501102519512773 -0.5200274433105061 1.139966685416096
1.69176697731 0.0479579560968874 -0.1856036391475555 -1.2039779628721103 1.8355597829083128 2.0501102519512773 -0.5200274433105061 1.139966685416096
1.69176697731 0.0479579560968874 -0.1856036391475555 -1.2039779628721103 1.8355597829083128 2.0501102519512773 -0.5200274433105061 1.139966685416096
1.70178508759 0.0479579560968874 -0.1856036391475555 -1.2039779628721103 1.8355597829083128 2.0501102519512773 -0.5200274433105061 1.139966685416096
1.70178508759 0.0479579560968874 -0.1856036391475555 -1.2039779628721103 1.8355597829083128 2.0501102519512773 -0.5200274433105061 1.139966685416096
1.71210813522 0.047973296108239 -0.1826890369907499 -1.2056960441434903 1.835590462931016 2.0501741683851056 -0.5200274433105061 1.139966685416096
1.71210813522 0.047973296108239 -0.1826890369907499 -1.2056960441434903 1.835590462931016 2.0501741683851056 -0.5200274433105061 1.139966685416096
1.72165203094 0.047973296108239 -0.1826890369907499 -1.2056960441434903 1.835590462931016 2.0501741683851056 -0.5200274433105061 1.139966685416096
1.72165203094 0.047973296108239 -0.1826890369907499 -1.2056960441434903 1.835590462931016 2.0501741683851056 -0.5200274433105061 1.139966685416096
1.73141717911 0.0480039761309422 -0.1795443346636702 -1.2077055856305512 1.8356825029991253 2.0501741683851056 -0.5200274433105061 1.139966685416096
1.73141717911 0.0480039761309422 -0.1795443346636702 -1.2077055856305512 1.8356825029991253 2.0501741683851056 -0.5200274433105061 1.139966685416096
1.74156498909 0.0480039761309422 -0.1795443346636702 -1.2077055856305512 1.8356825029991253 2.0501741683851056 -0.5200274433105061 1.139966685416096
1.74156498909 0.0480039761309422 -0.1795443346636702 -1.2077055856305512 1.8356825029991253 2.0501741683851056 -0.5200274433105061 1.139966685416096
1.75166296959 0.0480499961649971 -0.1765837124728098 -1.2096537670722054 1.8359126031693995 2.0501741683851056 -0.5200274433105061 1.139966685416096
1.75166296959 0.0480499961649971 -0.1765837124728098 -1.2096537670722054 1.8359126031693995 2.0501741683851056 -0.5200274433105061 1.139966685416096
1.76177310944 0.0480499961649971 -0.1765837124728098 -1.2096537670722054 1.8359126031693995 2.0501741683851056 -0.5200274433105061 1.139966685416096
1.76177310944 0.0480499961649971 -0.1765837124728098 -1.2096537670722054 1.8359126031693995 2.0501741683851056 -0.5200274433105061 1.139966685416096
1.77224302292 0.04817271625581 -0.1738992104862783 -1.2123229290473851 1.836357463498596 2.050165037465987 -0.5200274433105061 1.139966685416096
1.77224302292 0.04817271625581 -0.1738992104862783 -1.2123229290473851 1.836357463498596 2.050165037465987 -0.5200274433105061 1.139966685416096
1.78138613701 0.04817271625581 -0.1738992104862783 -1.2123229290473851 1.836357463498596 2.050165037465987 -0.5200274433105061 1.139966685416096
1.78138613701 0.04817271625581 -0.1738992104862783 -1.2123229290473851 1.836357463498596 2.050165037465987 -0.5200274433105061 1.139966685416096
1.79144120216 0.0482647563239197 -0.1714908287040759 -1.215191511170136 1.8370324239980669 2.0501467756277503 -0.5200274433105061 1.139966685416096
1.79144120216 0.0482647563239197 -0.1714908287040759 -1.215191511170136 1.8370324239980669 2.0501467756277503 -0.5200274433105061 1.139966685416096
1.8015639782 0.0482647563239197 -0.1714908287040759 -1.215191511170136 1.8370324239980669 2.0501467756277503 -0.5200274433105061 1.139966685416096
1.8015639782 0.0482647563239197 -0.1714908287040759 -1.215191511170136 1.8370324239980669 2.0501467756277503 -0.5200274433105061 1.139966685416096
1.8117749691 0.0483414563806776 -0.1692051670126862 -1.2183975735426222 1.8377380645202408 2.050128513789514 -0.5200274433105061 1.139966685416096
1.8117749691 0.0483414563806776 -0.1692051670126862 -1.2183975735426222 1.8377380645202408 2.050128513789514 -0.5200274433105061 1.139966685416096
1.82182002068 0.0483414563806776 -0.1692051670126862 -1.2183975735426222 1.8377380645202408 2.050128513789514 -0.5200274433105061 1.139966685416096
1.82182002068 0.0483414563806776 -0.1692051670126862 -1.2183975735426222 1.8377380645202408 2.050128513789514 -0.5200274433105061 1.139966685416096
1.83159399033 0.0483414563806776 -0.1692051670126862 -1.2183975735426222 1.8377380645202408 2.050128513789514 -0.5200274433105061 1.139966685416096
1.83159399033 0.0483414563806776 -0.1692051670126862 -1.2183975735426222 1.8377380645202408 2.050128513789514 -0.5200274433105061 1.139966685416096
1.84165906906 0.0483414563806776 -0.1692051670126862 -1.2183975735426222 1.8377380645202408 2.050128513789514 -0.5200274433105061 1.139966685416096
1.84165906906 0.0483414563806776 -0.1692051670126862 -1.2183975735426222 1.8377380645202408 2.050128513789514 -0.5200274433105061 1.139966685416096
1.8514521122 0.0488323367439291 -0.1650480239364003 -1.2255153388097684 1.8393180856894569 2.0501011210321587 -0.5200274433105061 1.139966685416096
1.8514521122 0.0488323367439291 -0.1650480239364003 -1.2255153388097684 1.8393180856894569 2.0501011210321587 -0.5200274433105061 1.139966685416096
1.86163020134 0.0488323367439291 -0.1650480239364003 -1.2255153388097684 1.8393180856894569 2.0501011210321587 -0.5200274433105061 1.139966685416096
1.86163020134 0.0488323367439291 -0.1650480239364003 -1.2255153388097684 1.8393180856894569 2.0501011210321587 -0.5200274433105061 1.139966685416096
1.87173199654 0.0491391369709612 -0.1633299426650201 -1.2291969415341544 1.8400697462456856 2.0503111321718803 -0.5200274433105061 1.139966685416096
1.87173199654 0.0491391369709612 -0.1633299426650201 -1.2291969415341544 1.8400697462456856 2.0503111321718803 -0.5200274433105061 1.139966685416096
1.88178300858 0.0491391369709612 -0.1633299426650201 -1.2291969415341544 1.8400697462456856 2.0503111321718803 -0.5200274433105061 1.139966685416096
1.88178300858 0.0491391369709612 -0.1633299426650201 -1.2291969415341544 1.8400697462456856 2.0503111321718803 -0.5200274433105061 1.139966685416096
1.89181613922 0.0491391369709612 -0.1633299426650201 -1.2291969415341544 1.8400697462456856 2.0503111321718803 -0.5200274433105061 1.139966685416096
1.89181613922 0.0491391369709612 -0.1633299426650201 -1.2291969415341544 1.8400697462456856 2.0503111321718803 -0.5200274433105061 1.139966685416096
1.90201807022 0.0494152571752903 -0.1614738012914755 -1.2332927245650338 1.840913446870024 2.0503111321718803 -0.5200274433105061 1.139966685416096
1.90201807022 0.0494152571752903 -0.1614738012914755 -1.2332927245650338 1.840913446870024 2.0503111321718803 -0.5200274433105061 1.139966685416096
1.91146206856 0.0494152571752903 -0.1614738012914755 -1.2332927245650338 1.840913446870024 2.0503111321718803 -0.5200274433105061 1.139966685416096
1.91146206856 0.0494152571752903 -0.1614738012914755 -1.2332927245650338 1.840913446870024 2.0503111321718803 -0.5200274433105061 1.139966685416096
1.92171216011 0.0494152571752903 -0.1614738012914755 -1.2332927245650338 1.840913446870024 2.0503111321718803 -0.5200274433105061 1.139966685416096
1.92171216011 0.0494152571752903 -0.1614738012914755 -1.2332927245650338 1.840913446870024 2.0503111321718803 -0.5200274433105061 1.139966685416096
1.93192911148 0.0497220574023224 -0.1595256198498213 -1.2368055871645522 1.8417418074830108 2.050292870333644 -0.5200274433105061 1.139966685416096
1.93192911148 0.0497220574023224 -0.1595256198498213 -1.2368055871645522 1.8417418074830108 2.050292870333644 -0.5200274433105061 1.139966685416096
1.94149208069 0.0497220574023224 -0.1595256198498213 -1.2368055871645522 1.8417418074830108 2.050292870333644 -0.5200274433105061 1.139966685416096
1.94149208069 0.0497220574023224 -0.1595256198498213 -1.2368055871645522 1.8417418074830108 2.050292870333644 -0.5200274433105061 1.139966685416096
1.95170116425 0.0499061375385418 -0.1573933582719477 -1.2406099099797512 1.84249346803924 2.0502106920615786 -0.5200274433105061 1.139966685416096
1.95170116425 0.0499061375385418 -0.1573933582719477 -1.2406099099797512 1.84249346803924 2.0502106920615786 -0.5200274433105061 1.139966685416096
1.96160101891 0.050090217674761 -0.1551843966373161 -1.244644332965224 1.843337168663578 2.050028073679212 -0.5200274433105061 1.139966685416096
1.96160101891 0.050090217674761 -0.1551843966373161 -1.244644332965224 1.843337168663578 2.050028073679212 -0.5200274433105061 1.139966685416096
1.9714550972 0.0502129377655739 -0.1530521350594425 -1.2488321560642133 1.8441808692879167 2.050028073679212 -0.5200274433105061 1.139966685416096
1.9714550972 0.0502129377655739 -0.1530521350594425 -1.2488321560642133 1.8441808692879167 2.050028073679212 -0.5200274433105061 1.139966685416096
1.98176908493 0.0502129377655739 -0.1530521350594425 -1.2488321560642133 1.8441808692879167 2.050028073679212 -0.5200274433105061 1.139966685416096
1.98176908493 0.0502129377655739 -0.1530521350594425 -1.2488321560642133 1.8441808692879167 2.050028073679212 -0.5200274433105061 1.139966685416096
1.99163508415 0.0502129377655739 -0.1530521350594425 -1.2488321560642133 1.8441808692879167 2.050028073679212 -0.5200274433105061 1.139966685416096
1.99163508415 0.0502129377655739 -0.1530521350594425 -1.2488321560642133 1.8441808692879167 2.050028073679212 -0.5200274433105061 1.139966685416096
2.00175309181 0.0502129377655739 -0.1530521350594425 -1.2488321560642133 1.8441808692879167 2.050028073679212 -0.5200274433105061 1.139966685416096
2.00175309181 0.0502129377655739 -0.1530521350594425 -1.2488321560642133 1.8441808692879167 2.050028073679212 -0.5200274433105061 1.139966685416096
2.01171708107 0.0503049778336836 -0.1487262518582889 -1.258588403283836 1.8454540902301 2.050028073679212 -0.5200274433105061 1.139966685416096
2.01171708107 0.0503049778336836 -0.1487262518582889 -1.258588403283836 1.8454540902301 2.050028073679212 -0.5200274433105061 1.139966685416096
2.02169299126 0.0503049778336836 -0.1487262518582889 -1.258588403283836 1.8454540902301 2.050028073679212 -0.5200274433105061 1.139966685416096
2.02169299126 0.0503049778336836 -0.1487262518582889 -1.258588403283836 1.8454540902301 2.050028073679212 -0.5200274433105061 1.139966685416096
2.03178715706 0.0503509978677382 -0.1466400103144702 -1.2641108073704153 1.8457302104344289 2.050028073679212 -0.5200228778509468 1.1399621199565368
2.03178715706 0.0503509978677382 -0.1466400103144702 -1.2641108073704153 1.8457302104344289 2.050028073679212 -0.5200228778509468 1.1399621199565368
2.04185199738 0.0503509978677382 -0.1466400103144702 -1.2641108073704153 1.8457302104344289 2.050028073679212 -0.5200228778509468 1.1399621199565368
2.04185199738 0.0503509978677382 -0.1466400103144702 -1.2641108073704153 1.8457302104344289 2.050028073679212 -0.5200228778509468 1.1399621199565368
2.05184316635 0.0503509978677382 -0.1466400103144702 -1.2641108073704153 1.8457302104344289 2.050028073679212 -0.5200228778509468 1.1399621199565368
2.05184316635 0.0503509978677382 -0.1466400103144702 -1.2641108073704153 1.8457302104344289 2.050028073679212 -0.5200228778509468 1.1399621199565368
2.06183099747 0.0504276979244963 -0.1446304688274095 -1.2697866115705103 1.8458989505592969 2.050028073679212 -0.5200228778509468 1.1399621199565368
2.06183099747 0.0504276979244963 -0.1446304688274095 -1.2697866115705103 1.8458989505592969 2.050028073679212 -0.5200228778509468 1.1399621199565368
2.07184314728 0.0504276979244963 -0.1446304688274095 -1.2697866115705103 1.8458989505592969 2.050028073679212 -0.5200228778509468 1.1399621199565368
2.07184314728 0.0504276979244963 -0.1446304688274095 -1.2697866115705103 1.8458989505592969 2.050028073679212 -0.5200228778509468 1.1399621199565368
2.08171701431 0.0504276979244963 -0.1446304688274095 -1.2697866115705103 1.8458989505592969 2.050028073679212 -0.5200228778509468 1.1399621199565368
2.08171701431 0.0504276979244963 -0.1446304688274095 -1.2697866115705103 1.8458989505592969 2.050028073679212 -0.5200228778509468 1.1399621199565368
2.09172296524 0.0505810980380125 -0.1428203474879197 -1.2760760162246698 1.8459449705933515 2.050037204598331 -0.5200228778509468 1.1399621199565368
2.09172296524 0.0505810980380125 -0.1428203474879197 -1.2760760162246698 1.8459449705933515 2.050037204598331 -0.5200228778509468 1.1399621199565368
2.10162305832 0.0507344981515287 -0.1412249863073524 -1.2826568810945098 1.8459449705933515 2.050037204598331 -0.5200228778509468 1.1399621199565368
2.10162305832 0.0507344981515287 -0.1412249863073524 -1.2826568810945098 1.8459449705933515 2.050037204598331 -0.5200228778509468 1.1399621199565368
2.11164212227 0.0508265382196381 -0.1400744854559818 -1.2893297860324593 1.8459449705933515 2.0506124525027847 -0.5200228778509468 1.1399621199565368
2.11164212227 0.0508265382196381 -0.1400744854559818 -1.2893297860324593 1.8459449705933515 2.0506124525027847 -0.5200228778509468 1.1399621199565368
2.12182807922 0.0508265382196381 -0.1400744854559818 -1.2893297860324593 1.8459449705933515 2.0506124525027847 -0.5200228778509468 1.1399621199565368
2.12182807922 0.0508265382196381 -0.1400744854559818 -1.2893297860324593 1.8459449705933515 2.0506124525027847 -0.5200228778509468 1.1399621199565368
2.13178610802 0.0508572182423414 -0.1390313646840724 -1.2968924116288023 1.8459449705933515 2.0505485360689564 -0.5200228778509468 1.1399621199565368
2.13178610802 0.0508572182423414 -0.1390313646840724 -1.2968924116288023 1.8459449705933515 2.0505485360689564 -0.5200228778509468 1.1399621199565368
2.14171004295 0.0508572182423414 -0.1390313646840724 -1.2968924116288023 1.8459449705933515 2.0505485360689564 -0.5200228778509468 1.1399621199565368
2.14171004295 0.0508572182423414 -0.1390313646840724 -1.2968924116288023 1.8459449705933515 2.0505485360689564 -0.5200228778509468 1.1399621199565368
2.15181899071 0.0508572182423414 -0.1390313646840724 -1.2968924116288023 1.8459449705933515 2.0505485360689564 -0.5200228778509468 1.1399621199565368
2.15181899071 0.0508572182423414 -0.1390313646840724 -1.2968924116288023 1.8459449705933515 2.0505485360689564 -0.5200228778509468 1.1399621199565368
2.16181612015 0.0508572182423414 -0.1390313646840724 -1.2968924116288023 1.8459449705933515 2.0505485360689564 -0.5200228778509468 1.1399621199565368
2.16181612015 0.0508572182423414 -0.1390313646840724 -1.2968924116288023 1.8459449705933515 2.0505485360689564 -0.5200228778509468 1.1399621199565368
2.1716439724 0.0508572182423414 -0.1390313646840724 -1.2968924116288023 1.8459449705933515 2.0505485360689564 -0.5200228778509468 1.1399621199565368
2.1716439724 0.0508572182423414 -0.1390313646840724 -1.2968924116288023 1.8459449705933515 2.0505485360689564 -0.5200228778509468 1.1399621199565368
2.1817920208 0.0508572182423414 -0.1390313646840724 -1.2968924116288023 1.8459449705933515 2.0505485360689564 -0.5200228778509468 1.1399621199565368
2.1817920208 0.0508572182423414 -0.1390313646840724 -1.2968924116288023 1.8459449705933515 2.0505485360689564 -0.5200228778509468 1.1399621199565368
2.19165205956 0.0508572182423414 -0.1381876640597339 -1.3043323171343324 1.8459449705933515 2.050292870333644 -0.5200228778509468 1.1399621199565368
2.19165205956 0.0508572182423414 -0.1381876640597339 -1.3043323171343324 1.8459449705933515 2.050292870333644 -0.5200228778509468 1.1399621199565368
2.20161604881 0.0508572182423414 -0.1381876640597339 -1.3043323171343324 1.8459449705933515 2.050292870333644 -0.5200228778509468 1.1399621199565368
2.20161604881 0.0508572182423414 -0.1381876640597339 -1.3043323171343324 1.8459449705933515 2.050292870333644 -0.5200228778509468 1.1399621199565368
2.21144104004 0.0508572182423414 -0.1381876640597339 -1.3043323171343324 1.8459449705933515 2.050292870333644 -0.5200228778509468 1.1399621199565368
2.21144104004 0.0508572182423414 -0.1381876640597339 -1.3043323171343324 1.8459449705933515 2.050292870333644 -0.5200228778509468 1.1399621199565368
2.2216629982 0.0508572182423414 -0.1381876640597339 -1.3043323171343324 1.8459449705933515 2.050292870333644 -0.5200228778509468 1.1399621199565368
2.2216629982 0.0508572182423414 -0.1381876640597339 -1.3043323171343324 1.8459449705933515 2.050292870333644 -0.5200228778509468 1.1399621199565368
2.23240709305 0.0508572182423414 -0.1381876640597339 -1.3043323171343324 1.8459449705933515 2.050292870333644 -0.5200228778509468 1.1399621199565368
2.23240709305 0.0508572182423414 -0.1381876640597339 -1.3043323171343324 1.8459449705933515 2.050292870333644 -0.5200228778509468 1.1399621199565368
2.24167108536 0.050872558253693 -0.1354111220050929 -1.3355185602121522 1.8457148704230772 2.049964157245384 -0.5200228778509468 1.1399621199565368
2.24167108536 0.050872558253693 -0.1354111220050929 -1.3355185602121522 1.8457148704230772 2.049964157245384 -0.5200228778509468 1.1399621199565368
2.25184798241 0.050872558253693 -0.1354111220050929 -1.3355185602121522 1.8457148704230772 2.049964157245384 -0.5200228778509468 1.1399621199565368
2.25184798241 0.050872558253693 -0.1354111220050929 -1.3355185602121522 1.8457148704230772 2.049964157245384 -0.5200228778509468 1.1399621199565368
2.26170706749 0.050872558253693 -0.1350583017440058 -1.3437868263306691 1.8455001102641548 2.049964157245384 -0.5200228778509468 1.1399621199565368
2.26170706749 0.050872558253693 -0.1350583017440058 -1.3437868263306691 1.8455001102641548 2.049964157245384 -0.5200228778509468 1.1399621199565368
2.27176713943 0.0508418782309898 -0.1349509216645446 -1.3521471325172958 1.844947869855497 2.0499824190836207 -0.5200228778509468 1.1399621199565368
2.27176713943 0.0508418782309898 -0.1349509216645446 -1.3521471325172958 1.844947869855497 2.0499824190836207 -0.5200228778509468 1.1399621199565368
2.28181314468 0.0508418782309898 -0.1349509216645446 -1.3521471325172958 1.844947869855497 2.0499824190836207 -0.5200228778509468 1.1399621199565368
2.28181314468 0.0508418782309898 -0.1349509216645446 -1.3521471325172958 1.844947869855497 2.0499824190836207 -0.5200228778509468 1.1399621199565368
2.29178309441 0.0508418782309898 -0.1349509216645446 -1.3521471325172958 1.844947869855497 2.0499824190836207 -0.5200228778509468 1.1399621199565368
2.29178309441 0.0508418782309898 -0.1349509216645446 -1.3521471325172958 1.844947869855497 2.0499824190836207 -0.5200228778509468 1.1399621199565368
2.3018450737 0.0508418782309898 -0.1349509216645446 -1.3521471325172958 1.844947869855497 2.0499824190836207 -0.5200228778509468 1.1399621199565368
2.3018450737 0.0508418782309898 -0.1349509216645446 -1.3521471325172958 1.844947869855497 2.0499824190836207 -0.5200228778509468 1.1399621199565368
2.31182003021 0.0507498381628803 -0.1348895616191381 -1.3607068588514932 1.844058149197104 2.050018942760094 -0.5200228778509468 1.1399621199565368
2.31182003021 0.0507498381628803 -0.1348895616191381 -1.3607068588514932 1.844058149197104 2.050018942760094 -0.5200228778509468 1.1399621199565368
2.32165408134 0.0506577980947706 -0.1348742216077865 -1.3689751249700102 1.84296900839114 2.050238084818934 -0.5200228778509468 1.1399621199565368
2.32165408134 0.0506577980947706 -0.1348742216077865 -1.3689751249700102 1.84296900839114 2.050238084818934 -0.5200228778509468 1.1399621199565368
2.33152318001 0.0504737179585512 -0.1348435415850833 -1.3775041712815044 1.8416037473808464 2.0505485360689564 -0.5200228778509468 1.1399621199565368
2.33152318001 0.0504737179585512 -0.1348435415850833 -1.3775041712815044 1.8416037473808464 2.0505485360689564 -0.5200228778509468 1.1399621199565368
2.34171199799 0.0504737179585512 -0.1348435415850833 -1.3775041712815044 1.8416037473808464 2.0505485360689564 -0.5200228778509468 1.1399621199565368
2.34171199799 0.0504737179585512 -0.1348435415850833 -1.3775041712815044 1.8416037473808464 2.0505485360689564 -0.5200228778509468 1.1399621199565368
2.35173106194 0.0504737179585512 -0.1348435415850833 -1.3775041712815044 1.8416037473808464 2.0505485360689564 -0.5200228778509468 1.1399621199565368
2.35173106194 0.0504737179585512 -0.1348435415850833 -1.3775041712815044 1.8416037473808464 2.0505485360689564 -0.5200228778509468 1.1399621199565368
2.36178612709 0.0501669177315191 -0.1348435415850833 -1.3856803973319118 1.8399163461321693 2.0504024413630635 -0.5200228778509468 1.1399621199565368
2.36178612709 0.0501669177315191 -0.1348435415850833 -1.3856803973319118 1.8399163461321693 2.0504024413630635 -0.5200228778509468 1.1399621199565368
2.37186908722 0.0501669177315191 -0.1348435415850833 -1.3856803973319118 1.8399163461321693 2.0504024413630635 -0.5200228778509468 1.1399621199565368
2.37186908722 0.0501669177315191 -0.1348435415850833 -1.3856803973319118 1.8399163461321693 2.0504024413630635 -0.5200228778509468 1.1399621199565368
2.3818321228 0.0501669177315191 -0.1348435415850833 -1.3856803973319118 1.8399163461321693 2.0504024413630635 -0.5200228778509468 1.1399621199565368
2.3818321228 0.0501669177315191 -0.1348435415850833 -1.3856803973319118 1.8399163461321693 2.0504024413630635 -0.5200228778509468 1.1399621199565368
2.39160513878 0.0497987574590805 -0.1348282015737317 -1.3941174035752963 1.838060204758625 2.050137644708632 -0.5200228778509468 1.1399621199565368
2.39160513878 0.0497987574590805 -0.1348282015737317 -1.3941174035752963 1.838060204758625 2.050137644708632 -0.5200228778509468 1.1399621199565368
2.40169501305 0.0494766172206968 -0.1348282015737317 -1.4028151900116583 1.836019983248861 2.049945895407148 -0.5200228778509468 1.1399621199565368
2.40169501305 0.0494766172206968 -0.1348282015737317 -1.4028151900116583 1.836019983248861 2.049945895407148 -0.5200228778509468 1.1399621199565368
2.41177797318 0.0494766172206968 -0.1348282015737317 -1.4028151900116583 1.836019983248861 2.049945895407148 -0.5200228778509468 1.1399621199565368
2.41177797318 0.0494766172206968 -0.1348282015737317 -1.4028151900116583 1.836019983248861 2.049945895407148 -0.5200228778509468 1.1399621199565368
2.42157912254 0.0492465170504225 -0.1348282015737317 -1.4112982162890977 1.8333201412509776 2.049945895407148 -0.5200228778509468 1.1399621199565368
2.42157912254 0.0492465170504225 -0.1348282015737317 -1.4112982162890977 1.8333201412509776 2.049945895407148 -0.5200228778509468 1.1399621199565368
2.43169212341 0.0490164168801485 -0.1348282015737317 -1.419827262600592 1.8300066987990304 2.049955026326266 -0.5200228778509468 1.1399621199565368
2.43169212341 0.0490164168801485 -0.1348282015737317 -1.419827262600592 1.8300066987990304 2.049955026326266 -0.5200228778509468 1.1399621199565368
2.44164419174 0.0490164168801485 -0.1348282015737317 -1.419827262600592 1.8300066987990304 2.049955026326266 -0.5200228778509468 1.1399621199565368
2.44164419174 0.0490164168801485 -0.1348282015737317 -1.419827262600592 1.8300066987990304 2.049955026326266 -0.5200228778509468 1.1399621199565368
2.45161104202 0.0490164168801485 -0.1348282015737317 -1.419827262600592 1.8300066987990304 2.049955026326266 -0.5200228778509468 1.1399621199565368
2.45161104202 0.0490164168801485 -0.1348282015737317 -1.419827262600592 1.8300066987990304 2.049955026326266 -0.5200228778509468 1.1399621199565368
2.4619281292 0.0490164168801485 -0.1348282015737317 -1.419827262600592 1.8300066987990304 2.049955026326266 -0.5200228778509468 1.1399621199565368
2.4619281292 0.0490164168801485 -0.1348282015737317 -1.419827262600592 1.8300066987990304 2.049955026326266 -0.5200228778509468 1.1399621199565368
2.47182512283 0.0490164168801485 -0.1348282015737317 -1.419827262600592 1.8300066987990304 2.049955026326266 -0.5200228778509468 1.1399621199565368
2.47182512283 0.0490164168801485 -0.1348282015737317 -1.419827262600592 1.8300066987990304 2.049955026326266 -0.5200228778509468 1.1399621199565368
2.48174619675 0.0488016567212259 -0.1348282015737317 -1.428371648923438 1.8261716959611285 2.049955026326266 -0.5200228778509468 1.1399621199565368
2.48174619675 0.0488016567212259 -0.1348282015737317 -1.428371648923438 1.8261716959611285 2.049955026326266 -0.5200228778509468 1.1399621199565368
2.49178814888 0.0486175765850067 -0.1348282015737317 -1.4366092350192516 1.821769112703217 2.049964157245384 -0.5200228778509468 1.1399621199565368
2.49178814888 0.0486175765850067 -0.1348282015737317 -1.4366092350192516 1.821769112703217 2.049964157245384 -0.5200228778509468 1.1399621199565368
2.50178408623 0.0486175765850067 -0.1348282015737317 -1.4366092350192516 1.821769112703217 2.049964157245384 -0.5200228778509468 1.1399621199565368
2.50178408623 0.0486175765850067 -0.1348282015737317 -1.4366092350192516 1.821769112703217 2.049964157245384 -0.5200228778509468 1.1399621199565368
2.51158499718 0.0484641764714905 -0.1348282015737317 -1.4445400208880332 1.8166762289344829 2.0500006809218574 -0.5200228778509468 1.1399621199565368
2.51158499718 0.0484641764714905 -0.1348282015737317 -1.4445400208880332 1.8166762289344829 2.0500006809218574 -0.5200228778509468 1.1399621199565368
2.52209615707 0.0483414563806776 -0.1348282015737317 -1.4522407065865406 1.8109237246776293 2.050037204598331 -0.5200228778509468 1.1399621199565368
2.52209615707 0.0483414563806776 -0.1348282015737317 -1.4522407065865406 1.8109237246776293 2.050037204598331 -0.5200228778509468 1.1399621199565368
2.53151011467 0.0483414563806776 -0.1348282015737317 -1.4522407065865406 1.8109237246776293 2.050037204598331 -0.5200228778509468 1.1399621199565368
2.53151011467 0.0483414563806776 -0.1348282015737317 -1.4522407065865406 1.8109237246776293 2.050037204598331 -0.5200228778509468 1.1399621199565368
2.54165506363 0.0483414563806776 -0.1348282015737317 -1.4522407065865406 1.8109237246776293 2.050037204598331 -0.5200228778509468 1.1399621199565368
2.54165506363 0.0483414563806776 -0.1348282015737317 -1.4522407065865406 1.8109237246776293 2.050037204598331 -0.5200228778509468 1.1399621199565368
2.55181217194 0.0481420362331068 -0.1348282015737317 -1.4597573121488288 1.8046803400575249 2.050521143311601 -0.5200228778509468 1.1399621199565368
2.55181217194 0.0481420362331068 -0.1348282015737317 -1.4597573121488288 1.8046803400575249 2.050521143311601 -0.5200228778509468 1.1399621199565368
2.56275200844 0.0479886361195906 -0.1348282015737317 -1.4667676973365138 1.7981301552103883 2.050466357796892 -0.5200228778509468 1.1399621199565368
2.56275200844 0.0479886361195906 -0.1348282015737317 -1.4667676973365138 1.7981301552103883 2.050466357796892 -0.5200228778509468 1.1399621199565368
2.57143998146 0.0479886361195906 -0.1348282015737317 -1.4667676973365138 1.7981301552103883 2.050466357796892 -0.5200228778509468 1.1399621199565368
2.57143998146 0.0479886361195906 -0.1348282015737317 -1.4667676973365138 1.7981301552103883 2.050466357796892 -0.5200228778509468 1.1399621199565368
2.58151817322 0.0479426160855358 -0.1348282015737317 -1.473103122024728 1.7910737499886482 2.0502289538998157 -0.5200228778509468 1.1399621199565368
2.58151817322 0.0479426160855358 -0.1348282015737317 -1.473103122024728 1.7910737499886482 2.0502289538998157 -0.5200228778509468 1.1399621199565368
2.59193110466 0.0478965960514809 -0.1348128615623802 -1.4788096062475264 1.783342384267438 2.0499915500027392 -0.5200228778509468 1.1399621199565368
2.59193110466 0.0478965960514809 -0.1348128615623802 -1.4788096062475264 1.783342384267438 2.0499915500027392 -0.5200228778509468 1.1399621199565368
2.6017999649 0.0478965960514809 -0.1348128615623802 -1.4788096062475264 1.783342384267438 2.0499915500027392 -0.5200228778509468 1.1399621199565368
2.6017999649 0.0478965960514809 -0.1348128615623802 -1.4788096062475264 1.783342384267438 2.0499915500027392 -0.5200228778509468 1.1399621199565368
2.61188316345 0.0478965960514809 -0.1348128615623802 -1.4788096062475264 1.783342384267438 2.0499915500027392 -0.5200228778509468 1.1399621199565368
2.61188316345 0.0478965960514809 -0.1348128615623802 -1.4788096062475264 1.783342384267438 2.0499915500027392 -0.5200228778509468 1.1399621199565368
2.62179899216 0.0478965960514809 -0.1348128615623802 -1.4788096062475264 1.783342384267438 2.0499915500027392 -0.5200228778509468 1.1399621199565368
2.62179899216 0.0478965960514809 -0.1348128615623802 -1.4788096062475264 1.783342384267438 2.0499915500027392 -0.5200228778509468 1.1399621199565368
2.63195610046 0.0478812560401293 -0.1348128615623802 -1.4843320103341051 1.775104798171624 2.0499824190836207 -0.5200228778509468 1.1399621199565368
2.63195610046 0.0478812560401293 -0.1348128615623802 -1.4843320103341051 1.775104798171624 2.0499824190836207 -0.5200228778509468 1.1399621199565368
2.64154911041 0.0478045559833714 -0.1348128615623802 -1.4892714939893232 1.766330311678504 2.0499824190836207 -0.5200228778509468 1.1399621199565368
2.64154911041 0.0478045559833714 -0.1348128615623802 -1.4892714939893232 1.766330311678504 2.0499824190836207 -0.5200228778509468 1.1399621199565368
2.65185308456 0.0476971759039101 -0.1348128615623802 -1.4937200972812896 1.757402425071868 2.0499915500027392 -0.5200228778509468 1.1399621199565368
2.65185308456 0.0476971759039101 -0.1348128615623802 -1.4937200972812896 1.757402425071868 2.0499915500027392 -0.5200228778509468 1.1399621199565368
2.6615550518 0.0476971759039101 -0.1348128615623802 -1.4937200972812896 1.757402425071868 2.0499915500027392 -0.5200228778509468 1.1399621199565368
2.6615550518 0.0476971759039101 -0.1348128615623802 -1.4937200972812896 1.757402425071868 2.0499915500027392 -0.5200228778509468 1.1399621199565368
2.67164516449 0.0476971759039101 -0.1348128615623802 -1.4937200972812896 1.757402425071868 2.0499915500027392 -0.5200228778509468 1.1399621199565368
2.67164516449 0.0476971759039101 -0.1348128615623802 -1.4937200972812896 1.757402425071868 2.0499915500027392 -0.5200228778509468 1.1399621199565368
2.68151903152 0.0474517357222845 -0.1348128615623802 -1.4979999604483885 1.7475541377841353 2.0499915500027392 -0.5200228778509468 1.1399621199565368
2.68151903152 0.0474517357222845 -0.1348128615623802 -1.4979999604483885 1.7475541377841353 2.0499915500027392 -0.5200228778509468 1.1399621199565368
2.69158315659 0.0474517357222845 -0.1348128615623802 -1.4979999604483885 1.7475541377841353 2.0499915500027392 -0.5200228778509468 1.1399621199565368
2.69158315659 0.0474517357222845 -0.1348128615623802 -1.4979999604483885 1.7475541377841353 2.0499915500027392 -0.5200228778509468 1.1399621199565368
2.70140719414 0.0474517357222845 -0.1348128615623802 -1.4979999604483885 1.7475541377841353 2.0499915500027392 -0.5200228778509468 1.1399621199565368
2.70140719414 0.0474517357222845 -0.1348128615623802 -1.4979999604483885 1.7475541377841353 2.0499915500027392 -0.5200228778509468 1.1399621199565368
2.71160697937 0.047190955529307 -0.1348128615623802 -1.5052097657836443 1.7271672626978478 2.0500006809218574 -0.5200228778509468 1.1399621199565368
2.71160697937 0.047190955529307 -0.1348128615623802 -1.5052097657836443 1.7271672626978478 2.0500006809218574 -0.5200228778509468 1.1399621199565368
2.72161507607 0.047190955529307 -0.1348128615623802 -1.5052097657836443 1.7271672626978478 2.0500006809218574 -0.5200228778509468 1.1399621199565368
2.72161507607 0.047190955529307 -0.1348128615623802 -1.5052097657836443 1.7271672626978478 2.0500006809218574 -0.5200228778509468 1.1399621199565368
2.73167920113 0.047190955529307 -0.1348128615623802 -1.5084618481901857 1.7165212948198316 2.0500098118409755 -0.5200228778509468 1.1399621199565368
2.73167920113 0.047190955529307 -0.1348128615623802 -1.5084618481901857 1.7165212948198316 2.0500098118409755 -0.5200228778509468 1.1399621199565368
2.74177098274 0.047190955529307 -0.1348128615623802 -1.5084618481901857 1.7165212948198316 2.0500098118409755 -0.5200228778509468 1.1399621199565368
2.74177098274 0.047190955529307 -0.1348128615623802 -1.5084618481901857 1.7165212948198316 2.0500098118409755 -0.5200228778509468 1.1399621199565368
2.75179004669 0.047190955529307 -0.1348128615623802 -1.511775290642133 1.705461146635322 2.050037204598331 -0.5200228778509468 1.1399621199565368
2.75179004669 0.047190955529307 -0.1348128615623802 -1.511775290642133 1.705461146635322 2.050037204598331 -0.5200228778509468 1.1399621199565368
2.7617650032 0.047190955529307 -0.1348128615623802 -1.511775290642133 1.705461146635322 2.050037204598331 -0.5200228778509468 1.1399621199565368
2.7617650032 0.047190955529307 -0.1348128615623802 -1.511775290642133 1.705461146635322 2.050037204598331 -0.5200228778509468 1.1399621199565368
2.77185416222 0.047190955529307 -0.1348128615623802 -1.511775290642133 1.705461146635322 2.050037204598331 -0.5200228778509468 1.1399621199565368
2.77185416222 0.047190955529307 -0.1348128615623802 -1.511775290642133 1.705461146635322 2.050037204598331 -0.5200228778509468 1.1399621199565368
2.7817940712 0.047190955529307 -0.1348128615623802 -1.511775290642133 1.705461146635322 2.050037204598331 -0.5200228778509468 1.1399621199565368
2.7817940712 0.047190955529307 -0.1348128615623802 -1.511775290642133 1.705461146635322 2.050037204598331 -0.5200228778509468 1.1399621199565368
2.79170298576 0.047190955529307 -0.1348128615623802 -1.511775290642133 1.705461146635322 2.050037204598331 -0.5200228778509468 1.1399621199565368
2.79170298576 0.047190955529307 -0.1348128615623802 -1.511775290642133 1.705461146635322 2.050037204598331 -0.5200228778509468 1.1399621199565368
2.80167102814 0.047190955529307 -0.1348128615623802 -1.511775290642133 1.705461146635322 2.050037204598331 -0.5200228778509468 1.1399621199565368
2.80167102814 0.047190955529307 -0.1348128615623802 -1.511775290642133 1.705461146635322 2.050037204598331 -0.5200228778509468 1.1399621199565368
2.81151509285 0.047190955529307 -0.1348128615623802 -1.511775290642133 1.705461146635322 2.050037204598331 -0.5200228778509468 1.1399621199565368
2.81151509285 0.047190955529307 -0.1348128615623802 -1.511775290642133 1.705461146635322 2.050037204598331 -0.5200228778509468 1.1399621199565368
2.82191300392 0.047190955529307 -0.1348128615623802 -1.511775290642133 1.705461146635322 2.050037204598331 -0.5200228778509468 1.1399621199565368
2.82191300392 0.047190955529307 -0.1348128615623802 -1.511775290642133 1.705461146635322 2.050037204598331 -0.5200228778509468 1.1399621199565368
2.83182811737 0.047190955529307 -0.1348128615623802 -1.511775290642133 1.705461146635322 2.050037204598331 -0.5200228778509468 1.1399621199565368
2.83182811737 0.047190955529307 -0.1348128615623802 -1.511775290642133 1.705461146635322 2.050037204598331 -0.5200228778509468 1.1399621199565368
2.84179401398 0.047190955529307 -0.1348128615623802 -1.518356155511973 1.683095410084677 2.050512012392484 -0.5200228778509468 1.1399621199565368
2.84179401398 0.047190955529307 -0.1348128615623802 -1.518356155511973 1.683095410084677 2.050512012392484 -0.5200228778509468 1.1399621199565368
2.85200309753 0.047190955529307 -0.1348128615623802 -1.5211633775893172 1.6718665217752997 2.050238084818934 -0.5200228778509468 1.1399621199565368
2.85200309753 0.047190955529307 -0.1348128615623802 -1.5211633775893172 1.6718665217752997 2.050238084818934 -0.5200228778509468 1.1399621199565368
2.86182117462 0.047190955529307 -0.1348128615623802 -1.5273760821867186 1.6489638848273482 2.0499824190836207 -0.5200228778509468 1.1399621199565368
2.86182117462 0.047190955529307 -0.1348128615623802 -1.5273760821867186 1.6489638848273482 2.0499824190836207 -0.5200228778509468 1.1399621199565368
2.87169098854 0.047190955529307 -0.1348128615623802 -1.5273760821867186 1.6489638848273482 2.0499824190836207 -0.5200228778509468 1.1399621199565368
2.87169098854 0.047190955529307 -0.1348128615623802 -1.5273760821867186 1.6489638848273482 2.0499824190836207 -0.5200228778509468 1.1399621199565368
2.88160300255 0.047190955529307 -0.1348128615623802 -1.5302753443321726 1.6377656765406738 2.0499824190836207 -0.5200228778509468 1.1399621199565368
2.88160300255 0.047190955529307 -0.1348128615623802 -1.5302753443321726 1.6377656765406738 2.0499824190836207 -0.5200228778509468 1.1399621199565368
2.89171504974 0.047190955529307 -0.1348128615623802 -1.5334200466592522 1.626567468254 2.0499915500027392 -0.5200228778509468 1.1399621199565368
2.89171504974 0.047190955529307 -0.1348128615623802 -1.5334200466592522 1.626567468254 2.0499915500027392 -0.5200228778509468 1.1399621199565368
2.90183401108 0.047190955529307 -0.1348128615623802 -1.5334200466592522 1.626567468254 2.0499915500027392 -0.5200228778509468 1.1399621199565368
2.90183401108 0.047190955529307 -0.1348128615623802 -1.5334200466592522 1.626567468254 2.0499915500027392 -0.5200228778509468 1.1399621199565368
2.91183519363 0.047190955529307 -0.1348128615623802 -1.5334200466592522 1.626567468254 2.0499915500027392 -0.5200228778509468 1.1399621199565368
2.91183519363 0.047190955529307 -0.1348128615623802 -1.5334200466592522 1.626567468254 2.0499915500027392 -0.5200228778509468 1.1399621199565368
2.92167401314 0.047190955529307 -0.1348128615623802 -1.5334200466592522 1.626567468254 2.0499915500027392 -0.5200228778509468 1.1399621199565368
2.92167401314 0.047190955529307 -0.1348128615623802 -1.5334200466592522 1.626567468254 2.0499915500027392 -0.5200228778509468 1.1399621199565368
2.93149805069 0.047190955529307 -0.1348128615623802 -1.5334200466592522 1.626567468254 2.0499915500027392 -0.5200228778509468 1.1399621199565368
2.93149805069 0.047190955529307 -0.1348128615623802 -1.5334200466592522 1.626567468254 2.0499915500027392 -0.5200228778509468 1.1399621199565368
2.94171214104 0.047190955529307 -0.1348128615623802 -1.5334200466592522 1.626567468254 2.0499915500027392 -0.5200228778509468 1.1399621199565368
2.94171214104 0.047190955529307 -0.1348128615623802 -1.5334200466592522 1.626567468254 2.0499915500027392 -0.5200228778509468 1.1399621199565368
2.95160508156 0.047190955529307 -0.1348128615623802 -1.5334200466592522 1.626567468254 2.0499915500027392 -0.5200228778509468 1.1399621199565368
2.95160508156 0.047190955529307 -0.1348128615623802 -1.5334200466592522 1.626567468254 2.0499915500027392 -0.5200228778509468 1.1399621199565368
2.96158313751 0.047190955529307 -0.1348128615623802 -1.5393719710636764 1.6049840722822868 2.0499915500027392 -0.5200228778509468 1.1399621199565368
2.96158313751 0.047190955529307 -0.1348128615623802 -1.5393719710636764 1.6049840722822868 2.0499915500027392 -0.5200228778509468 1.1399621199565368
2.97159314156 0.047190955529307 -0.1348128615623802 -1.5393719710636764 1.6049840722822868 2.0499915500027392 -0.5200228778509468 1.1399621199565368
2.97159314156 0.047190955529307 -0.1348128615623802 -1.5393719710636764 1.6049840722822868 2.0499915500027392 -0.5200228778509468 1.1399621199565368
2.98153996468 0.047190955529307 -0.1348128615623802 -1.5444034947870038 1.5842443769349124 2.050028073679212 -0.5200228778509468 1.1399621199565368
2.98153996468 0.047190955529307 -0.1348128615623802 -1.5444034947870038 1.5842443769349124 2.050028073679212 -0.5200228778509468 1.1399621199565368
2.99176812172 0.047190955529307 -0.1348128615623802 -1.5444034947870038 1.5842443769349124 2.050028073679212 -0.5200228778509468 1.1399621199565368
2.99176812172 0.047190955529307 -0.1348128615623802 -1.5444034947870038 1.5842443769349124 2.050028073679212 -0.5200228778509468 1.1399621199565368
3.00164198875 0.0471756155179554 -0.1348128615623802 -1.5466124564216357 1.5740432693860928 2.05058505974543 -0.5200228778509468 1.1399621199565368
3.00164198875 0.0471756155179554 -0.1348128615623802 -1.5466124564216357 1.5740432693860928 2.05058505974543 -0.5200228778509468 1.1399621199565368
3.01164102554 0.0471602755066038 -0.1348128615623802 -1.5481004375227414 1.5638575018486247 2.050566797907193 -0.5200228778509468 1.1399621199565368
3.01164102554 0.0471602755066038 -0.1348128615623802 -1.5481004375227414 1.5638575018486247 2.050566797907193 -0.5200228778509468 1.1399621199565368
3.02149415016 0.0471602755066038 -0.1348128615623802 -1.5481004375227414 1.5638575018486247 2.050566797907193 -0.5200228778509468 1.1399621199565368
3.02149415016 0.0471602755066038 -0.1348128615623802 -1.5481004375227414 1.5638575018486247 2.050566797907193 -0.5200228778509468 1.1399621199565368
3.03153705597 0.0471602755066038 -0.1348128615623802 -1.5481004375227414 1.5638575018486247 2.050566797907193 -0.5200228778509468 1.1399621199565368
3.03153705597 0.0471602755066038 -0.1348128615623802 -1.5481004375227414 1.5638575018486247 2.050566797907193 -0.5200228778509468 1.1399621199565368
3.04169917107 0.0471602755066038 -0.1348128615623802 -1.5481004375227414 1.5638575018486247 2.050566797907193 -0.5200228778509468 1.1399621199565368
3.04169917107 0.0471602755066038 -0.1348128615623802 -1.5481004375227414 1.5638575018486247 2.050566797907193 -0.5200228778509468 1.1399621199565368
3.05142307281 0.0470835754498457 -0.1347975215510286 -1.5499412388849343 1.5439768471369402 2.0501467756277503 -0.5200228778509468 1.1399621199565368
3.05142307281 0.0470835754498457 -0.1347975215510286 -1.5499412388849343 1.5439768471369402 2.0501467756277503 -0.5200228778509468 1.1399621199565368
3.06163311005 0.0470835754498457 -0.1347975215510286 -1.5499412388849343 1.5439768471369402 2.0501467756277503 -0.5200228778509468 1.1399621199565368
3.06163311005 0.0470835754498457 -0.1347975215510286 -1.5499412388849343 1.5439768471369402 2.0501467756277503 -0.5200228778509468 1.1399621199565368
3.07158398628 0.0470528954271424 -0.1347515015169737 -1.5501099790098023 1.533837099633527 2.049936764488029 -0.5200228778509468 1.1399621199565368
3.07158398628 0.0470528954271424 -0.1347515015169737 -1.5501099790098023 1.533837099633527 2.049936764488029 -0.5200228778509468 1.1399621199565368
3.08175706863 0.0470528954271424 -0.1347515015169737 -1.5501099790098023 1.533837099633527 2.049936764488029 -0.5200228778509468 1.1399621199565368
3.08175706863 0.0470528954271424 -0.1347515015169737 -1.5501099790098023 1.533837099633527 2.049936764488029 -0.5200228778509468 1.1399621199565368
3.09174013138 0.0470528954271424 -0.1347515015169737 -1.5502940591460217 1.5238967722776848 2.049936764488029 -0.5200228778509468 1.1399621199565368
3.09174013138 0.0470528954271424 -0.1347515015169737 -1.5502940591460217 1.5238967722776848 2.049936764488029 -0.5200228778509468 1.1399621199565368
3.10170412064 0.0470528954271424 -0.1347515015169737 -1.5502940591460217 1.5238967722776848 2.049936764488029 -0.5200228778509468 1.1399621199565368
3.10170412064 0.0470528954271424 -0.1347515015169737 -1.5502940591460217 1.5238967722776848 2.049936764488029 -0.5200228778509468 1.1399621199565368
3.11182904243 0.0470528954271424 -0.1347515015169737 -1.5502940591460217 1.5238967722776848 2.049936764488029 -0.5200228778509468 1.1399621199565368
3.11182904243 0.0470528954271424 -0.1347515015169737 -1.5502940591460217 1.5238967722776848 2.049936764488029 -0.5200228778509468 1.1399621199565368
3.12181401253 0.0470528954271424 -0.1347515015169737 -1.5502940591460217 1.5238967722776848 2.049936764488029 -0.5200228778509468 1.1399621199565368
3.12181401253 0.0470528954271424 -0.1347515015169737 -1.5502940591460217 1.5238967722776848 2.049936764488029 -0.5200228778509468 1.1399621199565368
3.13165903091 0.0470528954271424 -0.1347515015169737 -1.5502940591460217 1.5238967722776848 2.049936764488029 -0.5200228778509468 1.1399621199565368
3.13165903091 0.0470528954271424 -0.1347515015169737 -1.5502940591460217 1.5238967722776848 2.049936764488029 -0.5200228778509468 1.1399621199565368
3.14179897308 0.0470528954271424 -0.1347515015169737 -1.5502940591460217 1.5238967722776848 2.049936764488029 -0.5200228778509468 1.1399621199565368
3.14179897308 0.0470528954271424 -0.1347515015169737 -1.5502940591460217 1.5238967722776848 2.049936764488029 -0.5200228778509468 1.1399621199565368
3.15184617043 0.0470528954271424 -0.1347515015169737 -1.5502940591460217 1.5238967722776848 2.049936764488029 -0.5200228778509468 1.1399621199565368
3.15184617043 0.0470528954271424 -0.1347515015169737 -1.5502940591460217 1.5238967722776848 2.049936764488029 -0.5200228778509468 1.1399621199565368
3.16169500351 0.0470528954271424 -0.1347515015169737 -1.5502940591460217 1.5238967722776848 2.049936764488029 -0.5200228778509468 1.1399621199565368
3.16169500351 0.0470528954271424 -0.1347515015169737 -1.5502940591460217 1.5238967722776848 2.049936764488029 -0.5200228778509468 1.1399621199565368
3.17148709297 0.0470528954271424 -0.1347515015169737 -1.5502940591460217 1.5238967722776848 2.049936764488029 -0.5200228778509468 1.1399621199565368
3.17148709297 0.0470528954271424 -0.1347515015169737 -1.5502940591460217 1.5238967722776848 2.049936764488029 -0.5200228778509468 1.1399621199565368
3.18163514137 0.0470528954271424 -0.1347515015169737 -1.5502940591460217 1.5238967722776848 2.049936764488029 -0.5200228778509468 1.1399621199565368
3.18163514137 0.0470528954271424 -0.1347515015169737 -1.5502940591460217 1.5238967722776848 2.049936764488029 -0.5200228778509468 1.1399621199565368
3.19183206558 0.0470528954271424 -0.1347515015169737 -1.5502940591460217 1.5238967722776848 2.049936764488029 -0.5200228778509468 1.1399621199565368
3.19183206558 0.0470528954271424 -0.1347515015169737 -1.5502940591460217 1.5238967722776848 2.049936764488029 -0.5200228778509468 1.1399621199565368
3.20140910149 0.0470068753930878 -0.1347515015169737 -1.550309399157373 1.4845343031494578 2.049964157245384 -0.5200228778509468 1.1399621199565368
3.20140910149 0.0470068753930878 -0.1347515015169737 -1.550309399157373 1.4845343031494578 2.049964157245384 -0.5200228778509468 1.1399621199565368
3.21128606796 0.0470068753930878 -0.1347515015169737 -1.5503400791800763 1.464929768642102 2.050055466436567 -0.5200228778509468 1.1399621199565368
3.21128606796 0.0470068753930878 -0.1347515015169737 -1.5503400791800763 1.464929768642102 2.050055466436567 -0.5200228778509468 1.1399621199565368
3.22155714035 0.0470068753930878 -0.1347515015169737 -1.5503400791800763 1.464929768642102 2.050055466436567 -0.5200228778509468 1.1399621199565368
3.22155714035 0.0470068753930878 -0.1347515015169737 -1.5503400791800763 1.464929768642102 2.050055466436567 -0.5200228778509468 1.1399621199565368
3.23172616959 0.0470068753930878 -0.1347515015169737 -1.5503400791800763 1.455020121308963 2.05058505974543 -0.5200228778509468 1.1399621199565368
3.23172616959 0.0470068753930878 -0.1347515015169737 -1.5503400791800763 1.455020121308963 2.05058505974543 -0.5200228778509468 1.1399621199565368
3.2418050766 0.0470068753930878 -0.1347515015169737 -1.5503400791800763 1.455020121308963 2.05058505974543 -0.5200228778509468 1.1399621199565368
3.2418050766 0.0470068753930878 -0.1347515015169737 -1.5503400791800763 1.455020121308963 2.05058505974543 -0.5200228778509468 1.1399621199565368
3.25164198875 0.0470068753930878 -0.1347515015169737 -1.5503400791800763 1.455020121308963 2.05058505974543 -0.5200228778509468 1.1399621199565368
3.25164198875 0.0470068753930878 -0.1347515015169737 -1.5503400791800763 1.455020121308963 2.05058505974543 -0.5200228778509468 1.1399621199565368
3.2618291378 0.0470068753930878 -0.1347515015169737 -1.5503400791800763 1.455020121308963 2.05058505974543 -0.5200228778509468 1.1399621199565368
3.2618291378 0.0470068753930878 -0.1347515015169737 -1.5503400791800763 1.455020121308963 2.05058505974543 -0.5200228778509468 1.1399621199565368
3.27178502083 0.0470068753930878 -0.1347515015169737 -1.5503400791800763 1.455020121308963 2.05058505974543 -0.5200228778509468 1.1399621199565368
3.27178502083 0.0470068753930878 -0.1347515015169737 -1.5503400791800763 1.455020121308963 2.05058505974543 -0.5200228778509468 1.1399621199565368
3.28171300888 0.0470068753930878 -0.1347515015169737 -1.5503400791800763 1.455020121308963 2.05058505974543 -0.5200228778509468 1.1399621199565368
3.28171300888 0.0470068753930878 -0.1347515015169737 -1.5503400791800763 1.455020121308963 2.05058505974543 -0.5200228778509468 1.1399621199565368
3.29154109955 0.0470068753930878 -0.1347515015169737 -1.5503400791800763 1.427362080842013 2.0499915500027392 -0.5200228778509468 1.1399621199565368
3.29154109955 0.0470068753930878 -0.1347515015169737 -1.5503400791800763 1.427362080842013 2.0499915500027392 -0.5200228778509468 1.1399621199565368
3.30171704292 0.0470068753930878 -0.1347515015169737 -1.5503400791800763 1.427362080842013 2.0499915500027392 -0.5200228778509468 1.1399621199565368
3.30171704292 0.0470068753930878 -0.1347515015169737 -1.5503400791800763 1.427362080842013 2.0499915500027392 -0.5200228778509468 1.1399621199565368
3.31168317795 0.0469915353817362 -0.1347515015169737 -1.5503400791800763 1.419216534814309 2.0499824190836207 -0.5200228778509468 1.1399621199565368
3.31168317795 0.0469915353817362 -0.1347515015169737 -1.5503400791800763 1.419216534814309 2.0499824190836207 -0.5200228778509468 1.1399621199565368
3.32179999352 0.0469915353817362 -0.1347515015169737 -1.5503400791800763 1.419216534814309 2.0499824190836207 -0.5200228778509468 1.1399621199565368
3.32179999352 0.0469915353817362 -0.1347515015169737 -1.5503400791800763 1.419216534814309 2.0499824190836207 -0.5200228778509468 1.1399621199565368
3.33186101913 0.0469915353817362 -0.1347515015169737 -1.5503400791800763 1.419216534814309 2.0499824190836207 -0.5200228778509468 1.1399621199565368
3.33186101913 0.0469915353817362 -0.1347515015169737 -1.5503400791800763 1.419216534814309 2.0499824190836207 -0.5200228778509468 1.1399621199565368
3.3417570591 0.0469915353817362 -0.1347515015169737 -1.5503400791800763 1.419216534814309 2.0499824190836207 -0.5200228778509468 1.1399621199565368
3.3417570591 0.0469915353817362 -0.1347515015169737 -1.5503400791800763 1.419216534814309 2.0499824190836207 -0.5200228778509468 1.1399621199565368
3.35279607773 0.0469915353817362 -0.1347515015169737 -1.5503400791800763 1.4111476888433632 2.0499915500027392 -0.5200228778509468 1.1399621199565368
3.35279607773 0.0469915353817362 -0.1347515015169737 -1.5503400791800763 1.4111476888433632 2.0499915500027392 -0.5200228778509468 1.1399621199565368
3.36155200005 0.0469761953703846 -0.1347515015169737 -1.5503400791800763 1.4031708829405267 2.0499915500027392 -0.5200228778509468 1.1399621199565368
3.36155200005 0.0469761953703846 -0.1347515015169737 -1.5503400791800763 1.4031708829405267 2.0499915500027392 -0.5200228778509468 1.1399621199565368
3.37167596817 0.0469761953703846 -0.1347515015169737 -1.5503400791800763 1.4031708829405267 2.0499915500027392 -0.5200228778509468 1.1399621199565368
3.37167596817 0.0469761953703846 -0.1347515015169737 -1.5503400791800763 1.4031708829405267 2.0499915500027392 -0.5200228778509468 1.1399621199565368
3.3817961216 0.046960855359033 -0.1347515015169737 -1.5503400791800763 1.3957002974122934 2.0499915500027392 -0.5200228778509468 1.1399621199565368
3.3817961216 0.046960855359033 -0.1347515015169737 -1.5503400791800763 1.3957002974122934 2.0499915500027392 -0.5200228778509468 1.1399621199565368
3.39183306694 0.0468994953136265 -0.1347515015169737 -1.5503400791800763 1.3883217519521698 2.0499915500027392 -0.5200228778509468 1.1399621199565368
3.39183306694 0.0468994953136265 -0.1347515015169737 -1.5503400791800763 1.3883217519521698 2.0499915500027392 -0.5200228778509468 1.1399621199565368
3.40166306496 0.0468994953136265 -0.1347515015169737 -1.5503400791800763 1.3883217519521698 2.0499915500027392 -0.5200228778509468 1.1399621199565368
3.40166306496 0.0468994953136265 -0.1347515015169737 -1.5503400791800763 1.3883217519521698 2.0499915500027392 -0.5200228778509468 1.1399621199565368
3.41165304184 0.0468994953136265 -0.1347515015169737 -1.5503400791800763 1.3883217519521698 2.0499915500027392 -0.5200228778509468 1.1399621199565368
3.41165304184 0.0468994953136265 -0.1347515015169737 -1.5503400791800763 1.3883217519521698 2.0499915500027392 -0.5200228778509468 1.1399621199565368
3.42160415649 0.0468994953136265 -0.1347515015169737 -1.5503400791800763 1.3883217519521698 2.0499915500027392 -0.5200228778509468 1.1399621199565368
3.42160415649 0.0468994953136265 -0.1347515015169737 -1.5503400791800763 1.3883217519521698 2.0499915500027392 -0.5200228778509468 1.1399621199565368
3.43166017532 0.0468227952568684 -0.1347515015169737 -1.5499105588622313 1.373349900873 2.0499915500027392 -0.5200228778509468 1.1399621199565368
3.43166017532 0.0468227952568684 -0.1347515015169737 -1.5499105588622313 1.373349900873 2.0499915500027392 -0.5200228778509468 1.1399621199565368
3.44160699844 0.0468227952568684 -0.1347515015169737 -1.5499105588622313 1.373349900873 2.0499915500027392 -0.5200228778509468 1.1399621199565368
3.44160699844 0.0468227952568684 -0.1347515015169737 -1.5499105588622313 1.373349900873 2.0499915500027392 -0.5200228778509468 1.1399621199565368
3.45179009438 0.0468227952568684 -0.1347515015169737 -1.549373658464925 1.3658486353220634 2.0500006809218574 -0.5200228778509468 1.1399621199565368
3.45179009438 0.0468227952568684 -0.1347515015169737 -1.549373658464925 1.3658486353220634 2.0500006809218574 -0.5200228778509468 1.1399621199565368
3.46182703972 0.0468227952568684 -0.1347515015169737 -1.549373658464925 1.3658486353220634 2.0500006809218574 -0.5200228778509468 1.1399621199565368
3.46182703972 0.0468227952568684 -0.1347515015169737 -1.549373658464925 1.3658486353220634 2.0500006809218574 -0.5200228778509468 1.1399621199565368
3.47160220146 0.0468227952568684 -0.1347515015169737 -1.549373658464925 1.3658486353220634 2.0500006809218574 -0.5200228778509468 1.1399621199565368
3.47160220146 0.0468227952568684 -0.1347515015169737 -1.549373658464925 1.3658486353220634 2.0500006809218574 -0.5200228778509468 1.1399621199565368
3.48181414604 0.0468227952568684 -0.1347515015169737 -1.549373658464925 1.3658486353220634 2.0500006809218574 -0.5200228778509468 1.1399621199565368
3.48181414604 0.0468227952568684 -0.1347515015169737 -1.549373658464925 1.3658486353220634 2.0500006809218574 -0.5200228778509468 1.1399621199565368
3.49177002907 0.0468227952568684 -0.1347515015169737 -1.5489594781584315 1.3588382501343783 2.0500098118409755 -0.5200228778509468 1.1399621199565368
3.49177002907 0.0468227952568684 -0.1347515015169737 -1.5489594781584315 1.3588382501343783 2.0500098118409755 -0.5200228778509468 1.1399621199565368
3.50178217888 0.0468227952568684 -0.1347515015169737 -1.5489594781584315 1.3588382501343783 2.0500098118409755 -0.5200228778509468 1.1399621199565368
3.50178217888 0.0468227952568684 -0.1347515015169737 -1.5489594781584315 1.3588382501343783 2.0500098118409755 -0.5200228778509468 1.1399621199565368
3.51177310944 0.0468227952568684 -0.1347515015169737 -1.5482691776476092 1.351812524935342 2.050028073679212 -0.5200228778509468 1.1399621199565368
3.51177310944 0.0468227952568684 -0.1347515015169737 -1.5482691776476092 1.351812524935342 2.050028073679212 -0.5200228778509468 1.1399621199565368
3.52165603638 0.0468227952568684 -0.1347515015169737 -1.5474408170346223 1.3452623400882049 2.050292870333644 -0.5200228778509468 1.1399621199565368
3.52165603638 0.0468227952568684 -0.1347515015169737 -1.5474408170346223 1.3452623400882049 2.050292870333644 -0.5200228778509468 1.1399621199565368
3.53163504601 0.0468227952568684 -0.1347515015169737 -1.5465050763421742 1.339157015570265 2.0504937505542467 -0.5200228778509468 1.1399621199565368
3.53163504601 0.0468227952568684 -0.1347515015169737 -1.5465050763421742 1.339157015570265 2.0504937505542467 -0.5200228778509468 1.1399621199565368
3.54144215584 0.0468227952568684 -0.1347515015169737 -1.5465050763421742 1.339157015570265 2.0504937505542467 -0.5200228778509468 1.1399621199565368
3.54144215584 0.0468227952568684 -0.1347515015169737 -1.5465050763421742 1.339157015570265 2.0504937505542467 -0.5200228778509468 1.1399621199565368
3.5517680645 0.0468227952568684 -0.1347515015169737 -1.5465050763421742 1.339157015570265 2.0504937505542467 -0.5200228778509468 1.1399621199565368
3.5517680645 0.0468227952568684 -0.1347515015169737 -1.5465050763421742 1.339157015570265 2.0504937505542467 -0.5200228778509468 1.1399621199565368
3.56171703339 0.0468227952568684 -0.1347515015169737 -1.5453085554567487 1.3337419915631472 2.050329394010117 -0.5200228778509468 1.1399621199565368
3.56171703339 0.0468227952568684 -0.1347515015169737 -1.5453085554567487 1.3337419915631472 2.050329394010117 -0.5200228778509468 1.1399621199565368
3.57167410851 0.0468227952568684 -0.1347515015169737 -1.5453085554567487 1.3337419915631472 2.050329394010117 -0.5200228778509468 1.1399621199565368
3.57167410851 0.0468227952568684 -0.1347515015169737 -1.5453085554567487 1.3337419915631472 2.050329394010117 -0.5200228778509468 1.1399621199565368
3.58183598518 0.0468227952568684 -0.1347515015169737 -1.5453085554567487 1.3337419915631472 2.050329394010117 -0.5200228778509468 1.1399621199565368
3.58183598518 0.0468227952568684 -0.1347515015169737 -1.5453085554567487 1.3337419915631472 2.050329394010117 -0.5200228778509468 1.1399621199565368
3.5916891098 0.0468227952568684 -0.1347515015169737 -1.542393953299943 1.3230193236283727 2.0499824190836207 -0.5200228778509468 1.1399621199565368
3.5916891098 0.0468227952568684 -0.1347515015169737 -1.542393953299943 1.3230193236283727 2.0499824190836207 -0.5200228778509468 1.1399621199565368
3.60160207748 0.0468227952568684 -0.1347515015169737 -1.542393953299943 1.3230193236283727 2.0499824190836207 -0.5200228778509468 1.1399621199565368
3.60160207748 0.0468227952568684 -0.1347515015169737 -1.542393953299943 1.3230193236283727 2.0499824190836207 -0.5200228778509468 1.1399621199565368
3.61189317703 0.0468227952568684 -0.1347515015169737 -1.5407679120966726 1.3174202194850355 2.0499824190836207 -0.5200228778509468 1.1399621199565368
3.61189317703 0.0468227952568684 -0.1347515015169737 -1.5407679120966726 1.3174202194850355 2.0499824190836207 -0.5200228778509468 1.1399621199565368
3.62205004692 0.0468227952568684 -0.1347515015169737 -1.5407679120966726 1.3174202194850355 2.0499824190836207 -0.5200228778509468 1.1399621199565368
3.62205004692 0.0468227952568684 -0.1347515015169737 -1.5407679120966726 1.3174202194850355 2.0499824190836207 -0.5200228778509468 1.1399621199565368
3.63183712959 0.0468227952568684 -0.1347515015169737 -1.5389424507458314 1.3113609150011505 2.0499824190836207 -0.5200228778509468 1.1399621199565368
3.63183712959 0.0468227952568684 -0.1347515015169737 -1.5389424507458314 1.3113609150011505 2.0499824190836207 -0.5200228778509468 1.1399621199565368
3.6417081356 0.0468227952568684 -0.1347515015169737 -1.5389424507458314 1.3113609150011505 2.0499824190836207 -0.5200228778509468 1.1399621199565368
3.6417081356 0.0468227952568684 -0.1347515015169737 -1.5389424507458314 1.3113609150011505 2.0499824190836207 -0.5200228778509468 1.1399621199565368
3.65165805817 0.0468227952568684 -0.1347515015169737 -1.5389424507458314 1.3113609150011505 2.0499824190836207 -0.5200228778509468 1.1399621199565368
3.65165805817 0.0468227952568684 -0.1347515015169737 -1.5389424507458314 1.3113609150011505 2.0499824190836207 -0.5200228778509468 1.1399621199565368
3.66163110733 0.0468227952568684 -0.1347515015169737 -1.5389424507458314 1.3113609150011505 2.0499824190836207 -0.5200228778509468 1.1399621199565368
3.66163110733 0.0468227952568684 -0.1347515015169737 -1.5389424507458314 1.3113609150011505 2.0499824190836207 -0.5200228778509468 1.1399621199565368
3.67177700996 0.0468227952568684 -0.1347515015169737 -1.5348159876922487 1.3001473667031247 2.0499915500027392 -0.5200228778509468 1.1399621199565368
3.67177700996 0.0468227952568684 -0.1347515015169737 -1.5348159876922487 1.3001473667031247 2.0499915500027392 -0.5200228778509468 1.1399621199565368
3.68152809143 0.0468227952568684 -0.1347515015169737 -1.5348159876922487 1.3001473667031247 2.0499915500027392 -0.5200228778509468 1.1399621199565368
3.68152809143 0.0468227952568684 -0.1347515015169737 -1.5348159876922487 1.3001473667031247 2.0499915500027392 -0.5200228778509468 1.1399621199565368
3.69186615944 0.0468227952568684 -0.1347515015169737 -1.5321928457511236 1.294885742809523 2.0500098118409755 -0.5200228778509468 1.1399621199565368
3.69186615944 0.0468227952568684 -0.1347515015169737 -1.5321928457511236 1.294885742809523 2.0500098118409755 -0.5200228778509468 1.1399621199565368
3.70186114311 0.0468227952568684 -0.1347515015169737 -1.5321928457511236 1.294885742809523 2.0500098118409755 -0.5200228778509468 1.1399621199565368
3.70186114311 0.0468227952568684 -0.1347515015169737 -1.5321928457511236 1.294885742809523 2.0500098118409755 -0.5200228778509468 1.1399621199565368
3.71181511879 0.0468227952568684 -0.1347515015169737 -1.529354943651076 1.2897775190294374 2.050037204598331 -0.5200228778509468 1.1399621199565368
3.71181511879 0.0468227952568684 -0.1347515015169737 -1.529354943651076 1.2897775190294374 2.050037204598331 -0.5200228778509468 1.1399621199565368
3.72166705132 0.0468227952568684 -0.1347515015169737 -1.529354943651076 1.2897775190294374 2.050037204598331 -0.5200228778509468 1.1399621199565368
3.72166705132 0.0468227952568684 -0.1347515015169737 -1.529354943651076 1.2897775190294374 2.050037204598331 -0.5200228778509468 1.1399621199565368
3.73184108734 0.0468227952568684 -0.1347515015169737 -1.529354943651076 1.2897775190294374 2.050037204598331 -0.5200228778509468 1.1399621199565368
3.73184108734 0.0468227952568684 -0.1347515015169737 -1.529354943651076 1.2897775190294374 2.050037204598331 -0.5200228778509468 1.1399621199565368
3.74179315567 0.0468227952568684 -0.1347515015169737 -1.529354943651076 1.2897775190294374 2.050037204598331 -0.5200228778509468 1.1399621199565368
3.74179315567 0.0468227952568684 -0.1347515015169737 -1.529354943651076 1.2897775190294374 2.050037204598331 -0.5200228778509468 1.1399621199565368
3.75158715248 0.0468227952568684 -0.1347515015169737 -1.529354943651076 1.2897775190294374 2.050037204598331 -0.5200228778509468 1.1399621199565368
3.75158715248 0.0468227952568684 -0.1347515015169737 -1.529354943651076 1.2897775190294374 2.050037204598331 -0.5200228778509468 1.1399621199565368
3.76171112061 0.0468227952568684 -0.1347515015169737 -1.5226513586904231 1.2799138917303532 2.050484619635128 -0.5200228778509468 1.1399621199565368
3.76171112061 0.0468227952568684 -0.1347515015169737 -1.5226513586904231 1.2799138917303532 2.050484619635128 -0.5200228778509468 1.1399621199565368
3.77149319649 0.0468227952568684 -0.1347515015169737 -1.5226513586904231 1.2799138917303532 2.050484619635128 -0.5200228778509468 1.1399621199565368
3.77149319649 0.0468227952568684 -0.1347515015169737 -1.5226513586904231 1.2799138917303532 2.050484619635128 -0.5200228778509468 1.1399621199565368
3.7815489769 0.0468227952568684 -0.1347515015169737 -1.5226513586904231 1.2799138917303532 2.050484619635128 -0.5200228778509468 1.1399621199565368
3.7815489769 0.0468227952568684 -0.1347515015169737 -1.5226513586904231 1.2799138917303532 2.050484619635128 -0.5200228778509468 1.1399621199565368
3.7915430069 0.0468227952568684 -0.1347515015169737 -1.5226513586904231 1.2799138917303532 2.050484619635128 -0.5200228778509468 1.1399621199565368
3.7915430069 0.0468227952568684 -0.1347515015169737 -1.5226513586904231 1.2799138917303532 2.050484619635128 -0.5200228778509468 1.1399621199565368
3.80177617073 0.0468227952568684 -0.1347515015169737 -1.5226513586904231 1.2799138917303532 2.050484619635128 -0.5200228778509468 1.1399621199565368
3.80177617073 0.0468227952568684 -0.1347515015169737 -1.5226513586904231 1.2799138917303532 2.050484619635128 -0.5200228778509468 1.1399621199565368
3.81182098389 0.0468227952568684 -0.1347668415283253 -1.5190004359887403 1.275219848256761 2.0502289538998157 -0.5200228778509468 1.1399621199565368
3.81182098389 0.0468227952568684 -0.1347668415283253 -1.5190004359887403 1.275219848256761 2.0502289538998157 -0.5200228778509468 1.1399621199565368
3.82171797752 0.0468227952568684 -0.1347668415283253 -1.5190004359887403 1.275219848256761 2.0502289538998157 -0.5200228778509468 1.1399621199565368
3.82171797752 0.0468227952568684 -0.1347668415283253 -1.5190004359887403 1.275219848256761 2.0502289538998157 -0.5200228778509468 1.1399621199565368
3.83185100555 0.0468227952568684 -0.1347668415283253 -1.5190004359887403 1.275219848256761 2.0502289538998157 -0.5200228778509468 1.1399621199565368
3.83185100555 0.0468227952568684 -0.1347668415283253 -1.5190004359887403 1.275219848256761 2.0502289538998157 -0.5200228778509468 1.1399621199565368
3.84218597412 0.0468227952568684 -0.1347975215510286 -1.5046115053409317 1.2642670801517126 2.0499915500027392 -0.5200228778509468 1.1399621199565368
3.84218597412 0.0468227952568684 -0.1347975215510286 -1.5046115053409317 1.2642670801517126 2.0499915500027392 -0.5200228778509468 1.1399621199565368
3.85138297081 0.0468227952568684 -0.1348588815964349 -1.499150461299759 1.261245097915446 2.0499915500027392 -0.5200228778509468 1.1399621199565368
3.85138297081 0.0468227952568684 -0.1348588815964349 -1.499150461299759 1.261245097915446 2.0499915500027392 -0.5200228778509468 1.1399621199565368
3.86173415184 0.0468227952568684 -0.1348588815964349 -1.499150461299759 1.261245097915446 2.0499915500027392 -0.5200228778509468 1.1399621199565368
