riccardo-csl/Motion-Planning-for-TIAGo-Manipulator/T3_G_7/head_scan/head_scan/tiago_traiettorie_SG/4a-2b/place_2b_rep1.txt
time arm_1_joint arm_2_joint arm_3_joint arm_4_joint arm_5_joint arm_6_joint arm_7_joint
2.99294710159 0.046960855359033 -0.2373761774592339 -1.164661513777938 1.811767425301968 2.050046335517449 -0.5200274433105061 1.139966685416096
3.00322794914 0.046960855359033 -0.2373761774592339 -1.164661513777938 1.811767425301968 2.050046335517449 -0.5200274433105061 1.139966685416096
3.00322794914 0.046960855359033 -0.2373761774592339 -1.164661513777938 1.811767425301968 2.050046335517449 -0.5200274433105061 1.139966685416096
3.0131111145 0.046960855359033 -0.2373761774592339 -1.164661513777938 1.811767425301968 2.050046335517449 -0.5200274433105061 1.139966685416096
3.0131111145 0.046960855359033 -0.2373761774592339 -1.164661513777938 1.811767425301968 2.050046335517449 -0.5200274433105061 1.139966685416096
3.02316308022 0.046960855359033 -0.2373761774592339 -1.164661513777938 1.811767425301968 2.050046335517449 -0.5200274433105061 1.139966685416096
3.02316308022 0.046960855359033 -0.2373761774592339 -1.164661513777938 1.811767425301968 2.050046335517449 -0.5200274433105061 1.139966685416096
3.0328309536 0.046960855359033 -0.2373761774592339 -1.164661513777938 1.811767425301968 2.050046335517449 -0.5200274433105061 1.139966685416096
3.0328309536 0.046960855359033 -0.2373761774592339 -1.164661513777938 1.811767425301968 2.050046335517449 -0.5200274433105061 1.139966685416096
3.04317903519 0.046960855359033 -0.2373761774592339 -1.164661513777938 1.811767425301968 2.050046335517449 -0.5200274433105061 1.139966685416096
3.04317903519 0.046960855359033 -0.2373761774592339 -1.164661513777938 1.811767425301968 2.050046335517449 -0.5200274433105061 1.139966685416096
3.05319595337 0.046960855359033 -0.2373761774592339 -1.164661513777938 1.811767425301968 2.050046335517449 -0.5200274433105061 1.139966685416096
3.05319595337 0.046960855359033 -0.2373761774592339 -1.164661513777938 1.811767425301968 2.050046335517449 -0.5200274433105061 1.139966685416096
3.0628759861 0.046960855359033 -0.2373761774592339 -1.164661513777938 1.811767425301968 2.050046335517449 -0.5200274433105061 1.139966685416096
3.0628759861 0.046960855359033 -0.2373761774592339 -1.164661513777938 1.811767425301968 2.050046335517449 -0.5200274433105061 1.139966685416096
3.0729739666 0.046960855359033 -0.2373761774592339 -1.164661513777938 1.811767425301968 2.050046335517449 -0.5200274433105061 1.139966685416096
3.0729739666 0.046960855359033 -0.2373761774592339 -1.164661513777938 1.811767425301968 2.050046335517449 -0.5200274433105061 1.139966685416096
3.08310198784 0.046960855359033 -0.2373761774592339 -1.164661513777938 1.811767425301968 2.050046335517449 -0.5200274433105061 1.139966685416096
3.08310198784 0.046960855359033 -0.2373761774592339 -1.164661513777938 1.811767425301968 2.050046335517449 -0.5200274433105061 1.139966685416096
3.09305810928 0.046960855359033 -0.2373761774592339 -1.164661513777938 1.811767425301968 2.050046335517449 -0.5200274433105061 1.139966685416096
3.09305810928 0.046960855359033 -0.2373761774592339 -1.164661513777938 1.811767425301968 2.050046335517449 -0.5200274433105061 1.139966685416096
3.1029419899 0.046960855359033 -0.2373761774592339 -1.164661513777938 1.811767425301968 2.050046335517449 -0.5200274433105061 1.139966685416096
3.1029419899 0.046960855359033 -0.2373761774592339 -1.164661513777938 1.811767425301968 2.050046335517449 -0.5200274433105061 1.139966685416096
3.11303210258 0.046960855359033 -0.2373761774592339 -1.164661513777938 1.811767425301968 2.050046335517449 -0.5200274433105061 1.139966685416096
3.11303210258 0.046960855359033 -0.2373761774592339 -1.164661513777938 1.811767425301968 2.050046335517449 -0.5200274433105061 1.139966685416096
3.12291312218 0.046960855359033 -0.2373761774592339 -1.164661513777938 1.811767425301968 2.050046335517449 -0.5200274433105061 1.139966685416096
3.12291312218 0.046960855359033 -0.2373761774592339 -1.164661513777938 1.811767425301968 2.050046335517449 -0.5200274433105061 1.139966685416096
3.13299608231 0.046960855359033 -0.2373761774592339 -1.164661513777938 1.811767425301968 2.050046335517449 -0.5200274433105061 1.139966685416096
3.13299608231 0.046960855359033 -0.2373761774592339 -1.164661513777938 1.811767425301968 2.050046335517449 -0.5200274433105061 1.139966685416096
3.14311408997 0.046960855359033 -0.2373761774592339 -1.164661513777938 1.811767425301968 2.050046335517449 -0.5200274433105061 1.139966685416096
3.14311408997 0.046960855359033 -0.2373761774592339 -1.164661513777938 1.811767425301968 2.050046335517449 -0.5200274433105061 1.139966685416096
3.15289115906 0.046960855359033 -0.2373761774592339 -1.164661513777938 1.811767425301968 2.050046335517449 -0.5200274433105061 1.139966685416096
3.15289115906 0.046960855359033 -0.2373761774592339 -1.164661513777938 1.811767425301968 2.050046335517449 -0.5200274433105061 1.139966685416096
3.16310596466 0.046960855359033 -0.2373761774592339 -1.164661513777938 1.811767425301968 2.050046335517449 -0.5200274433105061 1.139966685416096
3.16310596466 0.046960855359033 -0.2373761774592339 -1.164661513777938 1.811767425301968 2.050046335517449 -0.5200274433105061 1.139966685416096
3.17304205894 0.046960855359033 -0.2373761774592339 -1.164661513777938 1.811767425301968 2.050046335517449 -0.5200274433105061 1.139966685416096
3.17304205894 0.046960855359033 -0.2373761774592339 -1.164661513777938 1.811767425301968 2.050046335517449 -0.5200274433105061 1.139966685416096
3.18290615082 0.046960855359033 -0.2373761774592339 -1.164661513777938 1.811767425301968 2.050046335517449 -0.5200274433105061 1.139966685416096
3.18290615082 0.046960855359033 -0.2373761774592339 -1.164661513777938 1.811767425301968 2.050046335517449 -0.5200274433105061 1.139966685416096
3.19305801392 0.046960855359033 -0.2373761774592339 -1.164661513777938 1.811767425301968 2.050046335517449 -0.5200274433105061 1.139966685416096
3.19305801392 0.046960855359033 -0.2373761774592339 -1.164661513777938 1.811767425301968 2.050046335517449 -0.5200274433105061 1.139966685416096
3.20307397842 0.046960855359033 -0.2373761774592339 -1.164661513777938 1.811767425301968 2.050046335517449 -0.5200274433105061 1.139966685416096
3.20307397842 0.046960855359033 -0.2373761774592339 -1.164661513777938 1.811767425301968 2.050046335517449 -0.5200274433105061 1.139966685416096
3.21287202835 0.046960855359033 -0.2373761774592339 -1.164661513777938 1.811767425301968 2.050046335517449 -0.5200274433105061 1.139966685416096
3.21287202835 0.046960855359033 -0.2373761774592339 -1.164661513777938 1.811767425301968 2.050046335517449 -0.5200274433105061 1.139966685416096
3.22329998016 0.046960855359033 -0.2373761774592339 -1.164661513777938 1.811767425301968 2.050046335517449 -0.5200274433105061 1.139966685416096
3.22329998016 0.046960855359033 -0.2373761774592339 -1.164661513777938 1.811767425301968 2.050046335517449 -0.5200274433105061 1.139966685416096
3.23265314102 0.046960855359033 -0.2373761774592339 -1.164661513777938 1.811767425301968 2.050046335517449 -0.5200274433105061 1.139966685416096
3.23265314102 0.046960855359033 -0.2373761774592339 -1.164661513777938 1.811767425301968 2.050046335517449 -0.5200274433105061 1.139966685416096
3.24283313751 0.046960855359033 -0.2373761774592339 -1.164661513777938 1.811767425301968 2.050046335517449 -0.5200274433105061 1.139966685416096
3.24283313751 0.046960855359033 -0.2373761774592339 -1.164661513777938 1.811767425301968 2.050046335517449 -0.5200274433105061 1.139966685416096
3.25269699097 0.046960855359033 -0.2373761774592339 -1.164661513777938 1.811767425301968 2.050046335517449 -0.5200274433105061 1.139966685416096
3.25269699097 0.046960855359033 -0.2373761774592339 -1.164661513777938 1.811767425301968 2.050046335517449 -0.5200274433105061 1.139966685416096
3.26282405853 0.046960855359033 -0.2373761774592339 -1.164661513777938 1.811767425301968 2.050046335517449 -0.5200274433105061 1.139966685416096
3.26282405853 0.046960855359033 -0.2373761774592339 -1.164661513777938 1.811767425301968 2.050046335517449 -0.5200274433105061 1.139966685416096
3.27286314964 0.046960855359033 -0.2373761774592339 -1.164661513777938 1.811767425301968 2.050046335517449 -0.5200274433105061 1.139966685416096
3.27286314964 0.046960855359033 -0.2373761774592339 -1.164661513777938 1.811767425301968 2.050046335517449 -0.5200274433105061 1.139966685416096
3.28305602074 0.046960855359033 -0.2373761774592339 -1.164661513777938 1.811767425301968 2.050046335517449 -0.5200274433105061 1.139966685416096
3.28305602074 0.046960855359033 -0.2373761774592339 -1.164661513777938 1.811767425301968 2.050046335517449 -0.5200274433105061 1.139966685416096
3.29306411743 0.046960855359033 -0.2373761774592339 -1.164661513777938 1.811767425301968 2.050046335517449 -0.5200274433105061 1.139966685416096
3.29306411743 0.046960855359033 -0.2373761774592339 -1.164661513777938 1.811767425301968 2.050046335517449 -0.5200274433105061 1.139966685416096
3.30309200287 0.046960855359033 -0.2373761774592339 -1.164661513777938 1.811767425301968 2.050046335517449 -0.5200274433105061 1.139966685416096
3.30309200287 0.046960855359033 -0.2373761774592339 -1.164661513777938 1.811767425301968 2.050046335517449 -0.5200274433105061 1.139966685416096
3.31307601929 0.046960855359033 -0.2373761774592339 -1.164661513777938 1.811767425301968 2.050046335517449 -0.5200274433105061 1.139966685416096
3.31307601929 0.046960855359033 -0.2373761774592339 -1.164661513777938 1.811767425301968 2.050046335517449 -0.5200274433105061 1.139966685416096
3.32288908958 0.046960855359033 -0.2373761774592339 -1.164661513777938 1.811767425301968 2.050046335517449 -0.5200274433105061 1.139966685416096
3.32288908958 0.046960855359033 -0.2373761774592339 -1.164661513777938 1.811767425301968 2.050046335517449 -0.5200274433105061 1.139966685416096
3.3330271244 0.046960855359033 -0.2373761774592339 -1.164661513777938 1.811767425301968 2.050046335517449 -0.5200274433105061 1.139966685416096
3.3330271244 0.046960855359033 -0.2373761774592339 -1.164661513777938 1.811767425301968 2.050046335517449 -0.5200274433105061 1.139966685416096
3.34292697906 0.046960855359033 -0.2373761774592339 -1.164661513777938 1.811767425301968 2.050046335517449 -0.5200274433105061 1.139966685416096
3.34292697906 0.046960855359033 -0.2373761774592339 -1.164661513777938 1.811767425301968 2.050046335517449 -0.5200274433105061 1.139966685416096
3.35302209854 0.046960855359033 -0.2373761774592339 -1.164661513777938 1.811767425301968 2.050046335517449 -0.5200274433105061 1.139966685416096
3.35302209854 0.046960855359033 -0.2373761774592339 -1.164661513777938 1.811767425301968 2.050046335517449 -0.5200274433105061 1.139966685416096
3.36304402351 0.046960855359033 -0.2373761774592339 -1.164661513777938 1.811767425301968 2.050046335517449 -0.5200274433105061 1.139966685416096
3.36304402351 0.046960855359033 -0.2373761774592339 -1.164661513777938 1.811767425301968 2.050046335517449 -0.5200274433105061 1.139966685416096
3.37294602394 0.046960855359033 -0.2373761774592339 -1.164661513777938 1.811767425301968 2.050046335517449 -0.5200274433105061 1.139966685416096
3.37294602394 0.046960855359033 -0.2373761774592339 -1.164661513777938 1.811767425301968 2.050046335517449 -0.5200274433105061 1.139966685416096
3.38306212425 0.046960855359033 -0.2373761774592339 -1.164661513777938 1.811767425301968 2.050046335517449 -0.5200274433105061 1.139966685416096
3.38306212425 0.046960855359033 -0.2373761774592339 -1.164661513777938 1.811767425301968 2.050046335517449 -0.5200274433105061 1.139966685416096
3.3930439949 0.046960855359033 -0.2373761774592339 -1.164661513777938 1.811767425301968 2.050046335517449 -0.5200274433105061 1.139966685416096
3.3930439949 0.046960855359033 -0.2373761774592339 -1.164661513777938 1.811767425301968 2.050046335517449 -0.5200274433105061 1.139966685416096
3.40291810036 0.046960855359033 -0.2373761774592339 -1.164661513777938 1.811767425301968 2.050046335517449 -0.5200274433105061 1.139966685416096
3.40291810036 0.046960855359033 -0.2373761774592339 -1.164661513777938 1.811767425301968 2.050046335517449 -0.5200274433105061 1.139966685416096
3.41303706169 0.046960855359033 -0.2373761774592339 -1.164661513777938 1.811767425301968 2.050046335517449 -0.5200274433105061 1.139966685416096
3.41303706169 0.046960855359033 -0.2373761774592339 -1.164661513777938 1.811767425301968 2.050046335517449 -0.5200274433105061 1.139966685416096
3.42302417755 0.046960855359033 -0.2373761774592339 -1.164661513777938 1.811767425301968 2.050046335517449 -0.5200274433105061 1.139966685416096
3.42302417755 0.046960855359033 -0.2373761774592339 -1.164661513777938 1.811767425301968 2.050046335517449 -0.5200274433105061 1.139966685416096
3.43303799629 0.046960855359033 -0.2373761774592339 -1.164661513777938 1.811767425301968 2.050046335517449 -0.5200274433105061 1.139966685416096
3.43303799629 0.046960855359033 -0.2373761774592339 -1.164661513777938 1.811767425301968 2.050046335517449 -0.5200274433105061 1.139966685416096
3.44403100014 0.046960855359033 -0.2373761774592339 -1.164661513777938 1.811767425301968 2.050046335517449 -0.5200274433105061 1.139966685416096
3.44403100014 0.046960855359033 -0.2373761774592339 -1.164661513777938 1.811767425301968 2.050046335517449 -0.5200274433105061 1.139966685416096
3.45269918442 0.046960855359033 -0.2373761774592339 -1.164661513777938 1.811767425301968 2.050046335517449 -0.5200274433105061 1.139966685416096
3.45269918442 0.046960855359033 -0.2373761774592339 -1.164661513777938 1.811767425301968 2.050046335517449 -0.5200274433105061 1.139966685416096
3.46265912056 0.046960855359033 -0.2373761774592339 -1.164661513777938 1.811767425301968 2.050046335517449 -0.5200274433105061 1.139966685416096
3.46265912056 0.046960855359033 -0.2373761774592339 -1.164661513777938 1.811767425301968 2.050046335517449 -0.5200274433105061 1.139966685416096
3.47267603874 0.046960855359033 -0.2373761774592339 -1.164661513777938 1.811767425301968 2.050046335517449 -0.5200274433105061 1.139966685416096
3.47267603874 0.046960855359033 -0.2373761774592339 -1.164661513777938 1.811767425301968 2.050046335517449 -0.5200274433105061 1.139966685416096
3.48295497894 0.046960855359033 -0.2373761774592339 -1.164661513777938 1.811767425301968 2.050046335517449 -0.5200274433105061 1.139966685416096
3.48295497894 0.046960855359033 -0.2373761774592339 -1.164661513777938 1.811767425301968 2.050046335517449 -0.5200274433105061 1.139966685416096
3.49301505089 0.046960855359033 -0.2373761774592339 -1.164661513777938 1.811767425301968 2.050046335517449 -0.5200274433105061 1.139966685416096
3.49301505089 0.046960855359033 -0.2373761774592339 -1.164661513777938 1.811767425301968 2.050046335517449 -0.5200274433105061 1.139966685416096
3.50306415558 0.046960855359033 -0.2373761774592339 -1.164661513777938 1.811767425301968 2.050046335517449 -0.5200274433105061 1.139966685416096
3.50306415558 0.046960855359033 -0.2373761774592339 -1.164661513777938 1.811767425301968 2.050046335517449 -0.5200274433105061 1.139966685416096
3.51308107376 0.046960855359033 -0.2373761774592339 -1.164661513777938 1.811767425301968 2.050046335517449 -0.5200274433105061 1.139966685416096
3.51308107376 0.046960855359033 -0.2373761774592339 -1.164661513777938 1.811767425301968 2.050046335517449 -0.5200274433105061 1.139966685416096
3.52288603783 0.046960855359033 -0.2373761774592339 -1.164661513777938 1.811767425301968 2.050046335517449 -0.5200274433105061 1.139966685416096
3.52288603783 0.046960855359033 -0.2373761774592339 -1.164661513777938 1.811767425301968 2.050046335517449 -0.5200274433105061 1.139966685416096
3.53356695175 0.046960855359033 -0.2373761774592339 -1.164661513777938 1.811767425301968 2.050046335517449 -0.5200274433105061 1.139966685416096
3.53356695175 0.046960855359033 -0.2373761774592339 -1.164661513777938 1.811767425301968 2.050046335517449 -0.5200274433105061 1.139966685416096
3.54269814491 0.046960855359033 -0.2373761774592339 -1.164661513777938 1.811767425301968 2.050046335517449 -0.5200274433105061 1.139966685416096
3.54269814491 0.046960855359033 -0.2373761774592339 -1.164661513777938 1.811767425301968 2.050046335517449 -0.5200274433105061 1.139966685416096
3.55296111107 0.046960855359033 -0.2373761774592339 -1.164661513777938 1.811767425301968 2.050046335517449 -0.5200274433105061 1.139966685416096
3.55296111107 0.046960855359033 -0.2373761774592339 -1.164661513777938 1.811767425301968 2.050046335517449 -0.5200274433105061 1.139966685416096
3.56302213669 0.046960855359033 -0.2373761774592339 -1.164661513777938 1.811767425301968 2.050046335517449 -0.5200274433105061 1.139966685416096
3.56302213669 0.046960855359033 -0.2373761774592339 -1.164661513777938 1.811767425301968 2.050046335517449 -0.5200274433105061 1.139966685416096
3.57302904129 0.046960855359033 -0.2373761774592339 -1.164661513777938 1.811767425301968 2.050046335517449 -0.5200274433105061 1.139966685416096
3.57302904129 0.046960855359033 -0.2373761774592339 -1.164661513777938 1.811767425301968 2.050046335517449 -0.5200274433105061 1.139966685416096
3.58305907249 0.046960855359033 -0.2373761774592339 -1.164661513777938 1.811767425301968 2.050046335517449 -0.5200274433105061 1.139966685416096
3.58305907249 0.046960855359033 -0.2373761774592339 -1.164661513777938 1.811767425301968 2.050046335517449 -0.5200274433105061 1.139966685416096
3.59296298027 0.046960855359033 -0.2373761774592339 -1.164661513777938 1.811767425301968 2.050046335517449 -0.5200274433105061 1.139966685416096
3.59296298027 0.046960855359033 -0.2373761774592339 -1.164661513777938 1.811767425301968 2.050046335517449 -0.5200274433105061 1.139966685416096
3.60306310654 0.046960855359033 -0.2373761774592339 -1.164661513777938 1.8117981053246717 2.050046335517449 -0.5200274433105061 1.139966685416096
3.60306310654 0.046960855359033 -0.2373761774592339 -1.164661513777938 1.8117981053246717 2.050046335517449 -0.5200274433105061 1.139966685416096
3.61285400391 0.046960855359033 -0.2373761774592339 -1.164661513777938 1.812074225529 2.050046335517449 -0.5200274433105061 1.139966685416096
3.61285400391 0.046960855359033 -0.2373761774592339 -1.164661513777938 1.812074225529 2.050046335517449 -0.5200274433105061 1.139966685416096
3.62306404114 0.046960855359033 -0.2373761774592339 -1.164661513777938 1.812074225529 2.050046335517449 -0.5200274433105061 1.139966685416096
3.62306404114 0.046960855359033 -0.2373761774592339 -1.164661513777938 1.812074225529 2.050046335517449 -0.5200274433105061 1.139966685416096
3.63306999207 0.046960855359033 -0.2373761774592339 -1.164661513777938 1.8125497658809 2.050046335517449 -0.5200274433105061 1.139966685416096
3.63306999207 0.046960855359033 -0.2373761774592339 -1.164661513777938 1.8125497658809 2.050046335517449 -0.5200274433105061 1.139966685416096
3.64312195778 0.046960855359033 -0.2373761774592339 -1.164661513777938 1.8125497658809 2.050046335517449 -0.5200274433105061 1.139966685416096
3.64312195778 0.046960855359033 -0.2373761774592339 -1.164661513777938 1.8125497658809 2.050046335517449 -0.5200274433105061 1.139966685416096
3.65290904045 0.046960855359033 -0.2373761774592339 -1.164661513777938 1.8125497658809 2.050046335517449 -0.5200274433105061 1.139966685416096
3.65290904045 0.046960855359033 -0.2373761774592339 -1.164661513777938 1.8125497658809 2.050046335517449 -0.5200274433105061 1.139966685416096
3.66305708885 0.046960855359033 -0.2373761774592339 -1.164661513777938 1.8125497658809 2.050046335517449 -0.5200274433105061 1.139966685416096
3.66305708885 0.046960855359033 -0.2373761774592339 -1.164661513777938 1.8125497658809 2.050046335517449 -0.5200274433105061 1.139966685416096
3.67299509048 0.046960855359033 -0.2373761774592339 -1.164661513777938 1.8131326863122612 2.050046335517449 -0.5200274433105061 1.139966685416096
3.67299509048 0.046960855359033 -0.2373761774592339 -1.164661513777938 1.8131326863122612 2.050046335517449 -0.5200274433105061 1.139966685416096
3.68299007416 0.046960855359033 -0.2373608374478823 -1.1650143340390249 1.814436587277148 2.050046335517449 -0.5200274433105061 1.139966685416096
3.68299007416 0.046960855359033 -0.2373608374478823 -1.1650143340390249 1.814436587277148 2.050046335517449 -0.5200274433105061 1.139966685416096
3.69304609299 0.046960855359033 -0.2373608374478823 -1.1650143340390249 1.814436587277148 2.050046335517449 -0.5200274433105061 1.139966685416096
3.69304609299 0.046960855359033 -0.2373608374478823 -1.1650143340390249 1.814436587277148 2.050046335517449 -0.5200274433105061 1.139966685416096
3.70297002792 0.046960855359033 -0.2373608374478823 -1.1653824943114637 1.814988827685806 2.050046335517449 -0.5200274433105061 1.139966685416096
3.70297002792 0.046960855359033 -0.2373608374478823 -1.1653824943114637 1.814988827685806 2.050046335517449 -0.5200274433105061 1.139966685416096
3.71304106712 0.046960855359033 -0.2373608374478823 -1.1653824943114637 1.814988827685806 2.050046335517449 -0.5200274433105061 1.139966685416096
3.71304106712 0.046960855359033 -0.2373608374478823 -1.1653824943114637 1.814988827685806 2.050046335517449 -0.5200274433105061 1.139966685416096
3.72310805321 0.046960855359033 -0.2373301574251791 -1.1659347347201214 1.8156637881852769 2.050046335517449 -0.5200274433105061 1.139966685416096
3.72310805321 0.046960855359033 -0.2373301574251791 -1.1659347347201214 1.8156637881852769 2.050046335517449 -0.5200274433105061 1.139966685416096
3.73296618462 0.046960855359033 -0.2373301574251791 -1.1659347347201214 1.8156637881852769 2.050046335517449 -0.5200274433105061 1.139966685416096
3.73296618462 0.046960855359033 -0.2373301574251791 -1.1659347347201214 1.8156637881852769 2.050046335517449 -0.5200274433105061 1.139966685416096
3.74286603928 0.046960855359033 -0.2373301574251791 -1.1659347347201214 1.8156637881852769 2.050046335517449 -0.5200274433105061 1.139966685416096
3.74286603928 0.046960855359033 -0.2373301574251791 -1.1659347347201214 1.8156637881852769 2.050046335517449 -0.5200274433105061 1.139966685416096
3.75300097466 0.046960855359033 -0.237176757311663 -1.1669011554352728 1.816476808786912 2.050046335517449 -0.5200274433105061 1.139966685416096
3.75300097466 0.046960855359033 -0.237176757311663 -1.1669011554352728 1.816476808786912 2.050046335517449 -0.5200274433105061 1.139966685416096
3.76308298111 0.046960855359033 -0.2364097567440825 -1.1680363162752918 1.817489249536118 2.050046335517449 -0.5200274433105061 1.139966685416096
3.76308298111 0.046960855359033 -0.2364097567440825 -1.1680363162752918 1.817489249536118 2.050046335517449 -0.5200274433105061 1.139966685416096
3.77301502228 0.046960855359033 -0.2350751757564926 -1.1692328371607172 1.8188545105464111 2.050046335517449 -0.5200274433105061 1.139966685416096
3.77301502228 0.046960855359033 -0.2350751757564926 -1.1692328371607172 1.8188545105464111 2.050046335517449 -0.5200274433105061 1.139966685416096
3.78283500671 0.046960855359033 -0.2350751757564926 -1.1692328371607172 1.8188545105464111 2.050046335517449 -0.5200274433105061 1.139966685416096
3.78283500671 0.046960855359033 -0.2350751757564926 -1.1692328371607172 1.8188545105464111 2.050046335517449 -0.5200274433105061 1.139966685416096
3.79295516014 0.046960855359033 -0.2350751757564926 -1.1692328371607172 1.8188545105464111 2.050046335517449 -0.5200274433105061 1.139966685416096
3.79295516014 0.046960855359033 -0.2350751757564926 -1.1692328371607172 1.8188545105464111 2.050046335517449 -0.5200274433105061 1.139966685416096
3.80302500725 0.046960855359033 -0.2332957344397061 -1.1708742183753391 1.8202964716134624 2.050046335517449 -0.5200274433105061 1.139966685416096
3.80302500725 0.046960855359033 -0.2332957344397061 -1.1708742183753391 1.8202964716134624 2.050046335517449 -0.5200274433105061 1.139966685416096
3.81301307678 0.046960855359033 -0.2332957344397061 -1.1708742183753391 1.8202964716134624 2.050046335517449 -0.5200274433105061 1.139966685416096
3.81301307678 0.046960855359033 -0.2332957344397061 -1.1708742183753391 1.8202964716134624 2.050046335517449 -0.5200274433105061 1.139966685416096
3.82304000854 0.046960855359033 -0.2332957344397061 -1.1708742183753391 1.8202964716134624 2.050046335517449 -0.5200274433105061 1.139966685416096
3.82304000854 0.046960855359033 -0.2332957344397061 -1.1708742183753391 1.8202964716134624 2.050046335517449 -0.5200274433105061 1.139966685416096
3.83304595947 0.046960855359033 -0.2332957344397061 -1.1708742183753391 1.8202964716134624 2.050046335517449 -0.5200274433105061 1.139966685416096
3.83304595947 0.046960855359033 -0.2332957344397061 -1.1708742183753391 1.8202964716134624 2.050046335517449 -0.5200274433105061 1.139966685416096
3.84304213524 0.046960855359033 -0.2313322129867002 -1.1728684198510484 1.821922512816733 2.050046335517449 -0.5200274433105061 1.139966685416096
3.84304213524 0.046960855359033 -0.2313322129867002 -1.1728684198510484 1.821922512816733 2.050046335517449 -0.5200274433105061 1.139966685416096
3.85307097435 0.046960855359033 -0.2313322129867002 -1.1728684198510484 1.821922512816733 2.050046335517449 -0.5200274433105061 1.139966685416096
3.85307097435 0.046960855359033 -0.2313322129867002 -1.1728684198510484 1.821922512816733 2.050046335517449 -0.5200274433105061 1.139966685416096
3.86290597916 0.046960855359033 -0.2313322129867002 -1.1728684198510484 1.821922512816733 2.050046335517449 -0.5200274433105061 1.139966685416096
3.86290597916 0.046960855359033 -0.2313322129867002 -1.1728684198510484 1.821922512816733 2.050046335517449 -0.5200274433105061 1.139966685416096
3.87300515175 0.046960855359033 -0.2313322129867002 -1.1728684198510484 1.821922512816733 2.050046335517449 -0.5200274433105061 1.139966685416096
3.87300515175 0.046960855359033 -0.2313322129867002 -1.1728684198510484 1.821922512816733 2.050046335517449 -0.5200274433105061 1.139966685416096
3.88305997849 0.046960855359033 -0.2313322129867002 -1.1728684198510484 1.821922512816733 2.050046335517449 -0.5200274433105061 1.139966685416096
3.88305997849 0.046960855359033 -0.2313322129867002 -1.1728684198510484 1.821922512816733 2.050046335517449 -0.5200274433105061 1.139966685416096
3.89311408997 0.046960855359033 -0.2313322129867002 -1.1728684198510484 1.821922512816733 2.050046335517449 -0.5200274433105061 1.139966685416096
3.89311408997 0.046960855359033 -0.2313322129867002 -1.1728684198510484 1.821922512816733 2.050046335517449 -0.5200274433105061 1.139966685416096
3.90311717987 0.046960855359033 -0.2313322129867002 -1.1728684198510484 1.821922512816733 2.050046335517449 -0.5200274433105061 1.139966685416096
3.90311717987 0.046960855359033 -0.2313322129867002 -1.1728684198510484 1.821922512816733 2.050046335517449 -0.5200274433105061 1.139966685416096
3.91507005692 0.046960855359033 -0.2269296297287885 -1.1778385835289695 1.8259262557795024 2.050046335517449 -0.5200274433105061 1.139966685416096
3.91507005692 0.046960855359033 -0.2269296297287885 -1.1778385835289695 1.8259262557795024 2.050046335517449 -0.5200274433105061 1.139966685416096
3.92264604568 0.046960855359033 -0.2269296297287885 -1.1778385835289695 1.8259262557795024 2.050046335517449 -0.5200274433105061 1.139966685416096
3.92264604568 0.046960855359033 -0.2269296297287885 -1.1778385835289695 1.8259262557795024 2.050046335517449 -0.5200274433105061 1.139966685416096
3.93272209167 0.046960855359033 -0.2269296297287885 -1.1778385835289695 1.8259262557795024 2.050046335517449 -0.5200274433105061 1.139966685416096
3.93272209167 0.046960855359033 -0.2269296297287885 -1.1778385835289695 1.8259262557795024 2.050046335517449 -0.5200274433105061 1.139966685416096
3.94304394722 0.046960855359033 -0.2269296297287885 -1.1778385835289695 1.8259262557795024 2.050046335517449 -0.5200274433105061 1.139966685416096
3.94304394722 0.046960855359033 -0.2269296297287885 -1.1778385835289695 1.8259262557795024 2.050046335517449 -0.5200274433105061 1.139966685416096
3.95305514336 0.046960855359033 -0.2269296297287885 -1.1778385835289695 1.8259262557795024 2.050046335517449 -0.5200274433105061 1.139966685416096
3.95305514336 0.046960855359033 -0.2269296297287885 -1.1778385835289695 1.8259262557795024 2.050046335517449 -0.5200274433105061 1.139966685416096
3.96299600601 0.046960855359033 -0.2269296297287885 -1.1778385835289695 1.8259262557795024 2.050046335517449 -0.5200274433105061 1.139966685416096
3.96299600601 0.046960855359033 -0.2269296297287885 -1.1778385835289695 1.8259262557795024 2.050046335517449 -0.5200274433105061 1.139966685416096
3.97287607193 0.046960855359033 -0.2269296297287885 -1.1778385835289695 1.8259262557795024 2.050046335517449 -0.5200274433105061 1.139966685416096
3.97287607193 0.046960855359033 -0.2269296297287885 -1.1778385835289695 1.8259262557795024 2.050046335517449 -0.5200274433105061 1.139966685416096
3.98300004005 0.046960855359033 -0.2269296297287885 -1.1778385835289695 1.8259262557795024 2.050046335517449 -0.5200274433105061 1.139966685416096
3.98300004005 0.046960855359033 -0.2269296297287885 -1.1778385835289695 1.8259262557795024 2.050046335517449 -0.5200274433105061 1.139966685416096
3.99280309677 0.046960855359033 -0.2269296297287885 -1.1778385835289695 1.8259262557795024 2.050046335517449 -0.5200274433105061 1.139966685416096
3.99280309677 0.046960855359033 -0.2269296297287885 -1.1778385835289695 1.8259262557795024 2.050046335517449 -0.5200274433105061 1.139966685416096
4.00299215317 0.046960855359033 -0.2269296297287885 -1.1778385835289695 1.8259262557795024 2.050046335517449 -0.5200274433105061 1.139966685416096
4.00299215317 0.046960855359033 -0.2269296297287885 -1.1778385835289695 1.8259262557795024 2.050046335517449 -0.5200274433105061 1.139966685416096
4.01262712479 0.046960855359033 -0.2227878266638543 -1.1839899280809645 1.830420879105524 2.050046335517449 -0.5200274433105061 1.139966685416096
4.01262712479 0.046960855359033 -0.2227878266638543 -1.1839899280809645 1.830420879105524 2.050046335517449 -0.5200274433105061 1.139966685416096
4.02286601067 0.046960855359033 -0.2227878266638543 -1.1839899280809645 1.830420879105524 2.050046335517449 -0.5200274433105061 1.139966685416096
4.02286601067 0.046960855359033 -0.2227878266638543 -1.1839899280809645 1.830420879105524 2.050046335517449 -0.5200274433105061 1.139966685416096
4.03311109543 0.0469761953704 -0.214887720818 -1.19646135731 1.8387965253 2.05004633552 -0.520027443311 1.13996668542
4.03311109543 0.0469761953704 -0.214887720818 -1.19646135731 1.8387965253 2.05004633552 -0.520027443311 1.13996668542
4.04266214371 0.0469761953703846 -0.2132923596372087 -1.199560039602847 1.8410054869381336 2.050046335517449 -0.5200274433105061 1.139966685416096
4.04266214371 0.0469761953703846 -0.2132923596372087 -1.199560039602847 1.8410054869381336 2.050046335517449 -0.5200274433105061 1.139966685416096
4.05283403397 0.0469761953703846 -0.2132923596372087 -1.199560039602847 1.8410054869381336 2.050046335517449 -0.5200274433105061 1.139966685416096
4.05283403397 0.0469761953703846 -0.2132923596372087 -1.199560039602847 1.8410054869381336 2.050046335517449 -0.5200274433105061 1.139966685416096
4.06301403046 0.0469761953703846 -0.2132923596372087 -1.199560039602847 1.8410054869381336 2.050046335517449 -0.5200274433105061 1.139966685416096
4.06301403046 0.0469761953703846 -0.2132923596372087 -1.199560039602847 1.8410054869381336 2.050046335517449 -0.5200274433105061 1.139966685416096
4.07299900055 0.0469761953703846 -0.2132923596372087 -1.199560039602847 1.8410054869381336 2.050046335517449 -0.5200274433105061 1.139966685416096
4.07299900055 0.0469761953703846 -0.2132923596372087 -1.199560039602847 1.8410054869381336 2.050046335517449 -0.5200274433105061 1.139966685416096
4.08283400536 0.0469761953703846 -0.2132923596372087 -1.199560039602847 1.8410054869381336 2.050046335517449 -0.5200274433105061 1.139966685416096
4.08283400536 0.0469761953703846 -0.2132923596372087 -1.199560039602847 1.8410054869381336 2.050046335517449 -0.5200274433105061 1.139966685416096
4.09300994873 0.0469761953703846 -0.2132923596372087 -1.199560039602847 1.8410054869381336 2.050046335517449 -0.5200274433105061 1.139966685416096
4.09300994873 0.0469761953703846 -0.2132923596372087 -1.199560039602847 1.8410054869381336 2.050046335517449 -0.5200274433105061 1.139966685416096
4.10308814049 0.0469761953703846 -0.2132923596372087 -1.199560039602847 1.8410054869381336 2.050046335517449 -0.5200274433105061 1.139966685416096
4.10308814049 0.0469761953703846 -0.2132923596372087 -1.199560039602847 1.8410054869381336 2.050046335517449 -0.5200274433105061 1.139966685416096
4.11299300194 0.0469761953703846 -0.2132923596372087 -1.199560039602847 1.8410054869381336 2.050046335517449 -0.5200274433105061 1.139966685416096
4.11299300194 0.0469761953703846 -0.2132923596372087 -1.199560039602847 1.8410054869381336 2.050046335517449 -0.5200274433105061 1.139966685416096
4.12310504913 0.0469761953703846 -0.2132923596372087 -1.199560039602847 1.8410054869381336 2.050046335517449 -0.5200274433105061 1.139966685416096
4.12310504913 0.0469761953703846 -0.2132923596372087 -1.199560039602847 1.8410054869381336 2.050046335517449 -0.5200274433105061 1.139966685416096
4.1330640316 0.0469761953703846 -0.2132923596372087 -1.199560039602847 1.8410054869381336 2.050046335517449 -0.5200274433105061 1.139966685416096
4.1330640316 0.0469761953703846 -0.2132923596372087 -1.199560039602847 1.8410054869381336 2.050046335517449 -0.5200274433105061 1.139966685416096
4.1430311203 0.0469761953703846 -0.2132923596372087 -1.199560039602847 1.8410054869381336 2.050046335517449 -0.5200274433105061 1.139966685416096
4.1430311203 0.0469761953703846 -0.2132923596372087 -1.199560039602847 1.8410054869381336 2.050046335517449 -0.5200274433105061 1.139966685416096
4.15311217308 0.0469761953703846 -0.2132923596372087 -1.199560039602847 1.8410054869381336 2.050046335517449 -0.5200274433105061 1.139966685416096
4.15311217308 0.0469761953703846 -0.2132923596372087 -1.199560039602847 1.8410054869381336 2.050046335517449 -0.5200274433105061 1.139966685416096
4.16313314438 0.0469761953703846 -0.2132923596372087 -1.199560039602847 1.8410054869381336 2.050046335517449 -0.5200274433105061 1.139966685416096
4.16313314438 0.0469761953703846 -0.2132923596372087 -1.199560039602847 1.8410054869381336 2.050046335517449 -0.5200274433105061 1.139966685416096
4.17272615433 0.0469761953703846 -0.2074478153122459 -1.208211806005154 1.84859879255718 2.050046335517449 -0.5200274433105061 1.139966685416096
4.17272615433 0.0469761953703846 -0.2074478153122459 -1.208211806005154 1.84859879255718 2.050046335517449 -0.5200274433105061 1.139966685416096
4.18278717995 0.0469915353817362 -0.2049013734278789 -1.2102060074808634 1.851206594486953 2.050046335517449 -0.5200274433105061 1.139966685416096
4.18278717995 0.0469915353817362 -0.2049013734278789 -1.2102060074808634 1.851206594486953 2.050046335517449 -0.5200274433105061 1.139966685416096
4.19267296791 0.0469915353817362 -0.1921538239946923 -1.223735897492982 1.8634632635568884 2.050046335517449 -0.5200274433105061 1.139966685416096
4.19267296791 0.0469915353817362 -0.1921538239946923 -1.223735897492982 1.8634632635568884 2.050046335517449 -0.5200274433105061 1.139966685416096
4.20264816284 0.0469915353817362 -0.1921538239946923 -1.223735897492982 1.8634632635568884 2.050046335517449 -0.5200274433105061 1.139966685416096
4.20264816284 0.0469915353817362 -0.1921538239946923 -1.223735897492982 1.8634632635568884 2.050046335517449 -0.5200274433105061 1.139966685416096
4.21297311783 0.0469915353817362 -0.1921538239946923 -1.223735897492982 1.8634632635568884 2.050046335517449 -0.5200274433105061 1.139966685416096
4.21297311783 0.0469915353817362 -0.1921538239946923 -1.223735897492982 1.8634632635568884 2.050046335517449 -0.5200274433105061 1.139966685416096
4.22304701805 0.0469915353817362 -0.1921538239946923 -1.223735897492982 1.8634632635568884 2.050046335517449 -0.5200274433105061 1.139966685416096
4.22304701805 0.0469915353817362 -0.1921538239946923 -1.223735897492982 1.8634632635568884 2.050046335517449 -0.5200274433105061 1.139966685416096
4.23285698891 0.0469915353817362 -0.1893005818832931 -1.2270033199108743 1.8655648451120588 2.050046335517449 -0.5200274433105061 1.139966685416096
4.23285698891 0.0469915353817362 -0.1893005818832931 -1.2270033199108743 1.8655648451120588 2.050046335517449 -0.5200274433105061 1.139966685416096
4.2430729866 0.0469915353817362 -0.1893005818832931 -1.2270033199108743 1.8655648451120588 2.050046335517449 -0.5200274433105061 1.139966685416096
4.2430729866 0.0469915353817362 -0.1893005818832931 -1.2270033199108743 1.8655648451120588 2.050046335517449 -0.5200274433105061 1.139966685416096
4.25297617912 0.0469915353817362 -0.1829344771723757 -1.2347500256434367 1.868663527405084 2.050046335517449 -0.5200274433105061 1.139966685416096
4.25297617912 0.0469915353817362 -0.1829344771723757 -1.2347500256434367 1.868663527405084 2.050046335517449 -0.5200274433105061 1.139966685416096
4.26295995712 0.0469915353817362 -0.1791761743912316 -1.2387537686062065 1.8700287884153768 2.050046335517449 -0.5200274433105061 1.139966685416096
4.26295995712 0.0469915353817362 -0.1791761743912316 -1.2387537686062065 1.8700287884153768 2.050046335517449 -0.5200274433105061 1.139966685416096
4.27298808098 0.0469915353817362 -0.1749883512922426 -1.2429415917051956 1.8713633694029668 2.050046335517449 -0.5200274433105061 1.139966685416096
4.27298808098 0.0469915353817362 -0.1749883512922426 -1.2429415917051956 1.8713633694029668 2.050046335517449 -0.5200274433105061 1.139966685416096
4.28287816048 0.0469915353817362 -0.1749883512922426 -1.2429415917051956 1.8713633694029668 2.050046335517449 -0.5200274433105061 1.139966685416096
4.28287816048 0.0469915353817362 -0.1749883512922426 -1.2429415917051956 1.8713633694029668 2.050046335517449 -0.5200274433105061 1.139966685416096
4.29269814491 0.0469915353817362 -0.1749883512922426 -1.2429415917051956 1.8713633694029668 2.050046335517449 -0.5200274433105061 1.139966685416096
4.29269814491 0.0469915353817362 -0.1749883512922426 -1.2429415917051956 1.8713633694029668 2.050046335517449 -0.5200274433105061 1.139966685416096
4.30298709869 0.0469915353817362 -0.1749883512922426 -1.2429415917051956 1.8713633694029668 2.050046335517449 -0.5200274433105061 1.139966685416096
4.30298709869 0.0469915353817362 -0.1749883512922426 -1.2429415917051956 1.8713633694029668 2.050046335517449 -0.5200274433105061 1.139966685416096
4.31287097931 0.0469915353817362 -0.1703249878413535 -1.2472214548722944 1.872605910322447 2.050046335517449 -0.5200274433105061 1.139966685416096
4.31287097931 0.0469915353817362 -0.1703249878413535 -1.2472214548722944 1.872605910322447 2.050046335517449 -0.5200274433105061 1.139966685416096
4.32299900055 0.0469915353817362 -0.1655235642883001 -1.251624038130206 1.8736950511284112 2.050046335517449 -0.5200274433105061 1.139966685416096
4.32299900055 0.0469915353817362 -0.1655235642883001 -1.251624038130206 1.8736950511284112 2.050046335517449 -0.5200274433105061 1.139966685416096
4.33294415474 0.0469915353817362 -0.1655235642883001 -1.251624038130206 1.8736950511284112 2.050046335517449 -0.5200274433105061 1.139966685416096
4.33294415474 0.0469915353817362 -0.1655235642883001 -1.251624038130206 1.8736950511284112 2.050046335517449 -0.5200274433105061 1.139966685416096
4.34284710884 0.0469915353817362 -0.1607068007238951 -1.2561800215016337 1.8746768118549144 2.050046335517449 -0.5200274433105061 1.139966685416096
4.34284710884 0.0469915353817362 -0.1607068007238951 -1.2561800215016337 1.8746768118549144 2.050046335517449 -0.5200274433105061 1.139966685416096
4.35289812088 0.0469915353817362 -0.1556139169551612 -1.2612882452817191 1.875627892558714 2.050046335517449 -0.5200274433105061 1.139966685416096
4.35289812088 0.0469915353817362 -0.1556139169551612 -1.2612882452817191 1.875627892558714 2.050046335517449 -0.5200274433105061 1.139966685416096
4.36306095123 0.0469915353817362 -0.1556139169551612 -1.2612882452817191 1.875627892558714 2.050046335517449 -0.5200274433105061 1.139966685416096
4.36306095123 0.0469915353817362 -0.1556139169551612 -1.2612882452817191 1.875627892558714 2.050046335517449 -0.5200274433105061 1.139966685416096
4.37296700478 0.0469915353817362 -0.1556139169551612 -1.2612882452817191 1.875627892558714 2.050046335517449 -0.5200274433105061 1.139966685416096
4.37296700478 0.0469915353817362 -0.1556139169551612 -1.2612882452817191 1.875627892558714 2.050046335517449 -0.5200274433105061 1.139966685416096
4.38319015503 0.0469915353817362 -0.1556139169551612 -1.2612882452817191 1.875627892558714 2.050046335517449 -0.5200274433105061 1.139966685416096
4.38319015503 0.0469915353817362 -0.1556139169551612 -1.2612882452817191 1.875627892558714 2.050046335517449 -0.5200274433105061 1.139966685416096
4.39297509193 0.0469915353817362 -0.1556139169551612 -1.2612882452817191 1.875627892558714 2.050046335517449 -0.5200274433105061 1.139966685416096
4.39297509193 0.0469915353817362 -0.1556139169551612 -1.2612882452817191 1.875627892558714 2.050046335517449 -0.5200274433105061 1.139966685416096
4.40308618546 0.0469915353817362 -0.1556139169551612 -1.2612882452817191 1.875627892558714 2.050046335517449 -0.5200274433105061 1.139966685416096
4.40308618546 0.0469915353817362 -0.1556139169551612 -1.2612882452817191 1.875627892558714 2.050046335517449 -0.5200274433105061 1.139966685416096
4.413408041 0.0469915353817362 -0.1556139169551612 -1.2612882452817191 1.875627892558714 2.050046335517449 -0.5200274433105061 1.139966685416096
4.413408041 0.0469915353817362 -0.1556139169551612 -1.2612882452817191 1.875627892558714 2.050046335517449 -0.5200274433105061 1.139966685416096
4.42283797264 0.0469915353817362 -0.1556139169551612 -1.2612882452817191 1.875627892558714 2.050046335517449 -0.5200274433105061 1.139966685416096
4.42283797264 0.0469915353817362 -0.1556139169551612 -1.2612882452817191 1.875627892558714 2.050046335517449 -0.5200274433105061 1.139966685416096
4.43302798271 0.0469915353817362 -0.1556139169551612 -1.2612882452817191 1.875627892558714 2.050046335517449 -0.5200274433105061 1.139966685416096
4.43302798271 0.0469915353817362 -0.1556139169551612 -1.2612882452817191 1.875627892558714 2.050046335517449 -0.5200274433105061 1.139966685416096
4.44305896759 0.0469915353817362 -0.1509352134929205 -1.2663811290504532 1.876440913160349 2.050046335517449 -0.5200274433105061 1.139966685416096
4.44305896759 0.0469915353817362 -0.1509352134929205 -1.2663811290504532 1.876440913160349 2.050046335517449 -0.5200274433105061 1.139966685416096
4.45305609703 0.0469915353817362 -0.1509352134929205 -1.2663811290504532 1.876440913160349 2.050046335517449 -0.5200274433105061 1.139966685416096
4.45305609703 0.0469915353817362 -0.1509352134929205 -1.2663811290504532 1.876440913160349 2.050046335517449 -0.5200274433105061 1.139966685416096
4.46306014061 0.0469915353817362 -0.1509352134929205 -1.2663811290504532 1.876440913160349 2.050046335517449 -0.5200274433105061 1.139966685416096
4.46306014061 0.0469915353817362 -0.1509352134929205 -1.2663811290504532 1.876440913160349 2.050046335517449 -0.5200274433105061 1.139966685416096
4.4731490612 0.0469915353817 -0.146179809974 -1.27152003285 1.8770391736 2.05004633552 -0.520027443311 1.13996668542
4.4731490612 0.0469915353817362 -0.1461798099739219 -1.271520032853242 1.8770391736030616 2.050046335517449 -0.5200274433105061 1.139966685416096
4.48295903206 0.0469915353817362 -0.1461798099739219 -1.271520032853242 1.8770391736030616 2.050046335517449 -0.5200274433105061 1.139966685416096
4.48295903206 0.0469915353817362 -0.1461798099739219 -1.271520032853242 1.8770391736030616 2.050046335517449 -0.5200274433105061 1.139966685416096
4.49301409721 0.0469915353817362 -0.1461798099739219 -1.271520032853242 1.8770391736030616 2.050046335517449 -0.5200274433105061 1.139966685416096
4.49301409721 0.0469915353817362 -0.1461798099739219 -1.271520032853242 1.8770391736030616 2.050046335517449 -0.5200274433105061 1.139966685416096
4.50313615799 0.0469915353817362 -0.1461798099739219 -1.271520032853242 1.8770391736030616 2.050046335517449 -0.5200274433105061 1.139966685416096
4.50313615799 0.0469915353817362 -0.1461798099739219 -1.271520032853242 1.8770391736030616 2.050046335517449 -0.5200274433105061 1.139966685416096
4.51265406609 0.0470068753930878 -0.1379575638894598 -1.2821046406858518 1.8773919938641488 2.050046335517449 -0.5200274433105061 1.139966685416096
4.51265406609 0.0470068753930878 -0.1379575638894598 -1.2821046406858518 1.8773919938641488 2.050046335517449 -0.5200274433105061 1.139966685416096
4.52284097672 0.0470068753930878 -0.1379575638894598 -1.2821046406858518 1.8773919938641488 2.050046335517449 -0.5200274433105061 1.139966685416096
4.52284097672 0.0470068753930878 -0.1379575638894598 -1.2821046406858518 1.8773919938641488 2.050046335517449 -0.5200274433105061 1.139966685416096
4.53266906738 0.0470068753930878 -0.1379575638894598 -1.2821046406858518 1.8773919938641488 2.050046335517449 -0.5200274433105061 1.139966685416096
4.53266906738 0.0470068753930878 -0.1379575638894598 -1.2821046406858518 1.8773919938641488 2.050046335517449 -0.5200274433105061 1.139966685416096
4.54289412498 0.0470068753930878 -0.1379575638894598 -1.2821046406858518 1.8773919938641488 2.050046335517449 -0.5200274433105061 1.139966685416096
4.54289412498 0.0470068753930878 -0.1379575638894598 -1.2821046406858518 1.8773919938641488 2.050046335517449 -0.5200274433105061 1.139966685416096
4.55301594734 0.0470068753930878 -0.1379575638894598 -1.2821046406858518 1.8773919938641488 2.050046335517449 -0.5200274433105061 1.139966685416096
4.55301594734 0.0470068753930878 -0.1379575638894598 -1.2821046406858518 1.8773919938641488 2.050046335517449 -0.5200274433105061 1.139966685416096
4.56307911873 0.0470068753930878 -0.1346441214375124 -1.2875656847270245 1.8774380138982036 2.050046335517449 -0.5200274433105061 1.139966685416096
4.56307911873 0.0470068753930878 -0.1346441214375124 -1.2875656847270245 1.8774380138982036 2.050046335517449 -0.5200274433105061 1.139966685416096
4.5728430748 0.0470068753930878 -0.1346441214375124 -1.2875656847270245 1.8774380138982036 2.050046335517449 -0.5200274433105061 1.139966685416096
4.5728430748 0.0470068753930878 -0.1346441214375124 -1.2875656847270245 1.8774380138982036 2.050046335517449 -0.5200274433105061 1.139966685416096
4.58304715157 0.0470068753930878 -0.1346441214375124 -1.2875656847270245 1.8774380138982036 2.050046335517449 -0.5200274433105061 1.139966685416096
4.58304715157 0.0470068753930878 -0.1346441214375124 -1.2875656847270245 1.8774380138982036 2.050046335517449 -0.5200274433105061 1.139966685416096
4.59304404259 0.0470068753930878 -0.1346441214375124 -1.2875656847270245 1.8774380138982036 2.050046335517449 -0.5200274433105061 1.139966685416096
4.59304404259 0.0470068753930878 -0.1346441214375124 -1.2875656847270245 1.8774380138982036 2.050046335517449 -0.5200274433105061 1.139966685416096
4.60298299789 0.0470068753930878 -0.1346441214375124 -1.2875656847270245 1.8774380138982036 2.050046335517449 -0.5200274433105061 1.139966685416096
4.60298299789 0.0470068753930878 -0.1346441214375124 -1.2875656847270245 1.8774380138982036 2.050046335517449 -0.5200274433105061 1.139966685416096
4.61303901672 0.0470068753930878 -0.1346441214375124 -1.2875656847270245 1.8774380138982036 2.050046335517449 -0.5200274433105061 1.139966685416096
4.61303901672 0.0470068753930878 -0.1346441214375124 -1.2875656847270245 1.8774380138982036 2.050046335517449 -0.5200274433105061 1.139966685416096
4.62281608582 0.0470068753930878 -0.1346441214375124 -1.2875656847270245 1.8774380138982036 2.050046335517449 -0.5200274433105061 1.139966685416096
4.62281608582 0.0470068753930878 -0.1346441214375124 -1.2875656847270245 1.8774380138982036 2.050046335517449 -0.5200274433105061 1.139966685416096
4.63303995132 0.0470068753930878 -0.1346441214375124 -1.2875656847270245 1.8774380138982036 2.050046335517449 -0.5200274433105061 1.139966685416096
4.63303995132 0.0470068753930878 -0.1346441214375124 -1.2875656847270245 1.8774380138982036 2.050046335517449 -0.5200274433105061 1.139966685416096
4.64302515984 0.0470068753930878 -0.1346441214375124 -1.2875656847270245 1.8774380138982036 2.050046335517449 -0.5200274433105061 1.139966685416096
4.64302515984 0.0470068753930878 -0.1346441214375124 -1.2875656847270245 1.8774380138982036 2.050046335517449 -0.5200274433105061 1.139966685416096
4.65286803246 0.0470989154611973 -0.1317908793261132 -1.2931954688930647 1.8774380138982036 2.050046335517449 -0.5200274433105061 1.139966685416096
4.65286803246 0.0470989154611973 -0.1317908793261132 -1.2931954688930647 1.8774380138982036 2.050046335517449 -0.5200274433105061 1.139966685416096
4.66284203529 0.0470989154611973 -0.1317908793261132 -1.2931954688930647 1.8774380138982036 2.050046335517449 -0.5200274433105061 1.139966685416096
4.66284203529 0.0470989154611973 -0.1317908793261132 -1.2931954688930647 1.8774380138982036 2.050046335517449 -0.5200274433105061 1.139966685416096
4.67301607132 0.0470989154611973 -0.1317908793261132 -1.2931954688930647 1.8774380138982036 2.050046335517449 -0.5200274433105061 1.139966685416096
4.67301607132 0.0470989154611973 -0.1317908793261132 -1.2931954688930647 1.8774380138982036 2.050046335517449 -0.5200274433105061 1.139966685416096
4.68331503868 0.0471602755066038 -0.1258389549216892 -1.3044090171910905 1.8774533539095557 2.050046335517449 -0.5200274433105061 1.139966685416096
4.68331503868 0.0471602755066038 -0.1258389549216892 -1.3044090171910905 1.8774533539095557 2.050046335517449 -0.5200274433105061 1.139966685416096
4.69272899628 0.0471602755066038 -0.1258389549216892 -1.3044090171910905 1.8774533539095557 2.050046335517449 -0.5200274433105061 1.139966685416096
4.69272899628 0.0471602755066038 -0.1258389549216892 -1.3044090171910905 1.8774533539095557 2.050046335517449 -0.5200274433105061 1.139966685416096
4.70285105705 0.0471602755066038 -0.1258389549216892 -1.3044090171910905 1.8774533539095557 2.050046335517449 -0.5200274433105061 1.139966685416096
4.70285105705 0.0471602755066038 -0.1258389549216892 -1.3044090171910905 1.8774533539095557 2.050046335517449 -0.5200274433105061 1.139966685416096
4.71298909187 0.0471602755066038 -0.1258389549216892 -1.3044090171910905 1.8774533539095557 2.050046335517449 -0.5200274433105061 1.139966685416096
4.71298909187 0.0471602755066038 -0.1258389549216892 -1.3044090171910905 1.8774533539095557 2.050046335517449 -0.5200274433105061 1.139966685416096
4.7229321003 0.0471602755066038 -0.1258389549216892 -1.3044090171910905 1.8774533539095557 2.050046335517449 -0.5200274433105061 1.139966685416096
4.7229321003 0.0471602755066038 -0.1258389549216892 -1.3044090171910905 1.8774533539095557 2.050046335517449 -0.5200274433105061 1.139966685416096
4.73286795616 0.0471602755066038 -0.1258389549216892 -1.3044090171910905 1.8774533539095557 2.050046335517449 -0.5200274433105061 1.139966685416096
4.73286795616 0.0471602755066038 -0.1258389549216892 -1.3044090171910905 1.8774533539095557 2.050046335517449 -0.5200274433105061 1.139966685416096
4.74304103851 0.0471602755066038 -0.1258389549216892 -1.3044090171910905 1.8774533539095557 2.050046335517449 -0.5200274433105061 1.139966685416096
4.74304103851 0.0471602755066038 -0.1258389549216892 -1.3044090171910905 1.8774533539095557 2.050046335517449 -0.5200274433105061 1.139966685416096
4.75298714638 0.0471602755066038 -0.1258389549216892 -1.3044090171910905 1.8774533539095557 2.050046335517449 -0.5200274433105061 1.139966685416096
4.75298714638 0.0471602755066038 -0.1258389549216892 -1.3044090171910905 1.8774533539095557 2.050046335517449 -0.5200274433105061 1.139966685416096
4.76295399666 0.0471602755066038 -0.1258389549216892 -1.3044090171910905 1.8774533539095557 2.050046335517449 -0.5200274433105061 1.139966685416096
4.76295399666 0.0471602755066038 -0.1258389549216892 -1.3044090171910905 1.8774533539095557 2.050046335517449 -0.5200274433105061 1.139966685416096
4.77305412292 0.0471756155179554 -0.1227556126400159 -1.3098547212209115 1.8774533539095557 2.050055466436567 -0.5200274433105061 1.139966685416096
4.77305412292 0.0471756155179554 -0.1227556126400159 -1.3098547212209115 1.8774533539095557 2.050055466436567 -0.5200274433105061 1.139966685416096
4.78303909302 0.0471756155179554 -0.1227556126400159 -1.3098547212209115 1.8774533539095557 2.050055466436567 -0.5200274433105061 1.139966685416096
4.78303909302 0.0471756155179554 -0.1227556126400159 -1.3098547212209115 1.8774533539095557 2.050055466436567 -0.5200274433105061 1.139966685416096
4.79288816452 0.0471756155179554 -0.1227556126400159 -1.3098547212209115 1.8774533539095557 2.050055466436567 -0.5200274433105061 1.139966685416096
4.79288816452 0.0471756155179554 -0.1227556126400159 -1.3098547212209115 1.8774533539095557 2.050055466436567 -0.5200274433105061 1.139966685416096
4.80298900604 0.0471756155179554 -0.1227556126400159 -1.3098547212209115 1.8774533539095557 2.050055466436567 -0.5200274433105061 1.139966685416096
4.80298900604 0.0471756155179554 -0.1227556126400159 -1.3098547212209115 1.8774533539095557 2.050055466436567 -0.5200274433105061 1.139966685416096
4.81302905083 0.0471756155179554 -0.1227556126400159 -1.3098547212209115 1.8774533539095557 2.050055466436567 -0.5200274433105061 1.139966685416096
4.81302905083 0.0471756155179554 -0.1227556126400159 -1.3098547212209115 1.8774533539095557 2.050055466436567 -0.5200274433105061 1.139966685416096
4.82287597656 0.0471756155179554 -0.1199790705853749 -1.3152237251939745 1.8774533539095557 2.0501011210321587 -0.5200274433105061 1.139966685416096
4.82287597656 0.0471756155179554 -0.1199790705853749 -1.3152237251939745 1.8774533539095557 2.0501011210321587 -0.5200274433105061 1.139966685416096
4.8329231739 0.0471756155179554 -0.1199790705853749 -1.3152237251939745 1.8774533539095557 2.0501011210321587 -0.5200274433105061 1.139966685416096
4.8329231739 0.0471756155179554 -0.1199790705853749 -1.3152237251939745 1.8774533539095557 2.0501011210321587 -0.5200274433105061 1.139966685416096
4.84301495552 0.0471756155179554 -0.1199790705853749 -1.3152237251939745 1.8774533539095557 2.0501011210321587 -0.5200274433105061 1.139966685416096
4.84301495552 0.0471756155179554 -0.1199790705853749 -1.3152237251939745 1.8774533539095557 2.0501011210321587 -0.5200274433105061 1.139966685416096
4.85263109207 0.0471756155179554 -0.1030590380645507 -1.3470542487485615 1.8777908341592908 2.050274608495407 -0.5200274433105061 1.139966685416096
4.85263109207 0.0471756155179554 -0.1030590380645507 -1.3470542487485615 1.8777908341592908 2.050274608495407 -0.5200274433105061 1.139966685416096
4.86261510849 0.0471756155179554 -0.1030590380645507 -1.3470542487485615 1.8777908341592908 2.050274608495407 -0.5200274433105061 1.139966685416096
4.86261510849 0.0471756155179554 -0.1030590380645507 -1.3470542487485615 1.8777908341592908 2.050274608495407 -0.5200274433105061 1.139966685416096
4.87284612656 0.0471756155179554 -0.1030590380645507 -1.3470542487485615 1.8777908341592908 2.050274608495407 -0.5200274433105061 1.139966685416096
4.87284612656 0.0471756155179554 -0.1030590380645507 -1.3470542487485615 1.8777908341592908 2.050274608495407 -0.5200274433105061 1.139966685416096
4.88307309151 0.0471756155179554 -0.1030590380645507 -1.3470542487485615 1.8777908341592908 2.050274608495407 -0.5200274433105061 1.139966685416096
4.88307309151 0.0471756155179554 -0.1030590380645507 -1.3470542487485615 1.8777908341592908 2.050274608495407 -0.5200274433105061 1.139966685416096
4.89302802086 0.0471756155179554 -0.1030590380645507 -1.3470542487485615 1.8777908341592908 2.050274608495407 -0.5200274433105061 1.139966685416096
4.89302802086 0.0471756155179554 -0.1030590380645507 -1.3470542487485615 1.8777908341592908 2.050274608495407 -0.5200274433105061 1.139966685416096
4.90306210518 0.0471756155179554 -0.1030590380645507 -1.3470542487485615 1.8777908341592908 2.050274608495407 -0.5200274433105061 1.139966685416096
4.90306210518 0.0471756155179554 -0.1030590380645507 -1.3470542487485615 1.8777908341592908 2.050274608495407 -0.5200274433105061 1.139966685416096
4.91294503212 0.0471756155179554 -0.1030590380645507 -1.3470542487485615 1.8777908341592908 2.050274608495407 -0.5200274433105061 1.139966685416096
4.91294503212 0.0471756155179554 -0.1030590380645507 -1.3470542487485615 1.8777908341592908 2.050274608495407 -0.5200274433105061 1.139966685416096
4.92308712006 0.0471756155179554 -0.1030590380645507 -1.3470542487485615 1.8777908341592908 2.050274608495407 -0.5200274433105061 1.139966685416096
4.92308712006 0.0471756155179554 -0.1030590380645507 -1.3470542487485615 1.8777908341592908 2.050274608495407 -0.5200274433105061 1.139966685416096
4.93306803703 0.0471756155179554 -0.1030590380645507 -1.3470542487485615 1.8777908341592908 2.050274608495407 -0.5200274433105061 1.139966685416096
4.93306803703 0.0471756155179554 -0.1030590380645507 -1.3470542487485615 1.8777908341592908 2.050274608495407 -0.5200274433105061 1.139966685416096
4.9430000782 0.0471756155179554 -0.1030590380645507 -1.3470542487485615 1.8777908341592908 2.050274608495407 -0.5200274433105061 1.139966685416096
4.9430000782 0.0471756155179554 -0.1030590380645507 -1.3470542487485615 1.8777908341592908 2.050274608495407 -0.5200274433105061 1.139966685416096
4.95301198959 0.0471756155179554 -0.1030590380645507 -1.3470542487485615 1.8777908341592908 2.050274608495407 -0.5200274433105061 1.139966685416096
4.95301198959 0.0471756155179554 -0.1030590380645507 -1.3470542487485615 1.8777908341592908 2.050274608495407 -0.5200274433105061 1.139966685416096
4.96310806274 0.0471756155179554 -0.1030590380645507 -1.3470542487485615 1.8777908341592908 2.050274608495407 -0.5200274433105061 1.139966685416096
4.96310806274 0.0471756155179554 -0.1030590380645507 -1.3470542487485615 1.8777908341592908 2.050274608495407 -0.5200274433105061 1.139966685416096
4.97297906876 0.0471756155179554 -0.1030590380645507 -1.3470542487485615 1.8777908341592908 2.050274608495407 -0.5200274433105061 1.139966685416096
4.97297906876 0.0471756155179554 -0.1030590380645507 -1.3470542487485615 1.8777908341592908 2.050274608495407 -0.5200274433105061 1.139966685416096
4.98307013512 0.0471756155179554 -0.1030590380645507 -1.3470542487485615 1.8777908341592908 2.050274608495407 -0.5200274433105061 1.139966685416096
4.98307013512 0.0471756155179554 -0.1030590380645507 -1.3470542487485615 1.8777908341592908 2.050274608495407 -0.5200274433105061 1.139966685416096
4.99307513237 0.0471756155179554 -0.1030590380645507 -1.3470542487485615 1.8777908341592908 2.050274608495407 -0.5200274433105061 1.139966685416096
4.99307513237 0.0471756155179554 -0.1030590380645507 -1.3470542487485615 1.8777908341592908 2.050274608495407 -0.5200274433105061 1.139966685416096
5.00310516357 0.0471756155179554 -0.1030590380645507 -1.3470542487485615 1.8777908341592908 2.050274608495407 -0.5200274433105061 1.139966685416096
5.00310516357 0.0471756155179554 -0.1030590380645507 -1.3470542487485615 1.8777908341592908 2.050274608495407 -0.5200274433105061 1.139966685416096
5.01302504539 0.0471756155179554 -0.1030590380645507 -1.3470542487485615 1.8777908341592908 2.050274608495407 -0.5200274433105061 1.139966685416096
5.01302504539 0.0471756155179554 -0.1030590380645507 -1.3470542487485615 1.8777908341592908 2.050274608495407 -0.5200274433105061 1.139966685416096
5.02307605743 0.0471756155179554 -0.1030590380645507 -1.3470542487485615 1.8777908341592908 2.050274608495407 -0.5200274433105061 1.139966685416096
5.02307605743 0.0471756155179554 -0.1030590380645507 -1.3470542487485615 1.8777908341592908 2.050274608495407 -0.5200274433105061 1.139966685416096
5.03298616409 0.0471756155179554 -0.1030590380645507 -1.3470542487485615 1.8777908341592908 2.050274608495407 -0.5200274433105061 1.139966685416096
5.03298616409 0.0471756155179554 -0.1030590380645507 -1.3470542487485615 1.8777908341592908 2.050274608495407 -0.5200274433105061 1.139966685416096
5.04311800003 0.0471756155179554 -0.1030590380645507 -1.3470542487485615 1.8777908341592908 2.050274608495407 -0.5200274433105061 1.139966685416096
5.04311800003 0.0471756155179554 -0.1030590380645507 -1.3470542487485615 1.8777908341592908 2.050274608495407 -0.5200274433105061 1.139966685416096
5.0528409481 0.0471756155179554 -0.1030590380645507 -1.3470542487485615 1.8777908341592908 2.050274608495407 -0.5200274433105061 1.139966685416096
5.0528409481 0.0471756155179554 -0.1030590380645507 -1.3470542487485615 1.8777908341592908 2.050274608495407 -0.5200274433105061 1.139966685416096
5.06306815147 0.0471756155179554 -0.1030590380645507 -1.3470542487485615 1.8777908341592908 2.050274608495407 -0.5200274433105061 1.139966685416096
5.06306815147 0.0471756155179554 -0.1030590380645507 -1.3470542487485615 1.8777908341592908 2.050274608495407 -0.5200274433105061 1.139966685416096
5.07289505005 0.0471756155179554 -0.1030590380645507 -1.3470542487485615 1.8777908341592908 2.050274608495407 -0.5200274433105061 1.139966685416096
5.07289505005 0.0471756155179554 -0.1030590380645507 -1.3470542487485615 1.8777908341592908 2.050274608495407 -0.5200274433105061 1.139966685416096
5.08306717873 0.0471756155179554 -0.1030590380645507 -1.3470542487485615 1.8777908341592908 2.050274608495407 -0.5200274433105061 1.139966685416096
5.08306717873 0.0471756155179554 -0.1030590380645507 -1.3470542487485615 1.8777908341592908 2.050274608495407 -0.5200274433105061 1.139966685416096
5.09301495552 0.0471756155179554 -0.1030590380645507 -1.3470542487485615 1.8777908341592908 2.050274608495407 -0.5200274433105061 1.139966685416096
5.09301495552 0.0471756155179554 -0.1030590380645507 -1.3470542487485615 1.8777908341592908 2.050274608495407 -0.5200274433105061 1.139966685416096
5.10292601585 0.0471756155179554 -0.1030590380645507 -1.3470542487485615 1.8777908341592908 2.050274608495407 -0.5200274433105061 1.139966685416096
5.10292601585 0.0471756155179554 -0.1030590380645507 -1.3470542487485615 1.8777908341592908 2.050274608495407 -0.5200274433105061 1.139966685416096
5.11300611496 0.0471756155179554 -0.1030590380645507 -1.3470542487485615 1.8777908341592908 2.050274608495407 -0.5200274433105061 1.139966685416096
5.11300611496 0.0471756155179554 -0.1030590380645507 -1.3470542487485615 1.8777908341592908 2.050274608495407 -0.5200274433105061 1.139966685416096
5.12306213379 0.0471756155179554 -0.1030590380645507 -1.3470542487485615 1.8777908341592908 2.050274608495407 -0.5200274433105061 1.139966685416096
5.12306213379 0.0471756155179554 -0.1030590380645507 -1.3470542487485615 1.8777908341592908 2.050274608495407 -0.5200274433105061 1.139966685416096
5.13302397728 0.0471756155179554 -0.1030590380645507 -1.3470542487485615 1.8777908341592908 2.050274608495407 -0.5200274433105061 1.139966685416096
5.13302397728 0.0471756155179554 -0.1030590380645507 -1.3470542487485615 1.8777908341592908 2.050274608495407 -0.5200274433105061 1.139966685416096
5.14306712151 0.0471756155179554 -0.1030590380645507 -1.3470542487485615 1.8777908341592908 2.050274608495407 -0.5200274433105061 1.139966685416096
5.14306712151 0.0471756155179554 -0.1030590380645507 -1.3470542487485615 1.8777908341592908 2.050274608495407 -0.5200274433105061 1.139966685416096
5.15311217308 0.0471756155179554 -0.1030590380645507 -1.3470542487485615 1.8777908341592908 2.050274608495407 -0.5200274433105061 1.139966685416096
5.15311217308 0.0471756155179554 -0.1030590380645507 -1.3470542487485615 1.8777908341592908 2.050274608495407 -0.5200274433105061 1.139966685416096
5.16295313835 0.0471756155179554 -0.1030590380645507 -1.3470542487485615 1.8777908341592908 2.050274608495407 -0.5200274433105061 1.139966685416096
5.16295313835 0.0471756155179554 -0.1030590380645507 -1.3470542487485615 1.8777908341592908 2.050274608495407 -0.5200274433105061 1.139966685416096
5.17301297188 0.0471756155179554 -0.1030590380645507 -1.3470542487485615 1.8777908341592908 2.050274608495407 -0.5200274433105061 1.139966685416096
5.17301297188 0.0471756155179554 -0.1030590380645507 -1.3470542487485615 1.8777908341592908 2.050274608495407 -0.5200274433105061 1.139966685416096
5.18315601349 0.0471756155179554 -0.1030590380645507 -1.3470542487485615 1.8777908341592908 2.050274608495407 -0.5200274433105061 1.139966685416096
5.18315601349 0.0471756155179554 -0.1030590380645507 -1.3470542487485615 1.8777908341592908 2.050274608495407 -0.5200274433105061 1.139966685416096
5.19316411018 0.0471756155179554 -0.1030590380645507 -1.3470542487485615 1.8777908341592908 2.050274608495407 -0.5200274433105061 1.139966685416096
5.19316411018 0.0471756155179554 -0.1030590380645507 -1.3470542487485615 1.8777908341592908 2.050274608495407 -0.5200274433105061 1.139966685416096
5.20298600197 0.0471756155179554 -0.1030590380645507 -1.3470542487485615 1.8777908341592908 2.050274608495407 -0.5200274433105061 1.139966685416096
5.20298600197 0.0471756155179554 -0.1030590380645507 -1.3470542487485615 1.8777908341592908 2.050274608495407 -0.5200274433105061 1.139966685416096
5.21307611465 0.0471756155179554 -0.1030590380645507 -1.3470542487485615 1.8777908341592908 2.050274608495407 -0.5200274433105061 1.139966685416096
5.21307611465 0.0471756155179554 -0.1030590380645507 -1.3470542487485615 1.8777908341592908 2.050274608495407 -0.5200274433105061 1.139966685416096
5.22292399406 0.0471756155179554 -0.1030590380645507 -1.3470542487485615 1.8777908341592908 2.050274608495407 -0.5200274433105061 1.139966685416096
5.22292399406 0.0471756155179554 -0.1030590380645507 -1.3470542487485615 1.8777908341592908 2.050274608495407 -0.5200274433105061 1.139966685416096
5.2330801487 0.0471756155179554 -0.1030590380645507 -1.3470542487485615 1.8777908341592908 2.050274608495407 -0.5200274433105061 1.139966685416096
5.2330801487 0.0471756155179554 -0.1030590380645507 -1.3470542487485615 1.8777908341592908 2.050274608495407 -0.5200274433105061 1.139966685416096
5.2430729866 0.0471756155179554 -0.0963247730811947 -1.3633146607812667 1.8784504546474097 2.0503111321718803 -0.5200274433105061 1.139966685416096
5.2430729866 0.0471756155179554 -0.0963247730811947 -1.3633146607812667 1.8784504546474097 2.0503111321718803 -0.5200274433105061 1.139966685416096
5.25295305252 0.0471756155179554 -0.0963247730811947 -1.3633146607812667 1.8784504546474097 2.0503111321718803 -0.5200274433105061 1.139966685416096
5.25295305252 0.0471756155179554 -0.0963247730811947 -1.3633146607812667 1.8784504546474097 2.0503111321718803 -0.5200274433105061 1.139966685416096
5.26308917999 0.0471756155179554 -0.0963247730811947 -1.3633146607812667 1.8784504546474097 2.0503111321718803 -0.5200274433105061 1.139966685416096
5.26308917999 0.0471756155179554 -0.0963247730811947 -1.3633146607812667 1.8784504546474097 2.0503111321718803 -0.5200274433105061 1.139966685416096
5.27268099785 0.0471756155179554 -0.0963247730811947 -1.3633146607812667 1.8784504546474097 2.0503111321718803 -0.5200274433105061 1.139966685416096
5.27268099785 0.0471756155179554 -0.0963247730811947 -1.3633146607812667 1.8784504546474097 2.0503111321718803 -0.5200274433105061 1.139966685416096
5.28306818008 0.0471756155179554 -0.0963247730811947 -1.3633146607812667 1.8784504546474097 2.0503111321718803 -0.5200274433105061 1.139966685416096
5.28306818008 0.0471756155179554 -0.0963247730811947 -1.3633146607812667 1.8784504546474097 2.0503111321718803 -0.5200274433105061 1.139966685416096
5.29289603233 0.0471756155179554 -0.0963247730811947 -1.3633146607812667 1.8784504546474097 2.0503111321718803 -0.5200274433105061 1.139966685416096
5.29289603233 0.0471756155179554 -0.0963247730811947 -1.3633146607812667 1.8784504546474097 2.0503111321718803 -0.5200274433105061 1.139966685416096
5.30306315422 0.0471756155179554 -0.0963247730811947 -1.3633146607812667 1.8784504546474097 2.0503111321718803 -0.5200274433105061 1.139966685416096
5.30306315422 0.0471756155179554 -0.0963247730811947 -1.3633146607812667 1.8784504546474097 2.0503111321718803 -0.5200274433105061 1.139966685416096
5.31303715706 0.0471756155179554 -0.0963247730811947 -1.3633146607812667 1.8784504546474097 2.0503111321718803 -0.5200274433105061 1.139966685416096
5.31303715706 0.0471756155179554 -0.0963247730811947 -1.3633146607812667 1.8784504546474097 2.0503111321718803 -0.5200274433105061 1.139966685416096
5.32306814194 0.0471756155179554 -0.0963247730811947 -1.3633146607812667 1.8784504546474097 2.0503111321718803 -0.5200274433105061 1.139966685416096
5.32306814194 0.0471756155179554 -0.0963247730811947 -1.3633146607812667 1.8784504546474097 2.0503111321718803 -0.5200274433105061 1.139966685416096
5.33307695389 0.0471756155179554 -0.0963247730811947 -1.3633146607812667 1.8784504546474097 2.0503111321718803 -0.5200274433105061 1.139966685416096
5.33307695389 0.0471756155179554 -0.0963247730811947 -1.3633146607812667 1.8784504546474097 2.0503111321718803 -0.5200274433105061 1.139966685416096
5.34300899506 0.0471756155179554 -0.0963247730811947 -1.3633146607812667 1.8784504546474097 2.0503111321718803 -0.5200274433105061 1.139966685416096
5.34300899506 0.0471756155179554 -0.0963247730811947 -1.3633146607812667 1.8784504546474097 2.0503111321718803 -0.5200274433105061 1.139966685416096
5.35303902626 0.0471756155179554 -0.0963247730811947 -1.3633146607812667 1.8784504546474097 2.0503111321718803 -0.5200274433105061 1.139966685416096
5.35303902626 0.0471756155179554 -0.0963247730811947 -1.3633146607812667 1.8784504546474097 2.0503111321718803 -0.5200274433105061 1.139966685416096
5.36310505867 0.0471756155179554 -0.0963247730811947 -1.3633146607812667 1.8784504546474097 2.0503111321718803 -0.5200274433105061 1.139966685416096
5.36310505867 0.0471756155179554 -0.0963247730811947 -1.3633146607812667 1.8784504546474097 2.0503111321718803 -0.5200274433105061 1.139966685416096
5.37318706512 0.0471756155179554 -0.0963247730811947 -1.3633146607812667 1.8784504546474097 2.0503111321718803 -0.5200274433105061 1.139966685416096
5.37318706512 0.0471756155179554 -0.0963247730811947 -1.3633146607812667 1.8784504546474097 2.0503111321718803 -0.5200274433105061 1.139966685416096
5.3829369545 0.0471756155179554 -0.0963247730811947 -1.3633146607812667 1.8784504546474097 2.0503111321718803 -0.5200274433105061 1.139966685416096
5.3829369545 0.0471756155179554 -0.0963247730811947 -1.3633146607812667 1.8784504546474097 2.0503111321718803 -0.5200274433105061 1.139966685416096
5.39294195175 0.0471756155179554 -0.0963247730811947 -1.3633146607812667 1.8784504546474097 2.0503111321718803 -0.5200274433105061 1.139966685416096
5.39294195175 0.0471756155179554 -0.0963247730811947 -1.3633146607812667 1.8784504546474097 2.0503111321718803 -0.5200274433105061 1.139966685416096
5.40294909477 0.0471756155179554 -0.0963247730811947 -1.3633146607812667 1.8784504546474097 2.0503111321718803 -0.5200274433105061 1.139966685416096
5.40294909477 0.0471756155179554 -0.0963247730811947 -1.3633146607812667 1.8784504546474097 2.0503111321718803 -0.5200274433105061 1.139966685416096
5.41301202774 0.0471756155179554 -0.0963247730811947 -1.3633146607812667 1.8784504546474097 2.0503111321718803 -0.5200274433105061 1.139966685416096
5.41301202774 0.0471756155179554 -0.0963247730811947 -1.3633146607812667 1.8784504546474097 2.0503111321718803 -0.5200274433105061 1.139966685416096
5.42307400703 0.0471756155179554 -0.0963247730811947 -1.3633146607812667 1.8784504546474097 2.0503111321718803 -0.5200274433105061 1.139966685416096
5.42307400703 0.0471756155179554 -0.0963247730811947 -1.3633146607812667 1.8784504546474097 2.0503111321718803 -0.5200274433105061 1.139966685416096
5.43304300308 0.0471756155179554 -0.0963247730811947 -1.3633146607812667 1.8784504546474097 2.0503111321718803 -0.5200274433105061 1.139966685416096
5.43304300308 0.0471756155179554 -0.0963247730811947 -1.3633146607812667 1.8784504546474097 2.0503111321718803 -0.5200274433105061 1.139966685416096
5.44303798676 0.0471756155179554 -0.0963247730811947 -1.3633146607812667 1.8784504546474097 2.0503111321718803 -0.5200274433105061 1.139966685416096
5.44303798676 0.0471756155179554 -0.0963247730811947 -1.3633146607812667 1.8784504546474097 2.0503111321718803 -0.5200274433105061 1.139966685416096
5.45303297043 0.0471756155179554 -0.0963247730811947 -1.3633146607812667 1.8784504546474097 2.0503111321718803 -0.5200274433105061 1.139966685416096
5.45303297043 0.0471756155179554 -0.0963247730811947 -1.3633146607812667 1.8784504546474097 2.0503111321718803 -0.5200274433105061 1.139966685416096
5.46303701401 0.0471756155179554 -0.0963247730811947 -1.3633146607812667 1.8784504546474097 2.0503111321718803 -0.5200274433105061 1.139966685416096
5.46303701401 0.0471756155179554 -0.0963247730811947 -1.3633146607812667 1.8784504546474097 2.0503111321718803 -0.5200274433105061 1.139966685416096
5.47287011147 0.0471756155179554 -0.0963247730811947 -1.3633146607812667 1.8784504546474097 2.0503111321718803 -0.5200274433105061 1.139966685416096
5.47287011147 0.0471756155179554 -0.0963247730811947 -1.3633146607812667 1.8784504546474097 2.0503111321718803 -0.5200274433105061 1.139966685416096
5.48308515549 0.0471756155179554 -0.0963247730811947 -1.3633146607812667 1.8784504546474097 2.0503111321718803 -0.5200274433105061 1.139966685416096
5.48308515549 0.0471756155179554 -0.0963247730811947 -1.3633146607812667 1.8784504546474097 2.0503111321718803 -0.5200274433105061 1.139966685416096
5.4930331707 0.0471756155179554 -0.0963247730811947 -1.3633146607812667 1.8784504546474097 2.0503111321718803 -0.5200274433105061 1.139966685416096
5.4930331707 0.0471756155179554 -0.0963247730811947 -1.3633146607812667 1.8784504546474097 2.0503111321718803 -0.5200274433105061 1.139966685416096
5.50297403336 0.0471756155179554 -0.0963247730811947 -1.3633146607812667 1.8784504546474097 2.0503111321718803 -0.5200274433105061 1.139966685416096
5.50297403336 0.0471756155179554 -0.0963247730811947 -1.3633146607812667 1.8784504546474097 2.0503111321718803 -0.5200274433105061 1.139966685416096
5.51303195953 0.0471756155179554 -0.0963247730811947 -1.3633146607812667 1.8784504546474097 2.0503111321718803 -0.5200274433105061 1.139966685416096
5.51303195953 0.0471756155179554 -0.0963247730811947 -1.3633146607812667 1.8784504546474097 2.0503111321718803 -0.5200274433105061 1.139966685416096
5.52313804626 0.0471756155179554 -0.0963247730811947 -1.3633146607812667 1.8784504546474097 2.0503111321718803 -0.5200274433105061 1.139966685416096
5.52313804626 0.0471756155179554 -0.0963247730811947 -1.3633146607812667 1.8784504546474097 2.0503111321718803 -0.5200274433105061 1.139966685416096
5.53300714493 0.0471756155179554 -0.0963247730811947 -1.3633146607812667 1.8784504546474097 2.0503111321718803 -0.5200274433105061 1.139966685416096
5.53300714493 0.0471756155179554 -0.0963247730811947 -1.3633146607812667 1.8784504546474097 2.0503111321718803 -0.5200274433105061 1.139966685416096
5.54292106628 0.0471756155179554 -0.0963247730811947 -1.3633146607812667 1.8784504546474097 2.0503111321718803 -0.5200274433105061 1.139966685416096
5.54292106628 0.0471756155179554 -0.0963247730811947 -1.3633146607812667 1.8784504546474097 2.0503111321718803 -0.5200274433105061 1.139966685416096
5.55302095413 0.0471756155179554 -0.0963247730811947 -1.3633146607812667 1.8784504546474097 2.0503111321718803 -0.5200274433105061 1.139966685416096
5.55302095413 0.0471756155179554 -0.0963247730811947 -1.3633146607812667 1.8784504546474097 2.0503111321718803 -0.5200274433105061 1.139966685416096
5.56297802925 0.0471756155179554 -0.0963247730811947 -1.3633146607812667 1.8784504546474097 2.0503111321718803 -0.5200274433105061 1.139966685416096
5.56297802925 0.0471756155179554 -0.0963247730811947 -1.3633146607812667 1.8784504546474097 2.0503111321718803 -0.5200274433105061 1.139966685416096
5.57303309441 0.0471756155179554 -0.0963247730811947 -1.3633146607812667 1.8784504546474097 2.0503111321718803 -0.5200274433105061 1.139966685416096
5.57303309441 0.0471756155179554 -0.0963247730811947 -1.3633146607812667 1.8784504546474097 2.0503111321718803 -0.5200274433105061 1.139966685416096
5.58305811882 0.0471756155179554 -0.0963247730811947 -1.3633146607812667 1.8784504546474097 2.0503111321718803 -0.5200274433105061 1.139966685416096
5.58305811882 0.0471756155179554 -0.0963247730811947 -1.3633146607812667 1.8784504546474097 2.0503111321718803 -0.5200274433105061 1.139966685416096
5.59286904335 0.0471756155179554 -0.0963247730811947 -1.3633146607812667 1.8784504546474097 2.0503111321718803 -0.5200274433105061 1.139966685416096
5.59286904335 0.0471756155179554 -0.0963247730811947 -1.3633146607812667 1.8784504546474097 2.0503111321718803 -0.5200274433105061 1.139966685416096
5.60293197632 0.0471756155179554 -0.0963247730811947 -1.3633146607812667 1.8784504546474097 2.0503111321718803 -0.5200274433105061 1.139966685416096
5.60293197632 0.0471756155179554 -0.0963247730811947 -1.3633146607812667 1.8784504546474097 2.0503111321718803 -0.5200274433105061 1.139966685416096
5.61302709579 0.0471756155179554 -0.0963247730811947 -1.3633146607812667 1.8784504546474097 2.0503111321718803 -0.5200274433105061 1.139966685416096
5.61302709579 0.0471756155179554 -0.0963247730811947 -1.3633146607812667 1.8784504546474097 2.0503111321718803 -0.5200274433105061 1.139966685416096
5.6229929924 0.0471756155179554 -0.0963247730811947 -1.3633146607812667 1.8784504546474097 2.0503111321718803 -0.5200274433105061 1.139966685416096
5.6229929924 0.0471756155179554 -0.0963247730811947 -1.3633146607812667 1.8784504546474097 2.0503111321718803 -0.5200274433105061 1.139966685416096
5.63305401802 0.0471756155179554 -0.0963247730811947 -1.3633146607812667 1.8784504546474097 2.0503111321718803 -0.5200274433105061 1.139966685416096
5.63305401802 0.0471756155179554 -0.0963247730811947 -1.3633146607812667 1.8784504546474097 2.0503111321718803 -0.5200274433105061 1.139966685416096
5.64311003685 0.0471756155179554 -0.0963247730811947 -1.3633146607812667 1.8784504546474097 2.0503111321718803 -0.5200274433105061 1.139966685416096
5.64311003685 0.0471756155179554 -0.0963247730811947 -1.3633146607812667 1.8784504546474097 2.0503111321718803 -0.5200274433105061 1.139966685416096
5.65305614471 0.0471756155179554 -0.0963247730811947 -1.3633146607812667 1.8784504546474097 2.0503111321718803 -0.5200274433105061 1.139966685416096
5.65305614471 0.0471756155179554 -0.0963247730811947 -1.3633146607812667 1.8784504546474097 2.0503111321718803 -0.5200274433105061 1.139966685416096
5.66306900978 0.0471756155179554 -0.0963247730811947 -1.3633146607812667 1.8784504546474097 2.0503111321718803 -0.5200274433105061 1.139966685416096
5.66306900978 0.0471756155179554 -0.0963247730811947 -1.3633146607812667 1.8784504546474097 2.0503111321718803 -0.5200274433105061 1.139966685416096
5.67307209969 0.0471756155179554 -0.0963247730811947 -1.3633146607812667 1.8784504546474097 2.0503111321718803 -0.5200274433105061 1.139966685416096
5.67307209969 0.0471756155179554 -0.0963247730811947 -1.3633146607812667 1.8784504546474097 2.0503111321718803 -0.5200274433105061 1.139966685416096
5.68303799629 0.0471756155179554 -0.0963247730811947 -1.3633146607812667 1.8784504546474097 2.0503111321718803 -0.5200274433105061 1.139966685416096
5.68303799629 0.0471756155179554 -0.0963247730811947 -1.3633146607812667 1.8784504546474097 2.0503111321718803 -0.5200274433105061 1.139966685416096
5.69306302071 0.0471756155179554 -0.0963247730811947 -1.3633146607812667 1.8784504546474097 2.0503111321718803 -0.5200274433105061 1.139966685416096
5.69306302071 0.0471756155179554 -0.0963247730811947 -1.3633146607812667 1.8784504546474097 2.0503111321718803 -0.5200274433105061 1.139966685416096
5.7030570507 0.0471756155179554 -0.0963247730811947 -1.3633146607812667 1.8784504546474097 2.0503111321718803 -0.5200274433105061 1.139966685416096
5.7030570507 0.0471756155179554 -0.0963247730811947 -1.3633146607812667 1.8784504546474097 2.0503111321718803 -0.5200274433105061 1.139966685416096
5.71299910545 0.0471756155179554 -0.0963247730811947 -1.3633146607812667 1.8784504546474097 2.0503111321718803 -0.5200274433105061 1.139966685416096
5.71299910545 0.0471756155179554 -0.0963247730811947 -1.3633146607812667 1.8784504546474097 2.0503111321718803 -0.5200274433105061 1.139966685416096
5.7230861187 0.0471756155179554 -0.0963247730811947 -1.3633146607812667 1.8784504546474097 2.0503111321718803 -0.5200274433105061 1.139966685416096
5.7230861187 0.0471756155179554 -0.0963247730811947 -1.3633146607812667 1.8784504546474097 2.0503111321718803 -0.5200274433105061 1.139966685416096
5.73274612427 0.0471756155179554 -0.0963247730811947 -1.3633146607812667 1.8784504546474097 2.0503111321718803 -0.5200274433105061 1.139966685416096
5.73274612427 0.0471756155179554 -0.0963247730811947 -1.3633146607812667 1.8784504546474097 2.0503111321718803 -0.5200274433105061 1.139966685416096
5.74296402931 0.0471756155179554 -0.0963247730811947 -1.3633146607812667 1.8784504546474097 2.0503111321718803 -0.5200274433105061 1.139966685416096
5.74296402931 0.0471756155179554 -0.0963247730811947 -1.3633146607812667 1.8784504546474097 2.0503111321718803 -0.5200274433105061 1.139966685416096
5.7530670166 0.0471756155179554 -0.0963247730811947 -1.3633146607812667 1.8784504546474097 2.0503111321718803 -0.5200274433105061 1.139966685416096
5.7530670166 0.0471756155179554 -0.0963247730811947 -1.3633146607812667 1.8784504546474097 2.0503111321718803 -0.5200274433105061 1.139966685416096
5.76306509972 0.0471756155179554 -0.0963247730811947 -1.3633146607812667 1.8784504546474097 2.0503111321718803 -0.5200274433105061 1.139966685416096
5.76306509972 0.0471756155179554 -0.0963247730811947 -1.3633146607812667 1.8784504546474097 2.0503111321718803 -0.5200274433105061 1.139966685416096
5.77316498756 0.0471756155179554 -0.0963247730811947 -1.3633146607812667 1.8784504546474097 2.0503111321718803 -0.5200274433105061 1.139966685416096
5.77316498756 0.0471756155179554 -0.0963247730811947 -1.3633146607812667 1.8784504546474097 2.0503111321718803 -0.5200274433105061 1.139966685416096
5.78304696083 0.0471756155179554 -0.0963247730811947 -1.3633146607812667 1.8784504546474097 2.0503111321718803 -0.5200274433105061 1.139966685416096
5.78304696083 0.0471756155179554 -0.0963247730811947 -1.3633146607812667 1.8784504546474097 2.0503111321718803 -0.5200274433105061 1.139966685416096
5.79303312302 0.0471756155179554 -0.0963247730811947 -1.3633146607812667 1.8784504546474097 2.0503111321718803 -0.5200274433105061 1.139966685416096
5.79303312302 0.0471756155179554 -0.0963247730811947 -1.3633146607812667 1.8784504546474097 2.0503111321718803 -0.5200274433105061 1.139966685416096
5.80301809311 0.0471756155179554 -0.0963247730811947 -1.3633146607812667 1.8784504546474097 2.0503111321718803 -0.5200274433105061 1.139966685416096
5.80301809311 0.0471756155179554 -0.0963247730811947 -1.3633146607812667 1.8784504546474097 2.0503111321718803 -0.5200274433105061 1.139966685416096
5.81290817261 0.0471756155179554 -0.0963247730811947 -1.3633146607812667 1.8784504546474097 2.0503111321718803 -0.5200274433105061 1.139966685416096
5.81290817261 0.0471756155179554 -0.0963247730811947 -1.3633146607812667 1.8784504546474097 2.0503111321718803 -0.5200274433105061 1.139966685416096
5.82306313515 0.0471756155179554 -0.0963247730811947 -1.3633146607812667 1.8784504546474097 2.0503111321718803 -0.5200274433105061 1.139966685416096
5.82306313515 0.0471756155179554 -0.0963247730811947 -1.3633146607812667 1.8784504546474097 2.0503111321718803 -0.5200274433105061 1.139966685416096
5.83307409286 0.0471756155179554 -0.0963247730811947 -1.3633146607812667 1.8784504546474097 2.0503111321718803 -0.5200274433105061 1.139966685416096
5.83307409286 0.0471756155179554 -0.0963247730811947 -1.3633146607812667 1.8784504546474097 2.0503111321718803 -0.5200274433105061 1.139966685416096
5.84286117554 0.0471756155179554 -0.0963247730811947 -1.3633146607812667 1.8784504546474097 2.0503111321718803 -0.5200274433105061 1.139966685416096
5.84286117554 0.0471756155179554 -0.0963247730811947 -1.3633146607812667 1.8784504546474097 2.0503111321718803 -0.5200274433105061 1.139966685416096
5.85305595398 0.0471756155179554 -0.0963247730811947 -1.3633146607812667 1.8784504546474097 2.0503111321718803 -0.5200274433105061 1.139966685416096
5.85305595398 0.0471756155179554 -0.0963247730811947 -1.3633146607812667 1.8784504546474097 2.0503111321718803 -0.5200274433105061 1.139966685416096
5.86307311058 0.0471756155179554 -0.0963247730811947 -1.3633146607812667 1.8784504546474097 2.0503111321718803 -0.5200274433105061 1.139966685416096
5.86307311058 0.0471756155179554 -0.0963247730811947 -1.3633146607812667 1.8784504546474097 2.0503111321718803 -0.5200274433105061 1.139966685416096
5.87294197083 0.0471756155179554 -0.0963247730811947 -1.3633146607812667 1.8784504546474097 2.0503111321718803 -0.5200274433105061 1.139966685416096
5.87294197083 0.0471756155179554 -0.0963247730811947 -1.3633146607812667 1.8784504546474097 2.0503111321718803 -0.5200274433105061 1.139966685416096
5.88305711746 0.0471756155179554 -0.0963247730811947 -1.3633146607812667 1.8784504546474097 2.0503111321718803 -0.5200274433105061 1.139966685416096
5.88305711746 0.0471756155179554 -0.0963247730811947 -1.3633146607812667 1.8784504546474097 2.0503111321718803 -0.5200274433105061 1.139966685416096
5.89306211472 0.0471756155179554 -0.0963247730811947 -1.3633146607812667 1.8784504546474097 2.0503111321718803 -0.5200274433105061 1.139966685416096
5.89306211472 0.0471756155179554 -0.0963247730811947 -1.3633146607812667 1.8784504546474097 2.0503111321718803 -0.5200274433105061 1.139966685416096
5.90289211273 0.0471756155179554 -0.0963247730811947 -1.3633146607812667 1.8784504546474097 2.0503111321718803 -0.5200274433105061 1.139966685416096
5.90289211273 0.0471756155179554 -0.0963247730811947 -1.3633146607812667 1.8784504546474097 2.0503111321718803 -0.5200274433105061 1.139966685416096
5.91305613518 0.0471756155179554 -0.0963247730811947 -1.3633146607812667 1.8784504546474097 2.0503111321718803 -0.5200274433105061 1.139966685416096
5.91305613518 0.0471756155179554 -0.0963247730811947 -1.3633146607812667 1.8784504546474097 2.0503111321718803 -0.5200274433105061 1.139966685416096
5.92306995392 0.0471756155179554 -0.0963247730811947 -1.3633146607812667 1.8784504546474097 2.0503111321718803 -0.5200274433105061 1.139966685416096
5.92306995392 0.0471756155179554 -0.0963247730811947 -1.3633146607812667 1.8784504546474097 2.0503111321718803 -0.5200274433105061 1.139966685416096
5.93306398392 0.0471756155179554 -0.0963247730811947 -1.3633146607812667 1.8784504546474097 2.0503111321718803 -0.5200274433105061 1.139966685416096
5.93306398392 0.0471756155179554 -0.0963247730811947 -1.3633146607812667 1.8784504546474097 2.0503111321718803 -0.5200274433105061 1.139966685416096
5.94294714928 0.0471756155179554 -0.0963247730811947 -1.3633146607812667 1.8784504546474097 2.0503111321718803 -0.5200274433105061 1.139966685416096
5.94294714928 0.0471756155179554 -0.0963247730811947 -1.3633146607812667 1.8784504546474097 2.0503111321718803 -0.5200274433105061 1.139966685416096
5.95305800438 0.0471756155179554 -0.0963247730811947 -1.3633146607812667 1.8784504546474097 2.0503111321718803 -0.5200274433105061 1.139966685416096
5.95305800438 0.0471756155179554 -0.0963247730811947 -1.3633146607812667 1.8784504546474097 2.0503111321718803 -0.5200274433105061 1.139966685416096
5.96309995651 0.0471756155179554 -0.0963247730811947 -1.3633146607812667 1.8784504546474097 2.0503111321718803 -0.5200274433105061 1.139966685416096
5.96309995651 0.0471756155179554 -0.0963247730811947 -1.3633146607812667 1.8784504546474097 2.0503111321718803 -0.5200274433105061 1.139966685416096
5.9729950428 0.0471756155179554 -0.0963247730811947 -1.3633146607812667 1.8784504546474097 2.0503111321718803 -0.5200274433105061 1.139966685416096
5.9729950428 0.0471756155179554 -0.0963247730811947 -1.3633146607812667 1.8784504546474097 2.0503111321718803 -0.5200274433105061 1.139966685416096
5.98309206963 0.0471756155179554 -0.0963247730811947 -1.3633146607812667 1.8784504546474097 2.0503111321718803 -0.5200274433105061 1.139966685416096
5.98309206963 0.0471756155179554 -0.0963247730811947 -1.3633146607812667 1.8784504546474097 2.0503111321718803 -0.5200274433105061 1.139966685416096
5.99306702614 0.0471756155179554 -0.0963247730811947 -1.3633146607812667 1.8784504546474097 2.0503111321718803 -0.5200274433105061 1.139966685416096
5.99306702614 0.0471756155179554 -0.0963247730811947 -1.3633146607812667 1.8784504546474097 2.0503111321718803 -0.5200274433105061 1.139966685416096
6.00305700302 0.0471756155179554 -0.0963247730811947 -1.3633146607812667 1.8784504546474097 2.0503111321718803 -0.5200274433105061 1.139966685416096
6.00305700302 0.0471756155179554 -0.0963247730811947 -1.3633146607812667 1.8784504546474097 2.0503111321718803 -0.5200274433105061 1.139966685416096
6.01306700706 0.0471756155179554 -0.0963247730811947 -1.3633146607812667 1.8784504546474097 2.0503111321718803 -0.5200274433105061 1.139966685416096
6.01306700706 0.0471756155179554 -0.0963247730811947 -1.3633146607812667 1.8784504546474097 2.0503111321718803 -0.5200274433105061 1.139966685416096
6.0229640007 0.0471756155179554 -0.0963247730811947 -1.3633146607812667 1.8784504546474097 2.0503111321718803 -0.5200274433105061 1.139966685416096
6.0229640007 0.0471756155179554 -0.0963247730811947 -1.3633146607812667 1.8784504546474097 2.0503111321718803 -0.5200274433105061 1.139966685416096
6.03302001953 0.0471756155179554 -0.0963247730811947 -1.3633146607812667 1.8784504546474097 2.0503111321718803 -0.5200274433105061 1.139966685416096
6.03302001953 0.0471756155179554 -0.0963247730811947 -1.3633146607812667 1.8784504546474097 2.0503111321718803 -0.5200274433105061 1.139966685416096
6.04305911064 0.0471756155179554 -0.0963247730811947 -1.3633146607812667 1.8784504546474097 2.0503111321718803 -0.5200274433105061 1.139966685416096
6.04305911064 0.0471756155179554 -0.0963247730811947 -1.3633146607812667 1.8784504546474097 2.0503111321718803 -0.5200274433105061 1.139966685416096
6.05302715302 0.0471756155179554 -0.0963247730811947 -1.3633146607812667 1.8784504546474097 2.0503111321718803 -0.5200274433105061 1.139966685416096
6.05302715302 0.0471756155179554 -0.0963247730811947 -1.3633146607812667 1.8784504546474097 2.0503111321718803 -0.5200274433105061 1.139966685416096
6.06293010712 0.0471756155179554 -0.0963247730811947 -1.3633146607812667 1.8784504546474097 2.0503111321718803 -0.5200274433105061 1.139966685416096
6.06293010712 0.0471756155179554 -0.0963247730811947 -1.3633146607812667 1.8784504546474097 2.0503111321718803 -0.5200274433105061 1.139966685416096
6.07302308083 0.0471756155179554 -0.0963247730811947 -1.3633146607812667 1.8784504546474097 2.0503111321718803 -0.5200274433105061 1.139966685416096
6.07302308083 0.0471756155179554 -0.0963247730811947 -1.3633146607812667 1.8784504546474097 2.0503111321718803 -0.5200274433105061 1.139966685416096
6.08313417435 0.0471756155179554 -0.0963247730811947 -1.3633146607812667 1.8784504546474097 2.0503111321718803 -0.5200274433105061 1.139966685416096
6.08313417435 0.0471756155179554 -0.0963247730811947 -1.3633146607812667 1.8784504546474097 2.0503111321718803 -0.5200274433105061 1.139966685416096
6.09304594994 0.0471756155179554 -0.0963247730811947 -1.3633146607812667 1.8784504546474097 2.0503111321718803 -0.5200274433105061 1.139966685416096
6.09304594994 0.0471756155179554 -0.0963247730811947 -1.3633146607812667 1.8784504546474097 2.0503111321718803 -0.5200274433105061 1.139966685416096
6.10306596756 0.0471756155179554 -0.0963247730811947 -1.3633146607812667 1.8784504546474097 2.0503111321718803 -0.5200274433105061 1.139966685416096
6.10306596756 0.0471756155179554 -0.0963247730811947 -1.3633146607812667 1.8784504546474097 2.0503111321718803 -0.5200274433105061 1.139966685416096
6.11304116249 0.0471756155179554 -0.0963247730811947 -1.3633146607812667 1.8784504546474097 2.0503111321718803 -0.5200274433105061 1.139966685416096
6.11304116249 0.0471756155179554 -0.0963247730811947 -1.3633146607812667 1.8784504546474097 2.0503111321718803 -0.5200274433105061 1.139966685416096
6.12292695045 0.0471756155179554 -0.0963247730811947 -1.3633146607812667 1.8784504546474097 2.0503111321718803 -0.5200274433105061 1.139966685416096
6.12292695045 0.0471756155179554 -0.0963247730811947 -1.3633146607812667 1.8784504546474097 2.0503111321718803 -0.5200274433105061 1.139966685416096
6.13305497169 0.0471756155179554 -0.0963247730811947 -1.3633146607812667 1.8784504546474097 2.0503111321718803 -0.5200274433105061 1.139966685416096
6.13305497169 0.0471756155179554 -0.0963247730811947 -1.3633146607812667 1.8784504546474097 2.0503111321718803 -0.5200274433105061 1.139966685416096
6.14307117462 0.0471756155179554 -0.0963247730811947 -1.3633146607812667 1.8784504546474097 2.0503111321718803 -0.5200274433105061 1.139966685416096
6.14307117462 0.0471756155179554 -0.0963247730811947 -1.3633146607812667 1.8784504546474097 2.0503111321718803 -0.5200274433105061 1.139966685416096
6.15306711197 0.0471756155179554 -0.0963247730811947 -1.3633146607812667 1.8784504546474097 2.0503111321718803 -0.5200274433105061 1.139966685416096
6.15306711197 0.0471756155179554 -0.0963247730811947 -1.3633146607812667 1.8784504546474097 2.0503111321718803 -0.5200274433105061 1.139966685416096
6.16307401657 0.0471756155179554 -0.0963247730811947 -1.3633146607812667 1.8784504546474097 2.0503111321718803 -0.5200274433105061 1.139966685416096
6.16307401657 0.0471756155179554 -0.0963247730811947 -1.3633146607812667 1.8784504546474097 2.0503111321718803 -0.5200274433105061 1.139966685416096
6.17304301262 0.0471756155179554 -0.0963247730811947 -1.3633146607812667 1.8784504546474097 2.0503111321718803 -0.5200274433105061 1.139966685416096
6.17304301262 0.0471756155179554 -0.0963247730811947 -1.3633146607812667 1.8784504546474097 2.0503111321718803 -0.5200274433105061 1.139966685416096
6.18323898315 0.0471756155179554 -0.0963247730811947 -1.3633146607812667 1.8784504546474097 2.0503111321718803 -0.5200274433105061 1.139966685416096
6.18323898315 0.0471756155179554 -0.0963247730811947 -1.3633146607812667 1.8784504546474097 2.0503111321718803 -0.5200274433105061 1.139966685416096
6.19305706024 0.0471756155179554 -0.0963247730811947 -1.3633146607812667 1.8784504546474097 2.0503111321718803 -0.5200274433105061 1.139966685416096
6.19305706024 0.0471756155179554 -0.0963247730811947 -1.3633146607812667 1.8784504546474097 2.0503111321718803 -0.5200274433105061 1.139966685416096
6.20307302475 0.0471756155179554 -0.0963247730811947 -1.3633146607812667 1.8784504546474097 2.0503111321718803 -0.5200274433105061 1.139966685416096
6.20307302475 0.0471756155179554 -0.0963247730811947 -1.3633146607812667 1.8784504546474097 2.0503111321718803 -0.5200274433105061 1.139966685416096
6.21289300919 0.0471756155179554 -0.0963247730811947 -1.3633146607812667 1.8784504546474097 2.0503111321718803 -0.5200274433105061 1.139966685416096
6.21289300919 0.0471756155179554 -0.0963247730811947 -1.3633146607812667 1.8784504546474097 2.0503111321718803 -0.5200274433105061 1.139966685416096
6.22305011749 0.0471756155179554 -0.0963247730811947 -1.3633146607812667 1.8784504546474097 2.0503111321718803 -0.5200274433105061 1.139966685416096
6.22305011749 0.0471756155179554 -0.0963247730811947 -1.3633146607812667 1.8784504546474097 2.0503111321718803 -0.5200274433105061 1.139966685416096
6.23307013512 0.0471756155179554 -0.0963247730811947 -1.3633146607812667 1.8784504546474097 2.0503111321718803 -0.5200274433105061 1.139966685416096
6.23307013512 0.0471756155179554 -0.0963247730811947 -1.3633146607812667 1.8784504546474097 2.0503111321718803 -0.5200274433105061 1.139966685416096
6.24290013313 0.0471756155179554 -0.0963247730811947 -1.3633146607812667 1.8784504546474097 2.0503111321718803 -0.5200274433105061 1.139966685416096
6.24290013313 0.0471756155179554 -0.0963247730811947 -1.3633146607812667 1.8784504546474097 2.0503111321718803 -0.5200274433105061 1.139966685416096
6.25302195549 0.0471756155179554 -0.0963247730811947 -1.3633146607812667 1.8784504546474097 2.0503111321718803 -0.5200274433105061 1.139966685416096
6.25302195549 0.0471756155179554 -0.0963247730811947 -1.3633146607812667 1.8784504546474097 2.0503111321718803 -0.5200274433105061 1.139966685416096
6.26305699348 0.0471756155179554 -0.0963247730811947 -1.3633146607812667 1.8784504546474097 2.0503111321718803 -0.5200274433105061 1.139966685416096
6.26305699348 0.0471756155179554 -0.0963247730811947 -1.3633146607812667 1.8784504546474097 2.0503111321718803 -0.5200274433105061 1.139966685416096
6.27283906937 0.0471756155179554 -0.0963247730811947 -1.3633146607812667 1.8784504546474097 2.0503111321718803 -0.5200274433105061 1.139966685416096
6.27283906937 0.0471756155179554 -0.0963247730811947 -1.3633146607812667 1.8784504546474097 2.0503111321718803 -0.5200274433105061 1.139966685416096
6.28306508064 0.0471756155179554 -0.0963247730811947 -1.3633146607812667 1.8784504546474097 2.0503111321718803 -0.5200274433105061 1.139966685416096
6.28306508064 0.0471756155179554 -0.0963247730811947 -1.3633146607812667 1.8784504546474097 2.0503111321718803 -0.5200274433105061 1.139966685416096
6.29303002357 0.0471756155179554 -0.0963247730811947 -1.3633146607812667 1.8784504546474097 2.0503111321718803 -0.5200274433105061 1.139966685416096
6.29303002357 0.0471756155179554 -0.0963247730811947 -1.3633146607812667 1.8784504546474097 2.0503111321718803 -0.5200274433105061 1.139966685416096
6.30306696892 0.0471756155179554 -0.0963247730811947 -1.3633146607812667 1.8784504546474097 2.0503111321718803 -0.5200274433105061 1.139966685416096
6.30306696892 0.0471756155179554 -0.0963247730811947 -1.3633146607812667 1.8784504546474097 2.0503111321718803 -0.5200274433105061 1.139966685416096
6.31305098534 0.0471756155179554 -0.0963247730811947 -1.3633146607812667 1.8784504546474097 2.0503111321718803 -0.5200274433105061 1.139966685416096
6.31305098534 0.0471756155179554 -0.0963247730811947 -1.3633146607812667 1.8784504546474097 2.0503111321718803 -0.5200274433105061 1.139966685416096
6.32298517227 0.0471756155179554 -0.0963247730811947 -1.3633146607812667 1.8784504546474097 2.0503111321718803 -0.5200274433105061 1.139966685416096
6.32298517227 0.0471756155179554 -0.0963247730811947 -1.3633146607812667 1.8784504546474097 2.0503111321718803 -0.5200274433105061 1.139966685416096
6.33311915398 0.0471756155179554 -0.0963247730811947 -1.3633146607812667 1.8784504546474097 2.0503111321718803 -0.5200274433105061 1.139966685416096
6.33311915398 0.0471756155179554 -0.0963247730811947 -1.3633146607812667 1.8784504546474097 2.0503111321718803 -0.5200274433105061 1.139966685416096
6.34277009964 0.0471756155179554 -0.0963247730811947 -1.3633146607812667 1.8784504546474097 2.0503111321718803 -0.5200274433105061 1.139966685416096
6.34277009964 0.0471756155179554 -0.0963247730811947 -1.3633146607812667 1.8784504546474097 2.0503111321718803 -0.5200274433105061 1.139966685416096
6.35302996635 0.0471756155179554 -0.0963247730811947 -1.3633146607812667 1.8784504546474097 2.0503111321718803 -0.5200274433105061 1.139966685416096
6.35302996635 0.0471756155179554 -0.0963247730811947 -1.3633146607812667 1.8784504546474097 2.0503111321718803 -0.5200274433105061 1.139966685416096
6.36287903786 0.0471756155179554 -0.0963247730811947 -1.3633146607812667 1.8784504546474097 2.0503111321718803 -0.5200274433105061 1.139966685416096
