riccardo-csl/Motion-Planning-for-TIAGo-Manipulator/T3_G_7/head_scan/head_scan/tiago_traiettorie_SG/1a-4b/pick_1a_rep1.txt
time arm_1_joint arm_2_joint arm_3_joint arm_4_joint arm_5_joint arm_6_joint arm_7_joint
0.790810108185 0.0734990749973154 0.0987541512772093 -3.100985126657412 1.3742242815200416 2.050055466436567 -0.5199772232553552 1.1399803817947731
0.790810108185 0.0734990749973154 0.0987541512772093 -3.100985126657412 1.3742242815200416 2.050055466436567 -0.5199772232553552 1.1399803817947731
0.801081180573 0.0734990749973154 0.0987541512772093 -3.100985126657412 1.3742242815200416 2.050055466436567 -0.5199772232553552 1.1399803817947731
0.801081180573 0.0734990749973154 0.0987541512772093 -3.100985126657412 1.3742242815200416 2.050055466436567 -0.5199772232553552 1.1399803817947731
0.811083078384 0.0734990749973154 0.0987541512772093 -3.100985126657412 1.3742242815200416 2.050055466436567 -0.5199772232553552 1.1399803817947731
0.811083078384 0.0734990749973154 0.0987541512772093 -3.100985126657412 1.3742242815200416 2.050055466436567 -0.5199772232553552 1.1399803817947731
0.821014165878 0.0734990749973154 0.0987541512772093 -3.100985126657412 1.3742242815200416 2.050055466436567 -0.5199772232553552 1.1399803817947731
0.821014165878 0.0734990749973154 0.0987541512772093 -3.100985126657412 1.3742242815200416 2.050055466436567 -0.5199772232553552 1.1399803817947731
0.831204175949 0.0734990749973154 0.0987541512772093 -3.100985126657412 1.3742242815200416 2.050055466436567 -0.5199772232553552 1.1399803817947731
0.831204175949 0.0734990749973154 0.0987541512772093 -3.100985126657412 1.3742242815200416 2.050055466436567 -0.5199772232553552 1.1399803817947731
0.841128110886 0.0734990749973154 0.0987541512772093 -3.100985126657412 1.3742242815200416 2.050055466436567 -0.5199772232553552 1.1399803817947731
0.841128110886 0.0734990749973154 0.0987541512772093 -3.100985126657412 1.3742242815200416 2.050055466436567 -0.5199772232553552 1.1399803817947731
0.851160049438 0.0734990749973154 0.0987541512772093 -3.100985126657412 1.3742242815200416 2.050055466436567 -0.5199772232553552 1.1399803817947731
0.851160049438 0.0734990749973154 0.0987541512772093 -3.100985126657412 1.3742242815200416 2.050055466436567 -0.5199772232553552 1.1399803817947731
0.861099004745 0.0734990749973154 0.0987541512772093 -3.100985126657412 1.3742242815200416 2.050055466436567 -0.5199772232553552 1.1399803817947731
0.861099004745 0.0734990749973154 0.0987541512772093 -3.100985126657412 1.3742242815200416 2.050055466436567 -0.5199772232553552 1.1399803817947731
0.871038198471 0.0734990749973154 0.0987541512772093 -3.100985126657412 1.3742242815200416 2.050055466436567 -0.5199772232553552 1.1399803817947731
0.871038198471 0.0734990749973154 0.0987541512772093 -3.100985126657412 1.3742242815200416 2.050055466436567 -0.5199772232553552 1.1399803817947731
0.882266998291 0.0734990749973154 0.0987541512772093 -3.100985126657412 1.3742242815200416 2.050055466436567 -0.5199772232553552 1.1399803817947731
0.882266998291 0.0734990749973154 0.0987541512772093 -3.100985126657412 1.3742242815200416 2.050055466436567 -0.5199772232553552 1.1399803817947731
0.890813112259 0.0734990749973154 0.0987541512772093 -3.100985126657412 1.3742242815200416 2.050055466436567 -0.5199772232553552 1.1399803817947731
0.890813112259 0.0734990749973154 0.0987541512772093 -3.100985126657412 1.3742242815200416 2.050055466436567 -0.5199772232553552 1.1399803817947731
0.900707006454 0.0734990749973154 0.0987541512772093 -3.100985126657412 1.3742242815200416 2.050055466436567 -0.5199772232553552 1.1399803817947731
0.900707006454 0.0734990749973154 0.0987541512772093 -3.100985126657412 1.3742242815200416 2.050055466436567 -0.5199772232553552 1.1399803817947731
0.910686016083 0.0734990749973154 0.0987541512772093 -3.100985126657412 1.3742242815200416 2.050055466436567 -0.5199772232553552 1.1399803817947731
0.910686016083 0.0734990749973154 0.0987541512772093 -3.100985126657412 1.3742242815200416 2.050055466436567 -0.5199772232553552 1.1399803817947731
0.920657157898 0.0734990749973154 0.0987541512772093 -3.100985126657412 1.3742242815200416 2.050055466436567 -0.5199772232553552 1.1399803817947731
0.920657157898 0.0734990749973154 0.0987541512772093 -3.100985126657412 1.3742242815200416 2.050055466436567 -0.5199772232553552 1.1399803817947731
0.930886030197 0.0734990749973154 0.0987541512772093 -3.100985126657412 1.3742242815200416 2.050055466436567 -0.5199772232553552 1.1399803817947731
0.930886030197 0.0734990749973154 0.0987541512772093 -3.100985126657412 1.3742242815200416 2.050055466436567 -0.5199772232553552 1.1399803817947731
0.941168069839 0.0734990749973154 0.0987541512772093 -3.100985126657412 1.3742242815200416 2.050055466436567 -0.5199772232553552 1.1399803817947731
0.941168069839 0.0734990749973154 0.0987541512772093 -3.100985126657412 1.3742242815200416 2.050055466436567 -0.5199772232553552 1.1399803817947731
0.951027154922 0.0734990749973154 0.0987541512772093 -3.100985126657412 1.3742242815200416 2.050055466436567 -0.5199772232553552 1.1399803817947731
0.951027154922 0.0734990749973154 0.0987541512772093 -3.100985126657412 1.3742242815200416 2.050055466436567 -0.5199772232553552 1.1399803817947731
0.960993051529 0.0734990749973154 0.0987541512772093 -3.100985126657412 1.3742242815200416 2.050055466436567 -0.5199772232553552 1.1399803817947731
0.960993051529 0.0734990749973154 0.0987541512772093 -3.100985126657412 1.3742242815200416 2.050055466436567 -0.5199772232553552 1.1399803817947731
0.970938205719 0.0734990749973154 0.0987541512772093 -3.100985126657412 1.3742242815200416 2.050055466436567 -0.5199772232553552 1.1399803817947731
0.970938205719 0.0734990749973154 0.0987541512772093 -3.100985126657412 1.3742242815200416 2.050055466436567 -0.5199772232553552 1.1399803817947731
0.98091006279 0.0734990749973154 0.0987541512772093 -3.100985126657412 1.3742242815200416 2.050055466436567 -0.5199772232553552 1.1399803817947731
0.98091006279 0.0734990749973154 0.0987541512772093 -3.100985126657412 1.3742242815200416 2.050055466436567 -0.5199772232553552 1.1399803817947731
0.991139173508 0.0734990749973154 0.0987541512772093 -3.100985126657412 1.3742242815200416 2.050055466436567 -0.5199772232553552 1.1399803817947731
0.991139173508 0.0734990749973154 0.0987541512772093 -3.100985126657412 1.3742242815200416 2.050055466436567 -0.5199772232553552 1.1399803817947731
1.0010612011 0.0734990749973154 0.0987541512772093 -3.100985126657412 1.3742242815200416 2.050055466436567 -0.5199772232553552 1.1399803817947731
1.0010612011 0.0734990749973154 0.0987541512772093 -3.100985126657412 1.3742242815200416 2.050055466436567 -0.5199772232553552 1.1399803817947731
1.01096820831 0.0734990749973154 0.0987541512772093 -3.100985126657412 1.3742242815200416 2.050055466436567 -0.5199772232553552 1.1399803817947731
1.01096820831 0.0734990749973154 0.0987541512772093 -3.100985126657412 1.3742242815200416 2.050055466436567 -0.5199772232553552 1.1399803817947731
1.02074813843 0.0734990749973154 0.0987541512772093 -3.100985126657412 1.3742242815200416 2.050055466436567 -0.5199772232553552 1.1399803817947731
1.02074813843 0.0734990749973154 0.0987541512772093 -3.100985126657412 1.3742242815200416 2.050055466436567 -0.5199772232553552 1.1399803817947731
1.03112912178 0.0734990749973154 0.0987541512772093 -3.100985126657412 1.3742242815200416 2.050055466436567 -0.5199772232553552 1.1399803817947731
1.03112912178 0.0734990749973154 0.0987541512772093 -3.100985126657412 1.3742242815200416 2.050055466436567 -0.5199772232553552 1.1399803817947731
1.04096007347 0.0734990749973154 0.0987541512772093 -3.100985126657412 1.3742242815200416 2.050046335517449 -0.5199772232553552 1.1399803817947731
1.04096007347 0.0734990749973154 0.0987541512772093 -3.100985126657412 1.3742242815200416 2.050046335517449 -0.5199772232553552 1.1399803817947731
1.05100917816 0.0734990749973154 0.0987541512772093 -3.100985126657412 1.3742242815200416 2.050055466436567 -0.5199817887149144 1.1399758163352145
1.05100917816 0.0734990749973154 0.0987541512772093 -3.100985126657412 1.3742242815200416 2.050055466436567 -0.5199817887149144 1.1399758163352145
1.06101298332 0.0734990749973154 0.0987541512772093 -3.100985126657412 1.3742242815200416 2.050055466436567 -0.5199817887149144 1.1399758163352145
1.06101298332 0.0734990749973154 0.0987541512772093 -3.100985126657412 1.3742242815200416 2.050055466436567 -0.5199817887149144 1.1399758163352145
1.07117700577 0.0734990749973154 0.0987541512772093 -3.100985126657412 1.3742242815200416 2.050055466436567 -0.5199817887149144 1.1399758163352145
1.07117700577 0.0734990749973154 0.0987541512772093 -3.100985126657412 1.3742242815200416 2.050055466436567 -0.5199817887149144 1.1399758163352145
1.08106803894 0.0734990749973154 0.0987541512772093 -3.100985126657412 1.3742242815200416 2.050055466436567 -0.5199817887149144 1.1399758163352145
1.08106803894 0.0734990749973154 0.0987541512772093 -3.100985126657412 1.3742242815200416 2.050055466436567 -0.5199817887149144 1.1399758163352145
1.09118509293 0.0734990749973154 0.0987541512772093 -3.100985126657412 1.3742242815200416 2.050055466436567 -0.5199817887149144 1.1399758163352145
1.09118509293 0.0734990749973154 0.0987541512772093 -3.100985126657412 1.3742242815200416 2.050055466436567 -0.5199817887149144 1.1399758163352145
1.10112905502 0.0734990749973154 0.0987541512772093 -3.100985126657412 1.3742242815200416 2.050055466436567 -0.5199817887149144 1.1399758163352145
1.10112905502 0.0734990749973154 0.0987541512772093 -3.100985126657412 1.3742242815200416 2.050055466436567 -0.5199817887149144 1.1399758163352145
1.11077308655 0.0734990749973154 0.0987541512772093 -3.100985126657412 1.3742242815200416 2.050055466436567 -0.5199772232553552 1.1399803817947731
1.11077308655 0.0734990749973154 0.0987541512772093 -3.100985126657412 1.3742242815200416 2.050055466436567 -0.5199772232553552 1.1399803817947731
1.12063407898 0.0734990749973154 0.0987541512772093 -3.100985126657412 1.3742242815200416 2.050055466436567 -0.5199772232553552 1.1399803817947731
1.12063407898 0.0734990749973154 0.0987541512772093 -3.100985126657412 1.3742242815200416 2.050055466436567 -0.5199772232553552 1.1399803817947731
1.13106012344 0.0734990749973154 0.0987541512772093 -3.100985126657412 1.3742242815200416 2.050055466436567 -0.5199772232553552 1.1399803817947731
1.13106012344 0.0734990749973154 0.0987541512772093 -3.100985126657412 1.3742242815200416 2.050055466436567 -0.5199772232553552 1.1399803817947731
1.14092898369 0.0734990749973154 0.0987541512772093 -3.100985126657412 1.3742242815200416 2.050055466436567 -0.5199772232553552 1.1399803817947731
1.14092898369 0.0734990749973154 0.0987541512772093 -3.100985126657412 1.3742242815200416 2.050055466436567 -0.5199772232553552 1.1399803817947731
1.15090608597 0.0734990749973154 0.0987541512772093 -3.100985126657412 1.3742242815200416 2.050055466436567 -0.5199772232553552 1.1399803817947731
1.15090608597 0.0734990749973154 0.0987541512772093 -3.100985126657412 1.3742242815200416 2.050055466436567 -0.5199772232553552 1.1399803817947731
1.16102099419 0.0734990749973154 0.0987541512772093 -3.100985126657412 1.3742242815200416 2.050055466436567 -0.5199772232553552 1.1399803817947731
1.16102099419 0.0734990749973154 0.0987541512772093 -3.100985126657412 1.3742242815200416 2.050055466436567 -0.5199772232553552 1.1399803817947731
1.17106509209 0.0734990749973154 0.0987541512772093 -3.100985126657412 1.3742242815200416 2.050055466436567 -0.5199772232553552 1.1399803817947731
1.17106509209 0.0734990749973154 0.0987541512772093 -3.100985126657412 1.3742242815200416 2.050055466436567 -0.5199772232553552 1.1399803817947731
1.18208098412 0.0734990749973154 0.0987541512772093 -3.100985126657412 1.3742242815200416 2.050055466436567 -0.5199772232553552 1.1399803817947731
1.18208098412 0.0734990749973154 0.0987541512772093 -3.100985126657412 1.3742242815200416 2.050055466436567 -0.5199772232553552 1.1399803817947731
1.19091105461 0.0734990749973154 0.0987541512772093 -3.100985126657412 1.3742242815200416 2.050055466436567 -0.5199772232553552 1.1399803817947731
1.19091105461 0.0734990749973154 0.0987541512772093 -3.100985126657412 1.3742242815200416 2.050055466436567 -0.5199772232553552 1.1399803817947731
1.2008831501 0.0734990749973154 0.0987541512772093 -3.100985126657412 1.3742242815200416 2.050055466436567 -0.5199772232553552 1.1399803817947731
1.2008831501 0.0734990749973154 0.0987541512772093 -3.100985126657412 1.3742242815200416 2.050055466436567 -0.5199772232553552 1.1399803817947731
1.21109509468 0.0734990749973154 0.0987541512772093 -3.100985126657412 1.3742242815200416 2.050055466436567 -0.5199772232553552 1.1399803817947731
1.21109509468 0.0734990749973154 0.0987541512772093 -3.100985126657412 1.3742242815200416 2.050055466436567 -0.5199772232553552 1.1399803817947731
1.22072219849 0.0734990749973154 0.0987541512772093 -3.100985126657412 1.3742242815200416 2.050055466436567 -0.5199772232553552 1.1399803817947731
1.22072219849 0.0734990749973154 0.0987541512772093 -3.100985126657412 1.3742242815200416 2.050055466436567 -0.5199772232553552 1.1399803817947731
1.2311091423 0.0734990749973154 0.0987541512772093 -3.100985126657412 1.3742242815200416 2.050055466436567 -0.5199772232553552 1.1399803817947731
1.2311091423 0.0734990749973154 0.0987541512772093 -3.100985126657412 1.3742242815200416 2.050055466436567 -0.5199772232553552 1.1399803817947731
1.24094605446 0.0734990749973154 0.0987541512772093 -3.100985126657412 1.3742242815200416 2.050055466436567 -0.5199772232553552 1.1399803817947731
1.24094605446 0.0734990749973154 0.0987541512772093 -3.100985126657412 1.3742242815200416 2.050055466436567 -0.5199772232553552 1.1399803817947731
1.25149703026 0.0734990749973154 0.0987541512772093 -3.100985126657412 1.3742242815200416 2.050055466436567 -0.5199772232553552 1.1399803817947731
1.25149703026 0.0734990749973154 0.0987541512772093 -3.100985126657412 1.3742242815200416 2.050055466436567 -0.5199772232553552 1.1399803817947731
1.26090097427 0.0734990749973154 0.0987541512772093 -3.100985126657412 1.3742242815200416 2.050055466436567 -0.5199772232553552 1.1399803817947731
1.26090097427 0.0734990749973154 0.0987541512772093 -3.100985126657412 1.3742242815200416 2.050055466436567 -0.5199772232553552 1.1399803817947731
1.27089905739 0.0734990749973154 0.0987541512772093 -3.100985126657412 1.3742242815200416 2.050055466436567 -0.5199772232553552 1.1399803817947731
1.27089905739 0.0734990749973154 0.0987541512772093 -3.100985126657412 1.3742242815200416 2.050055466436567 -0.5199772232553552 1.1399803817947731
1.28090214729 0.0734990749973154 0.0987541512772093 -3.100985126657412 1.3742242815200416 2.050055466436567 -0.5199772232553552 1.1399803817947731
1.28090214729 0.0734990749973154 0.0987541512772093 -3.100985126657412 1.3742242815200416 2.050055466436567 -0.5199772232553552 1.1399803817947731
1.29094815254 0.0734990749973154 0.0987541512772093 -3.100985126657412 1.3742242815200416 2.050055466436567 -0.5199772232553552 1.1399803817947731
1.29094815254 0.0734990749973154 0.0987541512772093 -3.100985126657412 1.3742242815200416 2.050055466436567 -0.5199772232553552 1.1399803817947731
1.30101418495 0.0734990749973154 0.0987541512772093 -3.100985126657412 1.3742242815200416 2.050055466436567 -0.5199772232553552 1.1399803817947731
1.30101418495 0.0734990749973154 0.0987541512772093 -3.100985126657412 1.3742242815200416 2.050055466436567 -0.5199772232553552 1.1399803817947731
1.31114315987 0.0734990749973154 0.0987541512772093 -3.100985126657412 1.3742242815200416 2.050055466436567 -0.5199772232553552 1.1399803817947731
1.31114315987 0.0734990749973154 0.0987541512772093 -3.100985126657412 1.3742242815200416 2.050055466436567 -0.5199772232553552 1.1399803817947731
1.32115006447 0.0734990749973154 0.0987541512772093 -3.100985126657412 1.3742242815200416 2.050055466436567 -0.5199772232553552 1.1399803817947731
1.32115006447 0.0734990749973154 0.0987541512772093 -3.100985126657412 1.3742242815200416 2.050055466436567 -0.5199772232553552 1.1399803817947731
1.33192300797 0.0734990749973154 0.0987541512772093 -3.100985126657412 1.3742242815200416 2.050055466436567 -0.5199772232553552 1.1399803817947731
1.33192300797 0.0734990749973154 0.0987541512772093 -3.100985126657412 1.3742242815200416 2.050055466436567 -0.5199772232553552 1.1399803817947731
1.34099507332 0.0734990749973154 0.0987541512772093 -3.100985126657412 1.3742242815200416 2.050055466436567 -0.5199772232553552 1.1399803817947731
1.34099507332 0.0734990749973154 0.0987541512772093 -3.100985126657412 1.3742242815200416 2.050055466436567 -0.5199772232553552 1.1399803817947731
1.35088014603 0.0734990749973154 0.0987541512772093 -3.100985126657412 1.3742242815200416 2.050055466436567 -0.5199772232553552 1.1399803817947731
1.35088014603 0.0734990749973154 0.0987541512772093 -3.100985126657412 1.3742242815200416 2.050055466436567 -0.5199772232553552 1.1399803817947731
1.36096310616 0.0734990749973154 0.0987541512772093 -3.100985126657412 1.3742242815200416 2.050055466436567 -0.5199772232553552 1.1399803817947731
1.36096310616 0.0734990749973154 0.0987541512772093 -3.100985126657412 1.3742242815200416 2.050055466436567 -0.5199772232553552 1.1399803817947731
1.37114310265 0.0734990749973154 0.0987541512772093 -3.100985126657412 1.3742242815200416 2.050055466436567 -0.5199772232553552 1.1399803817947731
1.37114310265 0.0734990749973154 0.0987541512772093 -3.100985126657412 1.3742242815200416 2.050055466436567 -0.5199772232553552 1.1399803817947731
1.3811070919 0.0734990749973154 0.0987541512772093 -3.100985126657412 1.3742242815200416 2.050055466436567 -0.5199772232553552 1.1399803817947731
1.3811070919 0.0734990749973154 0.0987541512772093 -3.100985126657412 1.3742242815200416 2.050055466436567 -0.5199772232553552 1.1399803817947731
1.39096808434 0.0734990749973154 0.0987541512772093 -3.100985126657412 1.3742242815200416 2.050055466436567 -0.5199772232553552 1.1399803817947731
1.39096808434 0.0734990749973154 0.0987541512772093 -3.100985126657412 1.3742242815200416 2.050055466436567 -0.5199772232553552 1.1399803817947731
1.40097403526 0.0734990749973154 0.0987541512772093 -3.100985126657412 1.3742242815200416 2.050055466436567 -0.5199772232553552 1.1399803817947731
1.40097403526 0.0734990749973154 0.0987541512772093 -3.100985126657412 1.3742242815200416 2.050055466436567 -0.5199772232553552 1.1399803817947731
1.41089820862 0.0734990749973154 0.0987541512772093 -3.100985126657412 1.3742242815200416 2.050055466436567 -0.5199772232553552 1.1399803817947731
1.41089820862 0.0734990749973154 0.0987541512772093 -3.100985126657412 1.3742242815200416 2.050055466436567 -0.5199772232553552 1.1399803817947731
1.42110300064 0.0734990749973154 0.0987541512772093 -3.100985126657412 1.3742242815200416 2.050055466436567 -0.5199772232553552 1.1399803817947731
1.42110300064 0.0734990749973154 0.0987541512772093 -3.100985126657412 1.3742242815200416 2.050055466436567 -0.5199772232553552 1.1399803817947731
1.431027174 0.0734990749973154 0.0987541512772093 -3.100985126657412 1.3742242815200416 2.050055466436567 -0.5199772232553552 1.1399803817947731
1.431027174 0.0734990749973154 0.0987541512772093 -3.100985126657412 1.3742242815200416 2.050055466436567 -0.5199772232553552 1.1399803817947731
1.44089102745 0.0734990749973154 0.0987541512772093 -3.100985126657412 1.3742242815200416 2.050055466436567 -0.5199772232553552 1.1399803817947731
1.44089102745 0.0734990749973154 0.0987541512772093 -3.100985126657412 1.3742242815200416 2.050055466436567 -0.5199772232553552 1.1399803817947731
1.45108699799 0.0734990749973154 0.0987541512772093 -3.100985126657412 1.3742242815200416 2.050055466436567 -0.5199772232553552 1.1399803817947731
1.45108699799 0.0734990749973154 0.0987541512772093 -3.100985126657412 1.3742242815200416 2.050055466436567 -0.5199772232553552 1.1399803817947731
1.4609310627 0.0734990749973154 0.0987541512772093 -3.100985126657412 1.3742242815200416 2.050055466436567 -0.5199772232553552 1.1399803817947731
1.4609310627 0.0734990749973154 0.0987541512772093 -3.100985126657412 1.3742242815200416 2.050055466436567 -0.5199772232553552 1.1399803817947731
1.47107005119 0.0734990749973154 0.0987541512772093 -3.100985126657412 1.3742242815200416 2.050055466436567 -0.5199817887149144 1.1399758163352145
1.47107005119 0.0734990749973154 0.0987541512772093 -3.100985126657412 1.3742242815200416 2.050055466436567 -0.5199817887149144 1.1399758163352145
1.48092913628 0.0734990749973154 0.0987541512772093 -3.100985126657412 1.3742242815200416 2.050055466436567 -0.5199817887149144 1.1399758163352145
1.48092913628 0.0734990749973154 0.0987541512772093 -3.100985126657412 1.3742242815200416 2.050055466436567 -0.5199817887149144 1.1399758163352145
1.49103498459 0.0734990749973154 0.0987541512772093 -3.100985126657412 1.3742242815200416 2.050055466436567 -0.5199817887149144 1.1399758163352145
1.49103498459 0.0734990749973154 0.0987541512772093 -3.100985126657412 1.3742242815200416 2.050055466436567 -0.5199817887149144 1.1399758163352145
1.50112318993 0.0734990749973154 0.0987541512772093 -3.100985126657412 1.3742242815200416 2.050055466436567 -0.5199817887149144 1.1399758163352145
1.50112318993 0.0734990749973154 0.0987541512772093 -3.100985126657412 1.3742242815200416 2.050055466436567 -0.5199817887149144 1.1399758163352145
1.51111197472 0.0734990749973154 0.0987541512772093 -3.100985126657412 1.3742242815200416 2.050055466436567 -0.5199817887149144 1.1399758163352145
1.51111197472 0.0734990749973154 0.0987541512772093 -3.100985126657412 1.3742242815200416 2.050055466436567 -0.5199817887149144 1.1399758163352145
1.52109408379 0.0734990749973154 0.0987541512772093 -3.100985126657412 1.3742242815200416 2.050055466436567 -0.5199817887149144 1.1399758163352145
1.52109408379 0.0734990749973154 0.0987541512772093 -3.100985126657412 1.3742242815200416 2.050055466436567 -0.5199817887149144 1.1399758163352145
1.53108716011 0.0734990749973154 0.0987541512772093 -3.100985126657412 1.3742242815200416 2.050055466436567 -0.5199772232553552 1.1399803817947731
1.53108716011 0.0734990749973154 0.0987541512772093 -3.100985126657412 1.3742242815200416 2.050055466436567 -0.5199772232553552 1.1399803817947731
1.54139518738 0.0734990749973154 0.0987541512772093 -3.100985126657412 1.3742242815200416 2.050055466436567 -0.5199772232553552 1.1399803817947731
1.54139518738 0.0734990749973154 0.0987541512772093 -3.100985126657412 1.3742242815200416 2.050055466436567 -0.5199772232553552 1.1399803817947731
1.55074310303 0.0734990749973154 0.0987541512772093 -3.100985126657412 1.3742242815200416 2.050055466436567 -0.5199772232553552 1.1399803817947731
1.55074310303 0.0734990749973154 0.0987541512772093 -3.100985126657412 1.3742242815200416 2.050055466436567 -0.5199772232553552 1.1399803817947731
1.56115412712 0.0734990749973154 0.0987541512772093 -3.100985126657412 1.3742242815200416 2.050055466436567 -0.5199772232553552 1.1399803817947731
1.56115412712 0.0734990749973154 0.0987541512772093 -3.100985126657412 1.3742242815200416 2.050055466436567 -0.5199772232553552 1.1399803817947731
1.57105112076 0.0734990749973154 0.0987541512772093 -3.100985126657412 1.3742242815200416 2.050055466436567 -0.5199772232553552 1.1399803817947731
1.57105112076 0.0734990749973154 0.0987541512772093 -3.100985126657412 1.3742242815200416 2.050055466436567 -0.5199772232553552 1.1399803817947731
1.58107614517 0.0734990749973154 0.0987541512772093 -3.100985126657412 1.3742242815200416 2.050055466436567 -0.5199772232553552 1.1399803817947731
1.58107614517 0.0734990749973154 0.0987541512772093 -3.100985126657412 1.3742242815200416 2.050055466436567 -0.5199772232553552 1.1399803817947731
1.59113407135 0.0734990749973154 0.0987541512772093 -3.100985126657412 1.3742242815200416 2.050055466436567 -0.5199772232553552 1.1399803817947731
1.59113407135 0.0734990749973154 0.0987541512772093 -3.100985126657412 1.3742242815200416 2.050055466436567 -0.5199772232553552 1.1399803817947731
1.600949049 0.0734990749973154 0.0987541512772093 -3.100985126657412 1.3742242815200416 2.050055466436567 -0.5199817887149144 1.1399758163352145
1.600949049 0.0734990749973154 0.0987541512772093 -3.100985126657412 1.3742242815200416 2.050055466436567 -0.5199817887149144 1.1399758163352145
1.61115407944 0.0734990749973154 0.0987541512772093 -3.100985126657412 1.3742242815200416 2.050055466436567 -0.5199817887149144 1.1399758163352145
1.61115407944 0.0734990749973154 0.0987541512772093 -3.100985126657412 1.3742242815200416 2.050055466436567 -0.5199817887149144 1.1399758163352145
1.62091612816 0.0734990749973154 0.0987541512772093 -3.100985126657412 1.3742242815200416 2.050055466436567 -0.5199817887149144 1.1399758163352145
1.62091612816 0.0734990749973154 0.0987541512772093 -3.100985126657412 1.3742242815200416 2.050055466436567 -0.5199817887149144 1.1399758163352145
1.63100600243 0.0734990749973154 0.0987541512772093 -3.100985126657412 1.3742242815200416 2.050055466436567 -0.5199817887149144 1.1399758163352145
1.63100600243 0.0734990749973154 0.0987541512772093 -3.100985126657412 1.3742242815200416 2.050055466436567 -0.5199817887149144 1.1399758163352145
1.64104604721 0.0734990749973154 0.0987541512772093 -3.100985126657412 1.3742242815200416 2.050055466436567 -0.5199817887149144 1.1399758163352145
1.64104604721 0.0734990749973154 0.0987541512772093 -3.100985126657412 1.3742242815200416 2.050055466436567 -0.5199817887149144 1.1399758163352145
1.65176105499 0.0734990749973154 0.0987541512772093 -3.100985126657412 1.3742242815200416 2.050055466436567 -0.5199772232553552 1.1399803817947731
1.65176105499 0.0734990749973154 0.0987541512772093 -3.100985126657412 1.3742242815200416 2.050055466436567 -0.5199772232553552 1.1399803817947731
1.66082620621 0.0734990749973154 0.0987541512772093 -3.100985126657412 1.3742242815200416 2.050055466436567 -0.5199772232553552 1.1399803817947731
1.66082620621 0.0734990749973154 0.0987541512772093 -3.100985126657412 1.3742242815200416 2.050055466436567 -0.5199772232553552 1.1399803817947731
1.671459198 0.0734990749973154 0.0987541512772093 -3.100985126657412 1.3742242815200416 2.050055466436567 -0.5199772232553552 1.1399803817947731
1.671459198 0.0734990749973154 0.0987541512772093 -3.100985126657412 1.3742242815200416 2.050055466436567 -0.5199772232553552 1.1399803817947731
1.68090009689 0.0734990749973154 0.0987541512772093 -3.100985126657412 1.3742242815200416 2.050055466436567 -0.5199772232553552 1.1399803817947731
1.68090009689 0.0734990749973154 0.0987541512772093 -3.100985126657412 1.3742242815200416 2.050055466436567 -0.5199772232553552 1.1399803817947731
1.69116997719 0.0734990749973154 0.0987541512772093 -3.100985126657412 1.3742242815200416 2.050055466436567 -0.5199772232553552 1.1399803817947731
1.69116997719 0.0734990749973154 0.0987541512772093 -3.100985126657412 1.3742242815200416 2.050055466436567 -0.5199772232553552 1.1399803817947731
1.70113611221 0.0734990749973154 0.0987541512772093 -3.100985126657412 1.3742242815200416 2.050055466436567 -0.5199772232553552 1.1399803817947731
1.70113611221 0.0734990749973154 0.0987541512772093 -3.100985126657412 1.3742242815200416 2.050055466436567 -0.5199772232553552 1.1399803817947731
1.71092605591 0.0734990749973154 0.0987541512772093 -3.100985126657412 1.3742242815200416 2.050055466436567 -0.5199772232553552 1.1399803817947731
1.71092605591 0.0734990749973154 0.0987541512772093 -3.100985126657412 1.3742242815200416 2.050055466436567 -0.5199772232553552 1.1399803817947731
1.72095608711 0.0734990749973154 0.0987541512772093 -3.100985126657412 1.3742242815200416 2.050055466436567 -0.5199772232553552 1.1399803817947731
1.72095608711 0.0734990749973154 0.0987541512772093 -3.100985126657412 1.3742242815200416 2.050055466436567 -0.5199772232553552 1.1399803817947731
1.7311091423 0.0734990749973154 0.0987541512772093 -3.100985126657412 1.3742242815200416 2.050055466436567 -0.5199772232553552 1.1399803817947731
1.7311091423 0.0734990749973154 0.0987541512772093 -3.100985126657412 1.3742242815200416 2.050055466436567 -0.5199772232553552 1.1399803817947731
1.74103307724 0.0734990749973154 0.0987541512772093 -3.100985126657412 1.3742242815200416 2.050055466436567 -0.5199772232553552 1.1399803817947731
1.74103307724 0.0734990749973154 0.0987541512772093 -3.100985126657412 1.3742242815200416 2.050055466436567 -0.5199772232553552 1.1399803817947731
1.75102114677 0.0734990749973154 0.0987541512772093 -3.100985126657412 1.3742242815200416 2.050055466436567 -0.5199772232553552 1.1399803817947731
1.75102114677 0.0734990749973154 0.0987541512772093 -3.100985126657412 1.3742242815200416 2.050055466436567 -0.5199772232553552 1.1399803817947731
1.76076507568 0.0734990749973154 0.0987541512772093 -3.100985126657412 1.3742242815200416 2.050055466436567 -0.5199772232553552 1.1399803817947731
1.76076507568 0.0734990749973154 0.0987541512772093 -3.100985126657412 1.3742242815200416 2.050055466436567 -0.5199772232553552 1.1399803817947731
1.77108120918 0.0734990749973154 0.0987541512772093 -3.100985126657412 1.3742242815200416 2.050055466436567 -0.5199772232553552 1.1399803817947731
1.77108120918 0.0734990749973154 0.0987541512772093 -3.100985126657412 1.3742242815200416 2.050055466436567 -0.5199772232553552 1.1399803817947731
1.78096318245 0.0734990749973154 0.0987541512772093 -3.100985126657412 1.3742242815200416 2.050055466436567 -0.5199772232553552 1.1399803817947731
1.78096318245 0.0734990749973154 0.0987541512772093 -3.100985126657412 1.3742242815200416 2.050055466436567 -0.5199772232553552 1.1399803817947731
1.79094815254 0.0734990749973154 0.0987541512772093 -3.100985126657412 1.3742242815200416 2.050055466436567 -0.5199772232553552 1.1399803817947731
1.79094815254 0.0734990749973154 0.0987541512772093 -3.100985126657412 1.3742242815200416 2.050055466436567 -0.5199772232553552 1.1399803817947731
1.8007349968 0.0734990749973154 0.0987541512772093 -3.100985126657412 1.3742242815200416 2.050055466436567 -0.5199772232553552 1.1399803817947731
1.8007349968 0.0734990749973154 0.0987541512772093 -3.100985126657412 1.3742242815200416 2.050055466436567 -0.5199772232553552 1.1399803817947731
1.81089401245 0.0734990749973154 0.0987541512772093 -3.100985126657412 1.3742242815200416 2.050055466436567 -0.5199772232553552 1.1399803817947731
1.81089401245 0.0734990749973154 0.0987541512772093 -3.100985126657412 1.3742242815200416 2.050055466436567 -0.5199772232553552 1.1399803817947731
1.82086706161 0.0734990749973154 0.0987541512772093 -3.100985126657412 1.3742242815200416 2.050055466436567 -0.5199772232553552 1.1399803817947731
1.82086706161 0.0734990749973154 0.0987541512772093 -3.100985126657412 1.3742242815200416 2.050055466436567 -0.5199772232553552 1.1399803817947731
1.83070397377 0.0734990749973154 0.0987541512772093 -3.100985126657412 1.3742242815200416 2.050055466436567 -0.5199772232553552 1.1399803817947731
1.83070397377 0.0734990749973154 0.0987541512772093 -3.100985126657412 1.3742242815200416 2.050055466436567 -0.5199772232553552 1.1399803817947731
1.84063601494 0.0734990749973154 0.0987541512772093 -3.100985126657412 1.3742242815200416 2.050055466436567 -0.5199772232553552 1.1399803817947731
1.84063601494 0.0734990749973154 0.0987541512772093 -3.100985126657412 1.3742242815200416 2.050055466436567 -0.5199772232553552 1.1399803817947731
1.85075998306 0.0734990749973154 0.0987541512772093 -3.100985126657412 1.3742242815200416 2.050055466436567 -0.5199772232553552 1.1399803817947731
1.85075998306 0.0734990749973154 0.0987541512772093 -3.100985126657412 1.3742242815200416 2.050055466436567 -0.5199772232553552 1.1399803817947731
1.86064314842 0.0734990749973154 0.0987541512772093 -3.100985126657412 1.3742242815200416 2.050055466436567 -0.5199772232553552 1.1399803817947731
1.86064314842 0.0734990749973154 0.0987541512772093 -3.100985126657412 1.3742242815200416 2.050055466436567 -0.5199772232553552 1.1399803817947731
1.8707420826 0.0734990749973154 0.0987541512772093 -3.100985126657412 1.3742242815200416 2.050055466436567 -0.5199772232553552 1.1399803817947731
1.8707420826 0.0734990749973154 0.0987541512772093 -3.100985126657412 1.3742242815200416 2.050055466436567 -0.5199772232553552 1.1399803817947731
1.880671978 0.0734990749973154 0.0987541512772093 -3.100985126657412 1.3742242815200416 2.050055466436567 -0.5199772232553552 1.1399803817947731
1.880671978 0.0734990749973154 0.0987541512772093 -3.100985126657412 1.3742242815200416 2.050055466436567 -0.5199772232553552 1.1399803817947731
1.89075303078 0.0734990749973154 0.0987541512772093 -3.100985126657412 1.3742242815200416 2.050055466436567 -0.5199772232553552 1.1399803817947731
1.89075303078 0.0734990749973154 0.0987541512772093 -3.100985126657412 1.3742242815200416 2.050055466436567 -0.5199772232553552 1.1399803817947731
1.9006421566 0.0734990749973154 0.0987541512772093 -3.10096978664606 1.3742242815200416 2.050055466436567 -0.5199772232553552 1.1399803817947731
1.9006421566 0.0734990749973154 0.0987541512772093 -3.10096978664606 1.3742242815200416 2.050055466436567 -0.5199772232553552 1.1399803817947731
1.91071605682 0.0734990749973154 0.0987541512772093 -3.10096978664606 1.3742242815200416 2.050055466436567 -0.5199772232553552 1.1399803817947731
1.91071605682 0.0734990749973154 0.0987541512772093 -3.10096978664606 1.3742242815200416 2.050055466436567 -0.5199772232553552 1.1399803817947731
1.9206571579 0.0734990749973154 0.0987541512772093 -3.10096978664606 1.3742242815200416 2.050055466436567 -0.5199772232553552 1.1399803817947731
1.9206571579 0.0734990749973154 0.0987541512772093 -3.10096978664606 1.3742242815200416 2.050055466436567 -0.5199772232553552 1.1399803817947731
1.9307820797 0.0734990749973154 0.0987541512772093 -3.1009237666120053 1.3742242815200416 2.050046335517449 -0.5199772232553552 1.1399803817947731
1.9307820797 0.0734990749973154 0.0987541512772093 -3.1009237666120053 1.3742242815200416 2.050046335517449 -0.5199772232553552 1.1399803817947731
1.94067811966 0.0734990749973154 0.0987541512772093 -3.1009237666120053 1.3742242815200416 2.050046335517449 -0.5199772232553552 1.1399803817947731
1.94067811966 0.0734990749973154 0.0987541512772093 -3.1009237666120053 1.3742242815200416 2.050046335517449 -0.5199772232553552 1.1399803817947731
1.9507021904 0.0734990749973154 0.0987541512772093 -3.1009237666120053 1.3742242815200416 2.050046335517449 -0.5199772232553552 1.1399803817947731
1.9507021904 0.0734990749973154 0.0987541512772093 -3.1009237666120053 1.3742242815200416 2.050046335517449 -0.5199772232553552 1.1399803817947731
1.96064305305 0.0734990749973154 0.0987541512772093 -3.1009237666120053 1.3742242815200416 2.050046335517449 -0.5199772232553552 1.1399803817947731
1.96064305305 0.0734990749973154 0.0987541512772093 -3.1009237666120053 1.3742242815200416 2.050046335517449 -0.5199772232553552 1.1399803817947731
1.97070717812 0.0734990749973154 0.0987541512772093 -3.1005556063395665 1.3742242815200416 2.050055466436567 -0.5199817887149144 1.1399758163352145
1.97070717812 0.0734990749973154 0.0987541512772093 -3.1005556063395665 1.3742242815200416 2.050055466436567 -0.5199817887149144 1.1399758163352145
1.980656147 0.0734990749973154 0.0987541512772093 -3.1005556063395665 1.3742242815200416 2.050055466436567 -0.5199817887149144 1.1399758163352145
1.980656147 0.0734990749973154 0.0987541512772093 -3.1005556063395665 1.3742242815200416 2.050055466436567 -0.5199817887149144 1.1399758163352145
1.99076414108 0.0734990749973154 0.0987541512772093 -3.099972685908205 1.3742242815200416 2.050055466436567 -0.5199772232553552 1.1399803817947731
1.99076414108 0.0734990749973154 0.0987541512772093 -3.099972685908205 1.3742242815200416 2.050055466436567 -0.5199772232553552 1.1399803817947731
2.00066518784 0.0734990749973154 0.0987541512772093 -3.099972685908205 1.3742242815200416 2.050055466436567 -0.5199772232553552 1.1399803817947731
2.00066518784 0.0734990749973154 0.0987541512772093 -3.099972685908205 1.3742242815200416 2.050055466436567 -0.5199772232553552 1.1399803817947731
2.01073598862 0.0734990749973154 0.0987541512772093 -3.099972685908205 1.3742242815200416 2.050055466436567 -0.5199772232553552 1.1399803817947731
2.01073598862 0.0734990749973154 0.0987541512772093 -3.099972685908205 1.3742242815200416 2.050055466436567 -0.5199772232553552 1.1399803817947731
2.02066898346 0.0734990749973154 0.0987541512772093 -3.099573845613064 1.3742242815200416 2.050055466436567 -0.5199772232553552 1.1399803817947731
2.02066898346 0.0734990749973154 0.0987541512772093 -3.099573845613064 1.3742242815200416 2.050055466436567 -0.5199772232553552 1.1399803817947731
2.03074598312 0.073514415008667 0.0987541512772093 -3.0991136452725154 1.3742242815200416 2.050055466436567 -0.5199772232553552 1.1399803817947731
2.03074598312 0.073514415008667 0.0987541512772093 -3.0991136452725154 1.3742242815200416 2.050055466436567 -0.5199772232553552 1.1399803817947731
2.04093408585 0.073514415008667 0.0987541512772093 -3.0991136452725154 1.3742242815200416 2.050055466436567 -0.5199772232553552 1.1399803817947731
2.04093408585 0.073514415008667 0.0987541512772093 -3.0991136452725154 1.3742242815200416 2.050055466436567 -0.5199772232553552 1.1399803817947731
2.05077505112 0.073514415008667 0.0987541512772093 -3.0991136452725154 1.3742242815200416 2.050055466436567 -0.5199772232553552 1.1399803817947731
2.05077505112 0.073514415008667 0.0987541512772093 -3.0991136452725154 1.3742242815200416 2.050055466436567 -0.5199772232553552 1.1399803817947731
2.06073617935 0.0735604350427218 0.0987541512772093 -3.0986687849433188 1.3742242815200416 2.050055466436567 -0.5199772232553552 1.1399803817947731
2.06073617935 0.0735604350427218 0.0987541512772093 -3.0986687849433188 1.3742242815200416 2.050055466436567 -0.5199772232553552 1.1399803817947731
2.07074117661 0.0735911150654251 0.0987541512772093 -3.098239264625474 1.3742242815200416 2.050055466436567 -0.5199772232553552 1.1399803817947731
2.07074117661 0.0735911150654251 0.0987541512772093 -3.098239264625474 1.3742242815200416 2.050055466436567 -0.5199772232553552 1.1399803817947731
2.08064198494 0.0736524751108315 0.0987541512772093 -3.0976563441941125 1.3742242815200416 2.050055466436567 -0.5199772232553552 1.1399803817947731
2.08064198494 0.0736524751108315 0.0987541512772093 -3.0976563441941125 1.3742242815200416 2.050055466436567 -0.5199772232553552 1.1399803817947731
2.09074306488 0.0736524751108315 0.0987541512772093 -3.0976563441941125 1.3742242815200416 2.050055466436567 -0.5199772232553552 1.1399803817947731
2.09074306488 0.0736524751108315 0.0987541512772093 -3.0976563441941125 1.3742242815200416 2.050055466436567 -0.5199772232553552 1.1399803817947731
2.10066318512 0.0736524751108315 0.0987541512772093 -3.0976563441941125 1.3742242815200416 2.050055466436567 -0.5199772232553552 1.1399803817947731
2.10066318512 0.0736524751108315 0.0987541512772093 -3.0976563441941125 1.3742242815200416 2.050055466436567 -0.5199772232553552 1.1399803817947731
2.11073517799 0.0736831551335348 0.0987541512772093 -3.096858663603829 1.3742242815200416 2.050055466436567 -0.5199772232553552 1.1399803817947731
2.11073517799 0.0736831551335348 0.0987541512772093 -3.096858663603829 1.3742242815200416 2.050055466436567 -0.5199772232553552 1.1399803817947731
2.12067604065 0.0736831551335348 0.0987541512772093 -3.096858663603829 1.3742242815200416 2.050055466436567 -0.5199772232553552 1.1399803817947731
2.12067604065 0.0736831551335348 0.0987541512772093 -3.096858663603829 1.3742242815200416 2.050055466436567 -0.5199772232553552 1.1399803817947731
2.13066720963 0.0736831551335348 0.0987541512772093 -3.096858663603829 1.3742242815200416 2.050055466436567 -0.5199772232553552 1.1399803817947731
2.13066720963 0.0736831551335348 0.0987541512772093 -3.096858663603829 1.3742242815200416 2.050055466436567 -0.5199772232553552 1.1399803817947731
2.14070510864 0.0736831551335348 0.0987541512772093 -3.096858663603829 1.3742242815200416 2.050055466436567 -0.5199772232553552 1.1399803817947731
2.14070510864 0.0736831551335348 0.0987541512772093 -3.096858663603829 1.3742242815200416 2.050055466436567 -0.5199772232553552 1.1399803817947731
2.15071415901 0.0736831551335348 0.0987541512772093 -3.096858663603829 1.3742242815200416 2.050055466436567 -0.5199772232553552 1.1399803817947731
2.15071415901 0.0736831551335348 0.0987541512772093 -3.096858663603829 1.3742242815200416 2.050055466436567 -0.5199772232553552 1.1399803817947731
2.16065311432 0.0736831551335348 0.0987541512772093 -3.096858663603829 1.3742242815200416 2.050055466436567 -0.5199772232553552 1.1399803817947731
2.16065311432 0.0736831551335348 0.0987541512772093 -3.096858663603829 1.3742242815200416 2.050055466436567 -0.5199772232553552 1.1399803817947731
2.17071700096 0.0736831551335348 0.0987541512772093 -3.096858663603829 1.3742242815200416 2.050055466436567 -0.5199772232553552 1.1399803817947731
2.17071700096 0.0736831551335348 0.0987541512772093 -3.096858663603829 1.3742242815200416 2.050055466436567 -0.5199772232553552 1.1399803817947731
2.18071603775 0.0736831551335348 0.0987541512772093 -3.096858663603829 1.3742242815200416 2.050055466436567 -0.5199772232553552 1.1399803817947731
2.18071603775 0.0736831551335348 0.0987541512772093 -3.096858663603829 1.3742242815200416 2.050055466436567 -0.5199772232553552 1.1399803817947731
2.19084119797 0.0736984951448864 0.0987541512772093 -3.0947570820486585 1.3742242815200416 2.050055466436567 -0.5199772232553552 1.1399803817947731
2.19084119797 0.0736984951448864 0.0987541512772093 -3.0947570820486585 1.3742242815200416 2.050055466436567 -0.5199772232553552 1.1399803817947731
2.20063114166 0.073713835156238 0.0987541512772093 -3.091888499925908 1.3742242815200416 2.050055466436567 -0.5199772232553552 1.1399803817947731
2.20063114166 0.073713835156238 0.0987541512772093 -3.091888499925908 1.3742242815200416 2.050055466436567 -0.5199772232553552 1.1399803817947731
2.21063709259 0.073713835156238 0.0987541512772093 -3.091888499925908 1.3742242815200416 2.050055466436567 -0.5199772232553552 1.1399803817947731
2.21063709259 0.073713835156238 0.0987541512772093 -3.091888499925908 1.3742242815200416 2.050055466436567 -0.5199772232553552 1.1399803817947731
2.2206530571 0.073713835156238 0.0987541512772093 -3.091888499925908 1.3742242815200416 2.050055466436567 -0.5199772232553552 1.1399803817947731
2.2206530571 0.073713835156238 0.0987541512772093 -3.091888499925908 1.3742242815200416 2.050055466436567 -0.5199772232553552 1.1399803817947731
2.23076105118 0.073713835156238 0.0987541512772093 -3.091888499925908 1.3742242815200416 2.050055466436567 -0.5199772232553552 1.1399803817947731
2.23076105118 0.073713835156238 0.0987541512772093 -3.091888499925908 1.3742242815200416 2.050055466436567 -0.5199772232553552 1.1399803817947731
2.24063897133 0.073713835156238 0.0987541512772093 -3.091888499925908 1.3742242815200416 2.050055466436567 -0.5199772232553552 1.1399803817947731
2.24063897133 0.073713835156238 0.0987541512772093 -3.091888499925908 1.3742242815200416 2.050055466436567 -0.5199772232553552 1.1399803817947731
2.25079607964 0.073713835156238 0.0987541512772093 -3.091888499925908 1.3742242815200416 2.050055466436567 -0.5199772232553552 1.1399803817947731
2.25079607964 0.073713835156238 0.0987541512772093 -3.091888499925908 1.3742242815200416 2.050055466436567 -0.5199772232553552 1.1399803817947731
2.26064109802 0.073713835156238 0.0987541512772093 -3.091888499925908 1.3742242815200416 2.050055466436567 -0.5199772232553552 1.1399803817947731
2.26064109802 0.073713835156238 0.0987541512772093 -3.091888499925908 1.3742242815200416 2.050055466436567 -0.5199772232553552 1.1399803817947731
2.27072000504 0.073713835156238 0.0987541512772093 -3.091888499925908 1.3742242815200416 2.050055466436567 -0.5199772232553552 1.1399803817947731
2.27072000504 0.073713835156238 0.0987541512772093 -3.091888499925908 1.3742242815200416 2.050055466436567 -0.5199772232553552 1.1399803817947731
2.28065800667 0.073713835156238 0.0987541512772093 -3.091888499925908 1.3742242815200416 2.050055466436567 -0.5199772232553552 1.1399803817947731
2.28065800667 0.073713835156238 0.0987541512772093 -3.091888499925908 1.3742242815200416 2.050055466436567 -0.5199772232553552 1.1399803817947731
2.29074716568 0.073713835156238 0.0987541512772093 -3.091888499925908 1.3742242815200416 2.050055466436567 -0.5199772232553552 1.1399803817947731
2.29074716568 0.073713835156238 0.0987541512772093 -3.091888499925908 1.3742242815200416 2.050055466436567 -0.5199772232553552 1.1399803817947731
2.30064606667 0.073713835156238 0.0987541512772093 -3.091888499925908 1.3742242815200416 2.050055466436567 -0.5199772232553552 1.1399803817947731
2.30064606667 0.073713835156238 0.0987541512772093 -3.091888499925908 1.3742242815200416 2.050055466436567 -0.5199772232553552 1.1399803817947731
2.31074500084 0.073713835156238 0.0987541512772093 -3.091888499925908 1.3742242815200416 2.050055466436567 -0.5199772232553552 1.1399803817947731
2.31074500084 0.073713835156238 0.0987541512772093 -3.091888499925908 1.3742242815200416 2.050055466436567 -0.5199772232553552 1.1399803817947731
2.32065010071 0.073713835156238 0.0987541512772093 -3.091888499925908 1.3742242815200416 2.050055466436567 -0.5199772232553552 1.1399803817947731
2.32065010071 0.073713835156238 0.0987541512772093 -3.091888499925908 1.3742242815200416 2.050055466436567 -0.5199772232553552 1.1399803817947731
2.33070707321 0.073713835156238 0.0987541512772093 -3.091888499925908 1.3742242815200416 2.050055466436567 -0.5199772232553552 1.1399803817947731
2.33070707321 0.073713835156238 0.0987541512772093 -3.091888499925908 1.3742242815200416 2.050055466436567 -0.5199772232553552 1.1399803817947731
2.34066915512 0.073713835156238 0.0987541512772093 -3.091888499925908 1.3742242815200416 2.050055466436567 -0.5199772232553552 1.1399803817947731
2.34066915512 0.073713835156238 0.0987541512772093 -3.091888499925908 1.3742242815200416 2.050055466436567 -0.5199772232553552 1.1399803817947731
2.35073804855 0.073713835156238 0.0987541512772093 -3.086626876032306 1.3742242815200416 2.050055466436567 -0.5199772232553552 1.1399803817947731
2.35073804855 0.073713835156238 0.0987541512772093 -3.086626876032306 1.3742242815200416 2.050055466436567 -0.5199772232553552 1.1399803817947731
2.36064314842 0.073713835156238 0.0987541512772093 -3.086626876032306 1.3742242815200416 2.050055466436567 -0.5199772232553552 1.1399803817947731
2.36064314842 0.073713835156238 0.0987541512772093 -3.086626876032306 1.3742242815200416 2.050055466436567 -0.5199772232553552 1.1399803817947731
2.37075901031 0.073713835156238 0.0987541512772093 -3.086626876032306 1.3742242815200416 2.050055466436567 -0.5199772232553552 1.1399803817947731
2.37075901031 0.073713835156238 0.0987541512772093 -3.086626876032306 1.3742242815200416 2.050055466436567 -0.5199772232553552 1.1399803817947731
2.38064908981 0.073713835156238 0.0987541512772093 -3.086626876032306 1.3742242815200416 2.050055466436567 -0.5199772232553552 1.1399803817947731
2.38064908981 0.073713835156238 0.0987541512772093 -3.086626876032306 1.3742242815200416 2.050055466436567 -0.5199772232553552 1.1399803817947731
2.39073204994 0.073713835156238 0.0987541512772093 -3.086626876032306 1.3742242815200416 2.050055466436567 -0.5199772232553552 1.1399803817947731
2.39073204994 0.073713835156238 0.0987541512772093 -3.086626876032306 1.3742242815200416 2.050055466436567 -0.5199772232553552 1.1399803817947731
2.40065407753 0.073713835156238 0.0987541512772093 -3.086626876032306 1.3742242815200416 2.050055466436567 -0.5199772232553552 1.1399803817947731
2.40065407753 0.073713835156238 0.0987541512772093 -3.086626876032306 1.3742242815200416 2.050055466436567 -0.5199772232553552 1.1399803817947731
2.41089510918 0.073713835156238 0.0987541512772093 -3.086626876032306 1.3742242815200416 2.050055466436567 -0.5199772232553552 1.1399803817947731
2.41089510918 0.073713835156238 0.0987541512772093 -3.086626876032306 1.3742242815200416 2.050055466436567 -0.5199772232553552 1.1399803817947731
2.42102503777 0.073713835156238 0.0987541512772093 -3.086626876032306 1.3742242815200416 2.050055466436567 -0.5199772232553552 1.1399803817947731
2.42102503777 0.073713835156238 0.0987541512772093 -3.086626876032306 1.3742242815200416 2.050055466436567 -0.5199772232553552 1.1399803817947731
2.43110799789 0.073713835156238 0.0987541512772093 -3.086626876032306 1.3742242815200416 2.050055466436567 -0.5199772232553552 1.1399803817947731
2.43110799789 0.073713835156238 0.0987541512772093 -3.086626876032306 1.3742242815200416 2.050055466436567 -0.5199772232553552 1.1399803817947731
2.44112920761 0.073713835156238 0.0987541512772093 -3.086626876032306 1.3742242815200416 2.050055466436567 -0.5199772232553552 1.1399803817947731
2.44112920761 0.073713835156238 0.0987541512772093 -3.086626876032306 1.3742242815200416 2.050055466436567 -0.5199772232553552 1.1399803817947731
2.45116400719 0.073713835156238 0.0987541512772093 -3.086626876032306 1.3742242815200416 2.050055466436567 -0.5199772232553552 1.1399803817947731
2.45116400719 0.073713835156238 0.0987541512772093 -3.086626876032306 1.3742242815200416 2.050055466436567 -0.5199772232553552 1.1399803817947731
2.46104097366 0.073713835156238 0.0987541512772093 -3.086626876032306 1.3742242815200416 2.050055466436567 -0.5199772232553552 1.1399803817947731
2.46104097366 0.073713835156238 0.0987541512772093 -3.086626876032306 1.3742242815200416 2.050055466436567 -0.5199772232553552 1.1399803817947731
2.47112298012 0.073713835156238 0.0987541512772093 -3.086626876032306 1.3742242815200416 2.050055466436567 -0.5199772232553552 1.1399803817947731
2.47112298012 0.073713835156238 0.0987541512772093 -3.086626876032306 1.3742242815200416 2.050055466436567 -0.5199772232553552 1.1399803817947731
2.48107409477 0.073713835156238 0.0987541512772093 -3.086626876032306 1.3742242815200416 2.050055466436567 -0.5199772232553552 1.1399803817947731
2.48107409477 0.073713835156238 0.0987541512772093 -3.086626876032306 1.3742242815200416 2.050055466436567 -0.5199772232553552 1.1399803817947731
2.49120211601 0.073713835156238 0.0987541512772093 -3.06453725968599 1.3742242815200416 2.050055466436567 -0.5199772232553552 1.1399803817947731
2.49120211601 0.073713835156238 0.0987541512772093 -3.06453725968599 1.3742242815200416 2.050055466436567 -0.5199772232553552 1.1399803817947731
2.50098013878 0.073713835156238 0.0987541512772093 -3.06453725968599 1.3742242815200416 2.050055466436567 -0.5199772232553552 1.1399803817947731
2.50098013878 0.073713835156238 0.0987541512772093 -3.06453725968599 1.3742242815200416 2.050055466436567 -0.5199772232553552 1.1399803817947731
2.51117920876 0.073713835156238 0.0987541512772093 -3.06453725968599 1.3742242815200416 2.050055466436567 -0.5199772232553552 1.1399803817947731
2.51117920876 0.073713835156238 0.0987541512772093 -3.06453725968599 1.3742242815200416 2.050055466436567 -0.5199772232553552 1.1399803817947731
2.52105808258 0.073713835156238 0.0987541512772093 -3.06453725968599 1.3742242815200416 2.050055466436567 -0.5199772232553552 1.1399803817947731
2.52105808258 0.073713835156238 0.0987541512772093 -3.06453725968599 1.3742242815200416 2.050055466436567 -0.5199772232553552 1.1399803817947731
2.53112602234 0.073713835156238 0.0987541512772093 -3.06453725968599 1.3742242815200416 2.050055466436567 -0.5199772232553552 1.1399803817947731
2.53112602234 0.073713835156238 0.0987541512772093 -3.06453725968599 1.3742242815200416 2.050055466436567 -0.5199772232553552 1.1399803817947731
2.5410721302 0.073713835156238 0.0987541512772093 -3.06453725968599 1.3742242815200416 2.050055466436567 -0.5199772232553552 1.1399803817947731
2.5410721302 0.073713835156238 0.0987541512772093 -3.06453725968599 1.3742242815200416 2.050055466436567 -0.5199772232553552 1.1399803817947731
2.5511431694 0.073713835156238 0.0987541512772093 -3.06453725968599 1.3742242815200416 2.050055466436567 -0.5199772232553552 1.1399803817947731
2.5511431694 0.073713835156238 0.0987541512772093 -3.06453725968599 1.3742242815200416 2.050055466436567 -0.5199772232553552 1.1399803817947731
2.56094098091 0.073713835156238 0.0987541512772093 -3.06453725968599 1.3742242815200416 2.050055466436567 -0.5199772232553552 1.1399803817947731
2.56094098091 0.073713835156238 0.0987541512772093 -3.06453725968599 1.3742242815200416 2.050055466436567 -0.5199772232553552 1.1399803817947731
2.57114219666 0.073713835156238 0.0987541512772093 -3.06453725968599 1.3742242815200416 2.050055466436567 -0.5199772232553552 1.1399803817947731
2.57114219666 0.073713835156238 0.0987541512772093 -3.06453725968599 1.3742242815200416 2.050055466436567 -0.5199772232553552 1.1399803817947731
2.58106899261 0.073713835156238 0.0987541512772093 -3.06453725968599 1.3742242815200416 2.050055466436567 -0.5199772232553552 1.1399803817947731
2.58106899261 0.073713835156238 0.0987541512772093 -3.06453725968599 1.3742242815200416 2.050055466436567 -0.5199772232553552 1.1399803817947731
2.59103703499 0.073713835156238 0.0987541512772093 -3.06453725968599 1.3742242815200416 2.050055466436567 -0.5199772232553552 1.1399803817947731
2.59103703499 0.073713835156238 0.0987541512772093 -3.06453725968599 1.3742242815200416 2.050055466436567 -0.5199772232553552 1.1399803817947731
2.6014111042 0.073713835156238 0.0987541512772093 -3.05280215100201 1.3742242815200416 2.050055466436567 -0.5199772232553552 1.1399803817947731
2.6014111042 0.073713835156238 0.0987541512772093 -3.05280215100201 1.3742242815200416 2.050055466436567 -0.5199772232553552 1.1399803817947731
2.61096215248 0.073713835156238 0.0987541512772093 -3.05280215100201 1.3742242815200416 2.050055466436567 -0.5199772232553552 1.1399803817947731
2.61096215248 0.073713835156238 0.0987541512772093 -3.05280215100201 1.3742242815200416 2.050055466436567 -0.5199772232553552 1.1399803817947731
2.62106919289 0.073713835156238 0.0987541512772093 -3.05280215100201 1.3742242815200416 2.050055466436567 -0.5199772232553552 1.1399803817947731
2.62106919289 0.073713835156238 0.0987541512772093 -3.05280215100201 1.3742242815200416 2.050055466436567 -0.5199772232553552 1.1399803817947731
2.6311480999 0.073713835156238 0.0987541512772093 -3.05280215100201 1.3742242815200416 2.050055466436567 -0.5199772232553552 1.1399803817947731
2.6311480999 0.073713835156238 0.0987541512772093 -3.05280215100201 1.3742242815200416 2.050055466436567 -0.5199772232553552 1.1399803817947731
2.64104819298 0.073713835156238 0.0987541512772093 -3.05280215100201 1.3742242815200416 2.050055466436567 -0.5199772232553552 1.1399803817947731
2.64104819298 0.073713835156238 0.0987541512772093 -3.05280215100201 1.3742242815200416 2.050055466436567 -0.5199772232553552 1.1399803817947731
2.65117812157 0.073713835156238 0.0987541512772093 -3.05280215100201 1.3742242815200416 2.050055466436567 -0.5199772232553552 1.1399803817947731
2.65117812157 0.073713835156238 0.0987541512772093 -3.05280215100201 1.3742242815200416 2.050055466436567 -0.5199772232553552 1.1399803817947731
2.66095113754 0.073713835156238 0.0987541512772093 -3.05280215100201 1.3742242815200416 2.050055466436567 -0.5199772232553552 1.1399803817947731
2.66095113754 0.073713835156238 0.0987541512772093 -3.05280215100201 1.3742242815200416 2.050055466436567 -0.5199772232553552 1.1399803817947731
2.67112207413 0.073713835156238 0.0987541512772093 -3.05280215100201 1.3742242815200416 2.050055466436567 -0.5199772232553552 1.1399803817947731
2.67112207413 0.073713835156238 0.0987541512772093 -3.05280215100201 1.3742242815200416 2.050055466436567 -0.5199772232553552 1.1399803817947731
2.68092608452 0.073713835156238 0.0987541512772093 -3.05280215100201 1.3742242815200416 2.050055466436567 -0.5199772232553552 1.1399803817947731
2.68092608452 0.073713835156238 0.0987541512772093 -3.05280215100201 1.3742242815200416 2.050055466436567 -0.5199772232553552 1.1399803817947731
2.69113111496 0.073713835156238 0.0987541512772093 -3.05280215100201 1.3742242815200416 2.050055466436567 -0.5199772232553552 1.1399803817947731
2.69113111496 0.073713835156238 0.0987541512772093 -3.05280215100201 1.3742242815200416 2.050055466436567 -0.5199772232553552 1.1399803817947731
2.70108604431 0.073713835156238 0.0987541512772093 -3.05280215100201 1.3742242815200416 2.050055466436567 -0.5199772232553552 1.1399803817947731
2.70108604431 0.073713835156238 0.0987541512772093 -3.05280215100201 1.3742242815200416 2.050055466436567 -0.5199772232553552 1.1399803817947731
2.71116900444 0.073713835156238 0.0987541512772093 -3.05280215100201 1.3742242815200416 2.050055466436567 -0.5199772232553552 1.1399803817947731
2.71116900444 0.073713835156238 0.0987541512772093 -3.05280215100201 1.3742242815200416 2.050055466436567 -0.5199772232553552 1.1399803817947731
2.720952034 0.073713835156238 0.0987541512772093 -3.05280215100201 1.3742242815200416 2.050055466436567 -0.5199772232553552 1.1399803817947731
2.720952034 0.073713835156238 0.0987541512772093 -3.05280215100201 1.3742242815200416 2.050055466436567 -0.5199772232553552 1.1399803817947731
2.73112511635 0.073713835156238 0.0987541512772093 -3.05280215100201 1.3742242815200416 2.050055466436567 -0.5199772232553552 1.1399803817947731
2.73112511635 0.073713835156238 0.0987541512772093 -3.05280215100201 1.3742242815200416 2.050055466436567 -0.5199772232553552 1.1399803817947731
2.74117016792 0.073713835156238 0.0987541512772093 -3.05280215100201 1.3742242815200416 2.050055466436567 -0.5199772232553552 1.1399803817947731
2.74117016792 0.073713835156238 0.0987541512772093 -3.05280215100201 1.3742242815200416 2.050055466436567 -0.5199772232553552 1.1399803817947731
2.7509791851 0.073713835156238 0.0987541512772093 -3.05280215100201 1.3742242815200416 2.050055466436567 -0.5199772232553552 1.1399803817947731
2.7509791851 0.073713835156238 0.0987541512772093 -3.05280215100201 1.3742242815200416 2.050055466436567 -0.5199772232553552 1.1399803817947731
2.76103401184 0.073713835156238 0.0987541512772093 -3.05280215100201 1.3742242815200416 2.050055466436567 -0.5199772232553552 1.1399803817947731
2.76103401184 0.073713835156238 0.0987541512772093 -3.05280215100201 1.3742242815200416 2.050055466436567 -0.5199772232553552 1.1399803817947731
2.77098202705 0.073713835156238 0.0987541512772093 -3.05280215100201 1.3742242815200416 2.050055466436567 -0.5199772232553552 1.1399803817947731
2.77098202705 0.073713835156238 0.0987541512772093 -3.05280215100201 1.3742242815200416 2.050055466436567 -0.5199772232553552 1.1399803817947731
2.78101301193 0.073713835156238 0.0987541512772093 -3.05280215100201 1.3742242815200416 2.050055466436567 -0.5199772232553552 1.1399803817947731
2.78101301193 0.073713835156238 0.0987541512772093 -3.05280215100201 1.3742242815200416 2.050055466436567 -0.5199772232553552 1.1399803817947731
2.79109597206 0.073713835156238 0.0987541512772093 -3.05280215100201 1.3742242815200416 2.050055466436567 -0.5199772232553552 1.1399803817947731
2.79109597206 0.073713835156238 0.0987541512772093 -3.05280215100201 1.3742242815200416 2.050055466436567 -0.5199772232553552 1.1399803817947731
2.80100512505 0.073713835156238 0.0987541512772093 -3.05280215100201 1.3742242815200416 2.050055466436567 -0.5199772232553552 1.1399803817947731
2.80100512505 0.073713835156238 0.0987541512772093 -3.05280215100201 1.3742242815200416 2.050055466436567 -0.5199772232553552 1.1399803817947731
2.81110405922 0.073713835156238 0.0987541512772093 -3.05280215100201 1.3742242815200416 2.050055466436567 -0.5199772232553552 1.1399803817947731
2.81110405922 0.073713835156238 0.0987541512772093 -3.05280215100201 1.3742242815200416 2.050055466436567 -0.5199772232553552 1.1399803817947731
2.8210580349 0.073713835156238 0.0987541512772093 -3.05280215100201 1.3742242815200416 2.050055466436567 -0.5199772232553552 1.1399803817947731
2.8210580349 0.073713835156238 0.0987541512772093 -3.05280215100201 1.3742242815200416 2.050055466436567 -0.5199772232553552 1.1399803817947731
2.83096408844 0.073713835156238 0.0987541512772093 -3.05280215100201 1.3742242815200416 2.050055466436567 -0.5199772232553552 1.1399803817947731
2.83096408844 0.073713835156238 0.0987541512772093 -3.05280215100201 1.3742242815200416 2.050055466436567 -0.5199772232553552 1.1399803817947731
2.84100699425 0.073713835156238 0.0987541512772093 -3.05280215100201 1.3742242815200416 2.050055466436567 -0.5199772232553552 1.1399803817947731
2.84100699425 0.073713835156238 0.0987541512772093 -3.05280215100201 1.3742242815200416 2.050055466436567 -0.5199772232553552 1.1399803817947731
2.85075998306 0.073713835156238 0.0987541512772093 -3.05280215100201 1.3742242815200416 2.050055466436567 -0.5199772232553552 1.1399803817947731
2.85075998306 0.073713835156238 0.0987541512772093 -3.05280215100201 1.3742242815200416 2.050055466436567 -0.5199772232553552 1.1399803817947731
2.86065602303 0.073713835156238 0.0987541512772093 -3.05280215100201 1.3742242815200416 2.050055466436567 -0.5199772232553552 1.1399803817947731
2.86065602303 0.073713835156238 0.0987541512772093 -3.05280215100201 1.3742242815200416 2.050055466436567 -0.5199772232553552 1.1399803817947731
2.87084817886 0.073713835156238 0.0987541512772093 -3.018287125460891 1.3742242815200416 2.050055466436567 -0.5199772232553552 1.1399803817947731
2.87084817886 0.073713835156238 0.0987541512772093 -3.018287125460891 1.3742242815200416 2.050055466436567 -0.5199772232553552 1.1399803817947731
2.88070106506 0.073713835156238 0.0987541512772093 -3.018287125460891 1.3742242815200416 2.050055466436567 -0.5199772232553552 1.1399803817947731
2.88070106506 0.073713835156238 0.0987541512772093 -3.018287125460891 1.3742242815200416 2.050055466436567 -0.5199772232553552 1.1399803817947731
2.89079618454 0.073713835156238 0.0987541512772093 -3.018287125460891 1.3742242815200416 2.050055466436567 -0.5199772232553552 1.1399803817947731
2.89079618454 0.073713835156238 0.0987541512772093 -3.018287125460891 1.3742242815200416 2.050055466436567 -0.5199772232553552 1.1399803817947731
2.90064311028 0.073713835156238 0.0987541512772093 -3.018287125460891 1.3742242815200416 2.050055466436567 -0.5199772232553552 1.1399803817947731
2.90064311028 0.073713835156238 0.0987541512772093 -3.018287125460891 1.3742242815200416 2.050055466436567 -0.5199772232553552 1.1399803817947731
2.91072201729 0.073713835156238 0.0987541512772093 -3.018287125460891 1.3742242815200416 2.050055466436567 -0.5199772232553552 1.1399803817947731
2.91072201729 0.073713835156238 0.0987541512772093 -3.018287125460891 1.3742242815200416 2.050055466436567 -0.5199772232553552 1.1399803817947731
2.92068099976 0.073713835156238 0.0987541512772093 -3.018287125460891 1.3742242815200416 2.050055466436567 -0.5199772232553552 1.1399803817947731
2.92068099976 0.073713835156238 0.0987541512772093 -3.018287125460891 1.3742242815200416 2.050055466436567 -0.5199772232553552 1.1399803817947731
2.93075919151 0.073713835156238 0.0987541512772093 -3.018287125460891 1.3742242815200416 2.050055466436567 -0.5199772232553552 1.1399803817947731
2.93075919151 0.073713835156238 0.0987541512772093 -3.018287125460891 1.3742242815200416 2.050055466436567 -0.5199772232553552 1.1399803817947731
2.94063997269 0.073713835156238 0.0987541512772093 -3.018287125460891 1.3742242815200416 2.050055466436567 -0.5199772232553552 1.1399803817947731
2.94063997269 0.073713835156238 0.0987541512772093 -3.018287125460891 1.3742242815200416 2.050055466436567 -0.5199772232553552 1.1399803817947731
2.95068216324 0.073713835156238 0.0987541512772093 -3.018287125460891 1.3742242815200416 2.050055466436567 -0.5199772232553552 1.1399803817947731
2.95068216324 0.073713835156238 0.0987541512772093 -3.018287125460891 1.3742242815200416 2.050055466436567 -0.5199772232553552 1.1399803817947731
2.96064710617 0.073713835156238 0.0987541512772093 -3.018287125460891 1.3742242815200416 2.050055466436567 -0.5199772232553552 1.1399803817947731
2.96064710617 0.073713835156238 0.0987541512772093 -3.018287125460891 1.3742242815200416 2.050055466436567 -0.5199772232553552 1.1399803817947731
2.97068119049 0.073713835156238 0.0987541512772093 -3.018287125460891 1.3742242815200416 2.050055466436567 -0.5199772232553552 1.1399803817947731
2.97068119049 0.073713835156238 0.0987541512772093 -3.018287125460891 1.3742242815200416 2.050055466436567 -0.5199772232553552 1.1399803817947731
2.98064112663 0.073713835156238 0.0987541512772093 -3.0050333556531013 1.3742242815200416 2.050055466436567 -0.5199772232553552 1.1399803817947731
2.98064112663 0.073713835156238 0.0987541512772093 -3.0050333556531013 1.3742242815200416 2.050055466436567 -0.5199772232553552 1.1399803817947731
2.99076509476 0.073713835156238 0.0987541512772093 -3.0050333556531013 1.3742242815200416 2.050055466436567 -0.5199772232553552 1.1399803817947731
2.99076509476 0.073713835156238 0.0987541512772093 -3.0050333556531013 1.3742242815200416 2.050055466436567 -0.5199772232553552 1.1399803817947731
3.00064206123 0.073713835156238 0.0987541512772093 -3.0050333556531013 1.3742242815200416 2.050055466436567 -0.5199772232553552 1.1399803817947731
3.00064206123 0.073713835156238 0.0987541512772093 -3.0050333556531013 1.3742242815200416 2.050055466436567 -0.5199772232553552 1.1399803817947731
3.01063704491 0.073713835156238 0.0987541512772093 -2.9978849103632514 1.3742242815200416 2.050055466436567 -0.5199772232553552 1.1399803817947731
3.01063704491 0.073713835156238 0.0987541512772093 -2.9978849103632514 1.3742242815200416 2.050055466436567 -0.5199772232553552 1.1399803817947731
3.0206720829 0.0737751952016445 0.0987541512772093 -2.9609461630285785 1.3742242815200416 2.050055466436567 -0.5199772232553552 1.1399803817947731
3.0206720829 0.0737751952016445 0.0987541512772093 -2.9609461630285785 1.3742242815200416 2.050055466436567 -0.5199772232553552 1.1399803817947731
3.03073811531 0.0737751952016445 0.0987541512772093 -2.9609461630285785 1.3742242815200416 2.050055466436567 -0.5199772232553552 1.1399803817947731
3.03073811531 0.0737751952016445 0.0987541512772093 -2.9609461630285785 1.3742242815200416 2.050055466436567 -0.5199772232553552 1.1399803817947731
3.04064011574 0.0737751952016445 0.0987541512772093 -2.9609461630285785 1.3742242815200416 2.050055466436567 -0.5199772232553552 1.1399803817947731
3.04064011574 0.0737751952016445 0.0987541512772093 -2.9609461630285785 1.3742242815200416 2.050055466436567 -0.5199772232553552 1.1399803817947731
3.05070900917 0.0737751952016445 0.0987541512772093 -2.9609461630285785 1.3742242815200416 2.050055466436567 -0.5199772232553552 1.1399803817947731
3.05070900917 0.0737751952016445 0.0987541512772093 -2.9609461630285785 1.3742242815200416 2.050055466436567 -0.5199772232553552 1.1399803817947731
3.06063699722 0.0737751952016445 0.0987541512772093 -2.9609461630285785 1.3742242815200416 2.050055466436567 -0.5199772232553552 1.1399803817947731
3.06063699722 0.0737751952016445 0.0987541512772093 -2.9609461630285785 1.3742242815200416 2.050055466436567 -0.5199772232553552 1.1399803817947731
3.07066607475 0.0737751952016445 0.0987541512772093 -2.9609461630285785 1.3742242815200416 2.050055466436567 -0.5199772232553552 1.1399803817947731
3.07066607475 0.0737751952016445 0.0987541512772093 -2.9609461630285785 1.3742242815200416 2.050055466436567 -0.5199772232553552 1.1399803817947731
3.08062410355 0.0737751952016445 0.0987541512772093 -2.953552277557104 1.3742242815200416 2.050055466436567 -0.5199772232553552 1.1399803817947731
3.08062410355 0.0737751952016445 0.0987541512772093 -2.953552277557104 1.3742242815200416 2.050055466436567 -0.5199772232553552 1.1399803817947731
3.09068107605 0.0737751952016445 0.0987541512772093 -2.953552277557104 1.3742242815200416 2.050055466436567 -0.5199772232553552 1.1399803817947731
3.09068107605 0.0737751952016445 0.0987541512772093 -2.953552277557104 1.3742242815200416 2.050055466436567 -0.5199772232553552 1.1399803817947731
3.10081005096 0.0742353955421927 0.0987541512772093 -2.9227955547971285 1.3742242815200416 2.050055466436567 -0.5199772232553552 1.1399803817947731
3.10081005096 0.0742353955421927 0.0987541512772093 -2.9227955547971285 1.3742242815200416 2.050055466436567 -0.5199772232553552 1.1399803817947731
3.11073207855 0.0756926966205954 0.0987541512772093 -2.871743997018976 1.3742242815200416 2.050046335517449 -0.5199817887149144 1.1399758163352145
3.11073207855 0.0756926966205954 0.0987541512772093 -2.871743997018976 1.3742242815200416 2.050046335517449 -0.5199817887149144 1.1399758163352145
3.12062215805 0.0756926966205954 0.0987541512772093 -2.871743997018976 1.3742242815200416 2.050046335517449 -0.5199817887149144 1.1399758163352145
3.12062215805 0.0756926966205954 0.0987541512772093 -2.871743997018976 1.3742242815200416 2.050046335517449 -0.5199817887149144 1.1399758163352145
3.13075017929 0.0756926966205954 0.0987541512772093 -2.871743997018976 1.3742242815200416 2.050046335517449 -0.5199817887149144 1.1399758163352145
3.13075017929 0.0756926966205954 0.0987541512772093 -2.871743997018976 1.3742242815200416 2.050046335517449 -0.5199817887149144 1.1399758163352145
3.14084911346 0.0756926966205954 0.0987541512772093 -2.871743997018976 1.3742242815200416 2.050046335517449 -0.5199817887149144 1.1399758163352145
3.14084911346 0.0756926966205954 0.0987541512772093 -2.871743997018976 1.3742242815200416 2.050046335517449 -0.5199817887149144 1.1399758163352145
3.15108108521 0.0756926966205954 0.0987541512772093 -2.871743997018976 1.3742242815200416 2.050046335517449 -0.5199817887149144 1.1399758163352145
3.15108108521 0.0756926966205954 0.0987541512772093 -2.871743997018976 1.3742242815200416 2.050046335517449 -0.5199817887149144 1.1399758163352145
3.16096401215 0.0756926966205954 0.0987541512772093 -2.871743997018976 1.3742242815200416 2.050046335517449 -0.5199817887149144 1.1399758163352145
3.16096401215 0.0756926966205954 0.0987541512772093 -2.871743997018976 1.3742242815200416 2.050046335517449 -0.5199817887149144 1.1399758163352145
3.17111802101 0.0756926966205954 0.0987541512772093 -2.871743997018976 1.3742242815200416 2.050046335517449 -0.5199817887149144 1.1399758163352145
3.17111802101 0.0756926966205954 0.0987541512772093 -2.871743997018976 1.3742242815200416 2.050046335517449 -0.5199817887149144 1.1399758163352145
3.18104600906 0.076260277040605 0.0987541512772093 -2.8628621304463944 1.3742242815200416 2.050055466436567 -0.5199772232553552 1.1399803817947731
3.18104600906 0.076260277040605 0.0987541512772093 -2.8628621304463944 1.3742242815200416 2.050055466436567 -0.5199772232553552 1.1399803817947731
3.19093108177 0.076260277040605 0.0987541512772093 -2.8628621304463944 1.3742242815200416 2.050055466436567 -0.5199772232553552 1.1399803817947731
3.19093108177 0.076260277040605 0.0987541512772093 -2.8628621304463944 1.3742242815200416 2.050055466436567 -0.5199772232553552 1.1399803817947731
3.20108509064 0.076260277040605 0.0987541512772093 -2.8628621304463944 1.3742242815200416 2.050055466436567 -0.5199772232553552 1.1399803817947731
3.20108509064 0.076260277040605 0.0987541512772093 -2.8628621304463944 1.3742242815200416 2.050055466436567 -0.5199772232553552 1.1399803817947731
3.21107816696 0.076260277040605 0.0987541512772093 -2.8628621304463944 1.3742242815200416 2.050055466436567 -0.5199772232553552 1.1399803817947731
3.21107816696 0.076260277040605 0.0987541512772093 -2.8628621304463944 1.3742242815200416 2.050055466436567 -0.5199772232553552 1.1399803817947731
3.22105813026 0.0776868980963045 0.0987541512772093 -2.8447915970742 1.3742242815200416 2.050046335517449 -0.5199772232553552 1.1399803817947731
3.22105813026 0.0776868980963045 0.0987541512772093 -2.8447915970742 1.3742242815200416 2.050046335517449 -0.5199772232553552 1.1399803817947731
3.23127102852 0.0776868980963045 0.0987541512772093 -2.8447915970742 1.3742242815200416 2.050046335517449 -0.5199772232553552 1.1399803817947731
3.23127102852 0.0776868980963045 0.0987541512772093 -2.8447915970742 1.3742242815200416 2.050046335517449 -0.5199772232553552 1.1399803817947731
3.24097800255 0.0776868980963045 0.0987541512772093 -2.8447915970742 1.3742242815200416 2.050046335517449 -0.5199772232553552 1.1399803817947731
3.24097800255 0.0776868980963045 0.0987541512772093 -2.8447915970742 1.3742242815200416 2.050046335517449 -0.5199772232553552 1.1399803817947731
3.25093317032 0.0776868980963045 0.0987541512772093 -2.8447915970742 1.3742242815200416 2.050046335517449 -0.5199772232553552 1.1399803817947731
3.25093317032 0.0776868980963045 0.0987541512772093 -2.8447915970742 1.3742242815200416 2.050046335517449 -0.5199772232553552 1.1399803817947731
3.26107120514 0.078960119038488 0.0987541512772093 -2.826629023633896 1.3742242815200416 2.050055466436567 -0.5199817887149144 1.1399758163352145
3.26107120514 0.078960119038488 0.0987541512772093 -2.826629023633896 1.3742242815200416 2.050055466436567 -0.5199817887149144 1.1399758163352145
3.2710211277 0.078960119038488 0.0987541512772093 -2.826629023633896 1.3742242815200416 2.050055466436567 -0.5199817887149144 1.1399758163352145
3.2710211277 0.078960119038488 0.0987541512772093 -2.826629023633896 1.3742242815200416 2.050055466436567 -0.5199817887149144 1.1399758163352145
3.28103017807 0.078960119038488 0.0987541512772093 -2.826629023633896 1.3742242815200416 2.050055466436567 -0.5199817887149144 1.1399758163352145
3.28103017807 0.078960119038488 0.0987541512772093 -2.826629023633896 1.3742242815200416 2.050055466436567 -0.5199817887149144 1.1399758163352145
3.29113507271 0.078960119038488 0.0987541512772093 -2.826629023633896 1.3742242815200416 2.050055466436567 -0.5199817887149144 1.1399758163352145
3.29113507271 0.078960119038488 0.0987541512772093 -2.826629023633896 1.3742242815200416 2.050055466436567 -0.5199817887149144 1.1399758163352145
3.30101418495 0.078960119038488 0.0987541512772093 -2.826629023633896 1.3742242815200416 2.050055466436567 -0.5199817887149144 1.1399758163352145
3.30101418495 0.078960119038488 0.0987541512772093 -2.826629023633896 1.3742242815200416 2.050055466436567 -0.5199817887149144 1.1399758163352145
3.31113100052 0.078960119038488 0.0987541512772093 -2.826629023633896 1.3742242815200416 2.050055466436567 -0.5199817887149144 1.1399758163352145
3.31113100052 0.078960119038488 0.0987541512772093 -2.826629023633896 1.3742242815200416 2.050055466436567 -0.5199817887149144 1.1399758163352145
3.32104802132 0.078960119038488 0.0987541512772093 -2.826629023633896 1.3742242815200416 2.050055466436567 -0.5199817887149144 1.1399758163352145
3.32104802132 0.078960119038488 0.0987541512772093 -2.826629023633896 1.3742242815200416 2.050055466436567 -0.5199817887149144 1.1399758163352145
3.33093714714 0.078960119038488 0.0987541512772093 -2.826629023633896 1.3742242815200416 2.050055466436567 -0.5199817887149144 1.1399758163352145
3.33093714714 0.078960119038488 0.0987541512772093 -2.826629023633896 1.3742242815200416 2.050055466436567 -0.5199817887149144 1.1399758163352145
3.34149599075 0.078960119038488 0.0987541512772093 -2.826629023633896 1.3742242815200416 2.050055466436567 -0.5199817887149144 1.1399758163352145
3.34149599075 0.078960119038488 0.0987541512772093 -2.826629023633896 1.3742242815200416 2.050055466436567 -0.5199817887149144 1.1399758163352145
3.35093808174 0.078960119038488 0.0987541512772093 -2.826629023633896 1.3742242815200416 2.050055466436567 -0.5199817887149144 1.1399758163352145
3.35093808174 0.078960119038488 0.0987541512772093 -2.826629023633896 1.3742242815200416 2.050055466436567 -0.5199817887149144 1.1399758163352145
3.36088109016 0.078960119038488 0.0987541512772093 -2.826629023633896 1.3742242815200416 2.050055466436567 -0.5199817887149144 1.1399758163352145
3.36088109016 0.078960119038488 0.0987541512772093 -2.826629023633896 1.3742242815200416 2.050055466436567 -0.5199817887149144 1.1399758163352145
3.37108707428 0.0807855803893295 0.0987541512772093 -2.8076994496260106 1.3742242815200416 2.050055466436567 -0.5199817887149144 1.1399758163352145
3.37108707428 0.0807855803893295 0.0987541512772093 -2.8076994496260106 1.3742242815200416 2.050055466436567 -0.5199817887149144 1.1399758163352145
3.38102817535 0.0807855803893295 0.0987541512772093 -2.8076994496260106 1.3742242815200416 2.050055466436567 -0.5199817887149144 1.1399758163352145
3.38102817535 0.0807855803893295 0.0987541512772093 -2.8076994496260106 1.3742242815200416 2.050055466436567 -0.5199817887149144 1.1399758163352145
3.39114618301 0.0807855803893295 0.0987541512772093 -2.8076994496260106 1.3742242815200416 2.050055466436567 -0.5199817887149144 1.1399758163352145
3.39114618301 0.0807855803893295 0.0987541512772093 -2.8076994496260106 1.3742242815200416 2.050055466436567 -0.5199817887149144 1.1399758163352145
3.40073013306 0.0846359232385831 0.0987541512772093 -2.7563564316321774 1.3742242815200416 2.050055466436567 -0.5199772232553552 1.1399803817947731
3.40073013306 0.0846359232385831 0.0987541512772093 -2.7563564316321774 1.3742242815200416 2.050055466436567 -0.5199772232553552 1.1399803817947731
3.41073203087 0.0846359232385831 0.0987541512772093 -2.7563564316321774 1.3742242815200416 2.050055466436567 -0.5199772232553552 1.1399803817947731
3.41073203087 0.0846359232385831 0.0987541512772093 -2.7563564316321774 1.3742242815200416 2.050055466436567 -0.5199772232553552 1.1399803817947731
3.42109107971 0.0846359232385831 0.0987541512772093 -2.7563564316321774 1.3742242815200416 2.050055466436567 -0.5199772232553552 1.1399803817947731
3.42109107971 0.0846359232385831 0.0987541512772093 -2.7563564316321774 1.3742242815200416 2.050055466436567 -0.5199772232553552 1.1399803817947731
3.43111300468 0.0852341836812959 0.0987541512772093 -2.7455110436065904 1.3742242815200416 2.050055466436567 -0.5199772232553552 1.1399803817947731
3.43111300468 0.0852341836812959 0.0987541512772093 -2.7455110436065904 1.3742242815200416 2.050055466436567 -0.5199772232553552 1.1399803817947731
3.44105601311 0.0852341836812959 0.0987541512772093 -2.7455110436065904 1.3742242815200416 2.050055466436567 -0.5199772232553552 1.1399803817947731
3.44105601311 0.0852341836812959 0.0987541512772093 -2.7455110436065904 1.3742242815200416 2.050055466436567 -0.5199772232553552 1.1399803817947731
3.4513001442 0.0852341836812959 0.0987541512772093 -2.7455110436065904 1.3742242815200416 2.050055466436567 -0.5199772232553552 1.1399803817947731
3.4513001442 0.0852341836812959 0.0987541512772093 -2.7455110436065904 1.3742242815200416 2.050055466436567 -0.5199772232553552 1.1399803817947731
3.46097517014 0.0852341836812959 0.0987541512772093 -2.7455110436065904 1.3742242815200416 2.050055466436567 -0.5199772232553552 1.1399803817947731
3.46097517014 0.0852341836812959 0.0987541512772093 -2.7455110436065904 1.3742242815200416 2.050055466436567 -0.5199772232553552 1.1399803817947731
3.47104120255 0.0852341836812959 0.0987541512772093 -2.7455110436065904 1.3742242815200416 2.050055466436567 -0.5199772232553552 1.1399803817947731
3.47104120255 0.0852341836812959 0.0987541512772093 -2.7455110436065904 1.3742242815200416 2.050055466436567 -0.5199772232553552 1.1399803817947731
3.4810321331 0.0852341836812959 0.0987541512772093 -2.7455110436065904 1.3742242815200416 2.050055466436567 -0.5199772232553552 1.1399803817947731
3.4810321331 0.0852341836812959 0.0987541512772093 -2.7455110436065904 1.3742242815200416 2.050055466436567 -0.5199772232553552 1.1399803817947731
3.49098515511 0.0852341836812959 0.0987541512772093 -2.7455110436065904 1.3742242815200416 2.050055466436567 -0.5199772232553552 1.1399803817947731
3.49098515511 0.0852341836812959 0.0987541512772093 -2.7455110436065904 1.3742242815200416 2.050055466436567 -0.5199772232553552 1.1399803817947731
3.50099015236 0.0852341836812959 0.0987541512772093 -2.7455110436065904 1.3742242815200416 2.050055466436567 -0.5199772232553552 1.1399803817947731
3.50099015236 0.0852341836812959 0.0987541512772093 -2.7455110436065904 1.3742242815200416 2.050055466436567 -0.5199772232553552 1.1399803817947731
3.51106214523 0.0852341836812959 0.0987541512772093 -2.7455110436065904 1.3742242815200416 2.050055466436567 -0.5199772232553552 1.1399803817947731
3.51106214523 0.0852341836812959 0.0987541512772093 -2.7455110436065904 1.3742242815200416 2.050055466436567 -0.5199772232553552 1.1399803817947731
3.52100300789 0.0852341836812959 0.0987541512772093 -2.7455110436065904 1.3742242815200416 2.050055466436567 -0.5199772232553552 1.1399803817947731
3.52100300789 0.0852341836812959 0.0987541512772093 -2.7455110436065904 1.3742242815200416 2.050055466436567 -0.5199772232553552 1.1399803817947731
3.53116607666 0.0852341836812959 0.0987541512772093 -2.7455110436065904 1.3742242815200416 2.050055466436567 -0.5199772232553552 1.1399803817947731
3.53116607666 0.0852341836812959 0.0987541512772093 -2.7455110436065904 1.3742242815200416 2.050055466436567 -0.5199772232553552 1.1399803817947731
3.54108309746 0.0852341836812959 0.0987541512772093 -2.7455110436065904 1.3742242815200416 2.050055466436567 -0.5199772232553552 1.1399803817947731
3.54108309746 0.0852341836812959 0.0987541512772093 -2.7455110436065904 1.3742242815200416 2.050055466436567 -0.5199772232553552 1.1399803817947731
3.55118107796 0.0852341836812959 0.0987541512772093 -2.7455110436065904 1.3742242815200416 2.050055466436567 -0.5199772232553552 1.1399803817947731
3.55118107796 0.0852341836812959 0.0987541512772093 -2.7455110436065904 1.3742242815200416 2.050055466436567 -0.5199772232553552 1.1399803817947731
3.56106710434 0.0852341836812959 0.0987541512772093 -2.7455110436065904 1.3742242815200416 2.050055466436567 -0.5199772232553552 1.1399803817947731
3.56106710434 0.0852341836812959 0.0987541512772093 -2.7455110436065904 1.3742242815200416 2.050055466436567 -0.5199772232553552 1.1399803817947731
3.57100915909 0.0852341836812959 0.0987541512772093 -2.7455110436065904 1.3742242815200416 2.050055466436567 -0.5199772232553552 1.1399803817947731
3.57100915909 0.0852341836812959 0.0987541512772093 -2.7455110436065904 1.3742242815200416 2.050055466436567 -0.5199772232553552 1.1399803817947731
3.58108615875 0.0852341836812959 0.0987541512772093 -2.7455110436065904 1.3742242815200416 2.050055466436567 -0.5199772232553552 1.1399803817947731
3.58108615875 0.0852341836812959 0.0987541512772093 -2.7455110436065904 1.3742242815200416 2.050055466436567 -0.5199772232553552 1.1399803817947731
3.59096717834 0.0852341836812959 0.0987541512772093 -2.7455110436065904 1.3742242815200416 2.050055466436567 -0.5199772232553552 1.1399803817947731
3.59096717834 0.0852341836812959 0.0987541512772093 -2.7455110436065904 1.3742242815200416 2.050055466436567 -0.5199772232553552 1.1399803817947731
3.60104012489 0.0852341836812959 0.0987541512772093 -2.7455110436065904 1.3742242815200416 2.050055466436567 -0.5199772232553552 1.1399803817947731
3.60104012489 0.0852341836812959 0.0987541512772093 -2.7455110436065904 1.3742242815200416 2.050055466436567 -0.5199772232553552 1.1399803817947731
3.61117100716 0.0852341836812959 0.0987541512772093 -2.7455110436065904 1.3742242815200416 2.050055466436567 -0.5199772232553552 1.1399803817947731
3.61117100716 0.0852341836812959 0.0987541512772093 -2.7455110436065904 1.3742242815200416 2.050055466436567 -0.5199772232553552 1.1399803817947731
3.62112307549 0.0852341836812959 0.0987541512772093 -2.7455110436065904 1.3742242815200416 2.050055466436567 -0.5199772232553552 1.1399803817947731
3.62112307549 0.0852341836812959 0.0987541512772093 -2.7455110436065904 1.3742242815200416 2.050055466436567 -0.5199772232553552 1.1399803817947731
3.63115406036 0.0852341836812959 0.0987541512772093 -2.7455110436065904 1.3742242815200416 2.050055466436567 -0.5199772232553552 1.1399803817947731
3.63115406036 0.0852341836812959 0.0987541512772093 -2.7455110436065904 1.3742242815200416 2.050055466436567 -0.5199772232553552 1.1399803817947731
3.6410651207 0.0852341836812959 0.0987541512772093 -2.7455110436065904 1.3742242815200416 2.050055466436567 -0.5199772232553552 1.1399803817947731
3.6410651207 0.0852341836812959 0.0987541512772093 -2.7455110436065904 1.3742242815200416 2.050055466436567 -0.5199772232553552 1.1399803817947731
3.6511220932 0.0852341836812959 0.0987541512772093 -2.7455110436065904 1.3742242815200416 2.050055466436567 -0.5199772232553552 1.1399803817947731
3.6511220932 0.0852341836812959 0.0987541512772093 -2.7455110436065904 1.3742242815200416 2.050055466436567 -0.5199772232553552 1.1399803817947731
3.66108012199 0.0852341836812959 0.0987541512772093 -2.7455110436065904 1.3742242815200416 2.050055466436567 -0.5199772232553552 1.1399803817947731
3.66108012199 0.0852341836812959 0.0987541512772093 -2.7455110436065904 1.3742242815200416 2.050055466436567 -0.5199772232553552 1.1399803817947731
3.67107510567 0.0852341836812959 0.0987541512772093 -2.7455110436065904 1.3742242815200416 2.050055466436567 -0.5199772232553552 1.1399803817947731
3.67107510567 0.0852341836812959 0.0987541512772093 -2.7455110436065904 1.3742242815200416 2.050055466436567 -0.5199772232553552 1.1399803817947731
3.68091416359 0.0852341836812959 0.0987541512772093 -2.7455110436065904 1.3742242815200416 2.050055466436567 -0.5199772232553552 1.1399803817947731
3.68091416359 0.0852341836812959 0.0987541512772093 -2.7455110436065904 1.3742242815200416 2.050055466436567 -0.5199772232553552 1.1399803817947731
3.69113206863 0.0852341836812959 0.0987541512772093 -2.7455110436065904 1.3742242815200416 2.050055466436567 -0.5199772232553552 1.1399803817947731
3.69113206863 0.0852341836812959 0.0987541512772093 -2.7455110436065904 1.3742242815200416 2.050055466436567 -0.5199772232553552 1.1399803817947731
3.70114612579 0.0852341836812959 0.0987541512772093 -2.7455110436065904 1.3742242815200416 2.050055466436567 -0.5199772232553552 1.1399803817947731
3.70114612579 0.0852341836812959 0.0987541512772093 -2.7455110436065904 1.3742242815200416 2.050055466436567 -0.5199772232553552 1.1399803817947731
3.71111798286 0.0852341836812959 0.0987541512772093 -2.7455110436065904 1.3742242815200416 2.050055466436567 -0.5199772232553552 1.1399803817947731
3.71111798286 0.0852341836812959 0.0987541512772093 -2.7455110436065904 1.3742242815200416 2.050055466436567 -0.5199772232553552 1.1399803817947731
3.72104716301 0.0852341836812959 0.0987541512772093 -2.7455110436065904 1.3742242815200416 2.050055466436567 -0.5199772232553552 1.1399803817947731
3.72104716301 0.0852341836812959 0.0987541512772093 -2.7455110436065904 1.3742242815200416 2.050055466436567 -0.5199772232553552 1.1399803817947731
3.73109912872 0.0852341836812959 0.0987541512772093 -2.7455110436065904 1.3742242815200416 2.050055466436567 -0.5199772232553552 1.1399803817947731
3.73109912872 0.0852341836812959 0.0987541512772093 -2.7455110436065904 1.3742242815200416 2.050055466436567 -0.5199772232553552 1.1399803817947731
3.7410390377 0.0852341836812959 0.0987541512772093 -2.7455110436065904 1.3742242815200416 2.050055466436567 -0.5199772232553552 1.1399803817947731
3.7410390377 0.0852341836812959 0.0987541512772093 -2.7455110436065904 1.3742242815200416 2.050055466436567 -0.5199772232553552 1.1399803817947731
3.75112318993 0.0852341836812959 0.0987541512772093 -2.7455110436065904 1.3742242815200416 2.050055466436567 -0.5199772232553552 1.1399803817947731
3.75112318993 0.0852341836812959 0.0987541512772093 -2.7455110436065904 1.3742242815200416 2.050055466436567 -0.5199772232553552 1.1399803817947731
3.76101016998 0.0852341836812959 0.0987541512772093 -2.7455110436065904 1.3742242815200416 2.050055466436567 -0.5199772232553552 1.1399803817947731
3.76101016998 0.0852341836812959 0.0987541512772093 -2.7455110436065904 1.3742242815200416 2.050055466436567 -0.5199772232553552 1.1399803817947731
3.77113103867 0.0852341836812959 0.0987541512772093 -2.7455110436065904 1.3742242815200416 2.050055466436567 -0.5199772232553552 1.1399803817947731
3.77113103867 0.0852341836812959 0.0987541512772093 -2.7455110436065904 1.3742242815200416 2.050055466436567 -0.5199772232553552 1.1399803817947731
3.78105711937 0.0852341836812959 0.0987541512772093 -2.7455110436065904 1.3742242815200416 2.050055466436567 -0.5199772232553552 1.1399803817947731
3.78105711937 0.0852341836812959 0.0987541512772093 -2.7455110436065904 1.3742242815200416 2.050055466436567 -0.5199772232553552 1.1399803817947731
3.79103016853 0.0852341836812959 0.0987541512772093 -2.7455110436065904 1.3742242815200416 2.050055466436567 -0.5199772232553552 1.1399803817947731
3.79103016853 0.0852341836812959 0.0987541512772093 -2.7455110436065904 1.3742242815200416 2.050055466436567 -0.5199772232553552 1.1399803817947731
3.80114817619 0.0852341836812959 0.0987541512772093 -2.7455110436065904 1.3742242815200416 2.050055466436567 -0.5199772232553552 1.1399803817947731
3.80114817619 0.0852341836812959 0.0987541512772093 -2.7455110436065904 1.3742242815200416 2.050055466436567 -0.5199772232553552 1.1399803817947731
3.81113815308 0.0852341836812959 0.0987541512772093 -2.7455110436065904 1.3742242815200416 2.050055466436567 -0.5199772232553552 1.1399803817947731
3.81113815308 0.0852341836812959 0.0987541512772093 -2.7455110436065904 1.3742242815200416 2.050055466436567 -0.5199772232553552 1.1399803817947731
3.82103610039 0.0852341836812959 0.0987541512772093 -2.7455110436065904 1.3742242815200416 2.050055466436567 -0.5199772232553552 1.1399803817947731
3.82103610039 0.0852341836812959 0.0987541512772093 -2.7455110436065904 1.3742242815200416 2.050055466436567 -0.5199772232553552 1.1399803817947731
3.83119010925 0.0852341836812959 0.0987541512772093 -2.7455110436065904 1.3742242815200416 2.050055466436567 -0.5199772232553552 1.1399803817947731
3.83119010925 0.0852341836812959 0.0987541512772093 -2.7455110436065904 1.3742242815200416 2.050055466436567 -0.5199772232553552 1.1399803817947731
3.84106898308 0.0852341836812959 0.0987541512772093 -2.7455110436065904 1.3742242815200416 2.050055466436567 -0.5199772232553552 1.1399803817947731
3.84106898308 0.0852341836812959 0.0987541512772093 -2.7455110436065904 1.3742242815200416 2.050055466436567 -0.5199772232553552 1.1399803817947731
3.85113811493 0.0852341836812959 0.0987541512772093 -2.7455110436065904 1.3742242815200416 2.050055466436567 -0.5199772232553552 1.1399803817947731
3.85113811493 0.0852341836812959 0.0987541512772093 -2.7455110436065904 1.3742242815200416 2.050055466436567 -0.5199772232553552 1.1399803817947731
3.86093711853 0.0852341836812959 0.0987541512772093 -2.7455110436065904 1.3742242815200416 2.050055466436567 -0.5199772232553552 1.1399803817947731
3.86093711853 0.0852341836812959 0.0987541512772093 -2.7455110436065904 1.3742242815200416 2.050055466436567 -0.5199772232553552 1.1399803817947731
3.87103319168 0.0852341836812959 0.0987541512772093 -2.7455110436065904 1.3742242815200416 2.050055466436567 -0.5199772232553552 1.1399803817947731
3.87103319168 0.0852341836812959 0.0987541512772093 -2.7455110436065904 1.3742242815200416 2.050055466436567 -0.5199772232553552 1.1399803817947731
3.88106298447 0.0852341836812959 0.0987541512772093 -2.7455110436065904 1.3742242815200416 2.050055466436567 -0.5199772232553552 1.1399803817947731
3.88106298447 0.0852341836812959 0.0987541512772093 -2.7455110436065904 1.3742242815200416 2.050055466436567 -0.5199772232553552 1.1399803817947731
3.89106106758 0.0852341836812959 0.0987541512772093 -2.7455110436065904 1.3742242815200416 2.050055466436567 -0.5199772232553552 1.1399803817947731
3.89106106758 0.0852341836812959 0.0987541512772093 -2.7455110436065904 1.3742242815200416 2.050055466436567 -0.5199772232553552 1.1399803817947731
3.90090703964 0.0852341836812959 0.0987541512772093 -2.7455110436065904 1.3742242815200416 2.050055466436567 -0.5199772232553552 1.1399803817947731
3.90090703964 0.0852341836812959 0.0987541512772093 -2.7455110436065904 1.3742242815200416 2.050055466436567 -0.5199772232553552 1.1399803817947731
3.91110610962 0.0852341836812959 0.0987541512772093 -2.7455110436065904 1.3742242815200416 2.050055466436567 -0.5199772232553552 1.1399803817947731
3.91110610962 0.0852341836812959 0.0987541512772093 -2.7455110436065904 1.3742242815200416 2.050055466436567 -0.5199772232553552 1.1399803817947731
3.9211461544 0.0852341836812959 0.0987541512772093 -2.7455110436065904 1.3742242815200416 2.050055466436567 -0.5199772232553552 1.1399803817947731
3.9211461544 0.0852341836812959 0.0987541512772093 -2.7455110436065904 1.3742242815200416 2.050055466436567 -0.5199772232553552 1.1399803817947731
3.93097305298 0.0852341836812959 0.0987541512772093 -2.7455110436065904 1.3742242815200416 2.050055466436567 -0.5199772232553552 1.1399803817947731
3.93097305298 0.0852341836812959 0.0987541512772093 -2.7455110436065904 1.3742242815200416 2.050055466436567 -0.5199772232553552 1.1399803817947731
3.94078397751 0.0852341836812959 0.0987541512772093 -2.7455110436065904 1.3742242815200416 2.050055466436567 -0.5199772232553552 1.1399803817947731
3.94078397751 0.0852341836812959 0.0987541512772093 -2.7455110436065904 1.3742242815200416 2.050055466436567 -0.5199772232553552 1.1399803817947731
3.95118403435 0.0852341836812959 0.0987541512772093 -2.7455110436065904 1.3742242815200416 2.050055466436567 -0.5199772232553552 1.1399803817947731
3.95118403435 0.0852341836812959 0.0987541512772093 -2.7455110436065904 1.3742242815200416 2.050055466436567 -0.5199772232553552 1.1399803817947731
3.96091008186 0.0852341836812959 0.0987541512772093 -2.7455110436065904 1.3742242815200416 2.050055466436567 -0.5199772232553552 1.1399803817947731
3.96091008186 0.0852341836812959 0.0987541512772093 -2.7455110436065904 1.3742242815200416 2.050055466436567 -0.5199772232553552 1.1399803817947731
3.97109103203 0.0852341836812959 0.0987541512772093 -2.7455110436065904 1.3742242815200416 2.050055466436567 -0.5199772232553552 1.1399803817947731
3.97109103203 0.0852341836812959 0.0987541512772093 -2.7455110436065904 1.3742242815200416 2.050055466436567 -0.5199772232553552 1.1399803817947731
3.98090720177 0.0852341836812959 0.0987541512772093 -2.7455110436065904 1.3742242815200416 2.050055466436567 -0.5199772232553552 1.1399803817947731
3.98090720177 0.0852341836812959 0.0987541512772093 -2.7455110436065904 1.3742242815200416 2.050055466436567 -0.5199772232553552 1.1399803817947731
3.99101805687 0.0852341836812959 0.0987541512772093 -2.7455110436065904 1.3742242815200416 2.050055466436567 -0.5199772232553552 1.1399803817947731
3.99101805687 0.0852341836812959 0.0987541512772093 -2.7455110436065904 1.3742242815200416 2.050055466436567 -0.5199772232553552 1.1399803817947731
4.00085806847 0.0852341836812959 0.0987541512772093 -2.7455110436065904 1.3742242815200416 2.050055466436567 -0.5199772232553552 1.1399803817947731
4.00085806847 0.0852341836812959 0.0987541512772093 -2.7455110436065904 1.3742242815200416 2.050055466436567 -0.5199772232553552 1.1399803817947731
4.01105213165 0.0852341836812959 0.0987541512772093 -2.7455110436065904 1.3742242815200416 2.050055466436567 -0.5199772232553552 1.1399803817947731
4.01105213165 0.0852341836812959 0.0987541512772093 -2.7455110436065904 1.3742242815200416 2.050055466436567 -0.5199772232553552 1.1399803817947731
4.02090597153 0.0852341836812959 0.0987541512772093 -2.7455110436065904 1.3742242815200416 2.050055466436567 -0.5199772232553552 1.1399803817947731
4.02090597153 0.0852341836812959 0.0987541512772093 -2.7455110436065904 1.3742242815200416 2.050055466436567 -0.5199772232553552 1.1399803817947731
4.03109407425 0.0852341836812959 0.0987541512772093 -2.7455110436065904 1.3742242815200416 2.050055466436567 -0.5199772232553552 1.1399803817947731
4.03109407425 0.0852341836812959 0.0987541512772093 -2.7455110436065904 1.3742242815200416 2.050055466436567 -0.5199772232553552 1.1399803817947731
4.04101419449 0.0852341836812959 0.0987541512772093 -2.7455110436065904 1.3742242815200416 2.050055466436567 -0.5199772232553552 1.1399803817947731
4.04101419449 0.0852341836812959 0.0987541512772093 -2.7455110436065904 1.3742242815200416 2.050055466436567 -0.5199772232553552 1.1399803817947731
4.05112910271 0.0852341836812959 0.0987541512772093 -2.7455110436065904 1.3742242815200416 2.050055466436567 -0.5199772232553552 1.1399803817947731
4.05112910271 0.0852341836812959 0.0987541512772093 -2.7455110436065904 1.3742242815200416 2.050055466436567 -0.5199772232553552 1.1399803817947731
4.06103205681 0.0852341836812959 0.0987541512772093 -2.7455110436065904 1.3742242815200416 2.050055466436567 -0.5199772232553552 1.1399803817947731
4.06103205681 0.0852341836812959 0.0987541512772093 -2.7455110436065904 1.3742242815200416 2.050055466436567 -0.5199772232553552 1.1399803817947731
4.07103204727 0.0852341836812959 0.0987541512772093 -2.7455110436065904 1.3742242815200416 2.050055466436567 -0.5199772232553552 1.1399803817947731
4.07103204727 0.0852341836812959 0.0987541512772093 -2.7455110436065904 1.3742242815200416 2.050055466436567 -0.5199772232553552 1.1399803817947731
4.0809071064 0.0852341836812959 0.0987541512772093 -2.7455110436065904 1.3742242815200416 2.050055466436567 -0.5199772232553552 1.1399803817947731
4.0809071064 0.0852341836812959 0.0987541512772093 -2.7455110436065904 1.3742242815200416 2.050055466436567 -0.5199772232553552 1.1399803817947731
4.09105610847 0.0852341836812959 0.0987541512772093 -2.7455110436065904 1.3742242815200416 2.050055466436567 -0.5199772232553552 1.1399803817947731
4.09105610847 0.0852341836812959 0.0987541512772093 -2.7455110436065904 1.3742242815200416 2.050055466436567 -0.5199772232553552 1.1399803817947731
4.10087013245 0.0852341836812959 0.0987541512772093 -2.7455110436065904 1.3742242815200416 2.050055466436567 -0.5199772232553552 1.1399803817947731
4.10087013245 0.0852341836812959 0.0987541512772093 -2.7455110436065904 1.3742242815200416 2.050055466436567 -0.5199772232553552 1.1399803817947731
4.11076307297 0.0852341836812959 0.0987541512772093 -2.7455110436065904 1.3742242815200416 2.050055466436567 -0.5199772232553552 1.1399803817947731
4.11076307297 0.0852341836812959 0.0987541512772093 -2.7455110436065904 1.3742242815200416 2.050055466436567 -0.5199772232553552 1.1399803817947731
4.12070012093 0.0852341836812959 0.0987541512772093 -2.7455110436065904 1.3742242815200416 2.050055466436567 -0.5199772232553552 1.1399803817947731
4.12070012093 0.0852341836812959 0.0987541512772093 -2.7455110436065904 1.3742242815200416 2.050055466436567 -0.5199772232553552 1.1399803817947731
4.13074398041 0.0852341836812959 0.0987541512772093 -2.7455110436065904 1.3742242815200416 2.050055466436567 -0.5199772232553552 1.1399803817947731
4.13074398041 0.0852341836812959 0.0987541512772093 -2.7455110436065904 1.3742242815200416 2.050055466436567 -0.5199772232553552 1.1399803817947731
4.14074802399 0.0852341836812959 0.0987541512772093 -2.7455110436065904 1.3742242815200416 2.050055466436567 -0.5199772232553552 1.1399803817947731
4.14074802399 0.0852341836812959 0.0987541512772093 -2.7455110436065904 1.3742242815200416 2.050055466436567 -0.5199772232553552 1.1399803817947731
4.15072417259 0.0852341836812959 0.0987541512772093 -2.7455110436065904 1.3742242815200416 2.050055466436567 -0.5199772232553552 1.1399803817947731
4.15072417259 0.0852341836812959 0.0987541512772093 -2.7455110436065904 1.3742242815200416 2.050055466436567 -0.5199772232553552 1.1399803817947731
4.16066098213 0.0852341836812959 0.0987541512772093 -2.7455110436065904 1.3742242815200416 2.050055466436567 -0.5199772232553552 1.1399803817947731
