riccardo-csl/Motion-Planning-for-TIAGo-Manipulator/T3_G_7/head_scan/head_scan/tiago_traiettorie_SG/1a-4b/place_4b_rep1.txt
time arm_1_joint arm_2_joint arm_3_joint arm_4_joint arm_5_joint arm_6_joint arm_7_joint
0.734863996506 0.8537840924082284 0.2013788272194695 -1.1023964077017594 2.0760911609015325 2.0501011210321587 -0.519995485093592 1.1399803817947731
0.744770050049 0.8537840924082284 0.2013788272194695 -1.1023964077017594 2.0760911609015325 2.0501011210321587 -0.519995485093592 1.1399803817947731
0.744770050049 0.8537840924082284 0.2013788272194695 -1.1023964077017594 2.0760911609015325 2.0501011210321587 -0.519995485093592 1.1399803817947731
0.754878044128 0.8537840924082284 0.2013788272194695 -1.1023964077017594 2.0760911609015325 2.0501011210321587 -0.519995485093592 1.1399803817947731
0.754878044128 0.8537840924082284 0.2013788272194695 -1.1023964077017594 2.0760911609015325 2.0501011210321587 -0.519995485093592 1.1399803817947731
0.764803886414 0.8537840924082284 0.2013788272194695 -1.1023964077017594 2.0760911609015325 2.0501011210321587 -0.519995485093592 1.1399803817947731
0.764803886414 0.8537840924082284 0.2013788272194695 -1.1023964077017594 2.0760911609015325 2.0501011210321587 -0.519995485093592 1.1399803817947731
0.774706840515 0.8537840924082284 0.2013788272194695 -1.1023964077017594 2.0760911609015325 2.0501011210321587 -0.519995485093592 1.1399803817947731
0.774706840515 0.8537840924082284 0.2013788272194695 -1.1023964077017594 2.0760911609015325 2.0501011210321587 -0.519995485093592 1.1399803817947731
0.784755945206 0.8537840924082284 0.2013788272194695 -1.1023964077017594 2.0760911609015325 2.0501011210321587 -0.519995485093592 1.1399803817947731
0.784755945206 0.8537840924082284 0.2013788272194695 -1.1023964077017594 2.0760911609015325 2.0501011210321587 -0.519995485093592 1.1399803817947731
0.794900894165 0.8537840924082284 0.2013788272194695 -1.1023964077017594 2.0760911609015325 2.0501011210321587 -0.519995485093592 1.1399803817947731
0.794900894165 0.8537840924082284 0.2013788272194695 -1.1023964077017594 2.0760911609015325 2.0501011210321587 -0.519995485093592 1.1399803817947731
0.804756879807 0.8537840924082284 0.2013788272194695 -1.1023964077017594 2.0760911609015325 2.0501011210321587 -0.519995485093592 1.1399803817947731
0.804756879807 0.8537840924082284 0.2013788272194695 -1.1023964077017594 2.0760911609015325 2.0501011210321587 -0.519995485093592 1.1399803817947731
0.81492805481 0.8537840924082284 0.2013788272194695 -1.1023964077017594 2.0760911609015325 2.0501011210321587 -0.519995485093592 1.1399803817947731
0.81492805481 0.8537840924082284 0.2013788272194695 -1.1023964077017594 2.0760911609015325 2.0501011210321587 -0.519995485093592 1.1399803817947731
0.824965000153 0.8537840924082284 0.2013788272194695 -1.1023964077017594 2.0760911609015325 2.0501011210321587 -0.519995485093592 1.1399803817947731
0.824965000153 0.8537840924082284 0.2013788272194695 -1.1023964077017594 2.0760911609015325 2.0501011210321587 -0.519995485093592 1.1399803817947731
0.834807872772 0.8537840924082284 0.2013788272194695 -1.1023964077017594 2.0760911609015325 2.0501011210321587 -0.519995485093592 1.1399803817947731
0.834807872772 0.8537840924082284 0.2013788272194695 -1.1023964077017594 2.0760911609015325 2.0501011210321587 -0.519995485093592 1.1399803817947731
0.844634056091 0.8537840924082284 0.2013788272194695 -1.1023964077017594 2.0760911609015325 2.0501011210321587 -0.519995485093592 1.1399803817947731
0.844634056091 0.8537840924082284 0.2013788272194695 -1.1023964077017594 2.0760911609015325 2.0501011210321587 -0.519995485093592 1.1399803817947731
0.854843854904 0.8537840924082284 0.2013788272194695 -1.1023964077017594 2.0760911609015325 2.0501011210321587 -0.519995485093592 1.1399803817947731
0.854843854904 0.8537840924082284 0.2013788272194695 -1.1023964077017594 2.0760911609015325 2.0501011210321587 -0.519995485093592 1.1399803817947731
0.86493897438 0.8537840924082284 0.2013788272194695 -1.1023964077017594 2.0760911609015325 2.0501011210321587 -0.519995485093592 1.1399803817947731
0.86493897438 0.8537840924082284 0.2013788272194695 -1.1023964077017594 2.0760911609015325 2.0501011210321587 -0.519995485093592 1.1399803817947731
0.87503194809 0.8537840924082284 0.2013788272194695 -1.1023964077017594 2.0760911609015325 2.050091990113041 -0.519995485093592 1.1399803817947731
0.87503194809 0.8537840924082284 0.2013788272194695 -1.1023964077017594 2.0760911609015325 2.050091990113041 -0.519995485093592 1.1399803817947731
0.884687900543 0.8537840924082284 0.2013788272194695 -1.1023964077017594 2.0760911609015325 2.050091990113041 -0.519995485093592 1.1399803817947731
0.884687900543 0.8537840924082284 0.2013788272194695 -1.1023964077017594 2.0760911609015325 2.050091990113041 -0.519995485093592 1.1399803817947731
0.89485001564 0.8537840924082284 0.2013788272194695 -1.1023964077017594 2.0760911609015325 2.0501011210321587 -0.519995485093592 1.1399803817947731
0.89485001564 0.8537840924082284 0.2013788272194695 -1.1023964077017594 2.0760911609015325 2.0501011210321587 -0.519995485093592 1.1399803817947731
0.904790878296 0.8537840924082284 0.2013788272194695 -1.1023964077017594 2.0760911609015325 2.0501011210321587 -0.519995485093592 1.1399803817947731
0.904790878296 0.8537840924082284 0.2013788272194695 -1.1023964077017594 2.0760911609015325 2.0501011210321587 -0.519995485093592 1.1399803817947731
0.914924860001 0.8537840924082284 0.2013788272194695 -1.1023964077017594 2.0760911609015325 2.0501011210321587 -0.519995485093592 1.1399803817947731
0.914924860001 0.8537840924082284 0.2013788272194695 -1.1023964077017594 2.0760911609015325 2.0501011210321587 -0.519995485093592 1.1399803817947731
0.924782991409 0.8537840924082284 0.2013788272194695 -1.1023964077017594 2.0760911609015325 2.0501011210321587 -0.519995485093592 1.1399803817947731
0.924782991409 0.8537840924082284 0.2013788272194695 -1.1023964077017594 2.0760911609015325 2.0501011210321587 -0.519995485093592 1.1399803817947731
0.934867858887 0.8537840924082284 0.2013788272194695 -1.1023964077017594 2.0760911609015325 2.0501011210321587 -0.519995485093592 1.1399803817947731
0.934867858887 0.8537840924082284 0.2013788272194695 -1.1023964077017594 2.0760911609015325 2.0501011210321587 -0.519995485093592 1.1399803817947731
0.944875955582 0.8537840924082284 0.2013788272194695 -1.1023964077017594 2.0760911609015325 2.0501011210321587 -0.519995485093592 1.1399803817947731
0.944875955582 0.8537840924082284 0.2013788272194695 -1.1023964077017594 2.0760911609015325 2.0501011210321587 -0.519995485093592 1.1399803817947731
0.955471038818 0.8537840924082284 0.2013788272194695 -1.1023964077017594 2.0760911609015325 2.0501011210321587 -0.519995485093592 1.1399803817947731
0.955471038818 0.8537840924082284 0.2013788272194695 -1.1023964077017594 2.0760911609015325 2.0501011210321587 -0.519995485093592 1.1399803817947731
0.964820861816 0.8537840924082284 0.2013788272194695 -1.1023964077017594 2.0760911609015325 2.0501011210321587 -0.519995485093592 1.1399803817947731
0.964820861816 0.8537840924082284 0.2013788272194695 -1.1023964077017594 2.0760911609015325 2.0501011210321587 -0.519995485093592 1.1399803817947731
0.974912881851 0.8537840924082284 0.2013788272194695 -1.1023964077017594 2.0760911609015325 2.0501011210321587 -0.519995485093592 1.1399803817947731
0.974912881851 0.8537840924082284 0.2013788272194695 -1.1023964077017594 2.0760911609015325 2.0501011210321587 -0.519995485093592 1.1399803817947731
0.984936952591 0.8537840924082284 0.2013788272194695 -1.1023964077017594 2.0760911609015325 2.0501011210321587 -0.519995485093592 1.1399803817947731
0.984936952591 0.8537840924082284 0.2013788272194695 -1.1023964077017594 2.0760911609015325 2.0501011210321587 -0.519995485093592 1.1399803817947731
0.994940042496 0.8537840924082284 0.2013788272194695 -1.1023964077017594 2.0760911609015325 2.0501011210321587 -0.519995485093592 1.1399803817947731
0.994940042496 0.8537840924082284 0.2013788272194695 -1.1023964077017594 2.0760911609015325 2.0501011210321587 -0.519995485093592 1.1399803817947731
1.0048558712 0.8537840924082284 0.2013788272194695 -1.1023964077017594 2.0760911609015325 2.0501011210321587 -0.519995485093592 1.1399803817947731
1.0048558712 0.8537840924082284 0.2013788272194695 -1.1023964077017594 2.0760911609015325 2.0501011210321587 -0.519995485093592 1.1399803817947731
1.01492905617 0.8537840924082284 0.2013788272194695 -1.1023964077017594 2.0760911609015325 2.0501011210321587 -0.519995485093592 1.1399803817947731
1.01492905617 0.8537840924082284 0.2013788272194695 -1.1023964077017594 2.0760911609015325 2.0501011210321587 -0.519995485093592 1.1399803817947731
1.02496004105 0.8537840924082284 0.2013788272194695 -1.1023964077017594 2.0760911609015325 2.0501011210321587 -0.519995485093592 1.1399803817947731
1.02496004105 0.8537840924082284 0.2013788272194695 -1.1023964077017594 2.0760911609015325 2.0501011210321587 -0.519995485093592 1.1399803817947731
1.0348379612 0.8537840924082284 0.2013788272194695 -1.1023964077017594 2.0760911609015325 2.0501011210321587 -0.519995485093592 1.1399803817947731
1.0348379612 0.8537840924082284 0.2013788272194695 -1.1023964077017594 2.0760911609015325 2.0501011210321587 -0.519995485093592 1.1399803817947731
1.04477596283 0.8537840924082284 0.2013788272194695 -1.1023964077017594 2.0760911609015325 2.0501011210321587 -0.519995485093592 1.1399803817947731
1.04477596283 0.8537840924082284 0.2013788272194695 -1.1023964077017594 2.0760911609015325 2.0501011210321587 -0.519995485093592 1.1399803817947731
1.05480885506 0.8537840924082284 0.2013788272194695 -1.1023964077017594 2.0760911609015325 2.0501011210321587 -0.519995485093592 1.1399803817947731
1.05480885506 0.8537840924082284 0.2013788272194695 -1.1023964077017594 2.0760911609015325 2.0501011210321587 -0.519995485093592 1.1399803817947731
1.06483197212 0.8537840924082284 0.2013788272194695 -1.1023964077017594 2.0760911609015325 2.0501011210321587 -0.519995485093592 1.1399803817947731
1.06483197212 0.8537840924082284 0.2013788272194695 -1.1023964077017594 2.0760911609015325 2.0501011210321587 -0.519995485093592 1.1399803817947731
1.07493901253 0.8537840924082284 0.2013788272194695 -1.1023964077017594 2.0760911609015325 2.0501011210321587 -0.519995485093592 1.1399803817947731
1.07493901253 0.8537840924082284 0.2013788272194695 -1.1023964077017594 2.0760911609015325 2.0501011210321587 -0.519995485093592 1.1399803817947731
1.08485388756 0.8537840924082284 0.2013788272194695 -1.1023964077017594 2.0760911609015325 2.0501011210321587 -0.519995485093592 1.1399803817947731
1.08485388756 0.8537840924082284 0.2013788272194695 -1.1023964077017594 2.0760911609015325 2.0501011210321587 -0.519995485093592 1.1399803817947731
1.09494304657 0.8537840924082284 0.2013788272194695 -1.1023964077017594 2.0760911609015325 2.0501011210321587 -0.519995485093592 1.1399803817947731
1.09494304657 0.8537840924082284 0.2013788272194695 -1.1023964077017594 2.0760911609015325 2.0501011210321587 -0.519995485093592 1.1399803817947731
1.10492086411 0.8537840924082284 0.2013788272194695 -1.1023964077017594 2.0760911609015325 2.0501011210321587 -0.519995485093592 1.1399803817947731
1.10492086411 0.8537840924082284 0.2013788272194695 -1.1023964077017594 2.0760911609015325 2.0501011210321587 -0.519995485093592 1.1399803817947731
1.11485099792 0.8537840924082284 0.2013788272194695 -1.1023964077017594 2.0760911609015325 2.0501011210321587 -0.519995485093592 1.1399803817947731
1.11485099792 0.8537840924082284 0.2013788272194695 -1.1023964077017594 2.0760911609015325 2.0501011210321587 -0.519995485093592 1.1399803817947731
1.12489700317 0.8537840924082284 0.2013788272194695 -1.1023964077017594 2.0760911609015325 2.0501011210321587 -0.519995485093592 1.1399803817947731
1.12489700317 0.8537840924082284 0.2013788272194695 -1.1023964077017594 2.0760911609015325 2.0501011210321587 -0.519995485093592 1.1399803817947731
1.13499093056 0.8537840924082284 0.2013788272194695 -1.1023964077017594 2.0760911609015325 2.0501011210321587 -0.519995485093592 1.1399803817947731
1.13499093056 0.8537840924082284 0.2013788272194695 -1.1023964077017594 2.0760911609015325 2.0501011210321587 -0.519995485093592 1.1399803817947731
1.14551687241 0.8537840924082284 0.2013788272194695 -1.1023964077017594 2.0760911609015325 2.0501011210321587 -0.519995485093592 1.1399803817947731
1.14551687241 0.8537840924082284 0.2013788272194695 -1.1023964077017594 2.0760911609015325 2.0501011210321587 -0.519995485093592 1.1399803817947731
1.15479302406 0.8537840924082284 0.2013788272194695 -1.1023964077017594 2.0760911609015325 2.0501011210321587 -0.519995485093592 1.1399803817947731
1.15479302406 0.8537840924082284 0.2013788272194695 -1.1023964077017594 2.0760911609015325 2.0501011210321587 -0.519995485093592 1.1399803817947731
1.16479587555 0.8537840924082284 0.2013788272194695 -1.1023964077017594 2.0760911609015325 2.0501011210321587 -0.519995485093592 1.1399803817947731
1.16479587555 0.8537840924082284 0.2013788272194695 -1.1023964077017594 2.0760911609015325 2.0501011210321587 -0.519995485093592 1.1399803817947731
1.17476987839 0.8537840924082284 0.2013788272194695 -1.1023964077017594 2.0760911609015325 2.0501011210321587 -0.519995485093592 1.1399803817947731
1.17476987839 0.8537840924082284 0.2013788272194695 -1.1023964077017594 2.0760911609015325 2.0501011210321587 -0.519995485093592 1.1399803817947731
1.18488883972 0.8537840924082284 0.2013788272194695 -1.1023964077017594 2.0760911609015325 2.0501011210321587 -0.519995485093592 1.1399803817947731
1.18488883972 0.8537840924082284 0.2013788272194695 -1.1023964077017594 2.0760911609015325 2.0501011210321587 -0.519995485093592 1.1399803817947731
1.1946079731 0.8537840924082284 0.2013788272194695 -1.1023964077017594 2.0760911609015325 2.0501011210321587 -0.519995485093592 1.1399803817947731
1.1946079731 0.8537840924082284 0.2013788272194695 -1.1023964077017594 2.0760911609015325 2.0501011210321587 -0.519995485093592 1.1399803817947731
1.20476293564 0.8537840924082284 0.2013788272194695 -1.1023964077017594 2.0760911609015325 2.0501011210321587 -0.519995485093592 1.1399803817947731
1.20476293564 0.8537840924082284 0.2013788272194695 -1.1023964077017594 2.0760911609015325 2.0501011210321587 -0.519995485093592 1.1399803817947731
1.21493887901 0.8537840924082284 0.2013788272194695 -1.1023964077017594 2.0760911609015325 2.0501011210321587 -0.519995485093592 1.1399803817947731
1.21493887901 0.8537840924082284 0.2013788272194695 -1.1023964077017594 2.0760911609015325 2.0501011210321587 -0.519995485093592 1.1399803817947731
1.22489190102 0.8537840924082284 0.2013788272194695 -1.1023964077017594 2.0760911609015325 2.0501011210321587 -0.519995485093592 1.1399803817947731
1.22489190102 0.8537840924082284 0.2013788272194695 -1.1023964077017594 2.0760911609015325 2.0501011210321587 -0.519995485093592 1.1399803817947731
1.23487997055 0.8537840924082284 0.2013788272194695 -1.1023964077017594 2.0760911609015325 2.0501011210321587 -0.519995485093592 1.1399803817947731
1.23487997055 0.8537840924082284 0.2013788272194695 -1.1023964077017594 2.0760911609015325 2.0501011210321587 -0.519995485093592 1.1399803817947731
1.24476385117 0.8537840924082284 0.2013788272194695 -1.1023964077017594 2.0760911609015325 2.0501011210321587 -0.519995485093592 1.1399803817947731
1.24476385117 0.8537840924082284 0.2013788272194695 -1.1023964077017594 2.0760911609015325 2.0501011210321587 -0.519995485093592 1.1399803817947731
1.25496101379 0.8537840924082284 0.2013788272194695 -1.1023964077017594 2.0760911609015325 2.0501011210321587 -0.519995485093592 1.1399803817947731
1.25496101379 0.8537840924082284 0.2013788272194695 -1.1023964077017594 2.0760911609015325 2.0501011210321587 -0.519995485093592 1.1399803817947731
1.26491594315 0.8537840924082284 0.2013788272194695 -1.1023964077017594 2.0760911609015325 2.0501011210321587 -0.519995485093592 1.1399803817947731
1.26491594315 0.8537840924082284 0.2013788272194695 -1.1023964077017594 2.0760911609015325 2.0501011210321587 -0.519995485093592 1.1399803817947731
1.27493000031 0.8537840924082284 0.2013788272194695 -1.1023964077017594 2.0760911609015325 2.0501011210321587 -0.519995485093592 1.1399803817947731
1.27493000031 0.8537840924082284 0.2013788272194695 -1.1023964077017594 2.0760911609015325 2.0501011210321587 -0.519995485093592 1.1399803817947731
1.2849509716 0.8537840924082284 0.2013788272194695 -1.1023964077017594 2.0760911609015325 2.0501011210321587 -0.519995485093592 1.1399803817947731
1.2849509716 0.8537840924082284 0.2013788272194695 -1.1023964077017594 2.0760911609015325 2.0501011210321587 -0.519995485093592 1.1399803817947731
1.29484391212 0.8537840924082284 0.2013788272194695 -1.1023964077017594 2.0760911609015325 2.0501011210321587 -0.519995485093592 1.1399803817947731
1.29484391212 0.8537840924082284 0.2013788272194695 -1.1023964077017594 2.0760911609015325 2.0501011210321587 -0.519995485093592 1.1399803817947731
1.30486392975 0.8537840924082284 0.2013788272194695 -1.1023964077017594 2.0760911609015325 2.0501011210321587 -0.519995485093592 1.1399803817947731
1.30486392975 0.8537840924082284 0.2013788272194695 -1.1023964077017594 2.0760911609015325 2.0501011210321587 -0.519995485093592 1.1399803817947731
1.31490397453 0.8537840924082284 0.2013788272194695 -1.1023964077017594 2.0760911609015325 2.0501011210321587 -0.519995485093592 1.1399803817947731
1.31490397453 0.8537840924082284 0.2013788272194695 -1.1023964077017594 2.0760911609015325 2.0501011210321587 -0.519995485093592 1.1399803817947731
1.32493495941 0.8537840924082284 0.2013788272194695 -1.1023964077017594 2.0760911609015325 2.0501011210321587 -0.519995485093592 1.1399803817947731
1.32493495941 0.8537840924082284 0.2013788272194695 -1.1023964077017594 2.0760911609015325 2.0501011210321587 -0.519995485093592 1.1399803817947731
1.33473801613 0.8537840924082284 0.2013788272194695 -1.1023964077017594 2.0760911609015325 2.0501011210321587 -0.519995485093592 1.1399803817947731
1.33473801613 0.8537840924082284 0.2013788272194695 -1.1023964077017594 2.0760911609015325 2.0501011210321587 -0.519995485093592 1.1399803817947731
1.34483003616 0.8537840924082284 0.2013788272194695 -1.1023964077017594 2.0760911609015325 2.0501011210321587 -0.519995485093592 1.1399803817947731
1.34483003616 0.8537840924082284 0.2013788272194695 -1.1023964077017594 2.0760911609015325 2.0501011210321587 -0.519995485093592 1.1399803817947731
1.35450291634 0.8537840924082284 0.2013788272194695 -1.1023964077017594 2.0760911609015325 2.0501011210321587 -0.519995485093592 1.1399803817947731
1.35450291634 0.8537840924082284 0.2013788272194695 -1.1023964077017594 2.0760911609015325 2.0501011210321587 -0.519995485093592 1.1399803817947731
1.3644900322 0.8537840924082284 0.2013788272194695 -1.1023964077017594 2.0760911609015325 2.0501011210321587 -0.519995485093592 1.1399803817947731
1.3644900322 0.8537840924082284 0.2013788272194695 -1.1023964077017594 2.0760911609015325 2.0501011210321587 -0.519995485093592 1.1399803817947731
1.37479805946 0.8537840924082284 0.2013788272194695 -1.1023964077017594 2.0760911609015325 2.0501011210321587 -0.519995485093592 1.1399803817947731
1.37479805946 0.8537840924082284 0.2013788272194695 -1.1023964077017594 2.0760911609015325 2.0501011210321587 -0.519995485093592 1.1399803817947731
1.38466095924 0.8537840924082284 0.2013788272194695 -1.102411747713111 2.0760911609015325 2.0501011210321587 -0.520000050553151 1.1399758163352145
1.38466095924 0.8537840924082284 0.2013788272194695 -1.102411747713111 2.0760911609015325 2.0501011210321587 -0.520000050553151 1.1399758163352145
1.39487290382 0.8537840924082284 0.2013788272194695 -1.102411747713111 2.0760911609015325 2.0501011210321587 -0.520000050553151 1.1399758163352145
1.39487290382 0.8537840924082284 0.2013788272194695 -1.102411747713111 2.0760911609015325 2.0501011210321587 -0.520000050553151 1.1399758163352145
1.40482902527 0.8537840924082284 0.2013788272194695 -1.102411747713111 2.0760911609015325 2.0501011210321587 -0.520000050553151 1.1399758163352145
1.40482902527 0.8537840924082284 0.2013788272194695 -1.102411747713111 2.0760911609015325 2.0501011210321587 -0.520000050553151 1.1399758163352145
1.41491484642 0.8537840924082284 0.2013788272194695 -1.102488447769869 2.0760911609015325 2.0501011210321587 -0.519995485093592 1.1399803817947731
1.41491484642 0.8537840924082284 0.2013788272194695 -1.102488447769869 2.0760911609015325 2.0501011210321587 -0.519995485093592 1.1399803817947731
1.42472195625 0.8537840924082284 0.2013788272194695 -1.1027185479401431 2.0760911609015325 2.0501011210321587 -0.519995485093592 1.1399803817947731
1.42472195625 0.8537840924082284 0.2013788272194695 -1.1027185479401431 2.0760911609015325 2.0501011210321587 -0.519995485093592 1.1399803817947731
1.43471598625 0.8537840924082284 0.2013788272194695 -1.1027185479401431 2.0760911609015325 2.0501011210321587 -0.519995485093592 1.1399803817947731
1.43471598625 0.8537840924082284 0.2013788272194695 -1.1027185479401431 2.0760911609015325 2.0501011210321587 -0.519995485093592 1.1399803817947731
1.44477987289 0.8537840924082284 0.2013788272194695 -1.1031634082693398 2.0760911609015325 2.0501011210321587 -0.519995485093592 1.1399803817947731
1.44477987289 0.8537840924082284 0.2013788272194695 -1.1031634082693398 2.0760911609015325 2.0501011210321587 -0.519995485093592 1.1399803817947731
1.45479989052 0.8537840924082284 0.2013788272194695 -1.1031634082693398 2.0760911609015325 2.0501011210321587 -0.519995485093592 1.1399803817947731
1.45479989052 0.8537840924082284 0.2013788272194695 -1.1031634082693398 2.0760911609015325 2.0501011210321587 -0.519995485093592 1.1399803817947731
1.46469902992 0.8537840924082284 0.2013788272194695 -1.1039457488482718 2.0760911609015325 2.0501011210321587 -0.519995485093592 1.1399803817947731
1.46469902992 0.8537840924082284 0.2013788272194695 -1.1039457488482718 2.0760911609015325 2.0501011210321587 -0.519995485093592 1.1399803817947731
1.47480106354 0.8537534123855252 0.2013788272194695 -1.1051422697336972 2.0760911609015325 2.0501011210321587 -0.519995485093592 1.1399803817947731
1.47480106354 0.8537534123855252 0.2013788272194695 -1.1051422697336972 2.0760911609015325 2.0501011210321587 -0.519995485093592 1.1399803817947731
1.48470497131 0.8537534123855252 0.2013788272194695 -1.1051422697336972 2.0760911609015325 2.0501011210321587 -0.519995485093592 1.1399803817947731
1.48470497131 0.8537534123855252 0.2013788272194695 -1.1051422697336972 2.0760911609015325 2.0501011210321587 -0.519995485093592 1.1399803817947731
1.49490785599 0.8537534123855252 0.2013788272194695 -1.1051422697336972 2.0760911609015325 2.0501011210321587 -0.519995485093592 1.1399803817947731
1.49490785599 0.8537534123855252 0.2013788272194695 -1.1051422697336972 2.0760911609015325 2.0501011210321587 -0.519995485093592 1.1399803817947731
1.50487303734 0.8537534123855252 0.2013788272194695 -1.1051422697336972 2.0760911609015325 2.0501011210321587 -0.519995485093592 1.1399803817947731
1.50487303734 0.8537534123855252 0.2013788272194695 -1.1051422697336972 2.0760911609015325 2.0501011210321587 -0.519995485093592 1.1399803817947731
1.51486897469 0.8537073923514703 0.2013788272194695 -1.1068296709823742 2.0760911609015325 2.0501011210321587 -0.519995485093592 1.1399803817947731
1.51486897469 0.8537073923514703 0.2013788272194695 -1.1068296709823742 2.0760911609015325 2.0501011210321587 -0.519995485093592 1.1399803817947731
1.52491092682 0.8536000122720091 0.2013788272194695 -1.109192032730522 2.0760911609015325 2.0501011210321587 -0.519995485093592 1.1399803817947731
1.52491092682 0.8536000122720091 0.2013788272194695 -1.109192032730522 2.0760911609015325 2.0501011210321587 -0.519995485093592 1.1399803817947731
1.53489995003 0.8534005921244382 0.2013788272194695 -1.1119992548078663 2.0760911609015325 2.0501011210321587 -0.519995485093592 1.1399803817947731
1.53489995003 0.8534005921244382 0.2013788272194695 -1.1119992548078663 2.0760911609015325 2.0501011210321587 -0.519995485093592 1.1399803817947731
1.54481506348 0.8531244719201092 0.2013788272194695 -1.1157115375549556 2.0760911609015325 2.0501011210321587 -0.519995485093592 1.1399803817947731
1.54481506348 0.8531244719201092 0.2013788272194695 -1.1157115375549556 2.0760911609015325 2.0501011210321587 -0.519995485093592 1.1399803817947731
1.5549428463 0.8531244719201092 0.2013788272194695 -1.1157115375549556 2.0760911609015325 2.0501011210321587 -0.519995485093592 1.1399803817947731
1.5549428463 0.8531244719201092 0.2013788272194695 -1.1157115375549556 2.0760911609015325 2.0501011210321587 -0.519995485093592 1.1399803817947731
1.56487298012 0.8531244719201092 0.2013788272194695 -1.1157115375549556 2.0760911609015325 2.0501011210321587 -0.519995485093592 1.1399803817947731
1.56487298012 0.8531244719201092 0.2013788272194695 -1.1157115375549556 2.0760911609015325 2.0501011210321587 -0.519995485093592 1.1399803817947731
1.57497191429 0.8531244719201092 0.2013788272194695 -1.1157115375549556 2.0760911609015325 2.0501011210321587 -0.519995485093592 1.1399803817947731
1.57497191429 0.8531244719201092 0.2013788272194695 -1.1157115375549556 2.0760911609015325 2.0501011210321587 -0.519995485093592 1.1399803817947731
1.58490204811 0.8527563116476706 0.2013788272194695 -1.1200527607674606 2.0760911609015325 2.0501011210321587 -0.519995485093592 1.1399803817947731
1.58490204811 0.8527563116476706 0.2013788272194695 -1.1200527607674606 2.0760911609015325 2.0501011210321587 -0.519995485093592 1.1399803817947731
1.59495401382 0.8527563116476706 0.2013788272194695 -1.1200527607674606 2.0760911609015325 2.0501011210321587 -0.519995485093592 1.1399803817947731
1.59495401382 0.8527563116476706 0.2013788272194695 -1.1200527607674606 2.0760911609015325 2.0501011210321587 -0.519995485093592 1.1399803817947731
1.604804039 0.8527563116476706 0.2013788272194695 -1.1200527607674606 2.0760911609015325 2.0501011210321587 -0.519995485093592 1.1399803817947731
1.604804039 0.8527563116476706 0.2013788272194695 -1.1200527607674606 2.0760911609015325 2.0501011210321587 -0.519995485093592 1.1399803817947731
1.61495304108 0.8527563116476706 0.2013788272194695 -1.1200527607674606 2.0760911609015325 2.0501011210321587 -0.519995485093592 1.1399803817947731
1.61495304108 0.8527563116476706 0.2013788272194695 -1.1200527607674606 2.0760911609015325 2.0501011210321587 -0.519995485093592 1.1399803817947731
1.62486696243 0.8527563116476706 0.2013788272194695 -1.1200527607674606 2.0760911609015325 2.0501011210321587 -0.519995485093592 1.1399803817947731
1.62486696243 0.8527563116476706 0.2013788272194695 -1.1200527607674606 2.0760911609015325 2.0501011210321587 -0.519995485093592 1.1399803817947731
1.63501691818 0.8527563116476706 0.2013788272194695 -1.1200527607674606 2.0760911609015325 2.0501011210321587 -0.519995485093592 1.1399803817947731
1.63501691818 0.8527563116476706 0.2013788272194695 -1.1200527607674606 2.0760911609015325 2.0501011210321587 -0.519995485093592 1.1399803817947731
1.64474105835 0.8527563116476706 0.2013788272194695 -1.1200527607674606 2.0760911609015325 2.0501011210321587 -0.519995485093592 1.1399803817947731
1.64474105835 0.8527563116476706 0.2013788272194695 -1.1200527607674606 2.0760911609015325 2.0501011210321587 -0.519995485093592 1.1399803817947731
1.65496492386 0.8527563116476706 0.2013788272194695 -1.1200527607674606 2.0760911609015325 2.0501011210321587 -0.519995485093592 1.1399803817947731
1.65496492386 0.8527563116476706 0.2013788272194695 -1.1200527607674606 2.0760911609015325 2.0501011210321587 -0.519995485093592 1.1399803817947731
1.66490006447 0.8527563116476706 0.2013788272194695 -1.1200527607674606 2.0760911609015325 2.0501011210321587 -0.519995485093592 1.1399803817947731
1.66490006447 0.8527563116476706 0.2013788272194695 -1.1200527607674606 2.0760911609015325 2.0501011210321587 -0.519995485093592 1.1399803817947731
1.67482495308 0.8527563116476706 0.2013788272194695 -1.1200527607674606 2.0760911609015325 2.0501011210321587 -0.519995485093592 1.1399803817947731
1.67482495308 0.8527563116476706 0.2013788272194695 -1.1200527607674606 2.0760911609015325 2.0501011210321587 -0.519995485093592 1.1399803817947731
1.68485093117 0.8527563116476706 0.2013788272194695 -1.1200527607674606 2.0760911609015325 2.0501011210321587 -0.519995485093592 1.1399803817947731
1.68485093117 0.8527563116476706 0.2013788272194695 -1.1200527607674606 2.0760911609015325 2.0501011210321587 -0.519995485093592 1.1399803817947731
1.69500684738 0.8527563116476706 0.2013788272194695 -1.1200527607674606 2.0760911609015325 2.0501011210321587 -0.519995485093592 1.1399803817947731
1.69500684738 0.8527563116476706 0.2013788272194695 -1.1200527607674606 2.0760911609015325 2.0501011210321587 -0.519995485093592 1.1399803817947731
1.70489788055 0.8527563116476706 0.2013788272194695 -1.1200527607674606 2.0760911609015325 2.0501011210321587 -0.519995485093592 1.1399803817947731
1.70489788055 0.8527563116476706 0.2013788272194695 -1.1200527607674606 2.0760911609015325 2.0501011210321587 -0.519995485093592 1.1399803817947731
1.71494698524 0.8527563116476706 0.2013788272194695 -1.1200527607674606 2.0760911609015325 2.0501011210321587 -0.519995485093592 1.1399803817947731
1.71494698524 0.8527563116476706 0.2013788272194695 -1.1200527607674606 2.0760911609015325 2.0501011210321587 -0.519995485093592 1.1399803817947731
1.72485494614 0.8527563116476706 0.2013788272194695 -1.1200527607674606 2.0760911609015325 2.0501011210321587 -0.519995485093592 1.1399803817947731
1.72485494614 0.8527563116476706 0.2013788272194695 -1.1200527607674606 2.0760911609015325 2.0501011210321587 -0.519995485093592 1.1399803817947731
1.73480892181 0.8527563116476706 0.2013788272194695 -1.1200527607674606 2.0760911609015325 2.0501011210321587 -0.519995485093592 1.1399803817947731
1.73480892181 0.8527563116476706 0.2013788272194695 -1.1200527607674606 2.0760911609015325 2.0501011210321587 -0.519995485093592 1.1399803817947731
1.74484992027 0.8527563116476706 0.2013788272194695 -1.1200527607674606 2.0760911609015325 2.0501011210321587 -0.519995485093592 1.1399803817947731
1.74484992027 0.8527563116476706 0.2013788272194695 -1.1200527607674606 2.0760911609015325 2.0501011210321587 -0.519995485093592 1.1399803817947731
1.75496888161 0.8527563116476706 0.2013788272194695 -1.1200527607674606 2.0760911609015325 2.0501011210321587 -0.519995485093592 1.1399803817947731
1.75496888161 0.8527563116476706 0.2013788272194695 -1.1200527607674606 2.0760911609015325 2.0501011210321587 -0.519995485093592 1.1399803817947731
1.76484704018 0.8527563116476706 0.2013788272194695 -1.1200527607674606 2.0760911609015325 2.0501011210321587 -0.519995485093592 1.1399803817947731
1.76484704018 0.8527563116476706 0.2013788272194695 -1.1200527607674606 2.0760911609015325 2.0501011210321587 -0.519995485093592 1.1399803817947731
1.77492690086 0.8527563116476706 0.2013788272194695 -1.1200527607674606 2.0760911609015325 2.0501011210321587 -0.519995485093592 1.1399803817947731
1.77492690086 0.8527563116476706 0.2013788272194695 -1.1200527607674606 2.0760911609015325 2.0501011210321587 -0.519995485093592 1.1399803817947731
1.78485488892 0.8527563116476706 0.2013788272194695 -1.1200527607674606 2.0760911609015325 2.0501011210321587 -0.519995485093592 1.1399803817947731
1.78485488892 0.8527563116476706 0.2013788272194695 -1.1200527607674606 2.0760911609015325 2.0501011210321587 -0.519995485093592 1.1399803817947731
1.79478096962 0.8527563116476706 0.2013788272194695 -1.1200527607674606 2.0760911609015325 2.0501011210321587 -0.519995485093592 1.1399803817947731
1.79478096962 0.8527563116476706 0.2013788272194695 -1.1200527607674606 2.0760911609015325 2.0501011210321587 -0.519995485093592 1.1399803817947731
1.80473804474 0.8527563116476706 0.2013788272194695 -1.1200527607674606 2.0760911609015325 2.0501011210321587 -0.519995485093592 1.1399803817947731
1.80473804474 0.8527563116476706 0.2013788272194695 -1.1200527607674606 2.0760911609015325 2.0501011210321587 -0.519995485093592 1.1399803817947731
1.8148958683 0.8527563116476706 0.2013788272194695 -1.1200527607674606 2.0760911609015325 2.0501011210321587 -0.519995485093592 1.1399803817947731
1.8148958683 0.8527563116476706 0.2013788272194695 -1.1200527607674606 2.0760911609015325 2.0501011210321587 -0.519995485093592 1.1399803817947731
1.82495689392 0.8527563116476706 0.2013788272194695 -1.1200527607674606 2.0760911609015325 2.0501011210321587 -0.519995485093592 1.1399803817947731
1.82495689392 0.8527563116476706 0.2013788272194695 -1.1200527607674606 2.0760911609015325 2.0501011210321587 -0.519995485093592 1.1399803817947731
1.8349199295 0.8527563116476706 0.2013788272194695 -1.1200527607674606 2.0760911609015325 2.0501011210321587 -0.519995485093592 1.1399803817947731
1.8349199295 0.8527563116476706 0.2013788272194695 -1.1200527607674606 2.0760911609015325 2.0501011210321587 -0.519995485093592 1.1399803817947731
1.84486484528 0.8527563116476706 0.2013788272194695 -1.1200527607674606 2.0760911609015325 2.0501011210321587 -0.519995485093592 1.1399803817947731
1.84486484528 0.8527563116476706 0.2013788272194695 -1.1200527607674606 2.0760911609015325 2.0501011210321587 -0.519995485093592 1.1399803817947731
1.85499095917 0.8527563116476706 0.2013788272194695 -1.1200527607674606 2.0760911609015325 2.0501011210321587 -0.519995485093592 1.1399803817947731
1.85499095917 0.8527563116476706 0.2013788272194695 -1.1200527607674606 2.0760911609015325 2.0501011210321587 -0.519995485093592 1.1399803817947731
1.86484384537 0.8527563116476706 0.2013788272194695 -1.1200527607674606 2.0760911609015325 2.0501011210321587 -0.519995485093592 1.1399803817947731
1.86484384537 0.8527563116476706 0.2013788272194695 -1.1200527607674606 2.0760911609015325 2.0501011210321587 -0.519995485093592 1.1399803817947731
1.87493896484 0.8527563116476706 0.2013788272194695 -1.1200527607674606 2.0760911609015325 2.0501011210321587 -0.519995485093592 1.1399803817947731
1.87493896484 0.8527563116476706 0.2013788272194695 -1.1200527607674606 2.0760911609015325 2.0501011210321587 -0.519995485093592 1.1399803817947731
1.88501286507 0.8527563116476706 0.2013788272194695 -1.1200527607674606 2.0760911609015325 2.0501011210321587 -0.519995485093592 1.1399803817947731
1.88501286507 0.8527563116476706 0.2013788272194695 -1.1200527607674606 2.0760911609015325 2.0501011210321587 -0.519995485093592 1.1399803817947731
1.89479994774 0.8527563116476706 0.2013788272194695 -1.1200527607674606 2.0760911609015325 2.0501011210321587 -0.519995485093592 1.1399803817947731
1.89479994774 0.8527563116476706 0.2013788272194695 -1.1200527607674606 2.0760911609015325 2.0501011210321587 -0.519995485093592 1.1399803817947731
1.90483188629 0.8527563116476706 0.2013788272194695 -1.1200527607674606 2.0760911609015325 2.0501011210321587 -0.519995485093592 1.1399803817947731
1.90483188629 0.8527563116476706 0.2013788272194695 -1.1200527607674606 2.0760911609015325 2.0501011210321587 -0.519995485093592 1.1399803817947731
1.91486096382 0.8527563116476706 0.2013788272194695 -1.1200527607674606 2.0760911609015325 2.0501011210321587 -0.519995485093592 1.1399803817947731
1.91486096382 0.8527563116476706 0.2013788272194695 -1.1200527607674606 2.0760911609015325 2.0501011210321587 -0.519995485093592 1.1399803817947731
1.92480587959 0.8527563116476706 0.2013788272194695 -1.1200527607674606 2.0760911609015325 2.0501011210321587 -0.519995485093592 1.1399803817947731
1.92480587959 0.8527563116476706 0.2013788272194695 -1.1200527607674606 2.0760911609015325 2.0501011210321587 -0.519995485093592 1.1399803817947731
1.93491292 0.8527563116476706 0.2013788272194695 -1.1200527607674606 2.0760911609015325 2.0501011210321587 -0.519995485093592 1.1399803817947731
1.93491292 0.8527563116476706 0.2013788272194695 -1.1200527607674606 2.0760911609015325 2.0501011210321587 -0.519995485093592 1.1399803817947731
1.94494104385 0.8527563116476706 0.2013788272194695 -1.1200527607674606 2.0760911609015325 2.0501011210321587 -0.519995485093592 1.1399803817947731
1.94494104385 0.8527563116476706 0.2013788272194695 -1.1200527607674606 2.0760911609015325 2.0501011210321587 -0.519995485093592 1.1399803817947731
1.95491695404 0.8527563116476706 0.2013788272194695 -1.1200527607674606 2.0760911609015325 2.0501011210321587 -0.519995485093592 1.1399803817947731
1.95491695404 0.8527563116476706 0.2013788272194695 -1.1200527607674606 2.0760911609015325 2.0501011210321587 -0.519995485093592 1.1399803817947731
1.96484494209 0.8527563116476706 0.2013788272194695 -1.1200527607674606 2.0760911609015325 2.0501011210321587 -0.519995485093592 1.1399803817947731
1.96484494209 0.8527563116476706 0.2013788272194695 -1.1200527607674606 2.0760911609015325 2.0501011210321587 -0.519995485093592 1.1399803817947731
1.97503685951 0.8527563116476706 0.2013788272194695 -1.1200527607674606 2.0760911609015325 2.0501011210321587 -0.519995485093592 1.1399803817947731
1.97503685951 0.8527563116476706 0.2013788272194695 -1.1200527607674606 2.0760911609015325 2.0501011210321587 -0.519995485093592 1.1399803817947731
1.98474383354 0.8527563116476706 0.2013788272194695 -1.1200527607674606 2.0760911609015325 2.0501011210321587 -0.519995485093592 1.1399803817947731
1.98474383354 0.8527563116476706 0.2013788272194695 -1.1200527607674606 2.0760911609015325 2.0501011210321587 -0.519995485093592 1.1399803817947731
1.99492096901 0.8527563116476706 0.2013788272194695 -1.1200527607674606 2.0760911609015325 2.0501011210321587 -0.519995485093592 1.1399803817947731
1.99492096901 0.8527563116476706 0.2013788272194695 -1.1200527607674606 2.0760911609015325 2.0501011210321587 -0.519995485093592 1.1399803817947731
2.00489592552 0.8527563116476706 0.2013788272194695 -1.1200527607674606 2.0760911609015325 2.0501011210321587 -0.519995485093592 1.1399803817947731
2.00489592552 0.8527563116476706 0.2013788272194695 -1.1200527607674606 2.0760911609015325 2.0501011210321587 -0.519995485093592 1.1399803817947731
2.01488804817 0.8527563116476706 0.2013788272194695 -1.1200527607674606 2.0760911609015325 2.0501011210321587 -0.519995485093592 1.1399803817947731
2.01488804817 0.8527563116476706 0.2013788272194695 -1.1200527607674606 2.0760911609015325 2.0501011210321587 -0.519995485093592 1.1399803817947731
2.0248439312 0.8527563116476706 0.2013788272194695 -1.1200527607674606 2.0760911609015325 2.0501011210321587 -0.519995485093592 1.1399803817947731
2.0248439312 0.8527563116476706 0.2013788272194695 -1.1200527607674606 2.0760911609015325 2.0501011210321587 -0.519995485093592 1.1399803817947731
2.03490495682 0.8527563116476706 0.2013788272194695 -1.1200527607674606 2.0760911609015325 2.0501011210321587 -0.519995485093592 1.1399803817947731
2.03490495682 0.8527563116476706 0.2013788272194695 -1.1200527607674606 2.0760911609015325 2.0501011210321587 -0.519995485093592 1.1399803817947731
2.0448050499 0.8527563116476706 0.2013788272194695 -1.1200527607674606 2.0760911609015325 2.0501011210321587 -0.519995485093592 1.1399803817947731
2.0448050499 0.8527563116476706 0.2013788272194695 -1.1200527607674606 2.0760911609015325 2.0501011210321587 -0.519995485093592 1.1399803817947731
2.0549030304 0.8527563116476706 0.2013788272194695 -1.1200527607674606 2.0760911609015325 2.0501011210321587 -0.519995485093592 1.1399803817947731
2.0549030304 0.8527563116476706 0.2013788272194695 -1.1200527607674606 2.0760911609015325 2.0501011210321587 -0.519995485093592 1.1399803817947731
2.06487894058 0.8527563116476706 0.2013788272194695 -1.1200527607674606 2.0760911609015325 2.0501011210321587 -0.519995485093592 1.1399803817947731
2.06487894058 0.8527563116476706 0.2013788272194695 -1.1200527607674606 2.0760911609015325 2.0501011210321587 -0.519995485093592 1.1399803817947731
2.07489585876 0.8527563116476706 0.2013788272194695 -1.1200527607674606 2.0760911609015325 2.0501011210321587 -0.519995485093592 1.1399803817947731
2.07489585876 0.8527563116476706 0.2013788272194695 -1.1200527607674606 2.0760911609015325 2.0501011210321587 -0.519995485093592 1.1399803817947731
2.08491492271 0.8520813511481998 0.2013788272194695 -1.130806108724938 2.0760911609015325 2.0501011210321587 -0.519995485093592 1.1399803817947731
2.08491492271 0.8520813511481998 0.2013788272194695 -1.130806108724938 2.0760911609015325 2.0501011210321587 -0.519995485093592 1.1399803817947731
2.09456992149 0.85074677016061 0.2013788272194695 -1.152634944878277 2.0760911609015325 2.0501011210321587 -0.519995485093592 1.1399803817947731
2.09456992149 0.85074677016061 0.2013788272194695 -1.152634944878277 2.0760911609015325 2.0501011210321587 -0.519995485093592 1.1399803817947731
2.10448098183 0.85074677016061 0.2013788272194695 -1.152634944878277 2.0760911609015325 2.0501011210321587 -0.519995485093592 1.1399803817947731
2.10448098183 0.85074677016061 0.2013788272194695 -1.152634944878277 2.0760911609015325 2.0501011210321587 -0.519995485093592 1.1399803817947731
2.11454486847 0.85074677016061 0.2013788272194695 -1.152634944878277 2.0760911609015325 2.0501011210321587 -0.519995485093592 1.1399803817947731
2.11454486847 0.85074677016061 0.2013788272194695 -1.152634944878277 2.0760911609015325 2.0501011210321587 -0.519995485093592 1.1399803817947731
2.12446689606 0.85074677016061 0.2013788272194695 -1.152634944878277 2.0760911609015325 2.0501011210321587 -0.519995485093592 1.1399803817947731
2.12446689606 0.85074677016061 0.2013788272194695 -1.152634944878277 2.0760911609015325 2.0501011210321587 -0.519995485093592 1.1399803817947731
2.13449692726 0.85074677016061 0.2013788272194695 -1.152634944878277 2.0760911609015325 2.0501011210321587 -0.519995485093592 1.1399803817947731
2.13449692726 0.85074677016061 0.2013788272194695 -1.152634944878277 2.0760911609015325 2.0501011210321587 -0.519995485093592 1.1399803817947731
2.14456987381 0.85074677016061 0.2013788272194695 -1.152634944878277 2.0760911609015325 2.0501011210321587 -0.519995485093592 1.1399803817947731
2.14456987381 0.85074677016061 0.2013788272194695 -1.152634944878277 2.0760911609015325 2.0501011210321587 -0.519995485093592 1.1399803817947731
2.15486598015 0.85074677016061 0.2013788272194695 -1.152634944878277 2.0760911609015325 2.0501011210321587 -0.519995485093592 1.1399803817947731
2.15486598015 0.85074677016061 0.2013788272194695 -1.152634944878277 2.0760911609015325 2.0501011210321587 -0.519995485093592 1.1399803817947731
2.16489100456 0.8503019098314133 0.2013788272194695 -1.1606577708151682 2.0760911609015325 2.0501011210321587 -0.519995485093592 1.1399803817947731
2.16489100456 0.8503019098314133 0.2013788272194695 -1.1606577708151682 2.0760911609015325 2.0501011210321587 -0.519995485093592 1.1399803817947731
2.17493486404 0.8503019098314133 0.2013788272194695 -1.1606577708151682 2.0760911609015325 2.0501011210321587 -0.519995485093592 1.1399803817947731
2.17493486404 0.8503019098314133 0.2013788272194695 -1.1606577708151682 2.0760911609015325 2.0501011210321587 -0.519995485093592 1.1399803817947731
2.1850669384 0.8503019098314133 0.2013788272194695 -1.1606577708151682 2.0760911609015325 2.0501011210321587 -0.519995485093592 1.1399803817947731
2.1850669384 0.8503019098314133 0.2013788272194695 -1.1606577708151682 2.0760911609015325 2.0501011210321587 -0.519995485093592 1.1399803817947731
2.19455099106 0.8500871496724908 0.2013788272194695 -1.1692174971493656 2.0760911609015325 2.0501011210321587 -0.519995485093592 1.1399803817947731
2.19455099106 0.8500871496724908 0.2013788272194695 -1.1692174971493656 2.0760911609015325 2.0501011210321587 -0.519995485093592 1.1399803817947731
2.20443296432 0.8500871496724908 0.2013788272194695 -1.1692174971493656 2.0760911609015325 2.0501011210321587 -0.519995485093592 1.1399803817947731
2.20443296432 0.8500871496724908 0.2013788272194695 -1.1692174971493656 2.0760911609015325 2.0501011210321587 -0.519995485093592 1.1399803817947731
2.21488904953 0.8499797695930296 0.2013788272194695 -1.1776084833586955 2.0760911609015325 2.0501011210321587 -0.519995485093592 1.1399803817947731
2.21488904953 0.8499797695930296 0.2013788272194695 -1.1776084833586955 2.0760911609015325 2.0501011210321587 -0.519995485093592 1.1399803817947731
2.22889089584 0.8482003282762429 0.2013788272194695 -1.2085953062889443 2.0760911609015325 2.0501011210321587 -0.519995485093592 1.1399803817947731
2.22889089584 0.8482003282762429 0.2013788272194695 -1.2085953062889443 2.0760911609015325 2.0501011210321587 -0.519995485093592 1.1399803817947731
2.23468995094 0.8482003282762429 0.2013788272194695 -1.2085953062889443 2.0760911609015325 2.0501011210321587 -0.519995485093592 1.1399803817947731
2.23468995094 0.8482003282762429 0.2013788272194695 -1.2085953062889443 2.0760911609015325 2.0501011210321587 -0.519995485093592 1.1399803817947731
2.24468302727 0.8475560477994754 0.2013788272194695 -1.2158051116242004 2.0760911609015325 2.0501011210321587 -0.519995485093592 1.1399803817947731
2.24468302727 0.8475560477994754 0.2013788272194695 -1.2158051116242004 2.0760911609015325 2.0501011210321587 -0.519995485093592 1.1399803817947731
2.25467801094 0.8427699642577736 0.2013788272194695 -1.241668370763012 2.0760911609015325 2.0501011210321587 -0.519995485093592 1.1399803817947731
2.25467801094 0.8427699642577736 0.2013788272194695 -1.241668370763012 2.0760911609015325 2.0501011210321587 -0.519995485093592 1.1399803817947731
2.2645008564 0.8363424995014497 0.2013788272194695 -1.2583736431249135 2.0760911609015325 2.0501011210321587 -0.519995485093592 1.1399803817947731
2.2645008564 0.8363424995014497 0.2013788272194695 -1.2583736431249135 2.0760911609015325 2.0501011210321587 -0.519995485093592 1.1399803817947731
2.27446889877 0.8134245225421467 0.2013788272194695 -1.295496470595806 2.0760911609015325 2.0501011210321587 -0.519995485093592 1.1399803817947731
2.27446889877 0.8134245225421467 0.2013788272194695 -1.295496470595806 2.0760911609015325 2.0501011210321587 -0.519995485093592 1.1399803817947731
2.28451490402 0.8134245225421467 0.2013788272194695 -1.295496470595806 2.0760911609015325 2.0501011210321587 -0.519995485093592 1.1399803817947731
2.28451490402 0.8134245225421467 0.2013788272194695 -1.295496470595806 2.0760911609015325 2.0501011210321587 -0.519995485093592 1.1399803817947731
2.29469704628 0.8134245225421467 0.2013788272194695 -1.295496470595806 2.0760911609015325 2.0501011210321587 -0.519995485093592 1.1399803817947731
2.29469704628 0.8134245225421467 0.2013788272194695 -1.295496470595806 2.0760911609015325 2.0501011210321587 -0.519995485093592 1.1399803817947731
2.30453896523 0.7929302673763978 0.2013788272194695 -1.33435271934943 2.0760911609015325 2.0501011210321587 -0.519995485093592 1.1399803817947731
2.30453896523 0.7929302673763978 0.2013788272194695 -1.33435271934943 2.0760911609015325 2.0501011210321587 -0.519995485093592 1.1399803817947731
2.31445193291 0.7929302673763978 0.2013788272194695 -1.33435271934943 2.0760911609015325 2.0501011210321587 -0.519995485093592 1.1399803817947731
2.31445193291 0.7929302673763978 0.2013788272194695 -1.33435271934943 2.0760911609015325 2.0501011210321587 -0.519995485093592 1.1399803817947731
2.3244600296 0.7929302673763978 0.2013788272194695 -1.33435271934943 2.0760911609015325 2.0501011210321587 -0.519995485093592 1.1399803817947731
2.3244600296 0.7929302673763978 0.2013788272194695 -1.33435271934943 2.0760911609015325 2.0501011210321587 -0.519995485093592 1.1399803817947731
2.33455991745 0.7897088649925601 0.2013788272194695 -1.3411943644122477 2.0760911609015325 2.0501011210321587 -0.519995485093592 1.1399803817947731
2.33455991745 0.7897088649925601 0.2013788272194695 -1.3411943644122477 2.0760911609015325 2.0501011210321587 -0.519995485093592 1.1399803817947731
2.34478187561 0.7897088649925601 0.2013788272194695 -1.3411943644122477 2.0760911609015325 2.0501011210321587 -0.519995485093592 1.1399803817947731
2.34478187561 0.7897088649925601 0.2013788272194695 -1.3411943644122477 2.0760911609015325 2.0501011210321587 -0.519995485093592 1.1399803817947731
2.35487890244 0.7897088649925601 0.2013788272194695 -1.3411943644122477 2.0760911609015325 2.0501011210321587 -0.519995485093592 1.1399803817947731
2.35487890244 0.7897088649925601 0.2013788272194695 -1.3411943644122477 2.0760911609015325 2.0501011210321587 -0.519995485093592 1.1399803817947731
2.36620998383 0.786579502676832 0.2013788272194695 -1.3480513494864164 2.0760911609015325 2.0501011210321587 -0.519995485093592 1.1399803817947731
2.36620998383 0.786579502676832 0.2013788272194695 -1.3480513494864164 2.0760911609015325 2.0501011210321587 -0.519995485093592 1.1399803817947731
2.37462687492 0.7836649005200264 0.2013788272194695 -1.355583295060056 2.0760911609015325 2.0501011210321587 -0.519995485093592 1.1399803817947731
2.37462687492 0.7836649005200264 0.2013788272194695 -1.355583295060056 2.0760911609015325 2.0501011210321587 -0.519995485093592 1.1399803817947731
2.38467788696 0.7776209360474927 0.2013788272194695 -1.3709079664003128 2.076075820890181 2.0501011210321587 -0.519995485093592 1.1399803817947731
2.38467788696 0.7776209360474927 0.2013788272194695 -1.3709079664003128 2.076075820890181 2.0501011210321587 -0.519995485093592 1.1399803817947731
2.39472699165 0.7776209360474927 0.2013788272194695 -1.3709079664003128 2.076075820890181 2.0501011210321587 -0.519995485093592 1.1399803817947731
2.39472699165 0.7776209360474927 0.2013788272194695 -1.3709079664003128 2.076075820890181 2.0501011210321587 -0.519995485093592 1.1399803817947731
2.40475106239 0.7776209360474927 0.2013788272194695 -1.3709079664003128 2.076075820890181 2.0501011210321587 -0.519995485093592 1.1399803817947731
2.40475106239 0.7776209360474927 0.2013788272194695 -1.3709079664003128 2.076075820890181 2.0501011210321587 -0.519995485093592 1.1399803817947731
2.414675951 0.7741387534706776 0.2013788272194695 -1.3787620522123365 2.076060480878829 2.0501011210321587 -0.519995485093592 1.1399803817947731
2.414675951 0.7741387534706776 0.2013788272194695 -1.3787620522123365 2.076060480878829 2.0501011210321587 -0.519995485093592 1.1399803817947731
2.42477798462 0.7741387534706776 0.2013788272194695 -1.3787620522123365 2.076060480878829 2.0501011210321587 -0.519995485093592 1.1399803817947731
2.42477798462 0.7741387534706776 0.2013788272194695 -1.3787620522123365 2.076060480878829 2.0501011210321587 -0.519995485093592 1.1399803817947731
2.43491005898 0.7741387534706776 0.2013788272194695 -1.3787620522123365 2.076060480878829 2.0501011210321587 -0.519995485093592 1.1399803817947731
2.43491005898 0.7741387534706776 0.2013788272194695 -1.3787620522123365 2.076060480878829 2.0501011210321587 -0.519995485093592 1.1399803817947731
2.44486093521 0.7741387534706776 0.2013788272194695 -1.3787620522123365 2.076060480878829 2.0501011210321587 -0.519995485093592 1.1399803817947731
2.44486093521 0.7741387534706776 0.2013788272194695 -1.3787620522123365 2.076060480878829 2.0501011210321587 -0.519995485093592 1.1399803817947731
2.45472598076 0.770518510791698 0.2013788272194695 -1.3863246778086793 2.07596844081072 2.0501011210321587 -0.519995485093592 1.1399803817947731
2.45472598076 0.770518510791698 0.2013788272194695 -1.3863246778086793 2.07596844081072 2.0501011210321587 -0.519995485093592 1.1399803817947731
2.46474885941 0.7647353265121416 0.2013788272194695 -1.4025237297959778 2.075845720719907 2.0501011210321587 -0.519995485093592 1.1399803817947731
2.46474885941 0.7647353265121416 0.2013788272194695 -1.4025237297959778 2.075845720719907 2.0501011210321587 -0.519995485093592 1.1399803817947731
2.47472786903 0.7647353265121416 0.2013788272194695 -1.4025237297959778 2.075845720719907 2.0501011210321587 -0.519995485093592 1.1399803817947731
2.47472786903 0.7647353265121416 0.2013788272194695 -1.4025237297959778 2.075845720719907 2.0501011210321587 -0.519995485093592 1.1399803817947731
2.48482584953 0.7647353265121416 0.2013788272194695 -1.4025237297959778 2.075845720719907 2.0501011210321587 -0.519995485093592 1.1399803817947731
2.48482584953 0.7647353265121416 0.2013788272194695 -1.4025237297959778 2.075845720719907 2.0501011210321587 -0.519995485093592 1.1399803817947731
2.49490690231 0.7614372240715458 0.2013788272194695 -1.4104851956874624 2.075830380708555 2.0501011210321587 -0.519995485093592 1.1399803817947731
2.49490690231 0.7614372240715458 0.2013788272194695 -1.4104851956874624 2.075830380708555 2.0501011210321587 -0.519995485093592 1.1399803817947731
2.50495791435 0.7614372240715458 0.2013788272194695 -1.4104851956874624 2.075830380708555 2.0501011210321587 -0.519995485093592 1.1399803817947731
2.50495791435 0.7614372240715458 0.2013788272194695 -1.4104851956874624 2.075830380708555 2.0501011210321587 -0.519995485093592 1.1399803817947731
2.51492905617 0.7614372240715458 0.2013788272194695 -1.4104851956874624 2.075830380708555 2.0501011210321587 -0.519995485093592 1.1399803817947731
2.51492905617 0.7614372240715458 0.2013788272194695 -1.4104851956874624 2.075830380708555 2.0501011210321587 -0.519995485093592 1.1399803817947731
2.52487397194 0.7614372240715458 0.2013788272194695 -1.4104851956874624 2.075830380708555 2.0501011210321587 -0.519995485093592 1.1399803817947731
2.52487397194 0.7614372240715458 0.2013788272194695 -1.4104851956874624 2.075830380708555 2.0501011210321587 -0.519995485093592 1.1399803817947731
2.53499484062 0.7614372240715458 0.2013788272194695 -1.4104851956874624 2.075830380708555 2.0501011210321587 -0.519995485093592 1.1399803817947731
2.53499484062 0.7614372240715458 0.2013788272194695 -1.4104851956874624 2.075830380708555 2.0501011210321587 -0.519995485093592 1.1399803817947731
2.54485702515 0.7614372240715458 0.2013788272194695 -1.4104851956874624 2.075830380708555 2.0501011210321587 -0.519995485093592 1.1399803817947731
2.54485702515 0.7614372240715458 0.2013788272194695 -1.4104851956874624 2.075830380708555 2.0501011210321587 -0.519995485093592 1.1399803817947731
2.55492901802 0.7614372240715458 0.2013788272194695 -1.4104851956874624 2.075830380708555 2.0501011210321587 -0.519995485093592 1.1399803817947731
2.55492901802 0.7614372240715458 0.2013788272194695 -1.4104851956874624 2.075830380708555 2.0501011210321587 -0.519995485093592 1.1399803817947731
2.56485700607 0.7614372240715458 0.2013788272194695 -1.4104851956874624 2.075830380708555 2.0501011210321587 -0.519995485093592 1.1399803817947731
2.56485700607 0.7614372240715458 0.2013788272194695 -1.4104851956874624 2.075830380708555 2.0501011210321587 -0.519995485093592 1.1399803817947731
2.57484292984 0.7614372240715458 0.2013788272194695 -1.4104851956874624 2.075830380708555 2.0501011210321587 -0.519995485093592 1.1399803817947731
2.57484292984 0.7614372240715458 0.2013788272194695 -1.4104851956874624 2.075830380708555 2.0501011210321587 -0.519995485093592 1.1399803817947731
2.58487701416 0.7537365383730384 0.2013788272194695 -1.4265922076066513 2.075799700685852 2.0501011210321587 -0.519995485093592 1.1399803817947731
2.58487701416 0.7537365383730384 0.2013788272194695 -1.4265922076066513 2.075799700685852 2.0501011210321587 -0.519995485093592 1.1399803817947731
2.59452199936 0.750269695807575 0.2013788272194695 -1.4347377536343555 2.075799700685852 2.0501011210321587 -0.519995485093592 1.1399803817947731
2.59452199936 0.750269695807575 0.2013788272194695 -1.4347377536343555 2.075799700685852 2.0501011210321587 -0.519995485093592 1.1399803817947731
2.60471391678 0.750269695807575 0.2013788272194695 -1.4347377536343555 2.075799700685852 2.0501011210321587 -0.519995485093592 1.1399803817947731
2.60471391678 0.750269695807575 0.2013788272194695 -1.4347377536343555 2.075799700685852 2.0501011210321587 -0.519995485093592 1.1399803817947731
2.61492395401 0.750269695807575 0.2013788272194695 -1.4347377536343555 2.075799700685852 2.0501011210321587 -0.519995485093592 1.1399803817947731
2.61492395401 0.750269695807575 0.2013788272194695 -1.4347377536343555 2.075799700685852 2.0501011210321587 -0.519995485093592 1.1399803817947731
2.62487888336 0.7467875132307598 0.2013788272194695 -1.442392419298808 2.075799700685852 2.0501011210321587 -0.519995485093592 1.1399803817947731
2.62487888336 0.7467875132307598 0.2013788272194695 -1.442392419298808 2.075799700685852 2.0501011210321587 -0.519995485093592 1.1399803817947731
2.63490486145 0.7467875132307598 0.2013788272194695 -1.442392419298808 2.075799700685852 2.0501011210321587 -0.519995485093592 1.1399803817947731
2.63490486145 0.7467875132307598 0.2013788272194695 -1.442392419298808 2.075799700685852 2.0501011210321587 -0.519995485093592 1.1399803817947731
2.64483189583 0.7467875132307598 0.2013788272194695 -1.442392419298808 2.075799700685852 2.0501011210321587 -0.519995485093592 1.1399803817947731
2.64483189583 0.7467875132307598 0.2013788272194695 -1.442392419298808 2.075799700685852 2.0501011210321587 -0.519995485093592 1.1399803817947731
2.65475893021 0.7338252036386507 0.2013788272194695 -1.4653564162921655 2.075799700685852 2.0501011210321587 -0.519995485093592 1.1399803817947731
2.65475893021 0.7338252036386507 0.2013788272194695 -1.4653564162921655 2.075799700685852 2.0501011210321587 -0.519995485093592 1.1399803817947731
2.66470789909 0.7338252036386507 0.2013788272194695 -1.4653564162921655 2.075799700685852 2.0501011210321587 -0.519995485093592 1.1399803817947731
2.66470789909 0.7338252036386507 0.2013788272194695 -1.4653564162921655 2.075799700685852 2.0501011210321587 -0.519995485093592 1.1399803817947731
2.67487883568 0.7338252036386507 0.2013788272194695 -1.4653564162921655 2.075799700685852 2.0501011210321587 -0.519995485093592 1.1399803817947731
2.67487883568 0.7338252036386507 0.2013788272194695 -1.4653564162921655 2.075799700685852 2.0501011210321587 -0.519995485093592 1.1399803817947731
2.68488097191 0.724605856816334 0.2013788272194695 -1.4804049674280937 2.075799700685852 2.0501011210321587 -0.519995485093592 1.1399803817947731
2.68488097191 0.724605856816334 0.2013788272194695 -1.4804049674280937 2.075799700685852 2.0501011210321587 -0.519995485093592 1.1399803817947731
2.69458699226 0.7193749129454357 0.2013788272194695 -1.4879215729903816 2.075784360674501 2.0501011210321587 -0.519995485093592 1.1399803817947731
2.69458699226 0.7193749129454357 0.2013788272194695 -1.4879215729903816 2.075784360674501 2.0501011210321587 -0.519995485093592 1.1399803817947731
2.70446205139 0.7193749129454357 0.2013788272194695 -1.4879215729903816 2.075784360674501 2.0501011210321587 -0.519995485093592 1.1399803817947731
2.70446205139 0.7193749129454357 0.2013788272194695 -1.4879215729903816 2.075784360674501 2.0501011210321587 -0.519995485093592 1.1399803817947731
2.71468901634 0.7193749129454357 0.2013788272194695 -1.4879215729903816 2.075784360674501 2.0501011210321587 -0.519995485093592 1.1399803817947731
2.71468901634 0.7193749129454357 0.2013788272194695 -1.4879215729903816 2.075784360674501 2.0501011210321587 -0.519995485093592 1.1399803817947731
2.7246530056 0.7138985288929114 0.2013788272194695 -1.4949779782121215 2.0757690206631487 2.0501011210321587 -0.519995485093592 1.1399803817947731
2.7246530056 0.7138985288929114 0.2013788272194695 -1.4949779782121215 2.0757690206631487 2.0501011210321587 -0.519995485093592 1.1399803817947731
2.73482084274 0.7080693245793002 0.2013788272194695 -1.5020190434225098 2.0757536806517973 2.050091990113041 -0.519995485093592 1.1399803817947731
2.73482084274 0.7080693245793002 0.2013788272194695 -1.5020190434225098 2.0757536806517973 2.050091990113041 -0.519995485093592 1.1399803817947731
2.74487495422 0.7022247802543374 0.2013788272194695 -1.5090140885988432 2.075738340640445 2.0501011210321587 -0.519995485093592 1.1399803817947731
2.74487495422 0.7022247802543374 0.2013788272194695 -1.5090140885988432 2.075738340640445 2.0501011210321587 -0.519995485093592 1.1399803817947731
2.75479006767 0.6968864563039777 0.2013788272194695 -1.5152728132302995 2.0757076606177423 2.0501011210321587 -0.519995485093592 1.1399803817947731
2.75479006767 0.6968864563039777 0.2013788272194695 -1.5152728132302995 2.0757076606177423 2.0501011210321587 -0.519995485093592 1.1399803817947731
2.76482987404 0.6912413321265858 0.2013788272194695 -1.5211940576120204 2.075646300572336 2.0501011210321587 -0.519995485093592 1.1399803817947731
2.76482987404 0.6912413321265858 0.2013788272194695 -1.5211940576120204 2.075646300572336 2.0501011210321587 -0.519995485093592 1.1399803817947731
2.77490496635 0.6912413321265858 0.2013788272194695 -1.5211940576120204 2.075646300572336 2.0501011210321587 -0.519995485093592 1.1399803817947731
2.77490496635 0.6912413321265858 0.2013788272194695 -1.5211940576120204 2.075646300572336 2.0501011210321587 -0.519995485093592 1.1399803817947731
2.78473901749 0.6912413321265858 0.2013788272194695 -1.5211940576120204 2.075646300572336 2.0501011210321587 -0.519995485093592 1.1399803817947731
2.78473901749 0.6912413321265858 0.2013788272194695 -1.5211940576120204 2.075646300572336 2.0501011210321587 -0.519995485093592 1.1399803817947731
2.79492092133 0.6912413321265858 0.2013788272194695 -1.5211940576120204 2.075646300572336 2.0501011210321587 -0.519995485093592 1.1399803817947731
2.79492092133 0.6912413321265858 0.2013788272194695 -1.5211940576120204 2.075646300572336 2.0501011210321587 -0.519995485093592 1.1399803817947731
2.80485296249 0.6912413321265858 0.2013788272194695 -1.5211940576120204 2.075646300572336 2.0501011210321587 -0.519995485093592 1.1399803817947731
2.80485296249 0.6912413321265858 0.2013788272194695 -1.5211940576120204 2.075646300572336 2.0501011210321587 -0.519995485093592 1.1399803817947731
2.8148598671 0.6912413321265858 0.2013788272194695 -1.5211940576120204 2.075646300572336 2.0501011210321587 -0.519995485093592 1.1399803817947731
2.8148598671 0.6912413321265858 0.2013788272194695 -1.5211940576120204 2.075646300572336 2.0501011210321587 -0.519995485093592 1.1399803817947731
2.82499885559 0.6912413321265858 0.2013788272194695 -1.5211940576120204 2.075646300572336 2.0501011210321587 -0.519995485093592 1.1399803817947731
2.82499885559 0.6912413321265858 0.2013788272194695 -1.5211940576120204 2.075646300572336 2.0501011210321587 -0.519995485093592 1.1399803817947731
2.83495688438 0.6912413321265858 0.2013788272194695 -1.5211940576120204 2.075646300572336 2.0501011210321587 -0.519995485093592 1.1399803817947731
2.83495688438 0.6912413321265858 0.2013788272194695 -1.5211940576120204 2.075646300572336 2.0501011210321587 -0.519995485093592 1.1399803817947731
2.84498405457 0.6912413321265858 0.2013788272194695 -1.5211940576120204 2.075646300572336 2.0501011210321587 -0.519995485093592 1.1399803817947731
2.84498405457 0.6912413321265858 0.2013788272194695 -1.5211940576120204 2.075646300572336 2.0501011210321587 -0.519995485093592 1.1399803817947731
2.85494494438 0.6912413321265858 0.2013788272194695 -1.5211940576120204 2.075646300572336 2.0501011210321587 -0.519995485093592 1.1399803817947731
2.85494494438 0.6912413321265858 0.2013788272194695 -1.5211940576120204 2.075646300572336 2.0501011210321587 -0.519995485093592 1.1399803817947731
2.86487102509 0.6912413321265858 0.2013788272194695 -1.5211940576120204 2.075646300572336 2.0501011210321587 -0.519995485093592 1.1399803817947731
2.86487102509 0.6912413321265858 0.2013788272194695 -1.5211940576120204 2.075646300572336 2.0501011210321587 -0.519995485093592 1.1399803817947731
2.87483406067 0.6912413321265858 0.2013788272194695 -1.5211940576120204 2.075646300572336 2.0501011210321587 -0.519995485093592 1.1399803817947731
2.87483406067 0.6912413321265858 0.2013788272194695 -1.5211940576120204 2.075646300572336 2.0501011210321587 -0.519995485093592 1.1399803817947731
2.88485598564 0.6912413321265858 0.2013788272194695 -1.5211940576120204 2.075646300572336 2.0501011210321587 -0.519995485093592 1.1399803817947731
2.88485598564 0.6912413321265858 0.2013788272194695 -1.5211940576120204 2.075646300572336 2.0501011210321587 -0.519995485093592 1.1399803817947731
2.89492106438 0.6912413321265858 0.2013788272194695 -1.5211940576120204 2.075646300572336 2.0501011210321587 -0.519995485093592 1.1399803817947731
2.89492106438 0.6912413321265858 0.2013788272194695 -1.5211940576120204 2.075646300572336 2.0501011210321587 -0.519995485093592 1.1399803817947731
2.90490603447 0.6912413321265858 0.2013788272194695 -1.5211940576120204 2.075646300572336 2.0501011210321587 -0.519995485093592 1.1399803817947731
2.90490603447 0.6912413321265858 0.2013788272194695 -1.5211940576120204 2.075646300572336 2.0501011210321587 -0.519995485093592 1.1399803817947731
2.91464996338 0.6685227753148537 0.2013788272194695 -1.5432529939356332 2.07463385982313 2.0501011210321587 -0.519995485093592 1.1399803817947731
2.91464996338 0.6685227753148537 0.2013788272194695 -1.5432529939356332 2.07463385982313 2.0501011210321587 -0.519995485093592 1.1399803817947731
2.92478704453 0.6685227753148537 0.2013788272194695 -1.5432529939356332 2.07463385982313 2.0501011210321587 -0.519995485093592 1.1399803817947731
2.92478704453 0.6685227753148537 0.2013788272194695 -1.5432529939356332 2.07463385982313 2.0501011210321587 -0.519995485093592 1.1399803817947731
2.93491888046 0.6685227753148537 0.2013788272194695 -1.5432529939356332 2.07463385982313 2.0501011210321587 -0.519995485093592 1.1399803817947731
2.93491888046 0.6685227753148537 0.2013788272194695 -1.5432529939356332 2.07463385982313 2.0501011210321587 -0.519995485093592 1.1399803817947731
2.9448390007 0.6685227753148537 0.2013788272194695 -1.5432529939356332 2.07463385982313 2.0501011210321587 -0.519995485093592 1.1399803817947731
2.9448390007 0.6685227753148537 0.2013788272194695 -1.5432529939356332 2.07463385982313 2.0501011210321587 -0.519995485093592 1.1399803817947731
2.95494604111 0.6685227753148537 0.2013788272194695 -1.5432529939356332 2.07463385982313 2.0501011210321587 -0.519995485093592 1.1399803817947731
2.95494604111 0.6685227753148537 0.2013788272194695 -1.5432529939356332 2.07463385982313 2.0501011210321587 -0.519995485093592 1.1399803817947731
2.9649579525 0.6685227753148537 0.2013788272194695 -1.5432529939356332 2.07463385982313 2.0501011210321587 -0.519995485093592 1.1399803817947731
2.9649579525 0.6685227753148537 0.2013788272194695 -1.5432529939356332 2.07463385982313 2.0501011210321587 -0.519995485093592 1.1399803817947731
2.97480201721 0.6685227753148537 0.2013788272194695 -1.5432529939356332 2.07463385982313 2.0501011210321587 -0.519995485093592 1.1399803817947731
2.97480201721 0.6685227753148537 0.2013788272194695 -1.5432529939356332 2.07463385982313 2.0501011210321587 -0.519995485093592 1.1399803817947731
2.98487186432 0.6685227753148537 0.2013788272194695 -1.5432529939356332 2.07463385982313 2.0501011210321587 -0.519995485093592 1.1399803817947731
2.98487186432 0.6685227753148537 0.2013788272194695 -1.5432529939356332 2.07463385982313 2.0501011210321587 -0.519995485093592 1.1399803817947731
2.99499201775 0.6685227753148537 0.2013788272194695 -1.5432529939356332 2.07463385982313 2.0501011210321587 -0.519995485093592 1.1399803817947731
2.99499201775 0.6685227753148537 0.2013788272194695 -1.5432529939356332 2.07463385982313 2.0501011210321587 -0.519995485093592 1.1399803817947731
3.00487184525 0.6685227753148537 0.2013788272194695 -1.5432529939356332 2.07463385982313 2.0501011210321587 -0.519995485093592 1.1399803817947731
3.00487184525 0.6685227753148537 0.2013788272194695 -1.5432529939356332 2.07463385982313 2.0501011210321587 -0.519995485093592 1.1399803817947731
3.01496386528 0.6685227753148537 0.2013788272194695 -1.5432529939356332 2.07463385982313 2.0501011210321587 -0.519995485093592 1.1399803817947731
3.01496386528 0.6685227753148537 0.2013788272194695 -1.5432529939356332 2.07463385982313 2.0501011210321587 -0.519995485093592 1.1399803817947731
3.02489900589 0.6685227753148537 0.2013788272194695 -1.5432529939356332 2.07463385982313 2.0501011210321587 -0.519995485093592 1.1399803817947731
3.02489900589 0.6685227753148537 0.2013788272194695 -1.5432529939356332 2.07463385982313 2.0501011210321587 -0.519995485093592 1.1399803817947731
3.03487086296 0.6685227753148537 0.2013788272194695 -1.5432529939356332 2.07463385982313 2.0501011210321587 -0.519995485093592 1.1399803817947731
3.03487086296 0.6685227753148537 0.2013788272194695 -1.5432529939356332 2.07463385982313 2.0501011210321587 -0.519995485093592 1.1399803817947731
3.04485297203 0.6685227753148537 0.2013788272194695 -1.5432529939356332 2.07463385982313 2.0501011210321587 -0.519995485093592 1.1399803817947731
3.04485297203 0.6685227753148537 0.2013788272194695 -1.5432529939356332 2.07463385982313 2.0501011210321587 -0.519995485093592 1.1399803817947731
3.05495095253 0.6685227753148537 0.2013788272194695 -1.5432529939356332 2.07463385982313 2.0501011210321587 -0.519995485093592 1.1399803817947731
3.05495095253 0.6685227753148537 0.2013788272194695 -1.5432529939356332 2.07463385982313 2.0501011210321587 -0.519995485093592 1.1399803817947731
3.06484103203 0.6685227753148537 0.2013788272194695 -1.5432529939356332 2.07463385982313 2.0501011210321587 -0.519995485093592 1.1399803817947731
3.06484103203 0.6685227753148537 0.2013788272194695 -1.5432529939356332 2.07463385982313 2.0501011210321587 -0.519995485093592 1.1399803817947731
3.07486701012 0.6685227753148537 0.2013788272194695 -1.5432529939356332 2.07463385982313 2.0501011210321587 -0.519995485093592 1.1399803817947731
3.07486701012 0.6685227753148537 0.2013788272194695 -1.5432529939356332 2.07463385982313 2.0501011210321587 -0.519995485093592 1.1399803817947731
3.08483886719 0.6685227753148537 0.2013788272194695 -1.5432529939356332 2.07463385982313 2.0501011210321587 -0.519995485093592 1.1399803817947731
3.08483886719 0.6685227753148537 0.2013788272194695 -1.5432529939356332 2.07463385982313 2.0501011210321587 -0.519995485093592 1.1399803817947731
3.09475898743 0.6685227753148537 0.2013788272194695 -1.5432529939356332 2.07463385982313 2.0501011210321587 -0.519995485093592 1.1399803817947731
3.09475898743 0.6685227753148537 0.2013788272194695 -1.5432529939356332 2.07463385982313 2.0501011210321587 -0.519995485093592 1.1399803817947731
3.1048579216 0.6685227753148537 0.2013788272194695 -1.5432529939356332 2.07463385982313 2.0501011210321587 -0.519995485093592 1.1399803817947731
3.1048579216 0.6685227753148537 0.2013788272194695 -1.5432529939356332 2.07463385982313 2.0501011210321587 -0.519995485093592 1.1399803817947731
3.11494898796 0.6685227753148537 0.2013788272194695 -1.5432529939356332 2.07463385982313 2.0501011210321587 -0.519995485093592 1.1399803817947731
3.11494898796 0.6685227753148537 0.2013788272194695 -1.5432529939356332 2.07463385982313 2.0501011210321587 -0.519995485093592 1.1399803817947731
3.12479305267 0.6685227753148537 0.2013788272194695 -1.5432529939356332 2.07463385982313 2.0501011210321587 -0.519995485093592 1.1399803817947731
3.12479305267 0.6685227753148537 0.2013788272194695 -1.5432529939356332 2.07463385982313 2.0501011210321587 -0.519995485093592 1.1399803817947731
3.13494586945 0.6685227753148537 0.2013788272194695 -1.5432529939356332 2.07463385982313 2.0501011210321587 -0.519995485093592 1.1399803817947731
3.13494586945 0.6685227753148537 0.2013788272194695 -1.5432529939356332 2.07463385982313 2.0501011210321587 -0.519995485093592 1.1399803817947731
3.14495301247 0.6685227753148537 0.2013788272194695 -1.5432529939356332 2.07463385982313 2.0501011210321587 -0.519995485093592 1.1399803817947731
3.14495301247 0.6685227753148537 0.2013788272194695 -1.5432529939356332 2.07463385982313 2.0501011210321587 -0.519995485093592 1.1399803817947731
3.15488791466 0.6685227753148537 0.2013788272194695 -1.5432529939356332 2.07463385982313 2.0501011210321587 -0.519995485093592 1.1399803817947731
3.15488791466 0.6685227753148537 0.2013788272194695 -1.5432529939356332 2.07463385982313 2.0501011210321587 -0.519995485093592 1.1399803817947731
3.16491794586 0.6685227753148537 0.2013788272194695 -1.5432529939356332 2.07463385982313 2.0501011210321587 -0.519995485093592 1.1399803817947731
3.16491794586 0.6685227753148537 0.2013788272194695 -1.5432529939356332 2.07463385982313 2.0501011210321587 -0.519995485093592 1.1399803817947731
3.17498087883 0.6685227753148537 0.2013788272194695 -1.5432529939356332 2.07463385982313 2.0501011210321587 -0.519995485093592 1.1399803817947731
3.17498087883 0.6685227753148537 0.2013788272194695 -1.5432529939356332 2.07463385982313 2.0501011210321587 -0.519995485093592 1.1399803817947731
3.18501996994 0.6685227753148537 0.2013788272194695 -1.5432529939356332 2.07463385982313 2.0501011210321587 -0.519995485093592 1.1399803817947731
3.18501996994 0.6685227753148537 0.2013788272194695 -1.5432529939356332 2.07463385982313 2.0501011210321587 -0.519995485093592 1.1399803817947731
3.19497704506 0.6685227753148537 0.2013788272194695 -1.5432529939356332 2.07463385982313 2.0501011210321587 -0.519995485093592 1.1399803817947731
3.19497704506 0.6685227753148537 0.2013788272194695 -1.5432529939356332 2.07463385982313 2.0501011210321587 -0.519995485093592 1.1399803817947731
3.20492196083 0.6685227753148537 0.2013788272194695 -1.5432529939356332 2.07463385982313 2.0501011210321587 -0.519995485093592 1.1399803817947731
3.20492196083 0.6685227753148537 0.2013788272194695 -1.5432529939356332 2.07463385982313 2.0501011210321587 -0.519995485093592 1.1399803817947731
3.21507000923 0.6685227753148537 0.2013788272194695 -1.5432529939356332 2.07463385982313 2.0501011210321587 -0.519995485093592 1.1399803817947731
3.21507000923 0.6685227753148537 0.2013788272194695 -1.5432529939356332 2.07463385982313 2.0501011210321587 -0.519995485093592 1.1399803817947731
3.22490692139 0.6685227753148537 0.2013788272194695 -1.5432529939356332 2.07463385982313 2.0501011210321587 -0.519995485093592 1.1399803817947731
3.22490692139 0.6685227753148537 0.2013788272194695 -1.5432529939356332 2.07463385982313 2.0501011210321587 -0.519995485093592 1.1399803817947731
3.23494696617 0.6685227753148537 0.2013788272194695 -1.5432529939356332 2.07463385982313 2.0501011210321587 -0.519995485093592 1.1399803817947731
3.23494696617 0.6685227753148537 0.2013788272194695 -1.5432529939356332 2.07463385982313 2.0501011210321587 -0.519995485093592 1.1399803817947731
3.24493384361 0.6685227753148537 0.2013788272194695 -1.5432529939356332 2.07463385982313 2.0501011210321587 -0.519995485093592 1.1399803817947731
3.24493384361 0.6685227753148537 0.2013788272194695 -1.5432529939356332 2.07463385982313 2.0501011210321587 -0.519995485093592 1.1399803817947731
3.2549738884 0.6685227753148537 0.2013788272194695 -1.5432529939356332 2.07463385982313 2.0501011210321587 -0.519995485093592 1.1399803817947731
3.2549738884 0.6685227753148537 0.2013788272194695 -1.5432529939356332 2.07463385982313 2.0501011210321587 -0.519995485093592 1.1399803817947731
3.26489591599 0.6685227753148537 0.2013788272194695 -1.5432529939356332 2.07463385982313 2.0501011210321587 -0.519995485093592 1.1399803817947731
3.26489591599 0.6685227753148537 0.2013788272194695 -1.5432529939356332 2.07463385982313 2.0501011210321587 -0.519995485093592 1.1399803817947731
3.27502989769 0.6685227753148537 0.2013788272194695 -1.5432529939356332 2.07463385982313 2.0501011210321587 -0.519995485093592 1.1399803817947731
3.27502989769 0.6685227753148537 0.2013788272194695 -1.5432529939356332 2.07463385982313 2.0501011210321587 -0.519995485093592 1.1399803817947731
3.28476190567 0.6685227753148537 0.2013788272194695 -1.5432529939356332 2.07463385982313 2.0501011210321587 -0.519995485093592 1.1399803817947731
3.28476190567 0.6685227753148537 0.2013788272194695 -1.5432529939356332 2.07463385982313 2.0501011210321587 -0.519995485093592 1.1399803817947731
3.29474186897 0.6685227753148537 0.2013788272194695 -1.5432529939356332 2.07463385982313 2.0501011210321587 -0.519995485093592 1.1399803817947731
3.29474186897 0.6685227753148537 0.2013788272194695 -1.5432529939356332 2.07463385982313 2.0501011210321587 -0.519995485093592 1.1399803817947731
3.30485701561 0.6685227753148537 0.2013788272194695 -1.5432529939356332 2.07463385982313 2.0501011210321587 -0.519995485093592 1.1399803817947731
3.30485701561 0.6685227753148537 0.2013788272194695 -1.5432529939356332 2.07463385982313 2.0501011210321587 -0.519995485093592 1.1399803817947731
3.31492805481 0.6685227753148537 0.2013788272194695 -1.5432529939356332 2.07463385982313 2.0501011210321587 -0.519995485093592 1.1399803817947731
3.31492805481 0.6685227753148537 0.2013788272194695 -1.5432529939356332 2.07463385982313 2.0501011210321587 -0.519995485093592 1.1399803817947731
3.3248770237 0.6685227753148537 0.2013788272194695 -1.5432529939356332 2.07463385982313 2.0501011210321587 -0.519995485093592 1.1399803817947731
3.3248770237 0.6685227753148537 0.2013788272194695 -1.5432529939356332 2.07463385982313 2.0501011210321587 -0.519995485093592 1.1399803817947731
3.33498883247 0.6685227753148537 0.2013788272194695 -1.5432529939356332 2.07463385982313 2.0501011210321587 -0.519995485093592 1.1399803817947731
3.33498883247 0.6685227753148537 0.2013788272194695 -1.5432529939356332 2.07463385982313 2.0501011210321587 -0.519995485093592 1.1399803817947731
3.34485387802 0.6685227753148537 0.2013788272194695 -1.5432529939356332 2.07463385982313 2.0501011210321587 -0.519995485093592 1.1399803817947731
3.34485387802 0.6685227753148537 0.2013788272194695 -1.5432529939356332 2.07463385982313 2.0501011210321587 -0.519995485093592 1.1399803817947731
3.35498905182 0.6685227753148537 0.2013788272194695 -1.5432529939356332 2.07463385982313 2.0501011210321587 -0.519995485093592 1.1399803817947731
3.35498905182 0.6685227753148537 0.2013788272194695 -1.5432529939356332 2.07463385982313 2.0501011210321587 -0.519995485093592 1.1399803817947731
3.36490988731 0.6685227753148537 0.2013788272194695 -1.5432529939356332 2.07463385982313 2.0501011210321587 -0.519995485093592 1.1399803817947731
3.36490988731 0.6685227753148537 0.2013788272194695 -1.5432529939356332 2.07463385982313 2.0501011210321587 -0.519995485093592 1.1399803817947731
3.37480783463 0.6685227753148537 0.2013788272194695 -1.5432529939356332 2.07463385982313 2.0501011210321587 -0.519995485093592 1.1399803817947731
3.37480783463 0.6685227753148537 0.2013788272194695 -1.5432529939356332 2.07463385982313 2.0501011210321587 -0.519995485093592 1.1399803817947731
3.38488006592 0.6685227753148537 0.2013788272194695 -1.5432529939356332 2.07463385982313 2.0501011210321587 -0.519995485093592 1.1399803817947731
3.38488006592 0.6685227753148537 0.2013788272194695 -1.5432529939356332 2.07463385982313 2.0501011210321587 -0.519995485093592 1.1399803817947731
3.39500188828 0.6685227753148537 0.2013788272194695 -1.5432529939356332 2.07463385982313 2.0501011210321587 -0.519995485093592 1.1399803817947731
3.39500188828 0.6685227753148537 0.2013788272194695 -1.5432529939356332 2.07463385982313 2.0501011210321587 -0.519995485093592 1.1399803817947731
3.40480804443 0.6685227753148537 0.2013788272194695 -1.5432529939356332 2.07463385982313 2.0501011210321587 -0.519995485093592 1.1399803817947731
3.40480804443 0.6685227753148537 0.2013788272194695 -1.5432529939356332 2.07463385982313 2.0501011210321587 -0.519995485093592 1.1399803817947731
3.4149620533 0.6685227753148537 0.2013788272194695 -1.5432529939356332 2.07463385982313 2.0501011210321587 -0.519995485093592 1.1399803817947731
3.4149620533 0.6685227753148537 0.2013788272194695 -1.5432529939356332 2.07463385982313 2.0501011210321587 -0.519995485093592 1.1399803817947731
3.42489790916 0.6685227753148537 0.2013788272194695 -1.5432529939356332 2.07463385982313 2.0501011210321587 -0.519995485093592 1.1399803817947731
3.42489790916 0.6685227753148537 0.2013788272194695 -1.5432529939356332 2.07463385982313 2.0501011210321587 -0.519995485093592 1.1399803817947731
3.43481898308 0.6685227753148537 0.2013788272194695 -1.5432529939356332 2.07463385982313 2.0501011210321587 -0.519995485093592 1.1399803817947731
3.43481898308 0.6685227753148537 0.2013788272194695 -1.5432529939356332 2.07463385982313 2.0501011210321587 -0.519995485093592 1.1399803817947731
3.44487595558 0.6685227753148537 0.2013788272194695 -1.5432529939356332 2.07463385982313 2.0501011210321587 -0.519995485093592 1.1399803817947731
3.44487595558 0.6685227753148537 0.2013788272194695 -1.5432529939356332 2.07463385982313 2.0501011210321587 -0.519995485093592 1.1399803817947731
3.45499205589 0.6685227753148537 0.2013788272194695 -1.5432529939356332 2.07463385982313 2.0501011210321587 -0.519995485093592 1.1399803817947731
3.45499205589 0.6685227753148537 0.2013788272194695 -1.5432529939356332 2.07463385982313 2.0501011210321587 -0.519995485093592 1.1399803817947731
3.46502685547 0.6685227753148537 0.2013788272194695 -1.5432529939356332 2.07463385982313 2.0501011210321587 -0.519995485093592 1.1399803817947731
3.46502685547 0.6685227753148537 0.2013788272194695 -1.5432529939356332 2.07463385982313 2.0501011210321587 -0.519995485093592 1.1399803817947731
3.47497105598 0.6685227753148537 0.2013788272194695 -1.5432529939356332 2.07463385982313 2.0501011210321587 -0.519995485093592 1.1399803817947731
3.47497105598 0.6685227753148537 0.2013788272194695 -1.5432529939356332 2.07463385982313 2.0501011210321587 -0.519995485093592 1.1399803817947731
3.4848818779 0.6685227753148537 0.2013788272194695 -1.5432529939356332 2.07463385982313 2.0501011210321587 -0.519995485093592 1.1399803817947731
3.4848818779 0.6685227753148537 0.2013788272194695 -1.5432529939356332 2.07463385982313 2.0501011210321587 -0.519995485093592 1.1399803817947731
3.49497389793 0.6685227753148537 0.2013788272194695 -1.5432529939356332 2.07463385982313 2.0501011210321587 -0.519995485093592 1.1399803817947731
3.49497389793 0.6685227753148537 0.2013788272194695 -1.5432529939356332 2.07463385982313 2.0501011210321587 -0.519995485093592 1.1399803817947731
3.50491285324 0.6685227753148537 0.2013788272194695 -1.5432529939356332 2.07463385982313 2.0501011210321587 -0.519995485093592 1.1399803817947731
3.50491285324 0.6685227753148537 0.2013788272194695 -1.5432529939356332 2.07463385982313 2.0501011210321587 -0.519995485093592 1.1399803817947731
3.5149679184 0.6685227753148537 0.2013788272194695 -1.5432529939356332 2.07463385982313 2.0501011210321587 -0.519995485093592 1.1399803817947731
3.5149679184 0.6685227753148537 0.2013788272194695 -1.5432529939356332 2.07463385982313 2.0501011210321587 -0.519995485093592 1.1399803817947731
3.52483797073 0.6685227753148537 0.2013788272194695 -1.5432529939356332 2.07463385982313 2.0501011210321587 -0.519995485093592 1.1399803817947731
3.52483797073 0.6685227753148537 0.2013788272194695 -1.5432529939356332 2.07463385982313 2.0501011210321587 -0.519995485093592 1.1399803817947731
3.53496694565 0.6685227753148537 0.2013788272194695 -1.5432529939356332 2.07463385982313 2.0501011210321587 -0.519995485093592 1.1399803817947731
3.53496694565 0.6685227753148537 0.2013788272194695 -1.5432529939356332 2.07463385982313 2.0501011210321587 -0.519995485093592 1.1399803817947731
3.54488706589 0.6685227753148537 0.2013788272194695 -1.5432529939356332 2.07463385982313 2.0501011210321587 -0.519995485093592 1.1399803817947731
3.54488706589 0.6685227753148537 0.2013788272194695 -1.5432529939356332 2.07463385982313 2.0501011210321587 -0.519995485093592 1.1399803817947731
3.55487704277 0.6685227753148537 0.2013788272194695 -1.5432529939356332 2.07463385982313 2.0501011210321587 -0.519995485093592 1.1399803817947731
3.55487704277 0.6685227753148537 0.2013788272194695 -1.5432529939356332 2.07463385982313 2.0501011210321587 -0.519995485093592 1.1399803817947731
3.56488204002 0.6685227753148537 0.2013788272194695 -1.5432529939356332 2.07463385982313 2.0501011210321587 -0.519995485093592 1.1399803817947731
3.56488204002 0.6685227753148537 0.2013788272194695 -1.5432529939356332 2.07463385982313 2.0501011210321587 -0.519995485093592 1.1399803817947731
3.5749938488 0.6685227753148537 0.2013788272194695 -1.5432529939356332 2.07463385982313 2.0501011210321587 -0.519995485093592 1.1399803817947731
3.5749938488 0.6685227753148537 0.2013788272194695 -1.5432529939356332 2.07463385982313 2.0501011210321587 -0.519995485093592 1.1399803817947731
3.58500289917 0.6685227753148537 0.2013788272194695 -1.5432529939356332 2.07463385982313 2.0501011210321587 -0.519995485093592 1.1399803817947731
3.58500289917 0.6685227753148537 0.2013788272194695 -1.5432529939356332 2.07463385982313 2.0501011210321587 -0.519995485093592 1.1399803817947731
3.59497594833 0.6685227753148537 0.2013788272194695 -1.5432529939356332 2.07463385982313 2.0501011210321587 -0.519995485093592 1.1399803817947731
3.59497594833 0.6685227753148537 0.2013788272194695 -1.5432529939356332 2.07463385982313 2.0501011210321587 -0.519995485093592 1.1399803817947731
3.60488295555 0.6685227753148537 0.2013788272194695 -1.5432529939356332 2.07463385982313 2.0501011210321587 -0.519995485093592 1.1399803817947731
3.60488295555 0.6685227753148537 0.2013788272194695 -1.5432529939356332 2.07463385982313 2.0501011210321587 -0.519995485093592 1.1399803817947731
3.61497688293 0.6685227753148537 0.2013788272194695 -1.5432529939356332 2.07463385982313 2.0501011210321587 -0.519995485093592 1.1399803817947731
3.61497688293 0.6685227753148537 0.2013788272194695 -1.5432529939356332 2.07463385982313 2.0501011210321587 -0.519995485093592 1.1399803817947731
3.62485003471 0.6685227753148537 0.2013788272194695 -1.5432529939356332 2.07463385982313 2.0501011210321587 -0.519995485093592 1.1399803817947731
3.62485003471 0.6685227753148537 0.2013788272194695 -1.5432529939356332 2.07463385982313 2.0501011210321587 -0.519995485093592 1.1399803817947731
3.63495588303 0.6685227753148537 0.2013788272194695 -1.5432529939356332 2.07463385982313 2.0501011210321587 -0.519995485093592 1.1399803817947731
3.63495588303 0.6685227753148537 0.2013788272194695 -1.5432529939356332 2.07463385982313 2.0501011210321587 -0.519995485093592 1.1399803817947731
3.64499783516 0.6685227753148537 0.2013788272194695 -1.5432529939356332 2.07463385982313 2.0501011210321587 -0.519995485093592 1.1399803817947731
3.64499783516 0.6685227753148537 0.2013788272194695 -1.5432529939356332 2.07463385982313 2.0501011210321587 -0.519995485093592 1.1399803817947731
3.65496397018 0.6685227753148537 0.2013788272194695 -1.5432529939356332 2.07463385982313 2.0501011210321587 -0.519995485093592 1.1399803817947731
3.65496397018 0.6685227753148537 0.2013788272194695 -1.5432529939356332 2.07463385982313 2.0501011210321587 -0.519995485093592 1.1399803817947731
3.66491484642 0.6685227753148537 0.2013788272194695 -1.5432529939356332 2.07463385982313 2.0501011210321587 -0.519995485093592 1.1399803817947731
3.66491484642 0.6685227753148537 0.2013788272194695 -1.5432529939356332 2.07463385982313 2.0501011210321587 -0.519995485093592 1.1399803817947731
3.67497396469 0.6685227753148537 0.2013788272194695 -1.5432529939356332 2.07463385982313 2.0501011210321587 -0.519995485093592 1.1399803817947731
3.67497396469 0.6685227753148537 0.2013788272194695 -1.5432529939356332 2.07463385982313 2.0501011210321587 -0.519995485093592 1.1399803817947731
3.68487691879 0.6685227753148537 0.2013788272194695 -1.5432529939356332 2.07463385982313 2.0501011210321587 -0.519995485093592 1.1399803817947731
3.68487691879 0.6685227753148537 0.2013788272194695 -1.5432529939356332 2.07463385982313 2.0501011210321587 -0.519995485093592 1.1399803817947731
3.69494199753 0.6685227753148537 0.2013788272194695 -1.5432529939356332 2.07463385982313 2.0501011210321587 -0.519995485093592 1.1399803817947731
3.69494199753 0.6685227753148537 0.2013788272194695 -1.5432529939356332 2.07463385982313 2.0501011210321587 -0.519995485093592 1.1399803817947731
3.70491290092 0.6685227753148537 0.2013788272194695 -1.5432529939356332 2.07463385982313 2.0501011210321587 -0.519995485093592 1.1399803817947731
3.70491290092 0.6685227753148537 0.2013788272194695 -1.5432529939356332 2.07463385982313 2.0501011210321587 -0.519995485093592 1.1399803817947731
3.71486091614 0.6685227753148537 0.2013788272194695 -1.5432529939356332 2.07463385982313 2.0501011210321587 -0.519995485093592 1.1399803817947731
3.71486091614 0.6685227753148537 0.2013788272194695 -1.5432529939356332 2.07463385982313 2.0501011210321587 -0.519995485093592 1.1399803817947731
3.72492694855 0.6685227753148537 0.2013788272194695 -1.5432529939356332 2.07463385982313 2.0501011210321587 -0.519995485093592 1.1399803817947731
3.72492694855 0.6685227753148537 0.2013788272194695 -1.5432529939356332 2.07463385982313 2.0501011210321587 -0.519995485093592 1.1399803817947731
3.73510694504 0.6685227753148537 0.2013788272194695 -1.5432529939356332 2.07463385982313 2.0501011210321587 -0.519995485093592 1.1399803817947731
3.73510694504 0.6685227753148537 0.2013788272194695 -1.5432529939356332 2.07463385982313 2.0501011210321587 -0.519995485093592 1.1399803817947731
3.74475288391 0.6685227753148537 0.2013788272194695 -1.5432529939356332 2.07463385982313 2.0501011210321587 -0.519995485093592 1.1399803817947731
3.74475288391 0.6685227753148537 0.2013788272194695 -1.5432529939356332 2.07463385982313 2.0501011210321587 -0.519995485093592 1.1399803817947731
3.7550008297 0.6685227753148537 0.2013788272194695 -1.5432529939356332 2.07463385982313 2.0501011210321587 -0.519995485093592 1.1399803817947731
3.7550008297 0.6685227753148537 0.2013788272194695 -1.5432529939356332 2.07463385982313 2.0501011210321587 -0.519995485093592 1.1399803817947731
3.7648859024 0.6685227753148537 0.2013788272194695 -1.5432529939356332 2.07463385982313 2.0501011210321587 -0.519995485093592 1.1399803817947731
3.7648859024 0.6685227753148537 0.2013788272194695 -1.5432529939356332 2.07463385982313 2.0501011210321587 -0.519995485093592 1.1399803817947731
3.77500104904 0.6685227753148537 0.2013788272194695 -1.5432529939356332 2.07463385982313 2.0501011210321587 -0.519995485093592 1.1399803817947731
3.77500104904 0.6685227753148537 0.2013788272194695 -1.5432529939356332 2.07463385982313 2.0501011210321587 -0.519995485093592 1.1399803817947731
3.78488898277 0.6685227753148537 0.2013788272194695 -1.5432529939356332 2.07463385982313 2.0501011210321587 -0.519995485093592 1.1399803817947731
3.78488898277 0.6685227753148537 0.2013788272194695 -1.5432529939356332 2.07463385982313 2.0501011210321587 -0.519995485093592 1.1399803817947731
3.79491496086 0.6685227753148537 0.2013788272194695 -1.5432529939356332 2.07463385982313 2.0501011210321587 -0.519995485093592 1.1399803817947731
3.79491496086 0.6685227753148537 0.2013788272194695 -1.5432529939356332 2.07463385982313 2.0501011210321587 -0.519995485093592 1.1399803817947731
3.80503487587 0.6685227753148537 0.2013788272194695 -1.5432529939356332 2.07463385982313 2.0501011210321587 -0.519995485093592 1.1399803817947731
3.80503487587 0.6685227753148537 0.2013788272194695 -1.5432529939356332 2.07463385982313 2.0501011210321587 -0.519995485093592 1.1399803817947731
3.81497883797 0.6685227753148537 0.2013788272194695 -1.5432529939356332 2.07463385982313 2.0501011210321587 -0.519995485093592 1.1399803817947731
3.81497883797 0.6685227753148537 0.2013788272194695 -1.5432529939356332 2.07463385982313 2.0501011210321587 -0.519995485093592 1.1399803817947731
3.82489299774 0.6685227753148537 0.2013788272194695 -1.5432529939356332 2.07463385982313 2.0501011210321587 -0.519995485093592 1.1399803817947731
3.82489299774 0.6685227753148537 0.2013788272194695 -1.5432529939356332 2.07463385982313 2.0501011210321587 -0.519995485093592 1.1399803817947731
3.83475399017 0.6685227753148537 0.2013788272194695 -1.5432529939356332 2.07463385982313 2.0501011210321587 -0.519995485093592 1.1399803817947731
3.83475399017 0.6685227753148537 0.2013788272194695 -1.5432529939356332 2.07463385982313 2.0501011210321587 -0.519995485093592 1.1399803817947731
3.8447830677 0.6685227753148537 0.2013788272194695 -1.5432529939356332 2.07463385982313 2.0501011210321587 -0.519995485093592 1.1399803817947731
3.8447830677 0.6685227753148537 0.2013788272194695 -1.5432529939356332 2.07463385982313 2.0501011210321587 -0.519995485093592 1.1399803817947731
3.85496687889 0.6685227753148537 0.2013788272194695 -1.5432529939356332 2.07463385982313 2.0501011210321587 -0.519995485093592 1.1399803817947731
3.85496687889 0.6685227753148537 0.2013788272194695 -1.5432529939356332 2.07463385982313 2.0501011210321587 -0.519995485093592 1.1399803817947731
3.86487793922 0.6685227753148537 0.2013788272194695 -1.5432529939356332 2.07463385982313 2.0501011210321587 -0.519995485093592 1.1399803817947731
3.86487793922 0.6685227753148537 0.2013788272194695 -1.5432529939356332 2.07463385982313 2.0501011210321587 -0.519995485093592 1.1399803817947731
3.874958992 0.6685227753148537 0.2013788272194695 -1.5432529939356332 2.07463385982313 2.0501011210321587 -0.519995485093592 1.1399803817947731
3.874958992 0.6685227753148537 0.2013788272194695 -1.5432529939356332 2.07463385982313 2.0501011210321587 -0.519995485093592 1.1399803817947731
3.8849029541 0.6685227753148537 0.2013788272194695 -1.5432529939356332 2.07463385982313 2.0501011210321587 -0.519995485093592 1.1399803817947731
3.8849029541 0.6685227753148537 0.2013788272194695 -1.5432529939356332 2.07463385982313 2.0501011210321587 -0.519995485093592 1.1399803817947731
3.8949649334 0.6685227753148537 0.2013788272194695 -1.5432529939356332 2.07463385982313 2.0501011210321587 -0.519995485093592 1.1399803817947731
3.8949649334 0.6685227753148537 0.2013788272194695 -1.5432529939356332 2.07463385982313 2.0501011210321587 -0.519995485093592 1.1399803817947731
3.90489602089 0.6685227753148537 0.2013788272194695 -1.5432529939356332 2.07463385982313 2.0501011210321587 -0.519995485093592 1.1399803817947731
3.90489602089 0.6685227753148537 0.2013788272194695 -1.5432529939356332 2.07463385982313 2.0501011210321587 -0.519995485093592 1.1399803817947731
3.91499185562 0.6685227753148537 0.2013788272194695 -1.5432529939356332 2.07463385982313 2.0501011210321587 -0.519995485093592 1.1399803817947731
3.91499185562 0.6685227753148537 0.2013788272194695 -1.5432529939356332 2.07463385982313 2.0501011210321587 -0.519995485093592 1.1399803817947731
3.92495799065 0.6685227753148537 0.2013788272194695 -1.5432529939356332 2.07463385982313 2.0501011210321587 -0.519995485093592 1.1399803817947731
3.92495799065 0.6685227753148537 0.2013788272194695 -1.5432529939356332 2.07463385982313 2.0501011210321587 -0.519995485093592 1.1399803817947731
3.93477392197 0.6685227753148537 0.2013788272194695 -1.5432529939356332 2.07463385982313 2.0501011210321587 -0.519995485093592 1.1399803817947731
3.93477392197 0.6685227753148537 0.2013788272194695 -1.5432529939356332 2.07463385982313 2.0501011210321587 -0.519995485093592 1.1399803817947731
3.94468784332 0.6685227753148537 0.2013788272194695 -1.5432529939356332 2.07463385982313 2.0501011210321587 -0.519995485093592 1.1399803817947731
3.94468784332 0.6685227753148537 0.2013788272194695 -1.5432529939356332 2.07463385982313 2.0501011210321587 -0.519995485093592 1.1399803817947731
3.95500087738 0.6685227753148537 0.2013788272194695 -1.5432529939356332 2.07463385982313 2.0501011210321587 -0.519995485093592 1.1399803817947731
3.95500087738 0.6685227753148537 0.2013788272194695 -1.5432529939356332 2.07463385982313 2.0501011210321587 -0.519995485093592 1.1399803817947731
3.96472287178 0.6685227753148537 0.2013788272194695 -1.5432529939356332 2.07463385982313 2.0501011210321587 -0.519995485093592 1.1399803817947731
3.96472287178 0.6685227753148537 0.2013788272194695 -1.5432529939356332 2.07463385982313 2.0501011210321587 -0.519995485093592 1.1399803817947731
3.97495388985 0.6685227753148537 0.2013788272194695 -1.5432529939356332 2.07463385982313 2.0501011210321587 -0.519995485093592 1.1399803817947731
3.97495388985 0.6685227753148537 0.2013788272194695 -1.5432529939356332 2.07463385982313 2.0501011210321587 -0.519995485093592 1.1399803817947731
3.98488783836 0.6685227753148537 0.2013788272194695 -1.5432529939356332 2.07463385982313 2.0501011210321587 -0.519995485093592 1.1399803817947731
3.98488783836 0.6685227753148537 0.2013788272194695 -1.5432529939356332 2.07463385982313 2.0501011210321587 -0.519995485093592 1.1399803817947731
3.99489784241 0.6685227753148537 0.2013788272194695 -1.5432529939356332 2.07463385982313 2.0501011210321587 -0.519995485093592 1.1399803817947731
3.99489784241 0.6685227753148537 0.2013788272194695 -1.5432529939356332 2.07463385982313 2.0501011210321587 -0.519995485093592 1.1399803817947731
4.00488400459 0.6685227753148537 0.2013788272194695 -1.5432529939356332 2.07463385982313 2.0501011210321587 -0.519995485093592 1.1399803817947731
4.00488400459 0.6685227753148537 0.2013788272194695 -1.5432529939356332 2.07463385982313 2.0501011210321587 -0.519995485093592 1.1399803817947731
4.01499700546 0.6685227753148537 0.2013788272194695 -1.5432529939356332 2.07463385982313 2.0501011210321587 -0.519995485093592 1.1399803817947731
4.01499700546 0.6685227753148537 0.2013788272194695 -1.5432529939356332 2.07463385982313 2.0501011210321587 -0.519995485093592 1.1399803817947731
4.02485489845 0.6685227753148537 0.2013788272194695 -1.5432529939356332 2.07463385982313 2.0501011210321587 -0.519995485093592 1.1399803817947731
4.02485489845 0.6685227753148537 0.2013788272194695 -1.5432529939356332 2.07463385982313 2.0501011210321587 -0.519995485093592 1.1399803817947731
4.03500294685 0.6685227753148537 0.2013788272194695 -1.5432529939356332 2.07463385982313 2.0501011210321587 -0.519995485093592 1.1399803817947731
4.03500294685 0.6685227753148537 0.2013788272194695 -1.5432529939356332 2.07463385982313 2.0501011210321587 -0.519995485093592 1.1399803817947731
4.04488492012 0.6685227753148537 0.2013788272194695 -1.5432529939356332 2.07463385982313 2.0501011210321587 -0.519995485093592 1.1399803817947731
4.04488492012 0.6685227753148537 0.2013788272194695 -1.5432529939356332 2.07463385982313 2.0501011210321587 -0.519995485093592 1.1399803817947731
4.05474591255 0.6685227753148537 0.2013788272194695 -1.5432529939356332 2.07463385982313 2.0501011210321587 -0.519995485093592 1.1399803817947731
4.05474591255 0.6685227753148537 0.2013788272194695 -1.5432529939356332 2.07463385982313 2.0501011210321587 -0.519995485093592 1.1399803817947731
4.06487703323 0.6685227753148537 0.2013788272194695 -1.5432529939356332 2.07463385982313 2.0501011210321587 -0.519995485093592 1.1399803817947731
4.06487703323 0.6685227753148537 0.2013788272194695 -1.5432529939356332 2.07463385982313 2.0501011210321587 -0.519995485093592 1.1399803817947731
4.07500600815 0.6685227753148537 0.2013788272194695 -1.5432529939356332 2.07463385982313 2.0501011210321587 -0.519995485093592 1.1399803817947731
4.07500600815 0.6685227753148537 0.2013788272194695 -1.5432529939356332 2.07463385982313 2.0501011210321587 -0.519995485093592 1.1399803817947731
4.08504390717 0.6685227753148537 0.2013788272194695 -1.5432529939356332 2.07463385982313 2.0501011210321587 -0.519995485093592 1.1399803817947731
4.08504390717 0.6685227753148537 0.2013788272194695 -1.5432529939356332 2.07463385982313 2.0501011210321587 -0.519995485093592 1.1399803817947731
4.09498405457 0.6685227753148537 0.2013788272194695 -1.5432529939356332 2.07463385982313 2.0501011210321587 -0.519995485093592 1.1399803817947731
4.09498405457 0.6685227753148537 0.2013788272194695 -1.5432529939356332 2.07463385982313 2.0501011210321587 -0.519995485093592 1.1399803817947731
4.1049349308 0.6685227753148537 0.2013788272194695 -1.5432529939356332 2.07463385982313 2.0501011210321587 -0.519995485093592 1.1399803817947731
4.1049349308 0.6685227753148537 0.2013788272194695 -1.5432529939356332 2.07463385982313 2.0501011210321587 -0.519995485093592 1.1399803817947731
