riccardo-csl/Motion-Planning-for-TIAGo-Manipulator/T3_G_7/head_scan/head_scan/tiago_traiettorie_SG/1a-4b/place_4b_rep2.txt
time arm_1_joint arm_2_joint arm_3_joint arm_4_joint arm_5_joint arm_6_joint arm_7_joint
4.44338488579 0.8121819816226664 0.085561741514826 -1.1195925604269124 2.0474973797421345 2.0501011210321587 -0.520000050553151 1.1399758163352145
4.45351099968 0.8121819816226664 0.085561741514826 -1.1195925604269124 2.0474973797421345 2.0501011210321587 -0.520000050553151 1.1399758163352145
4.45351099968 0.8121819816226664 0.085561741514826 -1.1195925604269124 2.0474973797421345 2.0501011210321587 -0.520000050553151 1.1399758163352145
4.46360301971 0.8121819816226664 0.085561741514826 -1.1195925604269124 2.0474973797421345 2.0501011210321587 -0.520000050553151 1.1399758163352145
4.46360301971 0.8121819816226664 0.085561741514826 -1.1195925604269124 2.0474973797421345 2.0501011210321587 -0.520000050553151 1.1399758163352145
4.47346496582 0.8121819816226664 0.085561741514826 -1.1195925604269124 2.0474973797421345 2.0501011210321587 -0.520000050553151 1.1399758163352145
4.47346496582 0.8121819816226664 0.085561741514826 -1.1195925604269124 2.0474973797421345 2.0501011210321587 -0.520000050553151 1.1399758163352145
4.4835870266 0.8121819816226664 0.085561741514826 -1.1195925604269124 2.0474973797421345 2.0501011210321587 -0.520000050553151 1.1399758163352145
4.4835870266 0.8121819816226664 0.085561741514826 -1.1195925604269124 2.0474973797421345 2.0501011210321587 -0.520000050553151 1.1399758163352145
4.49348783493 0.8121819816226664 0.085561741514826 -1.1195925604269124 2.0474973797421345 2.0501011210321587 -0.520000050553151 1.1399758163352145
4.49348783493 0.8121819816226664 0.085561741514826 -1.1195925604269124 2.0474973797421345 2.0501011210321587 -0.520000050553151 1.1399758163352145
4.50367903709 0.8121819816226664 0.085561741514826 -1.1195925604269124 2.0474973797421345 2.0501011210321587 -0.520000050553151 1.1399758163352145
4.50367903709 0.8121819816226664 0.085561741514826 -1.1195925604269124 2.0474973797421345 2.0501011210321587 -0.520000050553151 1.1399758163352145
4.51358103752 0.8121819816226664 0.085561741514826 -1.1195925604269124 2.0474973797421345 2.0501011210321587 -0.520000050553151 1.1399758163352145
4.51358103752 0.8121819816226664 0.085561741514826 -1.1195925604269124 2.0474973797421345 2.0501011210321587 -0.520000050553151 1.1399758163352145
4.52364492416 0.8121819816226664 0.085561741514826 -1.1195925604269124 2.0474973797421345 2.0501011210321587 -0.520000050553151 1.1399758163352145
4.52364492416 0.8121819816226664 0.085561741514826 -1.1195925604269124 2.0474973797421345 2.0501011210321587 -0.520000050553151 1.1399758163352145
4.5334789753 0.8121819816226664 0.085561741514826 -1.1195925604269124 2.0474973797421345 2.0501011210321587 -0.520000050553151 1.1399758163352145
4.5334789753 0.8121819816226664 0.085561741514826 -1.1195925604269124 2.0474973797421345 2.0501011210321587 -0.520000050553151 1.1399758163352145
4.54329705238 0.8121819816226664 0.085561741514826 -1.1195925604269124 2.0474973797421345 2.0501011210321587 -0.520000050553151 1.1399758163352145
4.54329705238 0.8121819816226664 0.085561741514826 -1.1195925604269124 2.0474973797421345 2.0501011210321587 -0.520000050553151 1.1399758163352145
4.55329704285 0.8121819816226664 0.085561741514826 -1.1195925604269124 2.0474973797421345 2.0501011210321587 -0.520000050553151 1.1399758163352145
4.55329704285 0.8121819816226664 0.085561741514826 -1.1195925604269124 2.0474973797421345 2.0501011210321587 -0.520000050553151 1.1399758163352145
4.56353902817 0.8121819816226664 0.085561741514826 -1.1195925604269124 2.0474973797421345 2.0501011210321587 -0.520000050553151 1.1399758163352145
4.56353902817 0.8121819816226664 0.085561741514826 -1.1195925604269124 2.0474973797421345 2.0501011210321587 -0.520000050553151 1.1399758163352145
4.5734899044 0.8121819816226664 0.085561741514826 -1.1195925604269124 2.0474973797421345 2.0501011210321587 -0.520000050553151 1.1399758163352145
4.5734899044 0.8121819816226664 0.085561741514826 -1.1195925604269124 2.0474973797421345 2.0501011210321587 -0.520000050553151 1.1399758163352145
4.5835108757 0.8121819816226664 0.085561741514826 -1.1195925604269124 2.0474973797421345 2.0501011210321587 -0.520000050553151 1.1399758163352145
4.5835108757 0.8121819816226664 0.085561741514826 -1.1195925604269124 2.0474973797421345 2.0501011210321587 -0.520000050553151 1.1399758163352145
4.59352898598 0.8121819816226664 0.085561741514826 -1.1195925604269124 2.0474973797421345 2.0501011210321587 -0.520000050553151 1.1399758163352145
4.59352898598 0.8121819816226664 0.085561741514826 -1.1195925604269124 2.0474973797421345 2.0501011210321587 -0.520000050553151 1.1399758163352145
4.60348892212 0.8121819816226664 0.085561741514826 -1.1195925604269124 2.0474973797421345 2.0501011210321587 -0.520000050553151 1.1399758163352145
4.60348892212 0.8121819816226664 0.085561741514826 -1.1195925604269124 2.0474973797421345 2.0501011210321587 -0.520000050553151 1.1399758163352145
4.61349606514 0.8121819816226664 0.085561741514826 -1.1195925604269124 2.0474973797421345 2.0501011210321587 -0.520000050553151 1.1399758163352145
4.61349606514 0.8121819816226664 0.085561741514826 -1.1195925604269124 2.0474973797421345 2.0501011210321587 -0.520000050553151 1.1399758163352145
4.6235730648 0.8121819816226664 0.085561741514826 -1.1195925604269124 2.0474973797421345 2.0501011210321587 -0.520000050553151 1.1399758163352145
4.6235730648 0.8121819816226664 0.085561741514826 -1.1195925604269124 2.0474973797421345 2.0501011210321587 -0.520000050553151 1.1399758163352145
4.63350296021 0.8121819816226664 0.085561741514826 -1.1195925604269124 2.0474973797421345 2.0501011210321587 -0.520000050553151 1.1399758163352145
4.63350296021 0.8121819816226664 0.085561741514826 -1.1195925604269124 2.0474973797421345 2.0501011210321587 -0.520000050553151 1.1399758163352145
4.64356303215 0.8121819816226664 0.085561741514826 -1.1195925604269124 2.0474973797421345 2.0501011210321587 -0.520000050553151 1.1399758163352145
4.64356303215 0.8121819816226664 0.085561741514826 -1.1195925604269124 2.0474973797421345 2.0501011210321587 -0.520000050553151 1.1399758163352145
4.65360093117 0.8121819816226664 0.085561741514826 -1.1195925604269124 2.0474973797421345 2.0501011210321587 -0.520000050553151 1.1399758163352145
4.65360093117 0.8121819816226664 0.085561741514826 -1.1195925604269124 2.0474973797421345 2.0501011210321587 -0.520000050553151 1.1399758163352145
4.66350483894 0.8121819816226664 0.085561741514826 -1.1195925604269124 2.0474973797421345 2.0501011210321587 -0.520000050553151 1.1399758163352145
4.66350483894 0.8121819816226664 0.085561741514826 -1.1195925604269124 2.0474973797421345 2.0501011210321587 -0.520000050553151 1.1399758163352145
4.67353391647 0.8121819816226664 0.085561741514826 -1.1195925604269124 2.0474973797421345 2.0501011210321587 -0.520000050553151 1.1399758163352145
4.67353391647 0.8121819816226664 0.085561741514826 -1.1195925604269124 2.0474973797421345 2.0501011210321587 -0.520000050553151 1.1399758163352145
4.68361401558 0.8121819816226664 0.085561741514826 -1.1195925604269124 2.0474973797421345 2.0501011210321587 -0.520000050553151 1.1399758163352145
4.68361401558 0.8121819816226664 0.085561741514826 -1.1195925604269124 2.0474973797421345 2.0501011210321587 -0.520000050553151 1.1399758163352145
4.6936609745 0.8121819816226664 0.085561741514826 -1.1195925604269124 2.0474973797421345 2.0501011210321587 -0.520000050553151 1.1399758163352145
4.6936609745 0.8121819816226664 0.085561741514826 -1.1195925604269124 2.0474973797421345 2.0501011210321587 -0.520000050553151 1.1399758163352145
4.70362305641 0.8121819816226664 0.085561741514826 -1.1195925604269124 2.0474973797421345 2.0501011210321587 -0.520000050553151 1.1399758163352145
4.70362305641 0.8121819816226664 0.085561741514826 -1.1195925604269124 2.0474973797421345 2.0501011210321587 -0.520000050553151 1.1399758163352145
4.71361494064 0.8121819816226664 0.085561741514826 -1.1195925604269124 2.0474973797421345 2.0501011210321587 -0.520000050553151 1.1399758163352145
4.71361494064 0.8121819816226664 0.085561741514826 -1.1195925604269124 2.0474973797421345 2.0501011210321587 -0.520000050553151 1.1399758163352145
4.72358202934 0.8121819816226664 0.085561741514826 -1.1195925604269124 2.0474973797421345 2.0501011210321587 -0.520000050553151 1.1399758163352145
4.72358202934 0.8121819816226664 0.085561741514826 -1.1195925604269124 2.0474973797421345 2.0501011210321587 -0.520000050553151 1.1399758163352145
4.73359704018 0.8121819816226664 0.085561741514826 -1.1195925604269124 2.0474973797421345 2.0501011210321587 -0.520000050553151 1.1399758163352145
4.73359704018 0.8121819816226664 0.085561741514826 -1.1195925604269124 2.0474973797421345 2.0501011210321587 -0.520000050553151 1.1399758163352145
4.74357795715 0.8121819816226664 0.085561741514826 -1.1195925604269124 2.0474973797421345 2.0501011210321587 -0.520000050553151 1.1399758163352145
4.74357795715 0.8121819816226664 0.085561741514826 -1.1195925604269124 2.0474973797421345 2.0501011210321587 -0.520000050553151 1.1399758163352145
4.75348091125 0.8121819816226664 0.085561741514826 -1.1195925604269124 2.0474973797421345 2.0501011210321587 -0.520000050553151 1.1399758163352145
4.75348091125 0.8121819816226664 0.085561741514826 -1.1195925604269124 2.0474973797421345 2.0501011210321587 -0.520000050553151 1.1399758163352145
4.76344799995 0.8121819816226664 0.085561741514826 -1.1195925604269124 2.0474973797421345 2.0501011210321587 -0.520000050553151 1.1399758163352145
4.76344799995 0.8121819816226664 0.085561741514826 -1.1195925604269124 2.0474973797421345 2.0501011210321587 -0.520000050553151 1.1399758163352145
4.77357292175 0.8121819816226664 0.085561741514826 -1.1195925604269124 2.0474973797421345 2.0501011210321587 -0.520000050553151 1.1399758163352145
4.77357292175 0.8121819816226664 0.085561741514826 -1.1195925604269124 2.0474973797421345 2.0501011210321587 -0.520000050553151 1.1399758163352145
4.78354096413 0.8121819816226664 0.085561741514826 -1.1195925604269124 2.0474973797421345 2.0501011210321587 -0.520000050553151 1.1399758163352145
4.78354096413 0.8121819816226664 0.085561741514826 -1.1195925604269124 2.0474973797421345 2.0501011210321587 -0.520000050553151 1.1399758163352145
4.79352903366 0.8121819816226664 0.085561741514826 -1.1195925604269124 2.0474973797421345 2.0501011210321587 -0.520000050553151 1.1399758163352145
4.79352903366 0.8121819816226664 0.085561741514826 -1.1195925604269124 2.0474973797421345 2.0501011210321587 -0.520000050553151 1.1399758163352145
4.80356788635 0.8121819816226664 0.085561741514826 -1.1195925604269124 2.0474973797421345 2.0501011210321587 -0.520000050553151 1.1399758163352145
4.80356788635 0.8121819816226664 0.085561741514826 -1.1195925604269124 2.0474973797421345 2.0501011210321587 -0.520000050553151 1.1399758163352145
4.81358885765 0.8121819816226664 0.085561741514826 -1.1195925604269124 2.0474973797421345 2.0501011210321587 -0.520000050553151 1.1399758163352145
4.81358885765 0.8121819816226664 0.085561741514826 -1.1195925604269124 2.0474973797421345 2.0501011210321587 -0.520000050553151 1.1399758163352145
4.82356595993 0.8121819816226664 0.085561741514826 -1.1195925604269124 2.0474973797421345 2.0501011210321587 -0.520000050553151 1.1399758163352145
4.82356595993 0.8121819816226664 0.085561741514826 -1.1195925604269124 2.0474973797421345 2.0501011210321587 -0.520000050553151 1.1399758163352145
4.83360099792 0.8121819816226664 0.085561741514826 -1.1195925604269124 2.0474973797421345 2.0501011210321587 -0.520000050553151 1.1399758163352145
4.83360099792 0.8121819816226664 0.085561741514826 -1.1195925604269124 2.0474973797421345 2.0501011210321587 -0.520000050553151 1.1399758163352145
4.84361386299 0.8121819816226664 0.085561741514826 -1.1195925604269124 2.0474973797421345 2.0501011210321587 -0.520000050553151 1.1399758163352145
4.84361386299 0.8121819816226664 0.085561741514826 -1.1195925604269124 2.0474973797421345 2.0501011210321587 -0.520000050553151 1.1399758163352145
4.85350394249 0.8121819816226664 0.085561741514826 -1.1195925604269124 2.0474973797421345 2.0501011210321587 -0.520000050553151 1.1399758163352145
4.85350394249 0.8121819816226664 0.085561741514826 -1.1195925604269124 2.0474973797421345 2.0501011210321587 -0.520000050553151 1.1399758163352145
4.86360192299 0.8121819816226664 0.085561741514826 -1.1195925604269124 2.0474973797421345 2.0501011210321587 -0.520000050553151 1.1399758163352145
4.86360192299 0.8121819816226664 0.085561741514826 -1.1195925604269124 2.0474973797421345 2.0501011210321587 -0.520000050553151 1.1399758163352145
4.87355089188 0.8121819816226664 0.085561741514826 -1.1195925604269124 2.0474973797421345 2.0501011210321587 -0.520000050553151 1.1399758163352145
4.87355089188 0.8121819816226664 0.085561741514826 -1.1195925604269124 2.0474973797421345 2.0501011210321587 -0.520000050553151 1.1399758163352145
4.8833758831 0.8121819816226664 0.085561741514826 -1.1195925604269124 2.0474973797421345 2.0501011210321587 -0.520000050553151 1.1399758163352145
4.8833758831 0.8121819816226664 0.085561741514826 -1.1195925604269124 2.0474973797421345 2.0501011210321587 -0.520000050553151 1.1399758163352145
4.89356684685 0.8121819816226664 0.085561741514826 -1.1195925604269124 2.0474973797421345 2.0501011210321587 -0.520000050553151 1.1399758163352145
4.89356684685 0.8121819816226664 0.085561741514826 -1.1195925604269124 2.0474973797421345 2.0501011210321587 -0.520000050553151 1.1399758163352145
4.90357899666 0.8121819816226664 0.085561741514826 -1.1195925604269124 2.0474973797421345 2.0501011210321587 -0.520000050553151 1.1399758163352145
4.90357899666 0.8121819816226664 0.085561741514826 -1.1195925604269124 2.0474973797421345 2.0501011210321587 -0.520000050553151 1.1399758163352145
4.91343283653 0.8121819816226664 0.085561741514826 -1.1195925604269124 2.0474973797421345 2.0501011210321587 -0.520000050553151 1.1399758163352145
4.91343283653 0.8121819816226664 0.085561741514826 -1.1195925604269124 2.0474973797421345 2.0501011210321587 -0.520000050553151 1.1399758163352145
4.92357492447 0.8121819816226664 0.085561741514826 -1.1195925604269124 2.0474973797421345 2.0501011210321587 -0.520000050553151 1.1399758163352145
4.92357492447 0.8121819816226664 0.085561741514826 -1.1195925604269124 2.0474973797421345 2.0501011210321587 -0.520000050553151 1.1399758163352145
4.93360090256 0.8121819816226664 0.085561741514826 -1.1195925604269124 2.0474973797421345 2.0501011210321587 -0.520000050553151 1.1399758163352145
4.93360090256 0.8121819816226664 0.085561741514826 -1.1195925604269124 2.0474973797421345 2.0501011210321587 -0.520000050553151 1.1399758163352145
4.94350504875 0.8121819816226664 0.085561741514826 -1.1195925604269124 2.0474973797421345 2.0501011210321587 -0.520000050553151 1.1399758163352145
4.94350504875 0.8121819816226664 0.085561741514826 -1.1195925604269124 2.0474973797421345 2.0501011210321587 -0.520000050553151 1.1399758163352145
4.95362901688 0.8121819816226664 0.085561741514826 -1.1195925604269124 2.0474973797421345 2.0501011210321587 -0.520000050553151 1.1399758163352145
4.95362901688 0.8121819816226664 0.085561741514826 -1.1195925604269124 2.0474973797421345 2.0501011210321587 -0.520000050553151 1.1399758163352145
4.96361899376 0.8121819816226664 0.085561741514826 -1.1195925604269124 2.0474973797421345 2.0501011210321587 -0.520000050553151 1.1399758163352145
4.96361899376 0.8121819816226664 0.085561741514826 -1.1195925604269124 2.0474973797421345 2.0501011210321587 -0.520000050553151 1.1399758163352145
4.97361207008 0.8121819816226664 0.085561741514826 -1.1195925604269124 2.0474973797421345 2.0501011210321587 -0.520000050553151 1.1399758163352145
4.97361207008 0.8121819816226664 0.085561741514826 -1.1195925604269124 2.0474973797421345 2.0501011210321587 -0.520000050553151 1.1399758163352145
4.98344898224 0.8121819816226664 0.085561741514826 -1.1195925604269124 2.0474973797421345 2.0501011210321587 -0.520000050553151 1.1399758163352145
4.98344898224 0.8121819816226664 0.085561741514826 -1.1195925604269124 2.0474973797421345 2.0501011210321587 -0.520000050553151 1.1399758163352145
4.99357104301 0.8121819816226664 0.085561741514826 -1.1195925604269124 2.0474973797421345 2.0501011210321587 -0.520000050553151 1.1399758163352145
4.99357104301 0.8121819816226664 0.085561741514826 -1.1195925604269124 2.0474973797421345 2.0501011210321587 -0.520000050553151 1.1399758163352145
5.00346803665 0.8121819816226664 0.085561741514826 -1.1195925604269124 2.0474973797421345 2.0501011210321587 -0.520000050553151 1.1399758163352145
5.00346803665 0.8121819816226664 0.085561741514826 -1.1195925604269124 2.0474973797421345 2.0501011210321587 -0.520000050553151 1.1399758163352145
5.01358604431 0.8121819816226664 0.085561741514826 -1.1195925604269124 2.0474973797421345 2.0501011210321587 -0.520000050553151 1.1399758163352145
5.01358604431 0.8121819816226664 0.085561741514826 -1.1195925604269124 2.0474973797421345 2.0501011210321587 -0.520000050553151 1.1399758163352145
5.02359390259 0.8121819816226664 0.085561741514826 -1.1195925604269124 2.0474973797421345 2.0501011210321587 -0.520000050553151 1.1399758163352145
5.02359390259 0.8121819816226664 0.085561741514826 -1.1195925604269124 2.0474973797421345 2.0501011210321587 -0.520000050553151 1.1399758163352145
5.03362798691 0.8121819816226664 0.085561741514826 -1.1195925604269124 2.0474973797421345 2.0501011210321587 -0.520000050553151 1.1399758163352145
5.03362798691 0.8121819816226664 0.085561741514826 -1.1195925604269124 2.0474973797421345 2.0501011210321587 -0.520000050553151 1.1399758163352145
5.04356384277 0.8121819816226664 0.085561741514826 -1.1195925604269124 2.0474973797421345 2.0501011210321587 -0.520000050553151 1.1399758163352145
5.04356384277 0.8121819816226664 0.085561741514826 -1.1195925604269124 2.0474973797421345 2.0501011210321587 -0.520000050553151 1.1399758163352145
5.05355191231 0.8121819816226664 0.085561741514826 -1.1195925604269124 2.0474973797421345 2.0501011210321587 -0.520000050553151 1.1399758163352145
5.05355191231 0.8121819816226664 0.085561741514826 -1.1195925604269124 2.0474973797421345 2.0501011210321587 -0.520000050553151 1.1399758163352145
5.06345796585 0.8121819816226664 0.085561741514826 -1.1195925604269124 2.0474973797421345 2.0501011210321587 -0.520000050553151 1.1399758163352145
5.06345796585 0.8121819816226664 0.085561741514826 -1.1195925604269124 2.0474973797421345 2.0501011210321587 -0.520000050553151 1.1399758163352145
5.07348203659 0.8121819816226664 0.085561741514826 -1.1195925604269124 2.0474973797421345 2.0501011210321587 -0.520000050553151 1.1399758163352145
5.07348203659 0.8121819816226664 0.085561741514826 -1.1195925604269124 2.0474973797421345 2.0501011210321587 -0.520000050553151 1.1399758163352145
5.08354997635 0.8121819816226664 0.085561741514826 -1.1195925604269124 2.0474973797421345 2.0501011210321587 -0.520000050553151 1.1399758163352145
5.08354997635 0.8121819816226664 0.085561741514826 -1.1195925604269124 2.0474973797421345 2.0501011210321587 -0.520000050553151 1.1399758163352145
5.09363985062 0.8121819816226664 0.085561741514826 -1.1195925604269124 2.0474973797421345 2.0501011210321587 -0.520000050553151 1.1399758163352145
5.09363985062 0.8121819816226664 0.085561741514826 -1.1195925604269124 2.0474973797421345 2.0501011210321587 -0.520000050553151 1.1399758163352145
5.10354995728 0.8121819816226664 0.085561741514826 -1.1195925604269124 2.0474973797421345 2.0501011210321587 -0.520000050553151 1.1399758163352145
5.10354995728 0.8121819816226664 0.085561741514826 -1.1195925604269124 2.0474973797421345 2.0501011210321587 -0.520000050553151 1.1399758163352145
5.11356806755 0.8121819816226664 0.085561741514826 -1.1195925604269124 2.0474973797421345 2.0501011210321587 -0.520000050553151 1.1399758163352145
5.11356806755 0.8121819816226664 0.085561741514826 -1.1195925604269124 2.0474973797421345 2.0501011210321587 -0.520000050553151 1.1399758163352145
5.12355899811 0.8121819816226664 0.085561741514826 -1.1195925604269124 2.0474973797421345 2.0501011210321587 -0.520000050553151 1.1399758163352145
5.12355899811 0.8121819816226664 0.085561741514826 -1.1195925604269124 2.0474973797421345 2.0501011210321587 -0.520000050553151 1.1399758163352145
5.13354086876 0.8121819816226664 0.085561741514826 -1.1195925604269124 2.0474973797421345 2.0501011210321587 -0.520000050553151 1.1399758163352145
5.13354086876 0.8121819816226664 0.085561741514826 -1.1195925604269124 2.0474973797421345 2.0501011210321587 -0.520000050553151 1.1399758163352145
5.14350700378 0.8121819816226664 0.085561741514826 -1.1195925604269124 2.0474973797421345 2.0501011210321587 -0.520000050553151 1.1399758163352145
5.14350700378 0.8121819816226664 0.085561741514826 -1.1195925604269124 2.0474973797421345 2.0501011210321587 -0.520000050553151 1.1399758163352145
5.15357303619 0.8121819816226664 0.085561741514826 -1.1195925604269124 2.0474973797421345 2.0501011210321587 -0.520000050553151 1.1399758163352145
5.15357303619 0.8121819816226664 0.085561741514826 -1.1195925604269124 2.0474973797421345 2.0501011210321587 -0.520000050553151 1.1399758163352145
5.16364502907 0.8121819816226664 0.085561741514826 -1.1195925604269124 2.0474973797421345 2.0501011210321587 -0.520000050553151 1.1399758163352145
5.16364502907 0.8121819816226664 0.085561741514826 -1.1195925604269124 2.0474973797421345 2.0501011210321587 -0.520000050553151 1.1399758163352145
5.1736240387 0.8121819816226664 0.085561741514826 -1.1195925604269124 2.0474973797421345 2.0501011210321587 -0.520000050553151 1.1399758163352145
5.1736240387 0.8121819816226664 0.085561741514826 -1.1195925604269124 2.0474973797421345 2.0501011210321587 -0.520000050553151 1.1399758163352145
5.18358683586 0.8121819816226664 0.085561741514826 -1.1195925604269124 2.0474973797421345 2.0501011210321587 -0.520000050553151 1.1399758163352145
5.18358683586 0.8121819816226664 0.085561741514826 -1.1195925604269124 2.0474973797421345 2.0501011210321587 -0.520000050553151 1.1399758163352145
5.19340896606 0.8121819816226664 0.085561741514826 -1.1195925604269124 2.0474973797421345 2.0501011210321587 -0.520000050553151 1.1399758163352145
5.19340896606 0.8121819816226664 0.085561741514826 -1.1195925604269124 2.0474973797421345 2.0501011210321587 -0.520000050553151 1.1399758163352145
5.20353984833 0.8121819816226664 0.085561741514826 -1.1195925604269124 2.0474973797421345 2.0501011210321587 -0.520000050553151 1.1399758163352145
5.20353984833 0.8121819816226664 0.085561741514826 -1.1195925604269124 2.0474973797421345 2.0501011210321587 -0.520000050553151 1.1399758163352145
5.21350097656 0.8121819816226664 0.085561741514826 -1.1195925604269124 2.0474973797421345 2.0501011210321587 -0.520000050553151 1.1399758163352145
5.21350097656 0.8121819816226664 0.085561741514826 -1.1195925604269124 2.0474973797421345 2.0501011210321587 -0.520000050553151 1.1399758163352145
5.22343587875 0.8121819816226664 0.085561741514826 -1.1195925604269124 2.0474973797421345 2.0501011210321587 -0.520000050553151 1.1399758163352145
5.22343587875 0.8121819816226664 0.085561741514826 -1.1195925604269124 2.0474973797421345 2.0501011210321587 -0.520000050553151 1.1399758163352145
5.23348903656 0.8121819816226664 0.085561741514826 -1.1195925604269124 2.0474973797421345 2.0501011210321587 -0.520000050553151 1.1399758163352145
5.23348903656 0.8121819816226664 0.085561741514826 -1.1195925604269124 2.0474973797421345 2.0501011210321587 -0.520000050553151 1.1399758163352145
5.24360585213 0.8121819816226664 0.085561741514826 -1.1195925604269124 2.0474973797421345 2.0501011210321587 -0.520000050553151 1.1399758163352145
5.24360585213 0.8121819816226664 0.085561741514826 -1.1195925604269124 2.0474973797421345 2.0501011210321587 -0.520000050553151 1.1399758163352145
5.25350785255 0.8121819816226664 0.085561741514826 -1.1195925604269124 2.0474973797421345 2.0501011210321587 -0.520000050553151 1.1399758163352145
5.25350785255 0.8121819816226664 0.085561741514826 -1.1195925604269124 2.0474973797421345 2.0501011210321587 -0.520000050553151 1.1399758163352145
5.26360583305 0.8121819816226664 0.085561741514826 -1.1195925604269124 2.0474973797421345 2.0501011210321587 -0.520000050553151 1.1399758163352145
5.26360583305 0.8121819816226664 0.085561741514826 -1.1195925604269124 2.0474973797421345 2.0501011210321587 -0.520000050553151 1.1399758163352145
5.27361297607 0.8121819816226664 0.085561741514826 -1.1195925604269124 2.0474973797421345 2.0501011210321587 -0.520000050553151 1.1399758163352145
5.27361297607 0.8121819816226664 0.085561741514826 -1.1195925604269124 2.0474973797421345 2.0501011210321587 -0.520000050553151 1.1399758163352145
5.28363895416 0.8121819816226664 0.085561741514826 -1.1195925604269124 2.0474973797421345 2.0501011210321587 -0.520000050553151 1.1399758163352145
5.28363895416 0.8121819816226664 0.085561741514826 -1.1195925604269124 2.0474973797421345 2.0501011210321587 -0.520000050553151 1.1399758163352145
5.29353785515 0.8121819816226664 0.085561741514826 -1.1195925604269124 2.0474973797421345 2.0501011210321587 -0.520000050553151 1.1399758163352145
5.29353785515 0.8121819816226664 0.085561741514826 -1.1195925604269124 2.0474973797421345 2.0501011210321587 -0.520000050553151 1.1399758163352145
5.30339789391 0.8121819816226664 0.085561741514826 -1.1195925604269124 2.0474973797421345 2.0501011210321587 -0.520000050553151 1.1399758163352145
5.30339789391 0.8121819816226664 0.085561741514826 -1.1195925604269124 2.0474973797421345 2.0501011210321587 -0.520000050553151 1.1399758163352145
5.3135778904 0.8121819816226664 0.085561741514826 -1.1195925604269124 2.0474973797421345 2.0501011210321587 -0.520000050553151 1.1399758163352145
5.3135778904 0.8121819816226664 0.085561741514826 -1.1195925604269124 2.0474973797421345 2.0501011210321587 -0.520000050553151 1.1399758163352145
5.32356500626 0.8121819816226664 0.085561741514826 -1.1195925604269124 2.0474973797421345 2.0501011210321587 -0.520000050553151 1.1399758163352145
5.32356500626 0.8121819816226664 0.085561741514826 -1.1195925604269124 2.0474973797421345 2.0501011210321587 -0.520000050553151 1.1399758163352145
5.33361291885 0.8121819816226664 0.085561741514826 -1.1195925604269124 2.0474973797421345 2.0501011210321587 -0.520000050553151 1.1399758163352145
5.33361291885 0.8121819816226664 0.085561741514826 -1.1195925604269124 2.0474973797421345 2.0501011210321587 -0.520000050553151 1.1399758163352145
5.343531847 0.8121819816226664 0.085561741514826 -1.1195925604269124 2.0474973797421345 2.0501011210321587 -0.520000050553151 1.1399758163352145
5.343531847 0.8121819816226664 0.085561741514826 -1.1195925604269124 2.0474973797421345 2.0501011210321587 -0.520000050553151 1.1399758163352145
5.35350084305 0.8121819816226664 0.085561741514826 -1.1195925604269124 2.0474973797421345 2.0501011210321587 -0.520000050553151 1.1399758163352145
5.35350084305 0.8121819816226664 0.085561741514826 -1.1195925604269124 2.0474973797421345 2.0501011210321587 -0.520000050553151 1.1399758163352145
5.36358690262 0.8121819816226664 0.085561741514826 -1.1195925604269124 2.0474973797421345 2.0501011210321587 -0.520000050553151 1.1399758163352145
5.36358690262 0.8121819816226664 0.085561741514826 -1.1195925604269124 2.0474973797421345 2.0501011210321587 -0.520000050553151 1.1399758163352145
5.37345600128 0.8121819816226664 0.085561741514826 -1.1195925604269124 2.0474973797421345 2.0501011210321587 -0.520000050553151 1.1399758163352145
5.37345600128 0.8121819816226664 0.085561741514826 -1.1195925604269124 2.0474973797421345 2.0501011210321587 -0.520000050553151 1.1399758163352145
5.38357496262 0.8121819816226664 0.085561741514826 -1.1195925604269124 2.0474973797421345 2.0501011210321587 -0.520000050553151 1.1399758163352145
5.38357496262 0.8121819816226664 0.085561741514826 -1.1195925604269124 2.0474973797421345 2.0501011210321587 -0.520000050553151 1.1399758163352145
5.39351606369 0.8121819816226664 0.085561741514826 -1.1195925604269124 2.0474973797421345 2.0501011210321587 -0.520000050553151 1.1399758163352145
5.39351606369 0.8121819816226664 0.085561741514826 -1.1195925604269124 2.0474973797421345 2.0501011210321587 -0.520000050553151 1.1399758163352145
5.40361499786 0.8121819816226664 0.085561741514826 -1.1195925604269124 2.0474973797421345 2.0501011210321587 -0.520000050553151 1.1399758163352145
5.40361499786 0.8121819816226664 0.085561741514826 -1.1195925604269124 2.0474973797421345 2.0501011210321587 -0.520000050553151 1.1399758163352145
5.41341400146 0.8121819816226664 0.085561741514826 -1.1195925604269124 2.0474973797421345 2.0501011210321587 -0.520000050553151 1.1399758163352145
5.41341400146 0.8121819816226664 0.085561741514826 -1.1195925604269124 2.0474973797421345 2.0501011210321587 -0.520000050553151 1.1399758163352145
5.423568964 0.8121819816226664 0.085561741514826 -1.1195925604269124 2.0474973797421345 2.0501011210321587 -0.520000050553151 1.1399758163352145
5.423568964 0.8121819816226664 0.085561741514826 -1.1195925604269124 2.0474973797421345 2.0501011210321587 -0.520000050553151 1.1399758163352145
5.43353295326 0.8121819816226664 0.085561741514826 -1.1195925604269124 2.0474973797421345 2.0501011210321587 -0.520000050553151 1.1399758163352145
5.43353295326 0.8121819816226664 0.085561741514826 -1.1195925604269124 2.0474973797421345 2.0501011210321587 -0.520000050553151 1.1399758163352145
5.44343900681 0.8121819816226664 0.085561741514826 -1.1195925604269124 2.0474973797421345 2.0501011210321587 -0.520000050553151 1.1399758163352145
5.44343900681 0.8121819816226664 0.085561741514826 -1.1195925604269124 2.0474973797421345 2.0501011210321587 -0.520000050553151 1.1399758163352145
5.45357203484 0.8121819816226664 0.085561741514826 -1.1195925604269124 2.0474973797421345 2.0501011210321587 -0.520000050553151 1.1399758163352145
5.45357203484 0.8121819816226664 0.085561741514826 -1.1195925604269124 2.0474973797421345 2.0501011210321587 -0.520000050553151 1.1399758163352145
5.46358299255 0.8121819816226664 0.085561741514826 -1.1195925604269124 2.0474973797421345 2.0501011210321587 -0.520000050553151 1.1399758163352145
5.46358299255 0.8121819816226664 0.085561741514826 -1.1195925604269124 2.0474973797421345 2.0501011210321587 -0.520000050553151 1.1399758163352145
5.47343587875 0.8121819816226664 0.085561741514826 -1.1195925604269124 2.0474973797421345 2.0501011210321587 -0.520000050553151 1.1399758163352145
5.47343587875 0.8121819816226664 0.085561741514826 -1.1195925604269124 2.0474973797421345 2.0501011210321587 -0.520000050553151 1.1399758163352145
5.48361086845 0.8121819816226664 0.085561741514826 -1.1195925604269124 2.0474973797421345 2.0501011210321587 -0.520000050553151 1.1399758163352145
5.48361086845 0.8121819816226664 0.085561741514826 -1.1195925604269124 2.0474973797421345 2.0501011210321587 -0.520000050553151 1.1399758163352145
5.49357795715 0.8121819816226664 0.085561741514826 -1.1195925604269124 2.0474973797421345 2.0501011210321587 -0.520000050553151 1.1399758163352145
5.49357795715 0.8121819816226664 0.085561741514826 -1.1195925604269124 2.0474973797421345 2.0501011210321587 -0.520000050553151 1.1399758163352145
5.50342392921 0.8121819816226664 0.085561741514826 -1.1195925604269124 2.0474973797421345 2.0501011210321587 -0.520000050553151 1.1399758163352145
5.50342392921 0.8121819816226664 0.085561741514826 -1.1195925604269124 2.0474973797421345 2.0501011210321587 -0.520000050553151 1.1399758163352145
5.51357889175 0.8121819816226664 0.085561741514826 -1.1195925604269124 2.0474973797421345 2.0501011210321587 -0.520000050553151 1.1399758163352145
5.51357889175 0.8121819816226664 0.085561741514826 -1.1195925604269124 2.0474973797421345 2.0501011210321587 -0.520000050553151 1.1399758163352145
5.52358388901 0.8121819816226664 0.085561741514826 -1.1195925604269124 2.0474973797421345 2.0501011210321587 -0.520000050553151 1.1399758163352145
5.52358388901 0.8121819816226664 0.085561741514826 -1.1195925604269124 2.0474973797421345 2.0501011210321587 -0.520000050553151 1.1399758163352145
5.53340601921 0.8121819816226664 0.085561741514826 -1.1195925604269124 2.0474973797421345 2.0501011210321587 -0.520000050553151 1.1399758163352145
5.53340601921 0.8121819816226664 0.085561741514826 -1.1195925604269124 2.0474973797421345 2.0501011210321587 -0.520000050553151 1.1399758163352145
5.54353785515 0.8121819816226664 0.085561741514826 -1.1195925604269124 2.0474973797421345 2.0501011210321587 -0.520000050553151 1.1399758163352145
5.54353785515 0.8121819816226664 0.085561741514826 -1.1195925604269124 2.0474973797421345 2.0501011210321587 -0.520000050553151 1.1399758163352145
5.55356884003 0.8121819816226664 0.085561741514826 -1.1195925604269124 2.0474973797421345 2.0501011210321587 -0.520000050553151 1.1399758163352145
5.55356884003 0.8121819816226664 0.085561741514826 -1.1195925604269124 2.0474973797421345 2.0501011210321587 -0.520000050553151 1.1399758163352145
5.56343984604 0.8121819816226664 0.085561741514826 -1.1195925604269124 2.0474973797421345 2.0501011210321587 -0.520000050553151 1.1399758163352145
5.56343984604 0.8121819816226664 0.085561741514826 -1.1195925604269124 2.0474973797421345 2.0501011210321587 -0.520000050553151 1.1399758163352145
5.57356095314 0.8121819816226664 0.085561741514826 -1.1195925604269124 2.0474973797421345 2.0501011210321587 -0.520000050553151 1.1399758163352145
5.57356095314 0.8121819816226664 0.085561741514826 -1.1195925604269124 2.0474973797421345 2.0501011210321587 -0.520000050553151 1.1399758163352145
5.58354187012 0.8121819816226664 0.085561741514826 -1.1195925604269124 2.0474973797421345 2.0501011210321587 -0.520000050553151 1.1399758163352145
5.58354187012 0.8121819816226664 0.085561741514826 -1.1195925604269124 2.0474973797421345 2.0501011210321587 -0.520000050553151 1.1399758163352145
5.59351801872 0.8121819816226664 0.085561741514826 -1.1195925604269124 2.0474973797421345 2.0501011210321587 -0.520000050553151 1.1399758163352145
5.59351801872 0.8121819816226664 0.085561741514826 -1.1195925604269124 2.0474973797421345 2.0501011210321587 -0.520000050553151 1.1399758163352145
5.60358595848 0.8121819816226664 0.085561741514826 -1.1195925604269124 2.0474973797421345 2.0501011210321587 -0.520000050553151 1.1399758163352145
5.60358595848 0.8121819816226664 0.085561741514826 -1.1195925604269124 2.0474973797421345 2.0501011210321587 -0.520000050553151 1.1399758163352145
5.61356186867 0.8121819816226664 0.085561741514826 -1.1195925604269124 2.0474973797421345 2.0501011210321587 -0.520000050553151 1.1399758163352145
5.61356186867 0.8121819816226664 0.085561741514826 -1.1195925604269124 2.0474973797421345 2.0501011210321587 -0.520000050553151 1.1399758163352145
5.62351298332 0.8121819816226664 0.085561741514826 -1.1195925604269124 2.0474973797421345 2.0501011210321587 -0.520000050553151 1.1399758163352145
5.62351298332 0.8121819816226664 0.085561741514826 -1.1195925604269124 2.0474973797421345 2.0501011210321587 -0.520000050553151 1.1399758163352145
5.63314294815 0.8121819816226664 0.085561741514826 -1.1195925604269124 2.0474973797421345 2.0501011210321587 -0.520000050553151 1.1399758163352145
5.63314294815 0.8121819816226664 0.085561741514826 -1.1195925604269124 2.0474973797421345 2.0501011210321587 -0.520000050553151 1.1399758163352145
5.64341783524 0.8121819816226664 0.085561741514826 -1.1195925604269124 2.0474973797421345 2.0501011210321587 -0.520000050553151 1.1399758163352145
5.64341783524 0.8121819816226664 0.085561741514826 -1.1195925604269124 2.0474973797421345 2.0501011210321587 -0.520000050553151 1.1399758163352145
5.65354394913 0.8121819816226664 0.085561741514826 -1.1195925604269124 2.0474973797421345 2.0501011210321587 -0.520000050553151 1.1399758163352145
5.65354394913 0.8121819816226664 0.085561741514826 -1.1195925604269124 2.0474973797421345 2.0501011210321587 -0.520000050553151 1.1399758163352145
5.66356301308 0.8121819816226664 0.085561741514826 -1.1195925604269124 2.0474973797421345 2.0501011210321587 -0.520000050553151 1.1399758163352145
5.66356301308 0.8121819816226664 0.085561741514826 -1.1195925604269124 2.0474973797421345 2.0501011210321587 -0.520000050553151 1.1399758163352145
5.67348384857 0.8121819816226664 0.085561741514826 -1.1195925604269124 2.0474973797421345 2.0501011210321587 -0.520000050553151 1.1399758163352145
5.67348384857 0.8121819816226664 0.085561741514826 -1.1195925604269124 2.0474973797421345 2.0501011210321587 -0.520000050553151 1.1399758163352145
5.68345594406 0.8121819816226664 0.085561741514826 -1.1195925604269124 2.0474973797421345 2.0501011210321587 -0.520000050553151 1.1399758163352145
5.68345594406 0.8121819816226664 0.085561741514826 -1.1195925604269124 2.0474973797421345 2.0501011210321587 -0.520000050553151 1.1399758163352145
5.69346785545 0.8121819816226664 0.085561741514826 -1.1195925604269124 2.0474973797421345 2.0501011210321587 -0.520000050553151 1.1399758163352145
5.69346785545 0.8121819816226664 0.085561741514826 -1.1195925604269124 2.0474973797421345 2.0501011210321587 -0.520000050553151 1.1399758163352145
5.70353889465 0.8121819816226664 0.085561741514826 -1.1195925604269124 2.0474973797421345 2.0501011210321587 -0.520000050553151 1.1399758163352145
5.70353889465 0.8121819816226664 0.085561741514826 -1.1195925604269124 2.0474973797421345 2.0501011210321587 -0.520000050553151 1.1399758163352145
5.71364402771 0.8121819816226664 0.085561741514826 -1.1195925604269124 2.0474973797421345 2.0501011210321587 -0.520000050553151 1.1399758163352145
5.71364402771 0.8121819816226664 0.085561741514826 -1.1195925604269124 2.0474973797421345 2.0501011210321587 -0.520000050553151 1.1399758163352145
5.72343707085 0.8121819816226664 0.085561741514826 -1.1195925604269124 2.0474973797421345 2.0501011210321587 -0.520000050553151 1.1399758163352145
5.72343707085 0.8121819816226664 0.085561741514826 -1.1195925604269124 2.0474973797421345 2.0501011210321587 -0.520000050553151 1.1399758163352145
5.73344683647 0.8121819816226664 0.085561741514826 -1.1195925604269124 2.0474973797421345 2.0501011210321587 -0.520000050553151 1.1399758163352145
5.73344683647 0.8121819816226664 0.085561741514826 -1.1195925604269124 2.0474973797421345 2.0501011210321587 -0.520000050553151 1.1399758163352145
5.74352788925 0.8121819816226664 0.085561741514826 -1.1195925604269124 2.0474973797421345 2.0501011210321587 -0.520000050553151 1.1399758163352145
5.74352788925 0.8121819816226664 0.085561741514826 -1.1195925604269124 2.0474973797421345 2.0501011210321587 -0.520000050553151 1.1399758163352145
5.75335502625 0.8121819816226664 0.085561741514826 -1.1195925604269124 2.0474973797421345 2.0501011210321587 -0.520000050553151 1.1399758163352145
5.75335502625 0.8121819816226664 0.085561741514826 -1.1195925604269124 2.0474973797421345 2.0501011210321587 -0.520000050553151 1.1399758163352145
5.76356506348 0.8121819816226664 0.085561741514826 -1.1195925604269124 2.0474973797421345 2.0501011210321587 -0.520000050553151 1.1399758163352145
5.76356506348 0.8121819816226664 0.085561741514826 -1.1195925604269124 2.0474973797421345 2.0501011210321587 -0.520000050553151 1.1399758163352145
5.7735888958 0.8121819816226664 0.085561741514826 -1.1195925604269124 2.0474973797421345 2.0501011210321587 -0.520000050553151 1.1399758163352145
5.7735888958 0.8121819816226664 0.085561741514826 -1.1195925604269124 2.0474973797421345 2.0501011210321587 -0.520000050553151 1.1399758163352145
5.78345894814 0.8121819816226664 0.085561741514826 -1.1195925604269124 2.0474973797421345 2.0501011210321587 -0.520000050553151 1.1399758163352145
5.78345894814 0.8121819816226664 0.085561741514826 -1.1195925604269124 2.0474973797421345 2.0501011210321587 -0.520000050553151 1.1399758163352145
5.79349398613 0.8121819816226664 0.085561741514826 -1.1195925604269124 2.0474973797421345 2.0501011210321587 -0.520000050553151 1.1399758163352145
5.79349398613 0.8121819816226664 0.085561741514826 -1.1195925604269124 2.0474973797421345 2.0501011210321587 -0.520000050553151 1.1399758163352145
5.80358505249 0.8121819816226664 0.085561741514826 -1.1195925604269124 2.0474973797421345 2.0501011210321587 -0.520000050553151 1.1399758163352145
5.80358505249 0.8121819816226664 0.085561741514826 -1.1195925604269124 2.0474973797421345 2.0501011210321587 -0.520000050553151 1.1399758163352145
5.81349301338 0.8121819816226664 0.085561741514826 -1.1195925604269124 2.0474973797421345 2.0501011210321587 -0.520000050553151 1.1399758163352145
5.81349301338 0.8121819816226664 0.085561741514826 -1.1195925604269124 2.0474973797421345 2.0501011210321587 -0.520000050553151 1.1399758163352145
5.82361197472 0.8121819816226664 0.085561741514826 -1.1195925604269124 2.0474973797421345 2.0501011210321587 -0.520000050553151 1.1399758163352145
5.82361197472 0.8121819816226664 0.085561741514826 -1.1195925604269124 2.0474973797421345 2.0501011210321587 -0.520000050553151 1.1399758163352145
5.83362102509 0.8121819816226664 0.085561741514826 -1.1195925604269124 2.0474973797421345 2.0501011210321587 -0.520000050553151 1.1399758163352145
5.83362102509 0.8121819816226664 0.085561741514826 -1.1195925604269124 2.0474973797421345 2.0501011210321587 -0.520000050553151 1.1399758163352145
5.843490839 0.8121819816226664 0.085561741514826 -1.1195925604269124 2.0474973797421345 2.0501011210321587 -0.520000050553151 1.1399758163352145
5.843490839 0.8121819816226664 0.085561741514826 -1.1195925604269124 2.0474973797421345 2.0501011210321587 -0.520000050553151 1.1399758163352145
5.8535618782 0.8121819816226664 0.085561741514826 -1.1195925604269124 2.0474973797421345 2.0501011210321587 -0.520000050553151 1.1399758163352145
5.8535618782 0.8121819816226664 0.085561741514826 -1.1195925604269124 2.0474973797421345 2.0501011210321587 -0.520000050553151 1.1399758163352145
5.86360788345 0.8121819816226664 0.085561741514826 -1.1195925604269124 2.0474973797421345 2.0501011210321587 -0.520000050553151 1.1399758163352145
5.86360788345 0.8121819816226664 0.085561741514826 -1.1195925604269124 2.0474973797421345 2.0501011210321587 -0.520000050553151 1.1399758163352145
5.87351799011 0.8121819816226664 0.085561741514826 -1.1195925604269124 2.0474973797421345 2.0501011210321587 -0.520000050553151 1.1399758163352145
5.87351799011 0.8121819816226664 0.085561741514826 -1.1195925604269124 2.0474973797421345 2.0501011210321587 -0.520000050553151 1.1399758163352145
5.88357496262 0.8121819816226664 0.085561741514826 -1.1195925604269124 2.0474973797421345 2.0501011210321587 -0.520000050553151 1.1399758163352145
5.88357496262 0.8121819816226664 0.085561741514826 -1.1195925604269124 2.0474973797421345 2.0501011210321587 -0.520000050553151 1.1399758163352145
5.89360284805 0.8121819816226664 0.085561741514826 -1.1195925604269124 2.0474973797421345 2.0501011210321587 -0.520000050553151 1.1399758163352145
5.89360284805 0.8121819816226664 0.085561741514826 -1.1195925604269124 2.0474973797421345 2.0501011210321587 -0.520000050553151 1.1399758163352145
5.90362596512 0.8121819816226664 0.085561741514826 -1.1195925604269124 2.0474973797421345 2.0501011210321587 -0.520000050553151 1.1399758163352145
5.90362596512 0.8121819816226664 0.085561741514826 -1.1195925604269124 2.0474973797421345 2.0501011210321587 -0.520000050553151 1.1399758163352145
5.91363406181 0.8121819816226664 0.085561741514826 -1.1195925604269124 2.0474973797421345 2.0501011210321587 -0.520000050553151 1.1399758163352145
5.91363406181 0.8121819816226664 0.085561741514826 -1.1195925604269124 2.0474973797421345 2.0501011210321587 -0.520000050553151 1.1399758163352145
5.92362904549 0.8121819816226664 0.085561741514826 -1.1195925604269124 2.0474973797421345 2.0501011210321587 -0.520000050553151 1.1399758163352145
5.92362904549 0.8121819816226664 0.085561741514826 -1.1195925604269124 2.0474973797421345 2.0501011210321587 -0.520000050553151 1.1399758163352145
5.93363690376 0.8121819816226664 0.085561741514826 -1.1195925604269124 2.0474973797421345 2.0501011210321587 -0.520000050553151 1.1399758163352145
5.93363690376 0.8121819816226664 0.085561741514826 -1.1195925604269124 2.0474973797421345 2.0501011210321587 -0.520000050553151 1.1399758163352145
5.94359183311 0.8121819816226664 0.085561741514826 -1.1195925604269124 2.0474973797421345 2.0501011210321587 -0.520000050553151 1.1399758163352145
5.94359183311 0.8121819816226664 0.085561741514826 -1.1195925604269124 2.0474973797421345 2.0501011210321587 -0.520000050553151 1.1399758163352145
5.95360302925 0.8121819816226664 0.085561741514826 -1.1195925604269124 2.0474973797421345 2.0501011210321587 -0.520000050553151 1.1399758163352145
5.95360302925 0.8121819816226664 0.085561741514826 -1.1195925604269124 2.0474973797421345 2.0501011210321587 -0.520000050553151 1.1399758163352145
5.96358704567 0.8121819816226664 0.085561741514826 -1.1195925604269124 2.0474973797421345 2.0501011210321587 -0.520000050553151 1.1399758163352145
5.96358704567 0.8121819816226664 0.085561741514826 -1.1195925604269124 2.0474973797421345 2.0501011210321587 -0.520000050553151 1.1399758163352145
5.97359490395 0.8121819816226664 0.085561741514826 -1.1195925604269124 2.0474973797421345 2.0501011210321587 -0.520000050553151 1.1399758163352145
5.97359490395 0.8121819816226664 0.085561741514826 -1.1195925604269124 2.0474973797421345 2.0501011210321587 -0.520000050553151 1.1399758163352145
5.98362588882 0.8121819816226664 0.085561741514826 -1.1195925604269124 2.0474973797421345 2.0501011210321587 -0.520000050553151 1.1399758163352145
5.98362588882 0.8121819816226664 0.085561741514826 -1.1195925604269124 2.0474973797421345 2.0501011210321587 -0.520000050553151 1.1399758163352145
5.99351596832 0.8121819816226664 0.085561741514826 -1.1195925604269124 2.0474973797421345 2.0501011210321587 -0.520000050553151 1.1399758163352145
5.99351596832 0.8121819816226664 0.085561741514826 -1.1195925604269124 2.0474973797421345 2.0501011210321587 -0.520000050553151 1.1399758163352145
6.00359201431 0.8121819816226664 0.085561741514826 -1.1195925604269124 2.0474973797421345 2.0501011210321587 -0.520000050553151 1.1399758163352145
6.00359201431 0.8121819816226664 0.085561741514826 -1.1195925604269124 2.0474973797421345 2.0501011210321587 -0.520000050553151 1.1399758163352145
6.01354598999 0.8121819816226664 0.085561741514826 -1.1195925604269124 2.0474973797421345 2.0501011210321587 -0.520000050553151 1.1399758163352145
6.01354598999 0.8121819816226664 0.085561741514826 -1.1195925604269124 2.0474973797421345 2.0501011210321587 -0.520000050553151 1.1399758163352145
6.02365088463 0.8121819816226664 0.085561741514826 -1.1195925604269124 2.0474973797421345 2.0501011210321587 -0.520000050553151 1.1399758163352145
6.02365088463 0.8121819816226664 0.085561741514826 -1.1195925604269124 2.0474973797421345 2.0501011210321587 -0.520000050553151 1.1399758163352145
6.03340888023 0.8121819816226664 0.085561741514826 -1.1195925604269124 2.0474973797421345 2.0501011210321587 -0.520000050553151 1.1399758163352145
6.03340888023 0.8121819816226664 0.085561741514826 -1.1195925604269124 2.0474973797421345 2.0501011210321587 -0.520000050553151 1.1399758163352145
6.04357385635 0.8121819816226664 0.085561741514826 -1.1195925604269124 2.0474973797421345 2.0501011210321587 -0.520000050553151 1.1399758163352145
6.04357385635 0.8121819816226664 0.085561741514826 -1.1195925604269124 2.0474973797421345 2.0501011210321587 -0.520000050553151 1.1399758163352145
6.05354094505 0.8121819816226664 0.085561741514826 -1.1195925604269124 2.0474973797421345 2.0501011210321587 -0.520000050553151 1.1399758163352145
6.05354094505 0.8121819816226664 0.085561741514826 -1.1195925604269124 2.0474973797421345 2.0501011210321587 -0.520000050553151 1.1399758163352145
6.06354594231 0.8121819816226664 0.085561741514826 -1.1195925604269124 2.0474973797421345 2.0501011210321587 -0.520000050553151 1.1399758163352145
6.06354594231 0.8121819816226664 0.085561741514826 -1.1195925604269124 2.0474973797421345 2.0501011210321587 -0.520000050553151 1.1399758163352145
6.07356286049 0.8121819816226664 0.085561741514826 -1.1195925604269124 2.0474973797421345 2.0501011210321587 -0.520000050553151 1.1399758163352145
6.07356286049 0.8121819816226664 0.085561741514826 -1.1195925604269124 2.0474973797421345 2.0501011210321587 -0.520000050553151 1.1399758163352145
6.08361506462 0.8121819816226664 0.085561741514826 -1.1195925604269124 2.0474973797421345 2.0501011210321587 -0.520000050553151 1.1399758163352145
6.08361506462 0.8121819816226664 0.085561741514826 -1.1195925604269124 2.0474973797421345 2.0501011210321587 -0.520000050553151 1.1399758163352145
6.09349703789 0.8121819816226664 0.085561741514826 -1.1195925604269124 2.0474973797421345 2.0501011210321587 -0.520000050553151 1.1399758163352145
6.09349703789 0.8121819816226664 0.085561741514826 -1.1195925604269124 2.0474973797421345 2.0501011210321587 -0.520000050553151 1.1399758163352145
6.10357403755 0.8121819816226664 0.085561741514826 -1.1195925604269124 2.0474973797421345 2.0501011210321587 -0.520000050553151 1.1399758163352145
6.10357403755 0.8121819816226664 0.085561741514826 -1.1195925604269124 2.0474973797421345 2.0501011210321587 -0.520000050553151 1.1399758163352145
6.11358594894 0.8121819816226664 0.085561741514826 -1.1195925604269124 2.0474973797421345 2.0501011210321587 -0.520000050553151 1.1399758163352145
6.11358594894 0.8121819816226664 0.085561741514826 -1.1195925604269124 2.0474973797421345 2.0501011210321587 -0.520000050553151 1.1399758163352145
6.12339091301 0.8121819816226664 0.085561741514826 -1.1195925604269124 2.0474973797421345 2.0501011210321587 -0.520000050553151 1.1399758163352145
6.12339091301 0.8121819816226664 0.085561741514826 -1.1195925604269124 2.0474973797421345 2.0501011210321587 -0.520000050553151 1.1399758163352145
6.13357186317 0.8121819816226664 0.085561741514826 -1.1195925604269124 2.0474973797421345 2.0501011210321587 -0.520000050553151 1.1399758163352145
6.13357186317 0.8121819816226664 0.085561741514826 -1.1195925604269124 2.0474973797421345 2.0501011210321587 -0.520000050553151 1.1399758163352145
6.14361095428 0.8121819816226664 0.085561741514826 -1.1195925604269124 2.0474973797421345 2.0501011210321587 -0.520000050553151 1.1399758163352145
6.14361095428 0.8121819816226664 0.085561741514826 -1.1195925604269124 2.0474973797421345 2.0501011210321587 -0.520000050553151 1.1399758163352145
6.15347099304 0.8121819816226664 0.085561741514826 -1.1195925604269124 2.0474973797421345 2.0501011210321587 -0.520000050553151 1.1399758163352145
6.15347099304 0.8121819816226664 0.085561741514826 -1.1195925604269124 2.0474973797421345 2.0501011210321587 -0.520000050553151 1.1399758163352145
6.16340088844 0.8121819816226664 0.085561741514826 -1.1195925604269124 2.0474973797421345 2.0501011210321587 -0.520000050553151 1.1399758163352145
6.16340088844 0.8121819816226664 0.085561741514826 -1.1195925604269124 2.0474973797421345 2.0501011210321587 -0.520000050553151 1.1399758163352145
6.17357206345 0.8121819816226664 0.085561741514826 -1.1195925604269124 2.0474973797421345 2.0501011210321587 -0.520000050553151 1.1399758163352145
6.17357206345 0.8121819816226664 0.085561741514826 -1.1195925604269124 2.0474973797421345 2.0501011210321587 -0.520000050553151 1.1399758163352145
6.18339705467 0.8121819816226664 0.085561741514826 -1.1195925604269124 2.0474973797421345 2.0501011210321587 -0.520000050553151 1.1399758163352145
6.18339705467 0.8121819816226664 0.085561741514826 -1.1195925604269124 2.0474973797421345 2.0501011210321587 -0.520000050553151 1.1399758163352145
6.19352006912 0.8121819816226664 0.085561741514826 -1.1195925604269124 2.0474973797421345 2.0501011210321587 -0.520000050553151 1.1399758163352145
6.19352006912 0.8121819816226664 0.085561741514826 -1.1195925604269124 2.0474973797421345 2.0501011210321587 -0.520000050553151 1.1399758163352145
6.20358586311 0.8121819816226664 0.085561741514826 -1.1195925604269124 2.0474973797421345 2.0501011210321587 -0.520000050553151 1.1399758163352145
6.20358586311 0.8121819816226664 0.085561741514826 -1.1195925604269124 2.0474973797421345 2.0501011210321587 -0.520000050553151 1.1399758163352145
6.21348500252 0.8121819816226664 0.085561741514826 -1.1195925604269124 2.0474973797421345 2.0501011210321587 -0.520000050553151 1.1399758163352145
6.21348500252 0.8121819816226664 0.085561741514826 -1.1195925604269124 2.0474973797421345 2.0501011210321587 -0.520000050553151 1.1399758163352145
6.22360396385 0.8121819816226664 0.085561741514826 -1.1195925604269124 2.0474973797421345 2.0501011210321587 -0.520000050553151 1.1399758163352145
6.22360396385 0.8121819816226664 0.085561741514826 -1.1195925604269124 2.0474973797421345 2.0501011210321587 -0.520000050553151 1.1399758163352145
6.23352384567 0.8121819816226664 0.085561741514826 -1.1195925604269124 2.0474973797421345 2.0501011210321587 -0.520000050553151 1.1399758163352145
6.23352384567 0.8121819816226664 0.085561741514826 -1.1195925604269124 2.0474973797421345 2.0501011210321587 -0.520000050553151 1.1399758163352145
6.24353790283 0.8121819816226664 0.085561741514826 -1.1195925604269124 2.0474973797421345 2.0501011210321587 -0.519995485093592 1.1399803817947731
6.24353790283 0.8121819816226664 0.085561741514826 -1.1195925604269124 2.0474973797421345 2.0501011210321587 -0.519995485093592 1.1399803817947731
6.25351285934 0.8121819816226664 0.085561741514826 -1.1195925604269124 2.0474973797421345 2.0501011210321587 -0.519995485093592 1.1399803817947731
6.25351285934 0.8121819816226664 0.085561741514826 -1.1195925604269124 2.0474973797421345 2.0501011210321587 -0.519995485093592 1.1399803817947731
6.26359701157 0.8121819816226664 0.085561741514826 -1.1195925604269124 2.0474973797421345 2.0501011210321587 -0.519995485093592 1.1399803817947731
6.26359701157 0.8121819816226664 0.085561741514826 -1.1195925604269124 2.0474973797421345 2.0501011210321587 -0.519995485093592 1.1399803817947731
6.27338600159 0.8121819816226664 0.085561741514826 -1.1195925604269124 2.0474973797421345 2.0501011210321587 -0.519995485093592 1.1399803817947731
6.27338600159 0.8121819816226664 0.085561741514826 -1.1195925604269124 2.0474973797421345 2.0501011210321587 -0.519995485093592 1.1399803817947731
6.28356599808 0.8121819816226664 0.085561741514826 -1.1195925604269124 2.0474973797421345 2.0501011210321587 -0.519995485093592 1.1399803817947731
6.28356599808 0.8121819816226664 0.085561741514826 -1.1195925604269124 2.0474973797421345 2.0501011210321587 -0.519995485093592 1.1399803817947731
6.29359292984 0.8121819816226664 0.085561741514826 -1.1195925604269124 2.0474973797421345 2.0501011210321587 -0.519995485093592 1.1399803817947731
6.29359292984 0.8121819816226664 0.085561741514826 -1.1195925604269124 2.0474973797421345 2.0501011210321587 -0.519995485093592 1.1399803817947731
6.30351305008 0.8121819816226664 0.085561741514826 -1.1195925604269124 2.0474973797421345 2.0501011210321587 -0.519995485093592 1.1399803817947731
6.30351305008 0.8121819816226664 0.085561741514826 -1.1195925604269124 2.0474973797421345 2.0501011210321587 -0.519995485093592 1.1399803817947731
6.31359386444 0.8121819816226664 0.085561741514826 -1.1195925604269124 2.0474973797421345 2.0501011210321587 -0.519995485093592 1.1399803817947731
6.31359386444 0.8121819816226664 0.085561741514826 -1.1195925604269124 2.0474973797421345 2.0501011210321587 -0.519995485093592 1.1399803817947731
6.32363200188 0.8121819816226664 0.085561741514826 -1.1195925604269124 2.0474973797421345 2.0501011210321587 -0.519995485093592 1.1399803817947731
6.32363200188 0.8121819816226664 0.085561741514826 -1.1195925604269124 2.0474973797421345 2.0501011210321587 -0.519995485093592 1.1399803817947731
6.33360886574 0.8121819816226664 0.085561741514826 -1.1195925604269124 2.0474973797421345 2.0501011210321587 -0.519995485093592 1.1399803817947731
6.33360886574 0.8121819816226664 0.085561741514826 -1.1195925604269124 2.0474973797421345 2.0501011210321587 -0.519995485093592 1.1399803817947731
6.34359192848 0.8121819816226664 0.085561741514826 -1.1195925604269124 2.0474973797421345 2.0501011210321587 -0.519995485093592 1.1399803817947731
6.34359192848 0.8121819816226664 0.085561741514826 -1.1195925604269124 2.0474973797421345 2.0501011210321587 -0.519995485093592 1.1399803817947731
6.3536260128 0.8121819816226664 0.085561741514826 -1.1195925604269124 2.0474973797421345 2.0501011210321587 -0.519995485093592 1.1399803817947731
6.3536260128 0.8121819816226664 0.085561741514826 -1.1195925604269124 2.0474973797421345 2.0501011210321587 -0.519995485093592 1.1399803817947731
6.36361598969 0.8121819816226664 0.085561741514826 -1.1195925604269124 2.0474973797421345 2.0501011210321587 -0.519995485093592 1.1399803817947731
6.36361598969 0.8121819816226664 0.085561741514826 -1.1195925604269124 2.0474973797421345 2.0501011210321587 -0.519995485093592 1.1399803817947731
6.3734869957 0.8121819816226664 0.085561741514826 -1.1195925604269124 2.0474973797421345 2.0501011210321587 -0.519995485093592 1.1399803817947731
6.3734869957 0.8121819816226664 0.085561741514826 -1.1195925604269124 2.0474973797421345 2.0501011210321587 -0.519995485093592 1.1399803817947731
6.38360285759 0.8121819816226664 0.085561741514826 -1.1195925604269124 2.0474973797421345 2.0501011210321587 -0.519995485093592 1.1399803817947731
6.38360285759 0.8121819816226664 0.085561741514826 -1.1195925604269124 2.0474973797421345 2.0501011210321587 -0.519995485093592 1.1399803817947731
6.3936009407 0.8121819816226664 0.085561741514826 -1.1195925604269124 2.0474973797421345 2.0501011210321587 -0.519995485093592 1.1399803817947731
6.3936009407 0.8121819816226664 0.085561741514826 -1.1195925604269124 2.0474973797421345 2.0501011210321587 -0.519995485093592 1.1399803817947731
6.40360593796 0.8121819816226664 0.085561741514826 -1.1195925604269124 2.0474973797421345 2.0501011210321587 -0.519995485093592 1.1399803817947731
6.40360593796 0.8121819816226664 0.085561741514826 -1.1195925604269124 2.0474973797421345 2.0501011210321587 -0.519995485093592 1.1399803817947731
6.41359496117 0.8121819816226664 0.085561741514826 -1.1195925604269124 2.0474973797421345 2.0501011210321587 -0.519995485093592 1.1399803817947731
6.41359496117 0.8121819816226664 0.085561741514826 -1.1195925604269124 2.0474973797421345 2.0501011210321587 -0.519995485093592 1.1399803817947731
6.42360401154 0.8121819816226664 0.085561741514826 -1.1195925604269124 2.0474973797421345 2.0501011210321587 -0.519995485093592 1.1399803817947731
6.42360401154 0.8121819816226664 0.085561741514826 -1.1195925604269124 2.0474973797421345 2.0501011210321587 -0.519995485093592 1.1399803817947731
6.43350100517 0.8121819816226664 0.085561741514826 -1.1195925604269124 2.0474973797421345 2.0501011210321587 -0.519995485093592 1.1399803817947731
6.43350100517 0.8121819816226664 0.085561741514826 -1.1195925604269124 2.0474973797421345 2.0501011210321587 -0.519995485093592 1.1399803817947731
6.44363093376 0.8121819816226664 0.085561741514826 -1.1195925604269124 2.0474973797421345 2.0501011210321587 -0.519995485093592 1.1399803817947731
6.44363093376 0.8121819816226664 0.085561741514826 -1.1195925604269124 2.0474973797421345 2.0501011210321587 -0.519995485093592 1.1399803817947731
6.45363497734 0.8121819816226664 0.085561741514826 -1.1195925604269124 2.0474973797421345 2.0501011210321587 -0.519995485093592 1.1399803817947731
6.45363497734 0.8121819816226664 0.085561741514826 -1.1195925604269124 2.0474973797421345 2.0501011210321587 -0.519995485093592 1.1399803817947731
6.46354198456 0.8121819816226664 0.085561741514826 -1.1195925604269124 2.0474973797421345 2.0501011210321587 -0.519995485093592 1.1399803817947731
6.46354198456 0.8121819816226664 0.085561741514826 -1.1195925604269124 2.0474973797421345 2.0501011210321587 -0.519995485093592 1.1399803817947731
6.47359085083 0.8121819816226664 0.085561741514826 -1.1195925604269124 2.0474973797421345 2.0501011210321587 -0.519995485093592 1.1399803817947731
6.47359085083 0.8121819816226664 0.085561741514826 -1.1195925604269124 2.0474973797421345 2.0501011210321587 -0.519995485093592 1.1399803817947731
6.48343205452 0.8121819816226664 0.085561741514826 -1.1195925604269124 2.0474973797421345 2.0501011210321587 -0.519995485093592 1.1399803817947731
6.48343205452 0.8121819816226664 0.085561741514826 -1.1195925604269124 2.0474973797421345 2.0501011210321587 -0.519995485093592 1.1399803817947731
6.49346399307 0.8121819816226664 0.085561741514826 -1.1195925604269124 2.0474973797421345 2.0501011210321587 -0.519995485093592 1.1399803817947731
6.49346399307 0.8121819816226664 0.085561741514826 -1.1195925604269124 2.0474973797421345 2.0501011210321587 -0.519995485093592 1.1399803817947731
6.50358295441 0.8121819816226664 0.085561741514826 -1.1195925604269124 2.0474973797421345 2.0501011210321587 -0.519995485093592 1.1399803817947731
6.50358295441 0.8121819816226664 0.085561741514826 -1.1195925604269124 2.0474973797421345 2.0501011210321587 -0.519995485093592 1.1399803817947731
6.51359200478 0.8121819816226664 0.085561741514826 -1.1195925604269124 2.0474973797421345 2.0501011210321587 -0.519995485093592 1.1399803817947731
6.51359200478 0.8121819816226664 0.085561741514826 -1.1195925604269124 2.0474973797421345 2.0501011210321587 -0.519995485093592 1.1399803817947731
6.52364087105 0.8121819816226664 0.085561741514826 -1.1195925604269124 2.0474973797421345 2.0501011210321587 -0.519995485093592 1.1399803817947731
6.52364087105 0.8121819816226664 0.085561741514826 -1.1195925604269124 2.0474973797421345 2.0501011210321587 -0.519995485093592 1.1399803817947731
6.53352093697 0.8121819816226664 0.085561741514826 -1.1195925604269124 2.0474973797421345 2.0501011210321587 -0.519995485093592 1.1399803817947731
6.53352093697 0.8121819816226664 0.085561741514826 -1.1195925604269124 2.0474973797421345 2.0501011210321587 -0.519995485093592 1.1399803817947731
6.54360103607 0.8121819816226664 0.085561741514826 -1.1195925604269124 2.0474973797421345 2.0501011210321587 -0.519995485093592 1.1399803817947731
6.54360103607 0.8121819816226664 0.085561741514826 -1.1195925604269124 2.0474973797421345 2.0501011210321587 -0.519995485093592 1.1399803817947731
6.55348396301 0.8121819816226664 0.085561741514826 -1.1195925604269124 2.0474973797421345 2.0501011210321587 -0.519995485093592 1.1399803817947731
6.55348396301 0.8121819816226664 0.085561741514826 -1.1195925604269124 2.0474973797421345 2.0501011210321587 -0.519995485093592 1.1399803817947731
6.56358885765 0.8121819816226664 0.085561741514826 -1.1195925604269124 2.0474973797421345 2.0501011210321587 -0.519995485093592 1.1399803817947731
6.56358885765 0.8121819816226664 0.085561741514826 -1.1195925604269124 2.0474973797421345 2.0501011210321587 -0.519995485093592 1.1399803817947731
6.573554039 0.8121819816226664 0.085561741514826 -1.1195925604269124 2.0474973797421345 2.0501011210321587 -0.519995485093592 1.1399803817947731
6.573554039 0.8121819816226664 0.085561741514826 -1.1195925604269124 2.0474973797421345 2.0501011210321587 -0.519995485093592 1.1399803817947731
6.58369684219 0.8121819816226664 0.085561741514826 -1.1195925604269124 2.0474973797421345 2.0501011210321587 -0.519995485093592 1.1399803817947731
6.58369684219 0.8121819816226664 0.085561741514826 -1.1195925604269124 2.0474973797421345 2.0501011210321587 -0.519995485093592 1.1399803817947731
6.5936229229 0.8121819816226664 0.085561741514826 -1.1195925604269124 2.0474973797421345 2.0501011210321587 -0.519995485093592 1.1399803817947731
6.5936229229 0.8121819816226664 0.085561741514826 -1.1195925604269124 2.0474973797421345 2.0501011210321587 -0.519995485093592 1.1399803817947731
6.60357189178 0.8121819816226664 0.085561741514826 -1.1195925604269124 2.0474973797421345 2.0501011210321587 -0.519995485093592 1.1399803817947731
6.60357189178 0.8121819816226664 0.085561741514826 -1.1195925604269124 2.0474973797421345 2.0501011210321587 -0.519995485093592 1.1399803817947731
6.61350393295 0.8121819816226664 0.085561741514826 -1.1195925604269124 2.0474973797421345 2.0501011210321587 -0.519995485093592 1.1399803817947731
6.61350393295 0.8121819816226664 0.085561741514826 -1.1195925604269124 2.0474973797421345 2.0501011210321587 -0.519995485093592 1.1399803817947731
6.62362003326 0.8121819816226664 0.085561741514826 -1.1195925604269124 2.0474973797421345 2.0501011210321587 -0.519995485093592 1.1399803817947731
6.62362003326 0.8121819816226664 0.085561741514826 -1.1195925604269124 2.0474973797421345 2.0501011210321587 -0.519995485093592 1.1399803817947731
6.6335170269 0.8121819816226664 0.085561741514826 -1.1195925604269124 2.0474973797421345 2.0501011210321587 -0.519995485093592 1.1399803817947731
6.6335170269 0.8121819816226664 0.085561741514826 -1.1195925604269124 2.0474973797421345 2.0501011210321587 -0.519995485093592 1.1399803817947731
6.64360404015 0.8121819816226664 0.085561741514826 -1.1195925604269124 2.0474973797421345 2.0501011210321587 -0.519995485093592 1.1399803817947731
6.64360404015 0.8121819816226664 0.085561741514826 -1.1195925604269124 2.0474973797421345 2.0501011210321587 -0.519995485093592 1.1399803817947731
6.65357899666 0.8121819816226664 0.085561741514826 -1.1195925604269124 2.0474973797421345 2.0501011210321587 -0.519995485093592 1.1399803817947731
6.65357899666 0.8121819816226664 0.085561741514826 -1.1195925604269124 2.0474973797421345 2.0501011210321587 -0.519995485093592 1.1399803817947731
6.66359806061 0.8121819816226664 0.085561741514826 -1.1195925604269124 2.0474973797421345 2.0501011210321587 -0.519995485093592 1.1399803817947731
6.66359806061 0.8121819816226664 0.085561741514826 -1.1195925604269124 2.0474973797421345 2.0501011210321587 -0.519995485093592 1.1399803817947731
6.673568964 0.8121819816226664 0.085561741514826 -1.1195925604269124 2.0474973797421345 2.0501011210321587 -0.519995485093592 1.1399803817947731
6.673568964 0.8121819816226664 0.085561741514826 -1.1195925604269124 2.0474973797421345 2.0501011210321587 -0.519995485093592 1.1399803817947731
6.6833999157 0.8121819816226664 0.085561741514826 -1.1195925604269124 2.0474973797421345 2.0501011210321587 -0.519995485093592 1.1399803817947731
6.6833999157 0.8121819816226664 0.085561741514826 -1.1195925604269124 2.0474973797421345 2.0501011210321587 -0.519995485093592 1.1399803817947731
6.69359183311 0.8121819816226664 0.085561741514826 -1.1195925604269124 2.0474973797421345 2.0501011210321587 -0.519995485093592 1.1399803817947731
6.69359183311 0.8121819816226664 0.085561741514826 -1.1195925604269124 2.0474973797421345 2.0501011210321587 -0.519995485093592 1.1399803817947731
6.70359587669 0.8121819816226664 0.085561741514826 -1.1195925604269124 2.0474973797421345 2.0501011210321587 -0.519995485093592 1.1399803817947731
6.70359587669 0.8121819816226664 0.085561741514826 -1.1195925604269124 2.0474973797421345 2.0501011210321587 -0.519995485093592 1.1399803817947731
6.71341490746 0.8121819816226664 0.085561741514826 -1.1195925604269124 2.0474973797421345 2.0501011210321587 -0.519995485093592 1.1399803817947731
6.71341490746 0.8121819816226664 0.085561741514826 -1.1195925604269124 2.0474973797421345 2.0501011210321587 -0.519995485093592 1.1399803817947731
6.7235519886 0.8121819816226664 0.085561741514826 -1.1195925604269124 2.0474973797421345 2.0501011210321587 -0.519995485093592 1.1399803817947731
6.7235519886 0.8121819816226664 0.085561741514826 -1.1195925604269124 2.0474973797421345 2.0501011210321587 -0.519995485093592 1.1399803817947731
6.73355984688 0.8121819816226664 0.085561741514826 -1.1195925604269124 2.0474973797421345 2.0501011210321587 -0.519995485093592 1.1399803817947731
6.73355984688 0.8121819816226664 0.085561741514826 -1.1195925604269124 2.0474973797421345 2.0501011210321587 -0.519995485093592 1.1399803817947731
6.74342799187 0.8121819816226664 0.085561741514826 -1.1195925604269124 2.0474973797421345 2.0501011210321587 -0.519995485093592 1.1399803817947731
6.74342799187 0.8121819816226664 0.085561741514826 -1.1195925604269124 2.0474973797421345 2.0501011210321587 -0.519995485093592 1.1399803817947731
6.75356888771 0.8121819816226664 0.085561741514826 -1.1195925604269124 2.0474973797421345 2.0501011210321587 -0.519995485093592 1.1399803817947731
6.75356888771 0.8121819816226664 0.085561741514826 -1.1195925604269124 2.0474973797421345 2.0501011210321587 -0.519995485093592 1.1399803817947731
6.7636179924 0.8121819816226664 0.085561741514826 -1.1195925604269124 2.0474973797421345 2.0501011210321587 -0.519995485093592 1.1399803817947731
6.7636179924 0.8121819816226664 0.085561741514826 -1.1195925604269124 2.0474973797421345 2.0501011210321587 -0.519995485093592 1.1399803817947731
6.77362394333 0.8121819816226664 0.085561741514826 -1.1195925604269124 2.0474973797421345 2.0501011210321587 -0.519995485093592 1.1399803817947731
6.77362394333 0.8121819816226664 0.085561741514826 -1.1195925604269124 2.0474973797421345 2.0501011210321587 -0.519995485093592 1.1399803817947731
6.78360295296 0.8121819816226664 0.085561741514826 -1.1195925604269124 2.0474973797421345 2.0501011210321587 -0.519995485093592 1.1399803817947731
6.78360295296 0.8121819816226664 0.085561741514826 -1.1195925604269124 2.0474973797421345 2.0501011210321587 -0.519995485093592 1.1399803817947731
6.79360890388 0.8121819816226664 0.085561741514826 -1.1195925604269124 2.0474973797421345 2.0501011210321587 -0.519995485093592 1.1399803817947731
6.79360890388 0.8121819816226664 0.085561741514826 -1.1195925604269124 2.0474973797421345 2.0501011210321587 -0.519995485093592 1.1399803817947731
6.80350089073 0.8121819816226664 0.085561741514826 -1.1195925604269124 2.0474973797421345 2.0501011210321587 -0.519995485093592 1.1399803817947731
6.80350089073 0.8121819816226664 0.085561741514826 -1.1195925604269124 2.0474973797421345 2.0501011210321587 -0.519995485093592 1.1399803817947731
6.81341505051 0.8121819816226664 0.085561741514826 -1.1195925604269124 2.0474973797421345 2.0501011210321587 -0.519995485093592 1.1399803817947731
6.81341505051 0.8121819816226664 0.085561741514826 -1.1195925604269124 2.0474973797421345 2.0501011210321587 -0.519995485093592 1.1399803817947731
6.82337999344 0.8121819816226664 0.085561741514826 -1.1195925604269124 2.0474973797421345 2.0501011210321587 -0.519995485093592 1.1399803817947731
6.82337999344 0.8121819816226664 0.085561741514826 -1.1195925604269124 2.0474973797421345 2.0501011210321587 -0.519995485093592 1.1399803817947731
6.833370924 0.8121819816226664 0.085561741514826 -1.1195925604269124 2.0474973797421345 2.0501011210321587 -0.519995485093592 1.1399803817947731
6.833370924 0.8121819816226664 0.085561741514826 -1.1195925604269124 2.0474973797421345 2.0501011210321587 -0.519995485093592 1.1399803817947731
6.84355902672 0.8121819816226664 0.085561741514826 -1.1195925604269124 2.0474973797421345 2.0501011210321587 -0.519995485093592 1.1399803817947731
6.84355902672 0.8121819816226664 0.085561741514826 -1.1195925604269124 2.0474973797421345 2.0501011210321587 -0.519995485093592 1.1399803817947731
6.85357499123 0.8121819816226664 0.085561741514826 -1.1195925604269124 2.0474973797421345 2.0501011210321587 -0.519995485093592 1.1399803817947731
6.85357499123 0.8121819816226664 0.085561741514826 -1.1195925604269124 2.0474973797421345 2.0501011210321587 -0.519995485093592 1.1399803817947731
6.86359906197 0.8121819816226664 0.085561741514826 -1.1195925604269124 2.0474973797421345 2.0501011210321587 -0.519995485093592 1.1399803817947731
6.86359906197 0.8121819816226664 0.085561741514826 -1.1195925604269124 2.0474973797421345 2.0501011210321587 -0.519995485093592 1.1399803817947731
6.87359285355 0.8121819816226664 0.085561741514826 -1.1195925604269124 2.0474973797421345 2.0501011210321587 -0.519995485093592 1.1399803817947731
6.87359285355 0.8121819816226664 0.085561741514826 -1.1195925604269124 2.0474973797421345 2.0501011210321587 -0.519995485093592 1.1399803817947731
6.88363599777 0.8121819816226664 0.085561741514826 -1.1195925604269124 2.0474973797421345 2.0501011210321587 -0.519995485093592 1.1399803817947731
6.88363599777 0.8121819816226664 0.085561741514826 -1.1195925604269124 2.0474973797421345 2.0501011210321587 -0.519995485093592 1.1399803817947731
6.89373397827 0.8121819816226664 0.085561741514826 -1.1195925604269124 2.0474973797421345 2.0501011210321587 -0.519995485093592 1.1399803817947731
6.89373397827 0.8121819816226664 0.085561741514826 -1.1195925604269124 2.0474973797421345 2.0501011210321587 -0.519995485093592 1.1399803817947731
6.90360093117 0.8121819816226664 0.085561741514826 -1.1195925604269124 2.0474973797421345 2.0501011210321587 -0.519995485093592 1.1399803817947731
6.90360093117 0.8121819816226664 0.085561741514826 -1.1195925604269124 2.0474973797421345 2.0501011210321587 -0.519995485093592 1.1399803817947731
6.91358089447 0.8121819816226664 0.085561741514826 -1.1195925604269124 2.0474973797421345 2.0501011210321587 -0.519995485093592 1.1399803817947731
6.91358089447 0.8121819816226664 0.085561741514826 -1.1195925604269124 2.0474973797421345 2.0501011210321587 -0.519995485093592 1.1399803817947731
6.92344999313 0.8121819816226664 0.085561741514826 -1.1195925604269124 2.0474973797421345 2.0501011210321587 -0.519995485093592 1.1399803817947731
6.92344999313 0.8121819816226664 0.085561741514826 -1.1195925604269124 2.0474973797421345 2.0501011210321587 -0.519995485093592 1.1399803817947731
6.93336391449 0.8121819816226664 0.085561741514826 -1.1195925604269124 2.0474973797421345 2.0501011210321587 -0.519995485093592 1.1399803817947731
6.93336391449 0.8121819816226664 0.085561741514826 -1.1195925604269124 2.0474973797421345 2.0501011210321587 -0.519995485093592 1.1399803817947731
6.94359588623 0.8121819816226664 0.085561741514826 -1.1195925604269124 2.0474973797421345 2.0501011210321587 -0.519995485093592 1.1399803817947731
6.94359588623 0.8121819816226664 0.085561741514826 -1.1195925604269124 2.0474973797421345 2.0501011210321587 -0.519995485093592 1.1399803817947731
6.95367193222 0.8121819816226664 0.085561741514826 -1.1195925604269124 2.0474973797421345 2.0501011210321587 -0.519995485093592 1.1399803817947731
6.95367193222 0.8121819816226664 0.085561741514826 -1.1195925604269124 2.0474973797421345 2.0501011210321587 -0.519995485093592 1.1399803817947731
6.96357989311 0.8121819816226664 0.085561741514826 -1.1195925604269124 2.0474973797421345 2.0501011210321587 -0.519995485093592 1.1399803817947731
6.96357989311 0.8121819816226664 0.085561741514826 -1.1195925604269124 2.0474973797421345 2.0501011210321587 -0.519995485093592 1.1399803817947731
6.97362089157 0.8121819816226664 0.085561741514826 -1.1195925604269124 2.0474973797421345 2.0501011210321587 -0.519995485093592 1.1399803817947731
6.97362089157 0.8121819816226664 0.085561741514826 -1.1195925604269124 2.0474973797421345 2.0501011210321587 -0.519995485093592 1.1399803817947731
6.98359584808 0.8121819816226664 0.085561741514826 -1.1195925604269124 2.0474973797421345 2.0501011210321587 -0.519995485093592 1.1399803817947731
6.98359584808 0.8121819816226664 0.085561741514826 -1.1195925604269124 2.0474973797421345 2.0501011210321587 -0.519995485093592 1.1399803817947731
6.99354887009 0.8121819816226664 0.085561741514826 -1.1195925604269124 2.0474973797421345 2.0501011210321587 -0.519995485093592 1.1399803817947731
6.99354887009 0.8121819816226664 0.085561741514826 -1.1195925604269124 2.0474973797421345 2.0501011210321587 -0.519995485093592 1.1399803817947731
7.00357484818 0.8121819816226664 0.085561741514826 -1.1195925604269124 2.0474973797421345 2.0501011210321587 -0.519995485093592 1.1399803817947731
7.00357484818 0.8121819816226664 0.085561741514826 -1.1195925604269124 2.0474973797421345 2.0501011210321587 -0.519995485093592 1.1399803817947731
7.01361203194 0.8121819816226664 0.085561741514826 -1.1195925604269124 2.0474973797421345 2.0501011210321587 -0.519995485093592 1.1399803817947731
7.01361203194 0.8121819816226664 0.085561741514826 -1.1195925604269124 2.0474973797421345 2.0501011210321587 -0.519995485093592 1.1399803817947731
7.02344703674 0.8121819816226664 0.085561741514826 -1.1195925604269124 2.0474973797421345 2.0501011210321587 -0.519995485093592 1.1399803817947731
7.02344703674 0.8121819816226664 0.085561741514826 -1.1195925604269124 2.0474973797421345 2.0501011210321587 -0.519995485093592 1.1399803817947731
7.03351092339 0.8121819816226664 0.085561741514826 -1.1195925604269124 2.0474973797421345 2.0501011210321587 -0.519995485093592 1.1399803817947731
7.03351092339 0.8121819816226664 0.085561741514826 -1.1195925604269124 2.0474973797421345 2.0501011210321587 -0.519995485093592 1.1399803817947731
7.04358887672 0.8121819816226664 0.085561741514826 -1.1195925604269124 2.0474973797421345 2.0501011210321587 -0.519995485093592 1.1399803817947731
7.04358887672 0.8121819816226664 0.085561741514826 -1.1195925604269124 2.0474973797421345 2.0501011210321587 -0.519995485093592 1.1399803817947731
7.05346894264 0.8121819816226664 0.085561741514826 -1.1195925604269124 2.0474973797421345 2.0501011210321587 -0.519995485093592 1.1399803817947731
7.05346894264 0.8121819816226664 0.085561741514826 -1.1195925604269124 2.0474973797421345 2.0501011210321587 -0.519995485093592 1.1399803817947731
7.06362986565 0.8121819816226664 0.085561741514826 -1.1195925604269124 2.0474973797421345 2.0501011210321587 -0.519995485093592 1.1399803817947731
7.06362986565 0.8121819816226664 0.085561741514826 -1.1195925604269124 2.0474973797421345 2.0501011210321587 -0.519995485093592 1.1399803817947731
7.07364201546 0.8121819816226664 0.085561741514826 -1.1195925604269124 2.0474973797421345 2.0501011210321587 -0.519995485093592 1.1399803817947731
7.07364201546 0.8121819816226664 0.085561741514826 -1.1195925604269124 2.0474973797421345 2.0501011210321587 -0.519995485093592 1.1399803817947731
7.08347606659 0.8121819816226664 0.085561741514826 -1.1195925604269124 2.0474973797421345 2.0501011210321587 -0.519995485093592 1.1399803817947731
7.08347606659 0.8121819816226664 0.085561741514826 -1.1195925604269124 2.0474973797421345 2.0501011210321587 -0.519995485093592 1.1399803817947731
7.09359884262 0.8121819816226664 0.085561741514826 -1.1195925604269124 2.0474973797421345 2.0501011210321587 -0.519995485093592 1.1399803817947731
7.09359884262 0.8121819816226664 0.085561741514826 -1.1195925604269124 2.0474973797421345 2.0501011210321587 -0.519995485093592 1.1399803817947731
7.10363793373 0.8121819816226664 0.085561741514826 -1.1195925604269124 2.0474973797421345 2.0501011210321587 -0.519995485093592 1.1399803817947731
7.10363793373 0.8121819816226664 0.085561741514826 -1.1195925604269124 2.0474973797421345 2.0501011210321587 -0.519995485093592 1.1399803817947731
7.11351084709 0.8121819816226664 0.085561741514826 -1.1195925604269124 2.0474973797421345 2.0501011210321587 -0.519995485093592 1.1399803817947731
7.11351084709 0.8121819816226664 0.085561741514826 -1.1195925604269124 2.0474973797421345 2.0501011210321587 -0.519995485093592 1.1399803817947731
7.12361192703 0.8121819816226664 0.085561741514826 -1.1195925604269124 2.0474973797421345 2.0501011210321587 -0.519995485093592 1.1399803817947731
7.12361192703 0.8121819816226664 0.085561741514826 -1.1195925604269124 2.0474973797421345 2.0501011210321587 -0.519995485093592 1.1399803817947731
7.13357305527 0.8121819816226664 0.085561741514826 -1.1195925604269124 2.0474973797421345 2.0501011210321587 -0.519995485093592 1.1399803817947731
7.13357305527 0.8121819816226664 0.085561741514826 -1.1195925604269124 2.0474973797421345 2.0501011210321587 -0.519995485093592 1.1399803817947731
7.14347696304 0.8121819816226664 0.085561741514826 -1.1195925604269124 2.0474973797421345 2.0501011210321587 -0.519995485093592 1.1399803817947731
7.14347696304 0.8121819816226664 0.085561741514826 -1.1195925604269124 2.0474973797421345 2.0501011210321587 -0.519995485093592 1.1399803817947731
7.15358996391 0.8121819816226664 0.085561741514826 -1.1195925604269124 2.0474973797421345 2.0501011210321587 -0.519995485093592 1.1399803817947731
7.15358996391 0.8121819816226664 0.085561741514826 -1.1195925604269124 2.0474973797421345 2.0501011210321587 -0.519995485093592 1.1399803817947731
7.16363787651 0.8121819816226664 0.085561741514826 -1.1195925604269124 2.0474973797421345 2.0501011210321587 -0.519995485093592 1.1399803817947731
7.16363787651 0.8121819816226664 0.085561741514826 -1.1195925604269124 2.0474973797421345 2.0501011210321587 -0.519995485093592 1.1399803817947731
7.17365384102 0.8121819816226664 0.085561741514826 -1.1195925604269124 2.0474973797421345 2.0501011210321587 -0.519995485093592 1.1399803817947731
7.17365384102 0.8121819816226664 0.085561741514826 -1.1195925604269124 2.0474973797421345 2.0501011210321587 -0.519995485093592 1.1399803817947731
7.18363285065 0.8121819816226664 0.085561741514826 -1.1195925604269124 2.0474973797421345 2.0501011210321587 -0.519995485093592 1.1399803817947731
7.18363285065 0.8121819816226664 0.085561741514826 -1.1195925604269124 2.0474973797421345 2.0501011210321587 -0.519995485093592 1.1399803817947731
7.19355201721 0.8121819816226664 0.085561741514826 -1.1195925604269124 2.0474973797421345 2.0501011210321587 -0.519995485093592 1.1399803817947731
7.19355201721 0.8121819816226664 0.085561741514826 -1.1195925604269124 2.0474973797421345 2.0501011210321587 -0.519995485093592 1.1399803817947731
7.20355391502 0.8121819816226664 0.085561741514826 -1.1195925604269124 2.0474973797421345 2.0501011210321587 -0.519995485093592 1.1399803817947731
7.20355391502 0.8121819816226664 0.085561741514826 -1.1195925604269124 2.0474973797421345 2.0501011210321587 -0.519995485093592 1.1399803817947731
7.21354603767 0.8121819816226664 0.085561741514826 -1.1195925604269124 2.0474973797421345 2.0501011210321587 -0.519995485093592 1.1399803817947731
7.21354603767 0.8121819816226664 0.085561741514826 -1.1195925604269124 2.0474973797421345 2.0501011210321587 -0.519995485093592 1.1399803817947731
7.22359991074 0.8121819816226664 0.085561741514826 -1.1195925604269124 2.0474973797421345 2.0501011210321587 -0.519995485093592 1.1399803817947731
7.22359991074 0.8121819816226664 0.085561741514826 -1.1195925604269124 2.0474973797421345 2.0501011210321587 -0.519995485093592 1.1399803817947731
7.23356699944 0.8121819816226664 0.085561741514826 -1.1195925604269124 2.0474973797421345 2.0501011210321587 -0.519995485093592 1.1399803817947731
7.23356699944 0.8121819816226664 0.085561741514826 -1.1195925604269124 2.0474973797421345 2.0501011210321587 -0.519995485093592 1.1399803817947731
7.24372601509 0.8121819816226664 0.085561741514826 -1.1195925604269124 2.0474973797421345 2.0501011210321587 -0.519995485093592 1.1399803817947731
7.24372601509 0.8121819816226664 0.085561741514826 -1.1195925604269124 2.0474973797421345 2.0501011210321587 -0.519995485093592 1.1399803817947731
7.25346899033 0.8121819816226664 0.085561741514826 -1.1195925604269124 2.0474973797421345 2.0501011210321587 -0.519995485093592 1.1399803817947731
7.25346899033 0.8121819816226664 0.085561741514826 -1.1195925604269124 2.0474973797421345 2.0501011210321587 -0.519995485093592 1.1399803817947731
7.26323795319 0.8121819816226664 0.085561741514826 -1.1195925604269124 2.0474973797421345 2.0501011210321587 -0.519995485093592 1.1399803817947731
7.26323795319 0.8121819816226664 0.085561741514826 -1.1195925604269124 2.0474973797421345 2.0501011210321587 -0.519995485093592 1.1399803817947731
7.27347302437 0.8121819816226664 0.085561741514826 -1.1195925604269124 2.0474973797421345 2.0501011210321587 -0.519995485093592 1.1399803817947731
7.27347302437 0.8121819816226664 0.085561741514826 -1.1195925604269124 2.0474973797421345 2.0501011210321587 -0.519995485093592 1.1399803817947731
7.28340697289 0.8121819816226664 0.085561741514826 -1.1195925604269124 2.0474973797421345 2.0501011210321587 -0.519995485093592 1.1399803817947731
7.28340697289 0.8121819816226664 0.085561741514826 -1.1195925604269124 2.0474973797421345 2.0501011210321587 -0.519995485093592 1.1399803817947731
7.29358291626 0.8121819816226664 0.085561741514826 -1.1195925604269124 2.0474973797421345 2.0501011210321587 -0.519995485093592 1.1399803817947731
7.29358291626 0.8121819816226664 0.085561741514826 -1.1195925604269124 2.0474973797421345 2.0501011210321587 -0.519995485093592 1.1399803817947731
7.30354499817 0.8121819816226664 0.085561741514826 -1.1195925604269124 2.0474973797421345 2.0501011210321587 -0.519995485093592 1.1399803817947731
7.30354499817 0.8121819816226664 0.085561741514826 -1.1195925604269124 2.0474973797421345 2.0501011210321587 -0.519995485093592 1.1399803817947731
7.31348896027 0.8121819816226664 0.085561741514826 -1.1195925604269124 2.0474973797421345 2.0501011210321587 -0.519995485093592 1.1399803817947731
7.31348896027 0.8121819816226664 0.085561741514826 -1.1195925604269124 2.0474973797421345 2.0501011210321587 -0.519995485093592 1.1399803817947731
7.32360887527 0.8121819816226664 0.085561741514826 -1.1195925604269124 2.0474973797421345 2.0501011210321587 -0.519995485093592 1.1399803817947731
7.32360887527 0.8121819816226664 0.085561741514826 -1.1195925604269124 2.0474973797421345 2.0501011210321587 -0.519995485093592 1.1399803817947731
7.33350896835 0.8121819816226664 0.085561741514826 -1.1195925604269124 2.0474973797421345 2.0501011210321587 -0.519995485093592 1.1399803817947731
7.33350896835 0.8121819816226664 0.085561741514826 -1.1195925604269124 2.0474973797421345 2.0501011210321587 -0.519995485093592 1.1399803817947731
7.34341597557 0.8121819816226664 0.085561741514826 -1.1195925604269124 2.0474973797421345 2.0501011210321587 -0.519995485093592 1.1399803817947731
7.34341597557 0.8121819816226664 0.085561741514826 -1.1195925604269124 2.0474973797421345 2.0501011210321587 -0.519995485093592 1.1399803817947731
7.35356783867 0.8121819816226664 0.085561741514826 -1.1195925604269124 2.0474973797421345 2.0501011210321587 -0.519995485093592 1.1399803817947731
7.35356783867 0.8121819816226664 0.085561741514826 -1.1195925604269124 2.0474973797421345 2.0501011210321587 -0.519995485093592 1.1399803817947731
7.36345696449 0.8121819816226664 0.085561741514826 -1.1195925604269124 2.0474973797421345 2.0501011210321587 -0.519995485093592 1.1399803817947731
7.36345696449 0.8121819816226664 0.085561741514826 -1.1195925604269124 2.0474973797421345 2.0501011210321587 -0.519995485093592 1.1399803817947731
7.37355995178 0.8121819816226664 0.085561741514826 -1.1195925604269124 2.0474973797421345 2.0501011210321587 -0.519995485093592 1.1399803817947731
7.37355995178 0.8121819816226664 0.085561741514826 -1.1195925604269124 2.0474973797421345 2.0501011210321587 -0.519995485093592 1.1399803817947731
7.38354802132 0.8121819816226664 0.085561741514826 -1.1195925604269124 2.0474973797421345 2.0501011210321587 -0.519995485093592 1.1399803817947731
7.38354802132 0.8121819816226664 0.085561741514826 -1.1195925604269124 2.0474973797421345 2.0501011210321587 -0.519995485093592 1.1399803817947731
7.39338493347 0.8121819816226664 0.085561741514826 -1.1195925604269124 2.0474973797421345 2.0501011210321587 -0.519995485093592 1.1399803817947731
7.39338493347 0.8121819816226664 0.085561741514826 -1.1195925604269124 2.0474973797421345 2.0501011210321587 -0.519995485093592 1.1399803817947731
7.40357685089 0.8121819816226664 0.085561741514826 -1.1195925604269124 2.0474973797421345 2.0501011210321587 -0.519995485093592 1.1399803817947731
7.40357685089 0.8121819816226664 0.085561741514826 -1.1195925604269124 2.0474973797421345 2.0501011210321587 -0.519995485093592 1.1399803817947731
7.41350197792 0.8121819816226664 0.085561741514826 -1.1195925604269124 2.0474973797421345 2.0501011210321587 -0.519995485093592 1.1399803817947731
7.41350197792 0.8121819816226664 0.085561741514826 -1.1195925604269124 2.0474973797421345 2.0501011210321587 -0.519995485093592 1.1399803817947731
7.4235098362 0.8121819816226664 0.085561741514826 -1.1195925604269124 2.0474973797421345 2.0501011210321587 -0.519995485093592 1.1399803817947731
7.4235098362 0.8121819816226664 0.085561741514826 -1.1195925604269124 2.0474973797421345 2.0501011210321587 -0.519995485093592 1.1399803817947731
7.43353486061 0.8121819816226664 0.085561741514826 -1.1195925604269124 2.0474973797421345 2.0501011210321587 -0.519995485093592 1.1399803817947731
7.43353486061 0.8121819816226664 0.085561741514826 -1.1195925604269124 2.0474973797421345 2.0501011210321587 -0.519995485093592 1.1399803817947731
7.44360494614 0.8121819816226664 0.085561741514826 -1.1195925604269124 2.0474973797421345 2.0501011210321587 -0.519995485093592 1.1399803817947731
7.44360494614 0.8121819816226664 0.085561741514826 -1.1195925604269124 2.0474973797421345 2.0501011210321587 -0.519995485093592 1.1399803817947731
7.45349097252 0.8121819816226664 0.085561741514826 -1.1195925604269124 2.0474973797421345 2.0501011210321587 -0.519995485093592 1.1399803817947731
7.45349097252 0.8121819816226664 0.085561741514826 -1.1195925604269124 2.0474973797421345 2.0501011210321587 -0.519995485093592 1.1399803817947731
7.46357584 0.8121819816226664 0.085561741514826 -1.1195925604269124 2.0474973797421345 2.0501011210321587 -0.519995485093592 1.1399803817947731
7.46357584 0.8121819816226664 0.085561741514826 -1.1195925604269124 2.0474973797421345 2.0501011210321587 -0.519995485093592 1.1399803817947731
7.47356295586 0.8121819816226664 0.085561741514826 -1.1195925604269124 2.0474973797421345 2.0501011210321587 -0.519995485093592 1.1399803817947731
7.47356295586 0.8121819816226664 0.085561741514826 -1.1195925604269124 2.0474973797421345 2.0501011210321587 -0.519995485093592 1.1399803817947731
7.48360991478 0.8121819816226664 0.085561741514826 -1.1195925604269124 2.0474973797421345 2.0501011210321587 -0.519995485093592 1.1399803817947731
7.48360991478 0.8121819816226664 0.085561741514826 -1.1195925604269124 2.0474973797421345 2.0501011210321587 -0.519995485093592 1.1399803817947731
7.49351596832 0.8121819816226664 0.085561741514826 -1.1195925604269124 2.0474973797421345 2.0501011210321587 -0.519995485093592 1.1399803817947731
7.49351596832 0.8121819816226664 0.085561741514826 -1.1195925604269124 2.0474973797421345 2.0501011210321587 -0.519995485093592 1.1399803817947731
7.5035610199 0.8121819816226664 0.085561741514826 -1.1195925604269124 2.0474973797421345 2.0501011210321587 -0.519995485093592 1.1399803817947731
7.5035610199 0.8121819816226664 0.085561741514826 -1.1195925604269124 2.0474973797421345 2.0501011210321587 -0.519995485093592 1.1399803817947731
7.51362586021 0.8121819816226664 0.085561741514826 -1.1195925604269124 2.0474973797421345 2.0501011210321587 -0.519995485093592 1.1399803817947731
7.51362586021 0.8121819816226664 0.085561741514826 -1.1195925604269124 2.0474973797421345 2.0501011210321587 -0.519995485093592 1.1399803817947731
7.52359199524 0.8121819816226664 0.085561741514826 -1.1195925604269124 2.0474973797421345 2.0501011210321587 -0.519995485093592 1.1399803817947731
7.52359199524 0.8121819816226664 0.085561741514826 -1.1195925604269124 2.0474973797421345 2.0501011210321587 -0.519995485093592 1.1399803817947731
7.53358983994 0.8121819816226664 0.085561741514826 -1.1195925604269124 2.0474973797421345 2.0501011210321587 -0.519995485093592 1.1399803817947731
7.53358983994 0.8121819816226664 0.085561741514826 -1.1195925604269124 2.0474973797421345 2.0501011210321587 -0.519995485093592 1.1399803817947731
7.54354500771 0.8121819816226664 0.085561741514826 -1.1195925604269124 2.0474973797421345 2.0501011210321587 -0.519995485093592 1.1399803817947731
7.54354500771 0.8121819816226664 0.085561741514826 -1.1195925604269124 2.0474973797421345 2.0501011210321587 -0.519995485093592 1.1399803817947731
7.55340886116 0.8121819816226664 0.085561741514826 -1.1195925604269124 2.0474973797421345 2.0501011210321587 -0.519995485093592 1.1399803817947731
7.55340886116 0.8121819816226664 0.085561741514826 -1.1195925604269124 2.0474973797421345 2.0501011210321587 -0.519995485093592 1.1399803817947731
7.56355285645 0.8121819816226664 0.085561741514826 -1.1195925604269124 2.0474973797421345 2.0501011210321587 -0.519995485093592 1.1399803817947731
7.56355285645 0.8121819816226664 0.085561741514826 -1.1195925604269124 2.0474973797421345 2.0501011210321587 -0.519995485093592 1.1399803817947731
7.57364296913 0.8121819816226664 0.085561741514826 -1.1195925604269124 2.0474973797421345 2.0501011210321587 -0.519995485093592 1.1399803817947731
7.57364296913 0.8121819816226664 0.085561741514826 -1.1195925604269124 2.0474973797421345 2.0501011210321587 -0.519995485093592 1.1399803817947731
7.58355402946 0.8121819816226664 0.085561741514826 -1.1195925604269124 2.0474973797421345 2.0501011210321587 -0.519995485093592 1.1399803817947731
7.58355402946 0.8121819816226664 0.085561741514826 -1.1195925604269124 2.0474973797421345 2.0501011210321587 -0.519995485093592 1.1399803817947731
7.59359192848 0.8121819816226664 0.085561741514826 -1.1195925604269124 2.0474973797421345 2.0501011210321587 -0.519995485093592 1.1399803817947731
7.59359192848 0.8121819816226664 0.085561741514826 -1.1195925604269124 2.0474973797421345 2.0501011210321587 -0.519995485093592 1.1399803817947731
7.60361194611 0.8121819816226664 0.085561741514826 -1.1195925604269124 2.0474973797421345 2.0501011210321587 -0.519995485093592 1.1399803817947731
7.60361194611 0.8121819816226664 0.085561741514826 -1.1195925604269124 2.0474973797421345 2.0501011210321587 -0.519995485093592 1.1399803817947731
7.61359405518 0.8121819816226664 0.085561741514826 -1.1195925604269124 2.0474973797421345 2.0501011210321587 -0.519995485093592 1.1399803817947731
7.61359405518 0.8121819816226664 0.085561741514826 -1.1195925604269124 2.0474973797421345 2.0501011210321587 -0.519995485093592 1.1399803817947731
7.62358999252 0.8121819816226664 0.085561741514826 -1.1195925604269124 2.0474973797421345 2.0501011210321587 -0.519995485093592 1.1399803817947731
7.62358999252 0.8121819816226664 0.085561741514826 -1.1195925604269124 2.0474973797421345 2.0501011210321587 -0.519995485093592 1.1399803817947731
7.63365793228 0.8121819816226664 0.085561741514826 -1.1195925604269124 2.0474973797421345 2.0501011210321587 -0.519995485093592 1.1399803817947731
7.63365793228 0.8121819816226664 0.085561741514826 -1.1195925604269124 2.0474973797421345 2.0501011210321587 -0.519995485093592 1.1399803817947731
7.6434469223 0.8121819816226664 0.085561741514826 -1.1195925604269124 2.0474973797421345 2.0501011210321587 -0.519995485093592 1.1399803817947731
7.6434469223 0.8121819816226664 0.085561741514826 -1.1195925604269124 2.0474973797421345 2.0501011210321587 -0.519995485093592 1.1399803817947731
7.65357494354 0.8121819816226664 0.085561741514826 -1.1195925604269124 2.0474973797421345 2.0501011210321587 -0.519995485093592 1.1399803817947731
7.65357494354 0.8121819816226664 0.085561741514826 -1.1195925604269124 2.0474973797421345 2.0501011210321587 -0.519995485093592 1.1399803817947731
7.66355395317 0.8121819816226664 0.085561741514826 -1.1195925604269124 2.0474973797421345 2.0501011210321587 -0.519995485093592 1.1399803817947731
7.66355395317 0.8121819816226664 0.085561741514826 -1.1195925604269124 2.0474973797421345 2.0501011210321587 -0.519995485093592 1.1399803817947731
7.67352485657 0.8121819816226664 0.085561741514826 -1.1195925604269124 2.0474973797421345 2.0501011210321587 -0.519995485093592 1.1399803817947731
7.67352485657 0.8121819816226664 0.085561741514826 -1.1195925604269124 2.0474973797421345 2.0501011210321587 -0.519995485093592 1.1399803817947731
7.68363785744 0.8121819816226664 0.085561741514826 -1.1195925604269124 2.0474973797421345 2.0501011210321587 -0.519995485093592 1.1399803817947731
7.68363785744 0.8121819816226664 0.085561741514826 -1.1195925604269124 2.0474973797421345 2.0501011210321587 -0.519995485093592 1.1399803817947731
7.69359302521 0.8121819816226664 0.085561741514826 -1.1195925604269124 2.0474973797421345 2.0501011210321587 -0.519995485093592 1.1399803817947731
7.69359302521 0.8121819816226664 0.085561741514826 -1.1195925604269124 2.0474973797421345 2.0501011210321587 -0.519995485093592 1.1399803817947731
7.70348906517 0.8121819816226664 0.085561741514826 -1.1195925604269124 2.0474973797421345 2.0501011210321587 -0.519995485093592 1.1399803817947731
7.70348906517 0.8121819816226664 0.085561741514826 -1.1195925604269124 2.0474973797421345 2.0501011210321587 -0.519995485093592 1.1399803817947731
7.71349787712 0.8121819816226664 0.085561741514826 -1.1195925604269124 2.0474973797421345 2.0501011210321587 -0.519995485093592 1.1399803817947731
7.71349787712 0.8121819816226664 0.085561741514826 -1.1195925604269124 2.0474973797421345 2.0501011210321587 -0.519995485093592 1.1399803817947731
7.72365903854 0.8121819816226664 0.085561741514826 -1.1195925604269124 2.0474973797421345 2.0501011210321587 -0.519995485093592 1.1399803817947731
7.72365903854 0.8121819816226664 0.085561741514826 -1.1195925604269124 2.0474973797421345 2.0501011210321587 -0.519995485093592 1.1399803817947731
7.73351693153 0.8121819816226664 0.085561741514826 -1.1195925604269124 2.0474973797421345 2.0501011210321587 -0.519995485093592 1.1399803817947731
7.73351693153 0.8121819816226664 0.085561741514826 -1.1195925604269124 2.0474973797421345 2.0501011210321587 -0.519995485093592 1.1399803817947731
7.74351406097 0.8121819816226664 0.085561741514826 -1.1195925604269124 2.0474973797421345 2.0501011210321587 -0.519995485093592 1.1399803817947731
7.74351406097 0.8121819816226664 0.085561741514826 -1.1195925604269124 2.0474973797421345 2.0501011210321587 -0.519995485093592 1.1399803817947731
7.75323295593 0.8121819816226664 0.085561741514826 -1.1195925604269124 2.0474973797421345 2.0501011210321587 -0.519995485093592 1.1399803817947731
7.75323295593 0.8121819816226664 0.085561741514826 -1.1195925604269124 2.0474973797421345 2.0501011210321587 -0.519995485093592 1.1399803817947731
7.76320195198 0.8121819816226664 0.085561741514826 -1.1195925604269124 2.0474973797421345 2.0501011210321587 -0.519995485093592 1.1399803817947731
7.76320195198 0.8121819816226664 0.085561741514826 -1.1195925604269124 2.0474973797421345 2.0501011210321587 -0.519995485093592 1.1399803817947731
7.77318501472 0.8121819816226664 0.085561741514826 -1.1195925604269124 2.0474973797421345 2.0501011210321587 -0.519995485093592 1.1399803817947731
7.77318501472 0.8121819816226664 0.085561741514826 -1.1195925604269124 2.0474973797421345 2.0501011210321587 -0.519995485093592 1.1399803817947731
7.78352689743 0.8121819816226664 0.085561741514826 -1.1195925604269124 2.0474973797421345 2.0501011210321587 -0.519995485093592 1.1399803817947731
7.78352689743 0.8121819816226664 0.085561741514826 -1.1195925604269124 2.0474973797421345 2.0501011210321587 -0.519995485093592 1.1399803817947731
7.79361796379 0.8121819816226664 0.085561741514826 -1.1195925604269124 2.0474973797421345 2.0501011210321587 -0.519995485093592 1.1399803817947731
7.79361796379 0.8121819816226664 0.085561741514826 -1.1195925604269124 2.0474973797421345 2.0501011210321587 -0.519995485093592 1.1399803817947731
7.80351901054 0.8121819816226664 0.085561741514826 -1.1195925604269124 2.0474973797421345 2.0501011210321587 -0.519995485093592 1.1399803817947731
7.80351901054 0.8121819816226664 0.085561741514826 -1.1195925604269124 2.0474973797421345 2.0501011210321587 -0.519995485093592 1.1399803817947731
7.81362700462 0.8121819816226664 0.085561741514826 -1.1195925604269124 2.0474973797421345 2.0501011210321587 -0.519995485093592 1.1399803817947731
7.81362700462 0.8121819816226664 0.085561741514826 -1.1195925604269124 2.0474973797421345 2.0501011210321587 -0.519995485093592 1.1399803817947731
