riccardo-csl/Motion-Planning-for-TIAGo-Manipulator/T3_G_7/head_scan/head_scan/tiago_traiettorie_SG/4a-1b/place_1b_rep1.txt
time arm_1_joint arm_2_joint arm_3_joint arm_4_joint arm_5_joint arm_6_joint arm_7_joint
2.97646999359 0.0469455153476813 -0.1376047436283728 -1.1481710015749589 1.9307138733223397 2.050037204598331 -0.5200274433105061 1.139966685416096
2.98651194572 0.0469455153476813 -0.1376047436283728 -1.1481710015749589 1.9307138733223397 2.050037204598331 -0.5200274433105061 1.139966685416096
2.98651194572 0.0469455153476813 -0.1376047436283728 -1.1481710015749589 1.9307138733223397 2.050037204598331 -0.5200274433105061 1.139966685416096
2.99638009071 0.0469455153476813 -0.1376047436283728 -1.1481710015749589 1.9307138733223397 2.050037204598331 -0.5200274433105061 1.139966685416096
2.99638009071 0.0469455153476813 -0.1376047436283728 -1.1481710015749589 1.9307138733223397 2.050037204598331 -0.5200274433105061 1.139966685416096
3.00649189949 0.0469455153476813 -0.1376047436283728 -1.1481710015749589 1.9307138733223397 2.050037204598331 -0.5200274433105061 1.139966685416096
3.00649189949 0.0469455153476813 -0.1376047436283728 -1.1481710015749589 1.9307138733223397 2.050037204598331 -0.5200274433105061 1.139966685416096
3.01653003693 0.0469455153476813 -0.1376047436283728 -1.1481710015749589 1.9307138733223397 2.050037204598331 -0.5200274433105061 1.139966685416096
3.01653003693 0.0469455153476813 -0.1376047436283728 -1.1481710015749589 1.9307138733223397 2.050037204598331 -0.5200274433105061 1.139966685416096
3.02631902695 0.0469455153476813 -0.1376047436283728 -1.1481710015749589 1.9307138733223397 2.050037204598331 -0.5200274433105061 1.139966685416096
3.02631902695 0.0469455153476813 -0.1376047436283728 -1.1481710015749589 1.9307138733223397 2.050037204598331 -0.5200274433105061 1.139966685416096
3.036495924 0.0469455153476813 -0.1376047436283728 -1.1481710015749589 1.9307138733223397 2.050037204598331 -0.5200274433105061 1.139966685416096
3.036495924 0.0469455153476813 -0.1376047436283728 -1.1481710015749589 1.9307138733223397 2.050037204598331 -0.5200274433105061 1.139966685416096
3.04784393311 0.0469455153476813 -0.1376047436283728 -1.1481556615636073 1.9307138733223397 2.050037204598331 -0.5200274433105061 1.139966685416096
3.04784393311 0.0469455153476813 -0.1376047436283728 -1.1481556615636073 1.9307138733223397 2.050037204598331 -0.5200274433105061 1.139966685416096
3.0563519001 0.0469455153476813 -0.1376047436283728 -1.1481556615636073 1.9307138733223397 2.050037204598331 -0.5200274433105061 1.139966685416096
3.0563519001 0.0469455153476813 -0.1376047436283728 -1.1481556615636073 1.9307138733223397 2.050037204598331 -0.5200274433105061 1.139966685416096
3.06650590897 0.0469455153476813 -0.1376047436283728 -1.1481556615636073 1.9307138733223397 2.050037204598331 -0.5200274433105061 1.139966685416096
3.06650590897 0.0469455153476813 -0.1376047436283728 -1.1481556615636073 1.9307138733223397 2.050037204598331 -0.5200274433105061 1.139966685416096
3.07651901245 0.0469455153476813 -0.1376047436283728 -1.1481556615636073 1.9307138733223397 2.050037204598331 -0.5200274433105061 1.139966685416096
3.07651901245 0.0469455153476813 -0.1376047436283728 -1.1481556615636073 1.9307138733223397 2.050037204598331 -0.5200274433105061 1.139966685416096
3.08642506599 0.0469455153476813 -0.1376047436283728 -1.1481556615636073 1.9307138733223397 2.050037204598331 -0.5200274433105061 1.139966685416096
3.08642506599 0.0469455153476813 -0.1376047436283728 -1.1481556615636073 1.9307138733223397 2.050037204598331 -0.5200274433105061 1.139966685416096
3.09649801254 0.0469455153476813 -0.1376047436283728 -1.1481556615636073 1.9307138733223397 2.050037204598331 -0.5200274433105061 1.139966685416096
3.09649801254 0.0469455153476813 -0.1376047436283728 -1.1481556615636073 1.9307138733223397 2.050037204598331 -0.5200274433105061 1.139966685416096
3.1075220108 0.0469455153476813 -0.1376047436283728 -1.1477414812571138 1.930698533310988 2.050037204598331 -0.5200274433105061 1.139966685416096
3.1075220108 0.0469455153476813 -0.1376047436283728 -1.1477414812571138 1.930698533310988 2.050037204598331 -0.5200274433105061 1.139966685416096
3.11633992195 0.0469455153476813 -0.1376047436283728 -1.1477414812571138 1.930698533310988 2.050037204598331 -0.5200274433105061 1.139966685416096
3.11633992195 0.0469455153476813 -0.1376047436283728 -1.1477414812571138 1.930698533310988 2.050037204598331 -0.5200274433105061 1.139966685416096
3.12650895119 0.0469455153476813 -0.1376047436283728 -1.1477414812571138 1.930698533310988 2.050037204598331 -0.5200274433105061 1.139966685416096
3.12650895119 0.0469455153476813 -0.1376047436283728 -1.1477414812571138 1.930698533310988 2.050037204598331 -0.5200274433105061 1.139966685416096
3.13654994965 0.0469455153476813 -0.1376047436283728 -1.1477414812571138 1.930698533310988 2.050037204598331 -0.5200274433105061 1.139966685416096
3.13654994965 0.0469455153476813 -0.1376047436283728 -1.1477414812571138 1.930698533310988 2.050037204598331 -0.5200274433105061 1.139966685416096
3.14647006989 0.0469455153476813 -0.1376047436283728 -1.1477414812571138 1.930698533310988 2.050037204598331 -0.5200274433105061 1.139966685416096
3.14647006989 0.0469455153476813 -0.1376047436283728 -1.1477414812571138 1.930698533310988 2.050037204598331 -0.5200274433105061 1.139966685416096
3.15653204918 0.0469455153476813 -0.1376047436283728 -1.1477414812571138 1.930698533310988 2.050037204598331 -0.5200274433105061 1.139966685416096
3.15653204918 0.0469455153476813 -0.1376047436283728 -1.1477414812571138 1.930698533310988 2.050037204598331 -0.5200274433105061 1.139966685416096
3.16634702682 0.0469455153476813 -0.1376047436283728 -1.1475574011208949 1.930698533310988 2.050037204598331 -0.5200274433105061 1.139966685416096
3.16634702682 0.0469455153476813 -0.1376047436283728 -1.1475574011208949 1.930698533310988 2.050037204598331 -0.5200274433105061 1.139966685416096
3.17656493187 0.0469455153476813 -0.1376047436283728 -1.1475574011208949 1.930698533310988 2.050037204598331 -0.5200274433105061 1.139966685416096
3.17656493187 0.0469455153476813 -0.1376047436283728 -1.1475574011208949 1.930698533310988 2.050037204598331 -0.5200274433105061 1.139966685416096
3.18616700172 0.0469455153476813 -0.1376047436283728 -1.1469284606554786 1.930698533310988 2.050037204598331 -0.5200274433105061 1.139966685416096
3.18616700172 0.0469455153476813 -0.1376047436283728 -1.1469284606554786 1.930698533310988 2.050037204598331 -0.5200274433105061 1.139966685416096
3.19621491432 0.0469455153476813 -0.1376047436283728 -1.1469284606554786 1.930698533310988 2.050037204598331 -0.5200274433105061 1.139966685416096
3.19621491432 0.0469455153476813 -0.1376047436283728 -1.1469284606554786 1.930698533310988 2.050037204598331 -0.5200274433105061 1.139966685416096
3.20640301704 0.0469455153476813 -0.1376047436283728 -1.1469284606554786 1.930698533310988 2.050037204598331 -0.5200274433105061 1.139966685416096
3.20640301704 0.0469455153476813 -0.1376047436283728 -1.1469284606554786 1.930698533310988 2.050037204598331 -0.5200274433105061 1.139966685416096
3.21632194519 0.0469455153476813 -0.1376047436283728 -1.1469284606554786 1.930698533310988 2.050037204598331 -0.5200274433105061 1.139966685416096
3.21632194519 0.0469455153476813 -0.1376047436283728 -1.1469284606554786 1.930698533310988 2.050037204598331 -0.5200274433105061 1.139966685416096
3.22639989853 0.0469455153476813 -0.1376047436283728 -1.1469284606554786 1.930698533310988 2.050037204598331 -0.5200274433105061 1.139966685416096
3.22639989853 0.0469455153476813 -0.1376047436283728 -1.1469284606554786 1.930698533310988 2.050037204598331 -0.5200274433105061 1.139966685416096
3.23653101921 0.0469455153476813 -0.1376047436283728 -1.1469284606554786 1.930698533310988 2.050037204598331 -0.5200274433105061 1.139966685416096
3.23653101921 0.0469455153476813 -0.1376047436283728 -1.1469284606554786 1.930698533310988 2.050037204598331 -0.5200274433105061 1.139966685416096
3.2464389801 0.0469455153476813 -0.1376047436283728 -1.1469284606554786 1.930698533310988 2.050037204598331 -0.5200274433105061 1.139966685416096
3.2464389801 0.0469455153476813 -0.1376047436283728 -1.1469284606554786 1.930698533310988 2.050037204598331 -0.5200274433105061 1.139966685416096
3.25651907921 0.0469455153476813 -0.1376047436283728 -1.1469284606554786 1.930698533310988 2.050037204598331 -0.5200274433105061 1.139966685416096
3.25651907921 0.0469455153476813 -0.1376047436283728 -1.1469284606554786 1.930698533310988 2.050037204598331 -0.5200274433105061 1.139966685416096
3.26649904251 0.0469455153476813 -0.1376047436283728 -1.1469284606554786 1.930698533310988 2.050037204598331 -0.5200274433105061 1.139966685416096
3.26649904251 0.0469455153476813 -0.1376047436283728 -1.1469284606554786 1.930698533310988 2.050037204598331 -0.5200274433105061 1.139966685416096
3.27640295029 0.0469455153476813 -0.1376047436283728 -1.1469284606554786 1.930698533310988 2.050037204598331 -0.5200274433105061 1.139966685416096
3.27640295029 0.0469455153476813 -0.1376047436283728 -1.1469284606554786 1.930698533310988 2.050037204598331 -0.5200274433105061 1.139966685416096
3.2865319252 0.0469455153476813 -0.1376047436283728 -1.1469284606554786 1.930698533310988 2.050037204598331 -0.5200274433105061 1.139966685416096
3.2865319252 0.0469455153476813 -0.1376047436283728 -1.1469284606554786 1.930698533310988 2.050037204598331 -0.5200274433105061 1.139966685416096
3.29649090767 0.0469455153476813 -0.1376047436283728 -1.1469284606554786 1.930698533310988 2.050037204598331 -0.5200274433105061 1.139966685416096
3.29649090767 0.0469455153476813 -0.1376047436283728 -1.1469284606554786 1.930698533310988 2.050037204598331 -0.5200274433105061 1.139966685416096
3.30629992485 0.0469455153476813 -0.1376047436283728 -1.1469284606554786 1.930698533310988 2.050037204598331 -0.5200274433105061 1.139966685416096
3.30629992485 0.0469455153476813 -0.1376047436283728 -1.1469284606554786 1.930698533310988 2.050037204598331 -0.5200274433105061 1.139966685416096
3.31623888016 0.0469455153476813 -0.1376047436283728 -1.1469284606554786 1.930698533310988 2.050037204598331 -0.5200274433105061 1.139966685416096
3.31623888016 0.0469455153476813 -0.1376047436283728 -1.1469284606554786 1.930698533310988 2.050037204598331 -0.5200274433105061 1.139966685416096
3.3260140419 0.0469455153476813 -0.1376047436283728 -1.1469284606554786 1.930698533310988 2.050037204598331 -0.5200274433105061 1.139966685416096
3.3260140419 0.0469455153476813 -0.1376047436283728 -1.1469284606554786 1.930698533310988 2.050037204598331 -0.5200274433105061 1.139966685416096
3.33629488945 0.0469455153476813 -0.1376047436283728 -1.1469284606554786 1.930698533310988 2.050037204598331 -0.5200274433105061 1.139966685416096
3.33629488945 0.0469455153476813 -0.1376047436283728 -1.1469284606554786 1.930698533310988 2.050037204598331 -0.5200274433105061 1.139966685416096
3.3463768959 0.0469455153476813 -0.1376047436283728 -1.1469284606554786 1.930698533310988 2.050037204598331 -0.5200274433105061 1.139966685416096
3.3463768959 0.0469455153476813 -0.1376047436283728 -1.1469284606554786 1.930698533310988 2.050037204598331 -0.5200274433105061 1.139966685416096
3.35648488998 0.0469455153476813 -0.1376047436283728 -1.1469284606554786 1.930698533310988 2.050037204598331 -0.5200274433105061 1.139966685416096
3.35648488998 0.0469455153476813 -0.1376047436283728 -1.1469284606554786 1.930698533310988 2.050037204598331 -0.5200274433105061 1.139966685416096
3.36628985405 0.0469455153476813 -0.1376047436283728 -1.1469284606554786 1.930698533310988 2.050037204598331 -0.5200274433105061 1.139966685416096
3.36628985405 0.0469455153476813 -0.1376047436283728 -1.1469284606554786 1.930698533310988 2.050037204598331 -0.5200274433105061 1.139966685416096
3.37650299072 0.0469455153476813 -0.1376047436283728 -1.1469284606554786 1.930698533310988 2.050037204598331 -0.5200274433105061 1.139966685416096
3.37650299072 0.0469455153476813 -0.1376047436283728 -1.1469284606554786 1.930698533310988 2.050037204598331 -0.5200274433105061 1.139966685416096
3.38652992249 0.0469455153476813 -0.1376047436283728 -1.1469284606554786 1.930698533310988 2.050037204598331 -0.5200274433105061 1.139966685416096
3.38652992249 0.0469455153476813 -0.1376047436283728 -1.1469284606554786 1.930698533310988 2.050037204598331 -0.5200274433105061 1.139966685416096
3.39654588699 0.0469455153476813 -0.1376047436283728 -1.1469284606554786 1.930698533310988 2.050037204598331 -0.5200274433105061 1.139966685416096
3.39654588699 0.0469455153476813 -0.1376047436283728 -1.1469284606554786 1.930698533310988 2.050037204598331 -0.5200274433105061 1.139966685416096
3.40606999397 0.0469455153476813 -0.1376047436283728 -1.146913120644127 1.930698533310988 2.050037204598331 -0.5200274433105061 1.139966685416096
3.40606999397 0.0469455153476813 -0.1376047436283728 -1.146913120644127 1.930698533310988 2.050037204598331 -0.5200274433105061 1.139966685416096
3.41598296165 0.0469455153476813 -0.1376047436283728 -1.146913120644127 1.930698533310988 2.050037204598331 -0.5200274433105061 1.139966685416096
3.41598296165 0.0469455153476813 -0.1376047436283728 -1.146913120644127 1.930698533310988 2.050037204598331 -0.5200274433105061 1.139966685416096
3.42603302002 0.0469455153476813 -0.1376047436283728 -1.146913120644127 1.930698533310988 2.050037204598331 -0.5200274433105061 1.139966685416096
3.42603302002 0.0469455153476813 -0.1376047436283728 -1.146913120644127 1.930698533310988 2.050037204598331 -0.5200274433105061 1.139966685416096
3.43609285355 0.0469455153476813 -0.1376047436283728 -1.146913120644127 1.930698533310988 2.050037204598331 -0.5200274433105061 1.139966685416096
3.43609285355 0.0469455153476813 -0.1376047436283728 -1.146913120644127 1.930698533310988 2.050037204598331 -0.5200274433105061 1.139966685416096
3.44621300697 0.0469455153476813 -0.1376047436283728 -1.146913120644127 1.930698533310988 2.050037204598331 -0.5200274433105061 1.139966685416096
3.44621300697 0.0469455153476813 -0.1376047436283728 -1.146913120644127 1.930698533310988 2.050037204598331 -0.5200274433105061 1.139966685416096
3.45631289482 0.0469455153476813 -0.1376047436283728 -1.146913120644127 1.930698533310988 2.050037204598331 -0.5200274433105061 1.139966685416096
3.45631289482 0.0469455153476813 -0.1376047436283728 -1.146913120644127 1.930698533310988 2.050037204598331 -0.5200274433105061 1.139966685416096
3.46636986732 0.0469455153476813 -0.1376047436283728 -1.146913120644127 1.930698533310988 2.050037204598331 -0.5200274433105061 1.139966685416096
3.46636986732 0.0469455153476813 -0.1376047436283728 -1.146913120644127 1.930698533310988 2.050037204598331 -0.5200274433105061 1.139966685416096
3.47646403313 0.0469455153476813 -0.1376047436283728 -1.146913120644127 1.930698533310988 2.050037204598331 -0.5200274433105061 1.139966685416096
3.47646403313 0.0469455153476813 -0.1376047436283728 -1.146913120644127 1.930698533310988 2.050037204598331 -0.5200274433105061 1.139966685416096
3.48646306992 0.0469455153476813 -0.1376047436283728 -1.146913120644127 1.930698533310988 2.050037204598331 -0.5200274433105061 1.139966685416096
3.48646306992 0.0469455153476813 -0.1376047436283728 -1.146913120644127 1.930698533310988 2.050037204598331 -0.5200274433105061 1.139966685416096
3.49632000923 0.0469455153476813 -0.1376047436283728 -1.146913120644127 1.930698533310988 2.050037204598331 -0.5200274433105061 1.139966685416096
3.49632000923 0.0469455153476813 -0.1376047436283728 -1.146913120644127 1.930698533310988 2.050037204598331 -0.5200274433105061 1.139966685416096
3.50639796257 0.0469455153476813 -0.1376047436283728 -1.146913120644127 1.930698533310988 2.050037204598331 -0.5200274433105061 1.139966685416096
3.50639796257 0.0469455153476813 -0.1376047436283728 -1.146913120644127 1.930698533310988 2.050037204598331 -0.5200274433105061 1.139966685416096
3.51639986038 0.0469455153476813 -0.1376047436283728 -1.146913120644127 1.930698533310988 2.050037204598331 -0.5200274433105061 1.139966685416096
3.51639986038 0.0469455153476813 -0.1376047436283728 -1.146913120644127 1.930698533310988 2.050037204598331 -0.5200274433105061 1.139966685416096
3.52640604973 0.0469455153476813 -0.1376047436283728 -1.146913120644127 1.930698533310988 2.050037204598331 -0.5200274433105061 1.139966685416096
3.52640604973 0.0469455153476813 -0.1376047436283728 -1.146913120644127 1.930698533310988 2.050037204598331 -0.5200274433105061 1.139966685416096
3.53646302223 0.0469455153476813 -0.1376047436283728 -1.146913120644127 1.930698533310988 2.050037204598331 -0.5200274433105061 1.139966685416096
3.53646302223 0.0469455153476813 -0.1376047436283728 -1.146913120644127 1.930698533310988 2.050037204598331 -0.5200274433105061 1.139966685416096
3.54649496078 0.0469455153476813 -0.1376047436283728 -1.146913120644127 1.930698533310988 2.050037204598331 -0.5200274433105061 1.139966685416096
3.54649496078 0.0469455153476813 -0.1376047436283728 -1.146913120644127 1.930698533310988 2.050037204598331 -0.5200274433105061 1.139966685416096
3.55647397041 0.0469455153476813 -0.1376047436283728 -1.146913120644127 1.930698533310988 2.050037204598331 -0.5200274433105061 1.139966685416096
3.55647397041 0.0469455153476813 -0.1376047436283728 -1.146913120644127 1.930698533310988 2.050037204598331 -0.5200274433105061 1.139966685416096
3.56645202637 0.0469455153476813 -0.1376047436283728 -1.146913120644127 1.930698533310988 2.050037204598331 -0.5200274433105061 1.139966685416096
3.56645202637 0.0469455153476813 -0.1376047436283728 -1.146913120644127 1.930698533310988 2.050037204598331 -0.5200274433105061 1.139966685416096
3.57646608353 0.0469455153476813 -0.1376047436283728 -1.146913120644127 1.930698533310988 2.050037204598331 -0.5200274433105061 1.139966685416096
3.57646608353 0.0469455153476813 -0.1376047436283728 -1.146913120644127 1.930698533310988 2.050037204598331 -0.5200274433105061 1.139966685416096
3.5864200592 0.0469455153476813 -0.1376047436283728 -1.146913120644127 1.930698533310988 2.050037204598331 -0.5200274433105061 1.139966685416096
3.5864200592 0.0469455153476813 -0.1376047436283728 -1.146913120644127 1.930698533310988 2.050037204598331 -0.5200274433105061 1.139966685416096
3.59646105766 0.0469455153476813 -0.1376047436283728 -1.146913120644127 1.930698533310988 2.050037204598331 -0.5200274433105061 1.139966685416096
3.59646105766 0.0469455153476813 -0.1376047436283728 -1.146913120644127 1.930698533310988 2.050037204598331 -0.5200274433105061 1.139966685416096
3.60650396347 0.0469455153476813 -0.1376047436283728 -1.146913120644127 1.930698533310988 2.050037204598331 -0.5200274433105061 1.139966685416096
3.60650396347 0.0469455153476813 -0.1376047436283728 -1.146913120644127 1.930698533310988 2.050037204598331 -0.5200274433105061 1.139966685416096
3.61633396149 0.0469455153476813 -0.1376047436283728 -1.146913120644127 1.930698533310988 2.050037204598331 -0.5200274433105061 1.139966685416096
3.61633396149 0.0469455153476813 -0.1376047436283728 -1.146913120644127 1.930698533310988 2.050037204598331 -0.5200274433105061 1.139966685416096
3.62646794319 0.0469455153476813 -0.1376047436283728 -1.146913120644127 1.930698533310988 2.050037204598331 -0.5200274433105061 1.139966685416096
3.62646794319 0.0469455153476813 -0.1376047436283728 -1.146913120644127 1.930698533310988 2.050037204598331 -0.5200274433105061 1.139966685416096
3.63651299477 0.0469455153476813 -0.1376047436283728 -1.146913120644127 1.930698533310988 2.050037204598331 -0.5200274433105061 1.139966685416096
3.63651299477 0.0469455153476813 -0.1376047436283728 -1.146913120644127 1.930698533310988 2.050037204598331 -0.5200274433105061 1.139966685416096
3.6462829113 0.0469455153476813 -0.1376047436283728 -1.146913120644127 1.930698533310988 2.050037204598331 -0.5200274433105061 1.139966685416096
3.6462829113 0.0469455153476813 -0.1376047436283728 -1.146913120644127 1.930698533310988 2.050037204598331 -0.5200274433105061 1.139966685416096
3.65644598007 0.0469455153476813 -0.1376047436283728 -1.146913120644127 1.930698533310988 2.050037204598331 -0.5200274433105061 1.139966685416096
3.65644598007 0.0469455153476813 -0.1376047436283728 -1.146913120644127 1.930698533310988 2.050037204598331 -0.5200274433105061 1.139966685416096
3.66652488708 0.0469455153476813 -0.1376047436283728 -1.146913120644127 1.930698533310988 2.050037204598331 -0.5200274433105061 1.139966685416096
3.66652488708 0.0469455153476813 -0.1376047436283728 -1.146913120644127 1.930698533310988 2.050037204598331 -0.5200274433105061 1.139966685416096
3.6765229702 0.0469455153476813 -0.1376047436283728 -1.146913120644127 1.930698533310988 2.050037204598331 -0.5200274433105061 1.139966685416096
3.6765229702 0.0469455153476813 -0.1376047436283728 -1.146913120644127 1.930698533310988 2.050037204598331 -0.5200274433105061 1.139966685416096
3.68654298782 0.0469455153476813 -0.1376047436283728 -1.146913120644127 1.930698533310988 2.050037204598331 -0.5200274433105061 1.139966685416096
3.68654298782 0.0469455153476813 -0.1376047436283728 -1.146913120644127 1.930698533310988 2.050037204598331 -0.5200274433105061 1.139966685416096
3.69620895386 0.0469455153476813 -0.1376047436283728 -1.146913120644127 1.930698533310988 2.050037204598331 -0.5200274433105061 1.139966685416096
3.69620895386 0.0469455153476813 -0.1376047436283728 -1.146913120644127 1.930698533310988 2.050037204598331 -0.5200274433105061 1.139966685416096
3.70645594597 0.0469455153476813 -0.1376047436283728 -1.146913120644127 1.930698533310988 2.050037204598331 -0.5200274433105061 1.139966685416096
3.70645594597 0.0469455153476813 -0.1376047436283728 -1.146913120644127 1.930698533310988 2.050037204598331 -0.5200274433105061 1.139966685416096
3.71653103828 0.0469455153476813 -0.1376047436283728 -1.146913120644127 1.930698533310988 2.050037204598331 -0.5200274433105061 1.139966685416096
3.71653103828 0.0469455153476813 -0.1376047436283728 -1.146913120644127 1.930698533310988 2.050037204598331 -0.5200274433105061 1.139966685416096
3.72650098801 0.0469455153476813 -0.1376047436283728 -1.146913120644127 1.930698533310988 2.050037204598331 -0.5200274433105061 1.139966685416096
3.72650098801 0.0469455153476813 -0.1376047436283728 -1.146913120644127 1.930698533310988 2.050037204598331 -0.5200274433105061 1.139966685416096
3.73646807671 0.0469455153476813 -0.1376047436283728 -1.146913120644127 1.930698533310988 2.050037204598331 -0.5200274433105061 1.139966685416096
3.73646807671 0.0469455153476813 -0.1376047436283728 -1.146913120644127 1.930698533310988 2.050037204598331 -0.5200274433105061 1.139966685416096
3.74648189545 0.0469455153476813 -0.1376047436283728 -1.146913120644127 1.930698533310988 2.050037204598331 -0.5200274433105061 1.139966685416096
3.74648189545 0.0469455153476813 -0.1376047436283728 -1.146913120644127 1.930698533310988 2.050037204598331 -0.5200274433105061 1.139966685416096
3.75649285316 0.0469455153476813 -0.1376047436283728 -1.146913120644127 1.930698533310988 2.050037204598331 -0.5200274433105061 1.139966685416096
3.75649285316 0.0469455153476813 -0.1376047436283728 -1.146913120644127 1.930698533310988 2.050037204598331 -0.5200274433105061 1.139966685416096
3.76639890671 0.0469455153476813 -0.1376047436283728 -1.146913120644127 1.930698533310988 2.050037204598331 -0.5200274433105061 1.139966685416096
3.76639890671 0.0469455153476813 -0.1376047436283728 -1.146913120644127 1.930698533310988 2.050037204598331 -0.5200274433105061 1.139966685416096
3.77647805214 0.0469455153476813 -0.1376047436283728 -1.146913120644127 1.930698533310988 2.050037204598331 -0.5200274433105061 1.139966685416096
3.77647805214 0.0469455153476813 -0.1376047436283728 -1.146913120644127 1.930698533310988 2.050037204598331 -0.5200274433105061 1.139966685416096
3.78652095795 0.0469455153476813 -0.1376047436283728 -1.146913120644127 1.930698533310988 2.050037204598331 -0.5200274433105061 1.139966685416096
3.78652095795 0.0469455153476813 -0.1376047436283728 -1.146913120644127 1.930698533310988 2.050037204598331 -0.5200274433105061 1.139966685416096
3.79659605026 0.0469455153476813 -0.1376047436283728 -1.146913120644127 1.930698533310988 2.050037204598331 -0.5200274433105061 1.139966685416096
3.79659605026 0.0469455153476813 -0.1376047436283728 -1.146913120644127 1.930698533310988 2.050037204598331 -0.5200274433105061 1.139966685416096
3.80639791489 0.0469455153476813 -0.1376047436283728 -1.146913120644127 1.930698533310988 2.050037204598331 -0.5200274433105061 1.139966685416096
3.80639791489 0.0469455153476813 -0.1376047436283728 -1.146913120644127 1.930698533310988 2.050037204598331 -0.5200274433105061 1.139966685416096
3.81649303436 0.0469455153476813 -0.1376047436283728 -1.146913120644127 1.930698533310988 2.050037204598331 -0.5200274433105061 1.139966685416096
3.81649303436 0.0469455153476813 -0.1376047436283728 -1.146913120644127 1.930698533310988 2.050037204598331 -0.5200274433105061 1.139966685416096
3.82639193535 0.0469455153476813 -0.1376047436283728 -1.146913120644127 1.930698533310988 2.050037204598331 -0.5200274433105061 1.139966685416096
3.82639193535 0.0469455153476813 -0.1376047436283728 -1.146913120644127 1.930698533310988 2.050037204598331 -0.5200274433105061 1.139966685416096
3.83645200729 0.0469455153476813 -0.1376047436283728 -1.146913120644127 1.930698533310988 2.050037204598331 -0.5200274433105061 1.139966685416096
3.83645200729 0.0469455153476813 -0.1376047436283728 -1.146913120644127 1.930698533310988 2.050037204598331 -0.5200274433105061 1.139966685416096
3.84649300575 0.0469455153476813 -0.1376047436283728 -1.146913120644127 1.930698533310988 2.050037204598331 -0.5200274433105061 1.139966685416096
3.84649300575 0.0469455153476813 -0.1376047436283728 -1.146913120644127 1.930698533310988 2.050037204598331 -0.5200274433105061 1.139966685416096
3.85649895668 0.0469455153476813 -0.1376047436283728 -1.146913120644127 1.930698533310988 2.050037204598331 -0.5200274433105061 1.139966685416096
3.85649895668 0.0469455153476813 -0.1376047436283728 -1.146913120644127 1.930698533310988 2.050037204598331 -0.5200274433105061 1.139966685416096
3.86640691757 0.0469455153476813 -0.1376047436283728 -1.146913120644127 1.930698533310988 2.050037204598331 -0.5200274433105061 1.139966685416096
3.86640691757 0.0469455153476813 -0.1376047436283728 -1.146913120644127 1.930698533310988 2.050037204598331 -0.5200274433105061 1.139966685416096
3.8764538765 0.0469455153476813 -0.1376047436283728 -1.146913120644127 1.930698533310988 2.050037204598331 -0.5200274433105061 1.139966685416096
3.8764538765 0.0469455153476813 -0.1376047436283728 -1.146913120644127 1.930698533310988 2.050037204598331 -0.5200274433105061 1.139966685416096
3.8864710331 0.0469455153476813 -0.1376047436283728 -1.146913120644127 1.930698533310988 2.050037204598331 -0.5200274433105061 1.139966685416096
3.8864710331 0.0469455153476813 -0.1376047436283728 -1.146913120644127 1.930698533310988 2.050037204598331 -0.5200274433105061 1.139966685416096
3.89628696442 0.0469455153476813 -0.1376047436283728 -1.146913120644127 1.930698533310988 2.050037204598331 -0.5200274433105061 1.139966685416096
3.89628696442 0.0469455153476813 -0.1376047436283728 -1.146913120644127 1.930698533310988 2.050037204598331 -0.5200274433105061 1.139966685416096
3.90645194054 0.0469455153476813 -0.1376047436283728 -1.146913120644127 1.930698533310988 2.050037204598331 -0.5200274433105061 1.139966685416096
3.90645194054 0.0469455153476813 -0.1376047436283728 -1.146913120644127 1.930698533310988 2.050037204598331 -0.5200274433105061 1.139966685416096
3.91649508476 0.0469455153476813 -0.1376047436283728 -1.146913120644127 1.930698533310988 2.050037204598331 -0.5200274433105061 1.139966685416096
3.91649508476 0.0469455153476813 -0.1376047436283728 -1.146913120644127 1.930698533310988 2.050037204598331 -0.5200274433105061 1.139966685416096
3.92638206482 0.0469455153476813 -0.1376047436283728 -1.146913120644127 1.930698533310988 2.050037204598331 -0.5200274433105061 1.139966685416096
3.92638206482 0.0469455153476813 -0.1376047436283728 -1.146913120644127 1.930698533310988 2.050037204598331 -0.5200274433105061 1.139966685416096
3.93645691872 0.0469455153476813 -0.1376047436283728 -1.146913120644127 1.930698533310988 2.050037204598331 -0.5200274433105061 1.139966685416096
3.93645691872 0.0469455153476813 -0.1376047436283728 -1.146913120644127 1.930698533310988 2.050037204598331 -0.5200274433105061 1.139966685416096
3.94650101662 0.0469455153476813 -0.1376047436283728 -1.146913120644127 1.930698533310988 2.050037204598331 -0.5200274433105061 1.139966685416096
3.94650101662 0.0469455153476813 -0.1376047436283728 -1.146913120644127 1.930698533310988 2.050037204598331 -0.5200274433105061 1.139966685416096
3.95634198189 0.0469455153476813 -0.1376047436283728 -1.146913120644127 1.930698533310988 2.050037204598331 -0.5200274433105061 1.139966685416096
3.95634198189 0.0469455153476813 -0.1376047436283728 -1.146913120644127 1.930698533310988 2.050037204598331 -0.5200274433105061 1.139966685416096
3.9663670063 0.0469455153476813 -0.1376047436283728 -1.146913120644127 1.930698533310988 2.050037204598331 -0.5200274433105061 1.139966685416096
3.9663670063 0.0469455153476813 -0.1376047436283728 -1.146913120644127 1.930698533310988 2.050037204598331 -0.5200274433105061 1.139966685416096
3.97650194168 0.0469455153476813 -0.1376047436283728 -1.146913120644127 1.930698533310988 2.050037204598331 -0.5200274433105061 1.139966685416096
3.97650194168 0.0469455153476813 -0.1376047436283728 -1.146913120644127 1.930698533310988 2.050037204598331 -0.5200274433105061 1.139966685416096
3.98653697968 0.0469455153476813 -0.1376047436283728 -1.146913120644127 1.930698533310988 2.050037204598331 -0.5200274433105061 1.139966685416096
3.98653697968 0.0469455153476813 -0.1376047436283728 -1.146913120644127 1.930698533310988 2.050037204598331 -0.5200274433105061 1.139966685416096
3.99648499489 0.0469455153476813 -0.1376047436283728 -1.146913120644127 1.930698533310988 2.050037204598331 -0.5200274433105061 1.139966685416096
3.99648499489 0.0469455153476813 -0.1376047436283728 -1.146913120644127 1.930698533310988 2.050037204598331 -0.5200274433105061 1.139966685416096
4.00648999214 0.0469455153476813 -0.1376047436283728 -1.146913120644127 1.930698533310988 2.050037204598331 -0.5200274433105061 1.139966685416096
4.00648999214 0.0469455153476813 -0.1376047436283728 -1.146913120644127 1.930698533310988 2.050037204598331 -0.5200274433105061 1.139966685416096
4.01651096344 0.0469455153476813 -0.1376047436283728 -1.146913120644127 1.930698533310988 2.050037204598331 -0.5200274433105061 1.139966685416096
4.01651096344 0.0469455153476813 -0.1376047436283728 -1.146913120644127 1.930698533310988 2.050037204598331 -0.5200274433105061 1.139966685416096
4.02651190758 0.0469455153476813 -0.1376047436283728 -1.146913120644127 1.930698533310988 2.050037204598331 -0.5200274433105061 1.139966685416096
4.02651190758 0.0469455153476813 -0.1376047436283728 -1.146913120644127 1.930698533310988 2.050037204598331 -0.5200274433105061 1.139966685416096
4.03646206856 0.0469455153476813 -0.1376047436283728 -1.146913120644127 1.930698533310988 2.050037204598331 -0.5200274433105061 1.139966685416096
4.03646206856 0.0469455153476813 -0.1376047436283728 -1.146913120644127 1.930698533310988 2.050037204598331 -0.5200274433105061 1.139966685416096
4.0464360714 0.0469455153476813 -0.1376047436283728 -1.146913120644127 1.930698533310988 2.050037204598331 -0.5200274433105061 1.139966685416096
4.0464360714 0.0469455153476813 -0.1376047436283728 -1.146913120644127 1.930698533310988 2.050037204598331 -0.5200274433105061 1.139966685416096
4.05649399757 0.0469455153476813 -0.1376047436283728 -1.146913120644127 1.930698533310988 2.050037204598331 -0.5200274433105061 1.139966685416096
4.05649399757 0.0469455153476813 -0.1376047436283728 -1.146913120644127 1.930698533310988 2.050037204598331 -0.5200274433105061 1.139966685416096
4.06638002396 0.0469455153476813 -0.1376047436283728 -1.146913120644127 1.930698533310988 2.050037204598331 -0.5200274433105061 1.139966685416096
4.06638002396 0.0469455153476813 -0.1376047436283728 -1.146913120644127 1.930698533310988 2.050037204598331 -0.5200274433105061 1.139966685416096
4.07641100883 0.0469455153476813 -0.1376047436283728 -1.146913120644127 1.930698533310988 2.050037204598331 -0.5200274433105061 1.139966685416096
4.07641100883 0.0469455153476813 -0.1376047436283728 -1.146913120644127 1.930698533310988 2.050037204598331 -0.5200274433105061 1.139966685416096
4.08637905121 0.0469455153476813 -0.1376047436283728 -1.146913120644127 1.930698533310988 2.050037204598331 -0.5200274433105061 1.139966685416096
4.08637905121 0.0469455153476813 -0.1376047436283728 -1.146913120644127 1.930698533310988 2.050037204598331 -0.5200274433105061 1.139966685416096
4.09647202492 0.0469455153476813 -0.1376047436283728 -1.146913120644127 1.930698533310988 2.050037204598331 -0.5200274433105061 1.139966685416096
4.09647202492 0.0469455153476813 -0.1376047436283728 -1.146913120644127 1.930698533310988 2.050037204598331 -0.5200274433105061 1.139966685416096
4.10647296906 0.0469455153476813 -0.1376047436283728 -1.146913120644127 1.930698533310988 2.050037204598331 -0.5200274433105061 1.139966685416096
4.10647296906 0.0469455153476813 -0.1376047436283728 -1.146913120644127 1.930698533310988 2.050037204598331 -0.5200274433105061 1.139966685416096
4.11638307571 0.0469455153476813 -0.1376047436283728 -1.146913120644127 1.930698533310988 2.050037204598331 -0.5200274433105061 1.139966685416096
4.11638307571 0.0469455153476813 -0.1376047436283728 -1.146913120644127 1.930698533310988 2.050037204598331 -0.5200274433105061 1.139966685416096
4.12648487091 0.0469455153476813 -0.1376047436283728 -1.146913120644127 1.930698533310988 2.050037204598331 -0.5200274433105061 1.139966685416096
4.12648487091 0.0469455153476813 -0.1376047436283728 -1.146913120644127 1.930698533310988 2.050037204598331 -0.5200274433105061 1.139966685416096
4.13647699356 0.0469455153476813 -0.1376047436283728 -1.146913120644127 1.930698533310988 2.050037204598331 -0.5200274433105061 1.139966685416096
4.13647699356 0.0469455153476813 -0.1376047436283728 -1.146913120644127 1.930698533310988 2.050037204598331 -0.5200274433105061 1.139966685416096
4.1464278698 0.0469455153476813 -0.1376047436283728 -1.146913120644127 1.930698533310988 2.050037204598331 -0.5200274433105061 1.139966685416096
4.1464278698 0.0469455153476813 -0.1376047436283728 -1.146913120644127 1.930698533310988 2.050037204598331 -0.5200274433105061 1.139966685416096
4.15650892258 0.0469455153476813 -0.1376047436283728 -1.146913120644127 1.930698533310988 2.050037204598331 -0.5200274433105061 1.139966685416096
4.15650892258 0.0469455153476813 -0.1376047436283728 -1.146913120644127 1.930698533310988 2.050037204598331 -0.5200274433105061 1.139966685416096
4.16650104523 0.0469455153476813 -0.1376047436283728 -1.146913120644127 1.930698533310988 2.050037204598331 -0.5200274433105061 1.139966685416096
4.16650104523 0.0469455153476813 -0.1376047436283728 -1.146913120644127 1.930698533310988 2.050037204598331 -0.5200274433105061 1.139966685416096
4.17646002769 0.0469455153476813 -0.1376047436283728 -1.146913120644127 1.930698533310988 2.050037204598331 -0.5200274433105061 1.139966685416096
4.17646002769 0.0469455153476813 -0.1376047436283728 -1.146913120644127 1.930698533310988 2.050037204598331 -0.5200274433105061 1.139966685416096
4.18642401695 0.0469455153476813 -0.1376047436283728 -1.146913120644127 1.930698533310988 2.050037204598331 -0.5200274433105061 1.139966685416096
4.18642401695 0.0469455153476813 -0.1376047436283728 -1.146913120644127 1.930698533310988 2.050037204598331 -0.5200274433105061 1.139966685416096
4.19643306732 0.0469455153476813 -0.1376047436283728 -1.146913120644127 1.930698533310988 2.050037204598331 -0.5200274433105061 1.139966685416096
4.19643306732 0.0469455153476813 -0.1376047436283728 -1.146913120644127 1.930698533310988 2.050037204598331 -0.5200274433105061 1.139966685416096
4.20637702942 0.0469455153476813 -0.1376047436283728 -1.146913120644127 1.930698533310988 2.050037204598331 -0.5200274433105061 1.139966685416096
4.20637702942 0.0469455153476813 -0.1376047436283728 -1.146913120644127 1.930698533310988 2.050037204598331 -0.5200274433105061 1.139966685416096
4.21645998955 0.0469455153476813 -0.1376047436283728 -1.146913120644127 1.930698533310988 2.050037204598331 -0.5200274433105061 1.139966685416096
4.21645998955 0.0469455153476813 -0.1376047436283728 -1.146913120644127 1.930698533310988 2.050037204598331 -0.5200274433105061 1.139966685416096
4.2265059948 0.0469455153476813 -0.1376047436283728 -1.146913120644127 1.930698533310988 2.050037204598331 -0.5200274433105061 1.139966685416096
4.2265059948 0.0469455153476813 -0.1376047436283728 -1.146913120644127 1.930698533310988 2.050037204598331 -0.5200274433105061 1.139966685416096
4.23637700081 0.0469455153476813 -0.1376047436283728 -1.146913120644127 1.930698533310988 2.050037204598331 -0.5200274433105061 1.139966685416096
4.23637700081 0.0469455153476813 -0.1376047436283728 -1.146913120644127 1.930698533310988 2.050037204598331 -0.5200274433105061 1.139966685416096
4.24637699127 0.0469455153476813 -0.1376047436283728 -1.146913120644127 1.930698533310988 2.050037204598331 -0.5200274433105061 1.139966685416096
4.24637699127 0.0469455153476813 -0.1376047436283728 -1.146913120644127 1.930698533310988 2.050037204598331 -0.5200274433105061 1.139966685416096
4.25645709038 0.0469455153476813 -0.1376047436283728 -1.146913120644127 1.930698533310988 2.050037204598331 -0.5200274433105061 1.139966685416096
4.25645709038 0.0469455153476813 -0.1376047436283728 -1.146913120644127 1.930698533310988 2.050037204598331 -0.5200274433105061 1.139966685416096
4.26627087593 0.0469455153476813 -0.1376047436283728 -1.146913120644127 1.930698533310988 2.050037204598331 -0.5200274433105061 1.139966685416096
4.26627087593 0.0469455153476813 -0.1376047436283728 -1.146913120644127 1.930698533310988 2.050037204598331 -0.5200274433105061 1.139966685416096
4.27648091316 0.0469455153476813 -0.1376047436283728 -1.146913120644127 1.930698533310988 2.050037204598331 -0.5200274433105061 1.139966685416096
4.27648091316 0.0469455153476813 -0.1376047436283728 -1.146913120644127 1.930698533310988 2.050037204598331 -0.5200274433105061 1.139966685416096
4.28638005257 0.0469455153476813 -0.1376047436283728 -1.146913120644127 1.930698533310988 2.050037204598331 -0.5200274433105061 1.139966685416096
4.28638005257 0.0469455153476813 -0.1376047436283728 -1.146913120644127 1.930698533310988 2.050037204598331 -0.5200274433105061 1.139966685416096
4.29650187492 0.0469455153476813 -0.1376047436283728 -1.146913120644127 1.930698533310988 2.050037204598331 -0.5200274433105061 1.139966685416096
4.29650187492 0.0469455153476813 -0.1376047436283728 -1.146913120644127 1.930698533310988 2.050037204598331 -0.5200274433105061 1.139966685416096
4.30642795563 0.0469455153476813 -0.1376047436283728 -1.146913120644127 1.930698533310988 2.050037204598331 -0.5200274433105061 1.139966685416096
4.30642795563 0.0469455153476813 -0.1376047436283728 -1.146913120644127 1.930698533310988 2.050037204598331 -0.5200274433105061 1.139966685416096
4.31648397446 0.0469455153476813 -0.1376047436283728 -1.146913120644127 1.930698533310988 2.050037204598331 -0.5200274433105061 1.139966685416096
4.31648397446 0.0469455153476813 -0.1376047436283728 -1.146913120644127 1.930698533310988 2.050037204598331 -0.5200274433105061 1.139966685416096
4.3265080452 0.0469455153476813 -0.1376047436283728 -1.146913120644127 1.930698533310988 2.050037204598331 -0.5200274433105061 1.139966685416096
4.3265080452 0.0469455153476813 -0.1376047436283728 -1.146913120644127 1.930698533310988 2.050037204598331 -0.5200274433105061 1.139966685416096
4.33648204803 0.0469455153476813 -0.1376047436283728 -1.146913120644127 1.930698533310988 2.050037204598331 -0.5200274433105061 1.139966685416096
4.33648204803 0.0469455153476813 -0.1376047436283728 -1.146913120644127 1.930698533310988 2.050037204598331 -0.5200274433105061 1.139966685416096
4.34642291069 0.0469455153476813 -0.1376047436283728 -1.146913120644127 1.930698533310988 2.050037204598331 -0.5200274433105061 1.139966685416096
4.34642291069 0.0469455153476813 -0.1376047436283728 -1.146913120644127 1.930698533310988 2.050037204598331 -0.5200274433105061 1.139966685416096
4.35635900497 0.0469455153476813 -0.1376047436283728 -1.146913120644127 1.930698533310988 2.050037204598331 -0.5200274433105061 1.139966685416096
4.35635900497 0.0469455153476813 -0.1376047436283728 -1.146913120644127 1.930698533310988 2.050037204598331 -0.5200274433105061 1.139966685416096
4.36648702621 0.0469455153476813 -0.1376047436283728 -1.146913120644127 1.930698533310988 2.050037204598331 -0.5200274433105061 1.139966685416096
4.36648702621 0.0469455153476813 -0.1376047436283728 -1.146913120644127 1.930698533310988 2.050037204598331 -0.5200274433105061 1.139966685416096
4.37651896477 0.0469455153476813 -0.1376047436283728 -1.146913120644127 1.930698533310988 2.050037204598331 -0.5200274433105061 1.139966685416096
4.37651896477 0.0469455153476813 -0.1376047436283728 -1.146913120644127 1.930698533310988 2.050037204598331 -0.5200274433105061 1.139966685416096
4.38638186455 0.0469455153476813 -0.1376047436283728 -1.146913120644127 1.930698533310988 2.050037204598331 -0.5200274433105061 1.139966685416096
4.38638186455 0.0469455153476813 -0.1376047436283728 -1.146913120644127 1.930698533310988 2.050037204598331 -0.5200274433105061 1.139966685416096
4.3964600563 0.0469455153476813 -0.1376047436283728 -1.146913120644127 1.930698533310988 2.050037204598331 -0.5200274433105061 1.139966685416096
4.3964600563 0.0469455153476813 -0.1376047436283728 -1.146913120644127 1.930698533310988 2.050037204598331 -0.5200274433105061 1.139966685416096
4.40638399124 0.0469455153476813 -0.1376047436283728 -1.146913120644127 1.930698533310988 2.050037204598331 -0.5200274433105061 1.139966685416096
4.40638399124 0.0469455153476813 -0.1376047436283728 -1.146913120644127 1.930698533310988 2.050037204598331 -0.5200274433105061 1.139966685416096
4.4165699482 0.0469455153476813 -0.1376047436283728 -1.146913120644127 1.930698533310988 2.050037204598331 -0.5200274433105061 1.139966685416096
4.4165699482 0.0469455153476813 -0.1376047436283728 -1.146913120644127 1.930698533310988 2.050037204598331 -0.5200274433105061 1.139966685416096
4.4264690876 0.0469455153476813 -0.1376047436283728 -1.146913120644127 1.930698533310988 2.050037204598331 -0.5200274433105061 1.139966685416096
4.4264690876 0.0469455153476813 -0.1376047436283728 -1.146913120644127 1.930698533310988 2.050037204598331 -0.5200274433105061 1.139966685416096
4.43649196625 0.0469455153476813 -0.1376047436283728 -1.146913120644127 1.930698533310988 2.050037204598331 -0.5200274433105061 1.139966685416096
4.43649196625 0.0469455153476813 -0.1376047436283728 -1.146913120644127 1.930698533310988 2.050037204598331 -0.5200274433105061 1.139966685416096
4.44647693634 0.0469455153476813 -0.1376047436283728 -1.146913120644127 1.930698533310988 2.050037204598331 -0.5200274433105061 1.139966685416096
4.44647693634 0.0469455153476813 -0.1376047436283728 -1.146913120644127 1.930698533310988 2.050037204598331 -0.5200274433105061 1.139966685416096
4.45645785332 0.0469455153476813 -0.1376047436283728 -1.146913120644127 1.930698533310988 2.050037204598331 -0.5200274433105061 1.139966685416096
4.45645785332 0.0469455153476813 -0.1376047436283728 -1.146913120644127 1.930698533310988 2.050037204598331 -0.5200274433105061 1.139966685416096
4.46637892723 0.0469455153476813 -0.1376047436283728 -1.146913120644127 1.930698533310988 2.050037204598331 -0.5200274433105061 1.139966685416096
4.46637892723 0.0469455153476813 -0.1376047436283728 -1.146913120644127 1.930698533310988 2.050037204598331 -0.5200274433105061 1.139966685416096
4.47648787498 0.0469455153476813 -0.1376047436283728 -1.146913120644127 1.930698533310988 2.050037204598331 -0.5200274433105061 1.139966685416096
4.47648787498 0.0469455153476813 -0.1376047436283728 -1.146913120644127 1.930698533310988 2.050037204598331 -0.5200274433105061 1.139966685416096
4.48644685745 0.0469455153476813 -0.1376047436283728 -1.146913120644127 1.930698533310988 2.050037204598331 -0.5200274433105061 1.139966685416096
4.48644685745 0.0469455153476813 -0.1376047436283728 -1.146913120644127 1.930698533310988 2.050037204598331 -0.5200274433105061 1.139966685416096
4.49650406837 0.0469455153476813 -0.1376047436283728 -1.146913120644127 1.930698533310988 2.050037204598331 -0.5200274433105061 1.139966685416096
4.49650406837 0.0469455153476813 -0.1376047436283728 -1.146913120644127 1.930698533310988 2.050037204598331 -0.5200274433105061 1.139966685416096
4.50648188591 0.0469455153476813 -0.1376047436283728 -1.146913120644127 1.930698533310988 2.050037204598331 -0.5200274433105061 1.139966685416096
4.50648188591 0.0469455153476813 -0.1376047436283728 -1.146913120644127 1.930698533310988 2.050037204598331 -0.5200274433105061 1.139966685416096
4.51635289192 0.0469455153476813 -0.1376047436283728 -1.146913120644127 1.930698533310988 2.050037204598331 -0.5200274433105061 1.139966685416096
4.51635289192 0.0469455153476813 -0.1376047436283728 -1.146913120644127 1.930698533310988 2.050037204598331 -0.5200274433105061 1.139966685416096
4.52645492554 0.0469455153476813 -0.1376047436283728 -1.146913120644127 1.930698533310988 2.050037204598331 -0.5200274433105061 1.139966685416096
4.52645492554 0.0469455153476813 -0.1376047436283728 -1.146913120644127 1.930698533310988 2.050037204598331 -0.5200274433105061 1.139966685416096
4.53648805618 0.0469455153476813 -0.1376047436283728 -1.146913120644127 1.930698533310988 2.050037204598331 -0.5200274433105061 1.139966685416096
4.53648805618 0.0469455153476813 -0.1376047436283728 -1.146913120644127 1.930698533310988 2.050037204598331 -0.5200274433105061 1.139966685416096
4.54636406898 0.0469455153476813 -0.1376047436283728 -1.146913120644127 1.930698533310988 2.050037204598331 -0.5200274433105061 1.139966685416096
4.54636406898 0.0469455153476813 -0.1376047436283728 -1.146913120644127 1.930698533310988 2.050037204598331 -0.5200274433105061 1.139966685416096
4.55648803711 0.0469455153476813 -0.1376047436283728 -1.146913120644127 1.930698533310988 2.050037204598331 -0.5200274433105061 1.139966685416096
4.55648803711 0.0469455153476813 -0.1376047436283728 -1.146913120644127 1.930698533310988 2.050037204598331 -0.5200274433105061 1.139966685416096
4.56637787819 0.0469455153476813 -0.1376047436283728 -1.146913120644127 1.930698533310988 2.050037204598331 -0.5200274433105061 1.139966685416096
4.56637787819 0.0469455153476813 -0.1376047436283728 -1.146913120644127 1.930698533310988 2.050037204598331 -0.5200274433105061 1.139966685416096
4.57633304596 0.0469455153476813 -0.1376047436283728 -1.146913120644127 1.930698533310988 2.050037204598331 -0.5200274433105061 1.139966685416096
4.57633304596 0.0469455153476813 -0.1376047436283728 -1.146913120644127 1.930698533310988 2.050037204598331 -0.5200274433105061 1.139966685416096
4.58646202087 0.0469455153476813 -0.1376047436283728 -1.146913120644127 1.930698533310988 2.050037204598331 -0.5200274433105061 1.139966685416096
4.58646202087 0.0469455153476813 -0.1376047436283728 -1.146913120644127 1.930698533310988 2.050037204598331 -0.5200274433105061 1.139966685416096
4.59645295143 0.0469455153476813 -0.1376047436283728 -1.146913120644127 1.930698533310988 2.050037204598331 -0.5200274433105061 1.139966685416096
4.59645295143 0.0469455153476813 -0.1376047436283728 -1.146913120644127 1.930698533310988 2.050037204598331 -0.5200274433105061 1.139966685416096
4.60648798943 0.0469455153476813 -0.1376047436283728 -1.146913120644127 1.930698533310988 2.050037204598331 -0.5200274433105061 1.139966685416096
4.60648798943 0.0469455153476813 -0.1376047436283728 -1.146913120644127 1.930698533310988 2.050037204598331 -0.5200274433105061 1.139966685416096
4.61651706696 0.0469455153476813 -0.1376047436283728 -1.146913120644127 1.930698533310988 2.050037204598331 -0.5200274433105061 1.139966685416096
4.61651706696 0.0469455153476813 -0.1376047436283728 -1.146913120644127 1.930698533310988 2.050037204598331 -0.5200274433105061 1.139966685416096
4.62650203705 0.0469455153476813 -0.1376047436283728 -1.146913120644127 1.930698533310988 2.050037204598331 -0.5200274433105061 1.139966685416096
4.62650203705 0.0469455153476813 -0.1376047436283728 -1.146913120644127 1.930698533310988 2.050037204598331 -0.5200274433105061 1.139966685416096
4.63654994965 0.0469455153476813 -0.1376047436283728 -1.146913120644127 1.930698533310988 2.050037204598331 -0.5200274433105061 1.139966685416096
4.63654994965 0.0469455153476813 -0.1376047436283728 -1.146913120644127 1.930698533310988 2.050037204598331 -0.5200274433105061 1.139966685416096
4.64651203156 0.0469455153476813 -0.1376047436283728 -1.146913120644127 1.930698533310988 2.050037204598331 -0.5200274433105061 1.139966685416096
4.64651203156 0.0469455153476813 -0.1376047436283728 -1.146913120644127 1.930698533310988 2.050037204598331 -0.5200274433105061 1.139966685416096
4.6565079689 0.0469455153476813 -0.1376047436283728 -1.146913120644127 1.930698533310988 2.050037204598331 -0.5200274433105061 1.139966685416096
4.6565079689 0.0469455153476813 -0.1376047436283728 -1.146913120644127 1.930698533310988 2.050037204598331 -0.5200274433105061 1.139966685416096
4.6663339138 0.0469455153476813 -0.1376047436283728 -1.146913120644127 1.930698533310988 2.050037204598331 -0.5200274433105061 1.139966685416096
4.6663339138 0.0469455153476813 -0.1376047436283728 -1.146913120644127 1.930698533310988 2.050037204598331 -0.5200274433105061 1.139966685416096
4.67648386955 0.0469455153476813 -0.1376047436283728 -1.146913120644127 1.930698533310988 2.050037204598331 -0.5200274433105061 1.139966685416096
4.67648386955 0.0469455153476813 -0.1376047436283728 -1.146913120644127 1.930698533310988 2.050037204598331 -0.5200274433105061 1.139966685416096
4.68611502647 0.0469455153476813 -0.1376047436283728 -1.146913120644127 1.930698533310988 2.050037204598331 -0.5200274433105061 1.139966685416096
4.68611502647 0.0469455153476813 -0.1376047436283728 -1.146913120644127 1.930698533310988 2.050037204598331 -0.5200274433105061 1.139966685416096
4.69626188278 0.0469455153476813 -0.1376047436283728 -1.146913120644127 1.930698533310988 2.050037204598331 -0.5200274433105061 1.139966685416096
4.69626188278 0.0469455153476813 -0.1376047436283728 -1.146913120644127 1.930698533310988 2.050037204598331 -0.5200274433105061 1.139966685416096
4.70634698868 0.0469455153476813 -0.1376047436283728 -1.146913120644127 1.930698533310988 2.050037204598331 -0.5200274433105061 1.139966685416096
4.70634698868 0.0469455153476813 -0.1376047436283728 -1.146913120644127 1.930698533310988 2.050037204598331 -0.5200274433105061 1.139966685416096
4.7164850235 0.0469455153476813 -0.1376047436283728 -1.146913120644127 1.930698533310988 2.050037204598331 -0.5200274433105061 1.139966685416096
4.7164850235 0.0469455153476813 -0.1376047436283728 -1.146913120644127 1.930698533310988 2.050037204598331 -0.5200274433105061 1.139966685416096
4.72634887695 0.0469455153476813 -0.1376047436283728 -1.146913120644127 1.930698533310988 2.050037204598331 -0.5200274433105061 1.139966685416096
4.72634887695 0.0469455153476813 -0.1376047436283728 -1.146913120644127 1.930698533310988 2.050037204598331 -0.5200274433105061 1.139966685416096
4.7364730835 0.0469455153476813 -0.1376047436283728 -1.146913120644127 1.930698533310988 2.050037204598331 -0.5200274433105061 1.139966685416096
4.7364730835 0.0469455153476813 -0.1376047436283728 -1.146913120644127 1.930698533310988 2.050037204598331 -0.5200274433105061 1.139966685416096
4.74642395973 0.0469455153476813 -0.1376047436283728 -1.146913120644127 1.930698533310988 2.050037204598331 -0.5200274433105061 1.139966685416096
4.74642395973 0.0469455153476813 -0.1376047436283728 -1.146913120644127 1.930698533310988 2.050037204598331 -0.5200274433105061 1.139966685416096
4.75651907921 0.0469455153476813 -0.1376047436283728 -1.146913120644127 1.930698533310988 2.050037204598331 -0.5200274433105061 1.139966685416096
4.75651907921 0.0469455153476813 -0.1376047436283728 -1.146913120644127 1.930698533310988 2.050037204598331 -0.5200274433105061 1.139966685416096
4.7665040493 0.0469455153476813 -0.1376047436283728 -1.146913120644127 1.930698533310988 2.050037204598331 -0.5200274433105061 1.139966685416096
4.7665040493 0.0469455153476813 -0.1376047436283728 -1.146913120644127 1.930698533310988 2.050037204598331 -0.5200274433105061 1.139966685416096
4.77644300461 0.0469455153476813 -0.1376047436283728 -1.146913120644127 1.930698533310988 2.050037204598331 -0.5200274433105061 1.139966685416096
4.77644300461 0.0469455153476813 -0.1376047436283728 -1.146913120644127 1.930698533310988 2.050037204598331 -0.5200274433105061 1.139966685416096
4.7864689827 0.0469455153476813 -0.1376047436283728 -1.146913120644127 1.930698533310988 2.050037204598331 -0.5200274433105061 1.139966685416096
4.7864689827 0.0469455153476813 -0.1376047436283728 -1.146913120644127 1.930698533310988 2.050037204598331 -0.5200274433105061 1.139966685416096
4.79644989967 0.0469455153476813 -0.1376047436283728 -1.146913120644127 1.930698533310988 2.050037204598331 -0.5200274433105061 1.139966685416096
4.79644989967 0.0469455153476813 -0.1376047436283728 -1.146913120644127 1.930698533310988 2.050037204598331 -0.5200274433105061 1.139966685416096
4.80645108223 0.0469455153476813 -0.1376047436283728 -1.146913120644127 1.930698533310988 2.050037204598331 -0.5200274433105061 1.139966685416096
4.80645108223 0.0469455153476813 -0.1376047436283728 -1.146913120644127 1.930698533310988 2.050037204598331 -0.5200274433105061 1.139966685416096
4.81647801399 0.0469455153476813 -0.1376047436283728 -1.146913120644127 1.930698533310988 2.050037204598331 -0.5200274433105061 1.139966685416096
4.81647801399 0.0469455153476813 -0.1376047436283728 -1.146913120644127 1.930698533310988 2.050037204598331 -0.5200274433105061 1.139966685416096
4.82643890381 0.0469455153476813 -0.1376047436283728 -1.146913120644127 1.930698533310988 2.050037204598331 -0.5200274433105061 1.139966685416096
4.82643890381 0.0469455153476813 -0.1376047436283728 -1.146913120644127 1.930698533310988 2.050037204598331 -0.5200274433105061 1.139966685416096
4.83649802208 0.0469455153476813 -0.1376047436283728 -1.146913120644127 1.930698533310988 2.050037204598331 -0.5200274433105061 1.139966685416096
4.83649802208 0.0469455153476813 -0.1376047436283728 -1.146913120644127 1.930698533310988 2.050037204598331 -0.5200274433105061 1.139966685416096
4.84646892548 0.0469455153476813 -0.1376047436283728 -1.146913120644127 1.930698533310988 2.050037204598331 -0.5200274433105061 1.139966685416096
4.84646892548 0.0469455153476813 -0.1376047436283728 -1.146913120644127 1.930698533310988 2.050037204598331 -0.5200274433105061 1.139966685416096
4.8562939167 0.0469455153476813 -0.1376047436283728 -1.146913120644127 1.930698533310988 2.050037204598331 -0.5200274433105061 1.139966685416096
4.8562939167 0.0469455153476813 -0.1376047436283728 -1.146913120644127 1.930698533310988 2.050037204598331 -0.5200274433105061 1.139966685416096
4.86646103859 0.0469455153476813 -0.1376047436283728 -1.146913120644127 1.930698533310988 2.050037204598331 -0.5200274433105061 1.139966685416096
4.86646103859 0.0469455153476813 -0.1376047436283728 -1.146913120644127 1.930698533310988 2.050037204598331 -0.5200274433105061 1.139966685416096
4.87646889687 0.0469455153476813 -0.1376047436283728 -1.146913120644127 1.930698533310988 2.050037204598331 -0.5200274433105061 1.139966685416096
4.87646889687 0.0469455153476813 -0.1376047436283728 -1.146913120644127 1.930698533310988 2.050037204598331 -0.5200274433105061 1.139966685416096
4.88635396957 0.0469455153476813 -0.1376047436283728 -1.146913120644127 1.930698533310988 2.050037204598331 -0.5200274433105061 1.139966685416096
4.88635396957 0.0469455153476813 -0.1376047436283728 -1.146913120644127 1.930698533310988 2.050037204598331 -0.5200274433105061 1.139966685416096
4.89639592171 0.0469455153476813 -0.1376047436283728 -1.146913120644127 1.930698533310988 2.050037204598331 -0.5200274433105061 1.139966685416096
4.89639592171 0.0469455153476813 -0.1376047436283728 -1.146913120644127 1.930698533310988 2.050037204598331 -0.5200274433105061 1.139966685416096
4.90649008751 0.0469455153476813 -0.1376047436283728 -1.146913120644127 1.930698533310988 2.050037204598331 -0.5200274433105061 1.139966685416096
4.90649008751 0.0469455153476813 -0.1376047436283728 -1.146913120644127 1.930698533310988 2.050037204598331 -0.5200274433105061 1.139966685416096
4.9162979126 0.0469455153476813 -0.1376047436283728 -1.146913120644127 1.930698533310988 2.050037204598331 -0.5200274433105061 1.139966685416096
4.9162979126 0.0469455153476813 -0.1376047436283728 -1.146913120644127 1.930698533310988 2.050037204598331 -0.5200274433105061 1.139966685416096
4.92649507523 0.0469455153476813 -0.1376047436283728 -1.146913120644127 1.930698533310988 2.050037204598331 -0.5200274433105061 1.139966685416096
4.92649507523 0.0469455153476813 -0.1376047436283728 -1.146913120644127 1.930698533310988 2.050037204598331 -0.5200274433105061 1.139966685416096
4.93650388718 0.0469455153476813 -0.1376047436283728 -1.146913120644127 1.930698533310988 2.050037204598331 -0.5200274433105061 1.139966685416096
4.93650388718 0.0469455153476813 -0.1376047436283728 -1.146913120644127 1.930698533310988 2.050037204598331 -0.5200274433105061 1.139966685416096
4.94649887085 0.0469455153476813 -0.1376047436283728 -1.146913120644127 1.930698533310988 2.050037204598331 -0.5200274433105061 1.139966685416096
4.94649887085 0.0469455153476813 -0.1376047436283728 -1.146913120644127 1.930698533310988 2.050037204598331 -0.5200274433105061 1.139966685416096
4.95651888847 0.0469455153476813 -0.1376047436283728 -1.146913120644127 1.930698533310988 2.050037204598331 -0.5200274433105061 1.139966685416096
4.95651888847 0.0469455153476813 -0.1376047436283728 -1.146913120644127 1.930698533310988 2.050037204598331 -0.5200274433105061 1.139966685416096
4.96649098396 0.0469455153476813 -0.1376047436283728 -1.146913120644127 1.930698533310988 2.050037204598331 -0.5200274433105061 1.139966685416096
4.96649098396 0.0469455153476813 -0.1376047436283728 -1.146913120644127 1.930698533310988 2.050037204598331 -0.5200274433105061 1.139966685416096
4.97639393806 0.0469455153476813 -0.1376047436283728 -1.146913120644127 1.930698533310988 2.050037204598331 -0.5200274433105061 1.139966685416096
4.97639393806 0.0469455153476813 -0.1376047436283728 -1.146913120644127 1.930698533310988 2.050037204598331 -0.5200274433105061 1.139966685416096
4.98632097244 0.0469455153476813 -0.1376047436283728 -1.146913120644127 1.930698533310988 2.050037204598331 -0.5200274433105061 1.139966685416096
4.98632097244 0.0469455153476813 -0.1376047436283728 -1.146913120644127 1.930698533310988 2.050037204598331 -0.5200274433105061 1.139966685416096
4.99646496773 0.0469455153476813 -0.1376047436283728 -1.146913120644127 1.930698533310988 2.050037204598331 -0.5200274433105061 1.139966685416096
4.99646496773 0.0469455153476813 -0.1376047436283728 -1.146913120644127 1.930698533310988 2.050037204598331 -0.5200274433105061 1.139966685416096
5.0063970089 0.0469455153476813 -0.1376047436283728 -1.146913120644127 1.930698533310988 2.050037204598331 -0.5200274433105061 1.139966685416096
5.0063970089 0.0469455153476813 -0.1376047436283728 -1.146913120644127 1.930698533310988 2.050037204598331 -0.5200274433105061 1.139966685416096
5.0164680481 0.0469455153476813 -0.1376047436283728 -1.146913120644127 1.930698533310988 2.050037204598331 -0.5200274433105061 1.139966685416096
5.0164680481 0.0469455153476813 -0.1376047436283728 -1.146913120644127 1.930698533310988 2.050037204598331 -0.5200274433105061 1.139966685416096
5.02642297745 0.0469455153476813 -0.1376047436283728 -1.146913120644127 1.930698533310988 2.050037204598331 -0.5200274433105061 1.139966685416096
5.02642297745 0.0469455153476813 -0.1376047436283728 -1.146913120644127 1.930698533310988 2.050037204598331 -0.5200274433105061 1.139966685416096
5.03639101982 0.0469455153476813 -0.1376047436283728 -1.146913120644127 1.930698533310988 2.050037204598331 -0.5200274433105061 1.139966685416096
5.03639101982 0.0469455153476813 -0.1376047436283728 -1.146913120644127 1.930698533310988 2.050037204598331 -0.5200274433105061 1.139966685416096
5.04638385773 0.0469455153476813 -0.1376047436283728 -1.146913120644127 1.930698533310988 2.050037204598331 -0.5200274433105061 1.139966685416096
5.04638385773 0.0469455153476813 -0.1376047436283728 -1.146913120644127 1.930698533310988 2.050037204598331 -0.5200274433105061 1.139966685416096
5.0564968586 0.0469455153476813 -0.1376047436283728 -1.146913120644127 1.930698533310988 2.050037204598331 -0.5200274433105061 1.139966685416096
5.0564968586 0.0469455153476813 -0.1376047436283728 -1.146913120644127 1.930698533310988 2.050037204598331 -0.5200274433105061 1.139966685416096
5.06644105911 0.0469455153476813 -0.1376047436283728 -1.146913120644127 1.930698533310988 2.050037204598331 -0.5200274433105061 1.139966685416096
5.06644105911 0.0469455153476813 -0.1376047436283728 -1.146913120644127 1.930698533310988 2.050037204598331 -0.5200274433105061 1.139966685416096
5.07644891739 0.0469455153476813 -0.1376047436283728 -1.146913120644127 1.930698533310988 2.050037204598331 -0.5200274433105061 1.139966685416096
5.07644891739 0.0469455153476813 -0.1376047436283728 -1.146913120644127 1.930698533310988 2.050037204598331 -0.5200274433105061 1.139966685416096
5.08650398254 0.0469455153476813 -0.1376047436283728 -1.146913120644127 1.930698533310988 2.050037204598331 -0.5200274433105061 1.139966685416096
5.08650398254 0.0469455153476813 -0.1376047436283728 -1.146913120644127 1.930698533310988 2.050037204598331 -0.5200274433105061 1.139966685416096
5.09650802612 0.0469455153476813 -0.1376047436283728 -1.146913120644127 1.930698533310988 2.050037204598331 -0.5200274433105061 1.139966685416096
5.09650802612 0.0469455153476813 -0.1376047436283728 -1.146913120644127 1.930698533310988 2.050037204598331 -0.5200274433105061 1.139966685416096
5.1064350605 0.0469455153476813 -0.1376047436283728 -1.146913120644127 1.930698533310988 2.050037204598331 -0.5200274433105061 1.139966685416096
5.1064350605 0.0469455153476813 -0.1376047436283728 -1.146913120644127 1.930698533310988 2.050037204598331 -0.5200274433105061 1.139966685416096
5.11651706696 0.0469455153476813 -0.1376047436283728 -1.146913120644127 1.930698533310988 2.050037204598331 -0.5200274433105061 1.139966685416096
5.11651706696 0.0469455153476813 -0.1376047436283728 -1.146913120644127 1.930698533310988 2.050037204598331 -0.5200274433105061 1.139966685416096
5.12648797035 0.0469455153476813 -0.1376047436283728 -1.146913120644127 1.930698533310988 2.050037204598331 -0.5200274433105061 1.139966685416096
5.12648797035 0.0469455153476813 -0.1376047436283728 -1.146913120644127 1.930698533310988 2.050037204598331 -0.5200274433105061 1.139966685416096
5.13629293442 0.0469455153476813 -0.1376047436283728 -1.146913120644127 1.930698533310988 2.050037204598331 -0.5200274433105061 1.139966685416096
5.13629293442 0.0469455153476813 -0.1376047436283728 -1.146913120644127 1.930698533310988 2.050037204598331 -0.5200274433105061 1.139966685416096
5.14638590813 0.0469455153476813 -0.1376047436283728 -1.146913120644127 1.930698533310988 2.050037204598331 -0.5200274433105061 1.139966685416096
5.14638590813 0.0469455153476813 -0.1376047436283728 -1.146913120644127 1.930698533310988 2.050037204598331 -0.5200274433105061 1.139966685416096
5.15647506714 0.0469455153476813 -0.1376047436283728 -1.146913120644127 1.930698533310988 2.050037204598331 -0.5200274433105061 1.139966685416096
5.15647506714 0.0469455153476813 -0.1376047436283728 -1.146913120644127 1.930698533310988 2.050037204598331 -0.5200274433105061 1.139966685416096
5.16635608673 0.0469455153476813 -0.1376047436283728 -1.146913120644127 1.930698533310988 2.050037204598331 -0.5200274433105061 1.139966685416096
5.16635608673 0.0469455153476813 -0.1376047436283728 -1.146913120644127 1.930698533310988 2.050037204598331 -0.5200274433105061 1.139966685416096
5.17647194862 0.0469455153476813 -0.1376047436283728 -1.146913120644127 1.930698533310988 2.050037204598331 -0.5200274433105061 1.139966685416096
5.17647194862 0.0469455153476813 -0.1376047436283728 -1.146913120644127 1.930698533310988 2.050037204598331 -0.5200274433105061 1.139966685416096
5.18648195267 0.0469455153476813 -0.1376047436283728 -1.146913120644127 1.930698533310988 2.050037204598331 -0.5200274433105061 1.139966685416096
5.18648195267 0.0469455153476813 -0.1376047436283728 -1.146913120644127 1.930698533310988 2.050037204598331 -0.5200274433105061 1.139966685416096
5.19643187523 0.0469455153476813 -0.1376047436283728 -1.146913120644127 1.930698533310988 2.050037204598331 -0.5200274433105061 1.139966685416096
5.19643187523 0.0469455153476813 -0.1376047436283728 -1.146913120644127 1.930698533310988 2.050037204598331 -0.5200274433105061 1.139966685416096
5.20649385452 0.0469455153476813 -0.1376047436283728 -1.146913120644127 1.930698533310988 2.050037204598331 -0.5200274433105061 1.139966685416096
5.20649385452 0.0469455153476813 -0.1376047436283728 -1.146913120644127 1.930698533310988 2.050037204598331 -0.5200274433105061 1.139966685416096
5.21647500992 0.0469455153476813 -0.1376047436283728 -1.146913120644127 1.930698533310988 2.050037204598331 -0.5200274433105061 1.139966685416096
5.21647500992 0.0469455153476813 -0.1376047436283728 -1.146913120644127 1.930698533310988 2.050037204598331 -0.5200274433105061 1.139966685416096
5.22634100914 0.0469455153476813 -0.1376047436283728 -1.146913120644127 1.930698533310988 2.050037204598331 -0.5200274433105061 1.139966685416096
5.22634100914 0.0469455153476813 -0.1376047436283728 -1.146913120644127 1.930698533310988 2.050037204598331 -0.5200274433105061 1.139966685416096
5.23647904396 0.0469455153476813 -0.1376047436283728 -1.146913120644127 1.930698533310988 2.050037204598331 -0.5200274433105061 1.139966685416096
5.23647904396 0.0469455153476813 -0.1376047436283728 -1.146913120644127 1.930698533310988 2.050037204598331 -0.5200274433105061 1.139966685416096
5.24651098251 0.0469455153476813 -0.1376047436283728 -1.146913120644127 1.930698533310988 2.050037204598331 -0.5200274433105061 1.139966685416096
5.24651098251 0.0469455153476813 -0.1376047436283728 -1.146913120644127 1.930698533310988 2.050037204598331 -0.5200274433105061 1.139966685416096
5.25651407242 0.0469455153476813 -0.1376047436283728 -1.146913120644127 1.930698533310988 2.050037204598331 -0.5200274433105061 1.139966685416096
5.25651407242 0.0469455153476813 -0.1376047436283728 -1.146913120644127 1.930698533310988 2.050037204598331 -0.5200274433105061 1.139966685416096
5.26652503014 0.0469455153476813 -0.1376047436283728 -1.146913120644127 1.930698533310988 2.050037204598331 -0.5200274433105061 1.139966685416096
5.26652503014 0.0469455153476813 -0.1376047436283728 -1.146913120644127 1.930698533310988 2.050037204598331 -0.5200274433105061 1.139966685416096
5.27649593353 0.0469455153476813 -0.1376047436283728 -1.146913120644127 1.930698533310988 2.050037204598331 -0.5200274433105061 1.139966685416096
5.27649593353 0.0469455153476813 -0.1376047436283728 -1.146913120644127 1.930698533310988 2.050037204598331 -0.5200274433105061 1.139966685416096
5.28653693199 0.0469455153476813 -0.1376047436283728 -1.146913120644127 1.930698533310988 2.050037204598331 -0.5200274433105061 1.139966685416096
5.28653693199 0.0469455153476813 -0.1376047436283728 -1.146913120644127 1.930698533310988 2.050037204598331 -0.5200274433105061 1.139966685416096
5.29651093483 0.0469455153476813 -0.1376047436283728 -1.146913120644127 1.930698533310988 2.050037204598331 -0.5200274433105061 1.139966685416096
5.29651093483 0.0469455153476813 -0.1376047436283728 -1.146913120644127 1.930698533310988 2.050037204598331 -0.5200274433105061 1.139966685416096
5.30643486977 0.0469455153476813 -0.1376047436283728 -1.146913120644127 1.930698533310988 2.050037204598331 -0.5200274433105061 1.139966685416096
5.30643486977 0.0469455153476813 -0.1376047436283728 -1.146913120644127 1.930698533310988 2.050037204598331 -0.5200274433105061 1.139966685416096
5.3165140152 0.0469455153476813 -0.1376047436283728 -1.146913120644127 1.930698533310988 2.050037204598331 -0.5200274433105061 1.139966685416096
5.3165140152 0.0469455153476813 -0.1376047436283728 -1.146913120644127 1.930698533310988 2.050037204598331 -0.5200274433105061 1.139966685416096
5.32645797729 0.0469455153476813 -0.1376047436283728 -1.146913120644127 1.930698533310988 2.050037204598331 -0.5200274433105061 1.139966685416096
5.32645797729 0.0469455153476813 -0.1376047436283728 -1.146913120644127 1.930698533310988 2.050037204598331 -0.5200274433105061 1.139966685416096
5.33650588989 0.0469455153476813 -0.1376047436283728 -1.146913120644127 1.930698533310988 2.050037204598331 -0.5200274433105061 1.139966685416096
5.33650588989 0.0469455153476813 -0.1376047436283728 -1.146913120644127 1.930698533310988 2.050037204598331 -0.5200274433105061 1.139966685416096
5.34636187553 0.0469455153476813 -0.1376047436283728 -1.146913120644127 1.930698533310988 2.050037204598331 -0.5200274433105061 1.139966685416096
5.34636187553 0.0469455153476813 -0.1376047436283728 -1.146913120644127 1.930698533310988 2.050037204598331 -0.5200274433105061 1.139966685416096
5.35647201538 0.0469455153476813 -0.1376047436283728 -1.146913120644127 1.930698533310988 2.050037204598331 -0.5200274433105061 1.139966685416096
5.35647201538 0.0469455153476813 -0.1376047436283728 -1.146913120644127 1.930698533310988 2.050037204598331 -0.5200274433105061 1.139966685416096
5.36647891998 0.0469455153476813 -0.1376047436283728 -1.146913120644127 1.930698533310988 2.050037204598331 -0.5200274433105061 1.139966685416096
5.36647891998 0.0469455153476813 -0.1376047436283728 -1.146913120644127 1.930698533310988 2.050037204598331 -0.5200274433105061 1.139966685416096
5.37652087212 0.0469455153476813 -0.1376047436283728 -1.146913120644127 1.930698533310988 2.050037204598331 -0.5200274433105061 1.139966685416096
5.37652087212 0.0469455153476813 -0.1376047436283728 -1.146913120644127 1.930698533310988 2.050037204598331 -0.5200274433105061 1.139966685416096
5.38648891449 0.0469455153476813 -0.1376047436283728 -1.146913120644127 1.930698533310988 2.050037204598331 -0.5200274433105061 1.139966685416096
5.38648891449 0.0469455153476813 -0.1376047436283728 -1.146913120644127 1.930698533310988 2.050037204598331 -0.5200274433105061 1.139966685416096
5.39645195007 0.0469455153476813 -0.1376047436283728 -1.146913120644127 1.930698533310988 2.050037204598331 -0.5200274433105061 1.139966685416096
5.39645195007 0.0469455153476813 -0.1376047436283728 -1.146913120644127 1.930698533310988 2.050037204598331 -0.5200274433105061 1.139966685416096
5.40644097328 0.0469455153476813 -0.1376047436283728 -1.146913120644127 1.930698533310988 2.050037204598331 -0.5200274433105061 1.139966685416096
5.40644097328 0.0469455153476813 -0.1376047436283728 -1.146913120644127 1.930698533310988 2.050037204598331 -0.5200274433105061 1.139966685416096
5.41630887985 0.0469455153476813 -0.1376047436283728 -1.146913120644127 1.930698533310988 2.050037204598331 -0.5200274433105061 1.139966685416096
5.41630887985 0.0469455153476813 -0.1376047436283728 -1.146913120644127 1.930698533310988 2.050037204598331 -0.5200274433105061 1.139966685416096
5.42647099495 0.0469455153476813 -0.1376047436283728 -1.146913120644127 1.930698533310988 2.050037204598331 -0.5200274433105061 1.139966685416096
5.42647099495 0.0469455153476813 -0.1376047436283728 -1.146913120644127 1.930698533310988 2.050037204598331 -0.5200274433105061 1.139966685416096
5.43650507927 0.0469455153476813 -0.1376047436283728 -1.146913120644127 1.930698533310988 2.050037204598331 -0.5200274433105061 1.139966685416096
5.43650507927 0.0469455153476813 -0.1376047436283728 -1.146913120644127 1.930698533310988 2.050037204598331 -0.5200274433105061 1.139966685416096
5.44641494751 0.0469455153476813 -0.1376047436283728 -1.146913120644127 1.930698533310988 2.050037204598331 -0.5200274433105061 1.139966685416096
5.44641494751 0.0469455153476813 -0.1376047436283728 -1.146913120644127 1.930698533310988 2.050037204598331 -0.5200274433105061 1.139966685416096
5.45647788048 0.0469455153476813 -0.1376047436283728 -1.146913120644127 1.930698533310988 2.050037204598331 -0.5200274433105061 1.139966685416096
5.45647788048 0.0469455153476813 -0.1376047436283728 -1.146913120644127 1.930698533310988 2.050037204598331 -0.5200274433105061 1.139966685416096
5.46647596359 0.0469455153476813 -0.1376047436283728 -1.146913120644127 1.930698533310988 2.050037204598331 -0.5200274433105061 1.139966685416096
5.46647596359 0.0469455153476813 -0.1376047436283728 -1.146913120644127 1.930698533310988 2.050037204598331 -0.5200274433105061 1.139966685416096
5.47633194923 0.0469455153476813 -0.1376047436283728 -1.146913120644127 1.930698533310988 2.050037204598331 -0.5200274433105061 1.139966685416096
5.47633194923 0.0469455153476813 -0.1376047436283728 -1.146913120644127 1.930698533310988 2.050037204598331 -0.5200274433105061 1.139966685416096
5.48642897606 0.0469455153476813 -0.1376047436283728 -1.146913120644127 1.930698533310988 2.050037204598331 -0.5200274433105061 1.139966685416096
5.48642897606 0.0469455153476813 -0.1376047436283728 -1.146913120644127 1.930698533310988 2.050037204598331 -0.5200274433105061 1.139966685416096
5.49651288986 0.0469455153476813 -0.1376047436283728 -1.146913120644127 1.930698533310988 2.050037204598331 -0.5200274433105061 1.139966685416096
5.49651288986 0.0469455153476813 -0.1376047436283728 -1.146913120644127 1.930698533310988 2.050037204598331 -0.5200274433105061 1.139966685416096
5.50630903244 0.0469455153476813 -0.1376047436283728 -1.146913120644127 1.930698533310988 2.050037204598331 -0.5200274433105061 1.139966685416096
5.50630903244 0.0469455153476813 -0.1376047436283728 -1.146913120644127 1.930698533310988 2.050037204598331 -0.5200274433105061 1.139966685416096
5.51647901535 0.0469455153476813 -0.1376047436283728 -1.146913120644127 1.930698533310988 2.050037204598331 -0.5200274433105061 1.139966685416096
5.51647901535 0.0469455153476813 -0.1376047436283728 -1.146913120644127 1.930698533310988 2.050037204598331 -0.5200274433105061 1.139966685416096
5.52641296387 0.0469455153476813 -0.1376047436283728 -1.146913120644127 1.930698533310988 2.050037204598331 -0.5200274433105061 1.139966685416096
5.52641296387 0.0469455153476813 -0.1376047436283728 -1.146913120644127 1.930698533310988 2.050037204598331 -0.5200274433105061 1.139966685416096
5.5363240242 0.0469455153476813 -0.1376047436283728 -1.146913120644127 1.930698533310988 2.050037204598331 -0.5200274433105061 1.139966685416096
5.5363240242 0.0469455153476813 -0.1376047436283728 -1.146913120644127 1.930698533310988 2.050037204598331 -0.5200274433105061 1.139966685416096
5.54641294479 0.0469455153476813 -0.1376047436283728 -1.146913120644127 1.930698533310988 2.050037204598331 -0.5200274433105061 1.139966685416096
5.54641294479 0.0469455153476813 -0.1376047436283728 -1.146913120644127 1.930698533310988 2.050037204598331 -0.5200274433105061 1.139966685416096
5.55650496483 0.0469455153476813 -0.1376047436283728 -1.146913120644127 1.930698533310988 2.050037204598331 -0.5200274433105061 1.139966685416096
5.55650496483 0.0469455153476813 -0.1376047436283728 -1.146913120644127 1.930698533310988 2.050037204598331 -0.5200274433105061 1.139966685416096
5.56639504433 0.0469455153476813 -0.1376047436283728 -1.146913120644127 1.930698533310988 2.050037204598331 -0.5200274433105061 1.139966685416096
5.56639504433 0.0469455153476813 -0.1376047436283728 -1.146913120644127 1.930698533310988 2.050037204598331 -0.5200274433105061 1.139966685416096
5.57648396492 0.0469455153476813 -0.1376047436283728 -1.146913120644127 1.930698533310988 2.050037204598331 -0.5200274433105061 1.139966685416096
5.57648396492 0.0469455153476813 -0.1376047436283728 -1.146913120644127 1.930698533310988 2.050037204598331 -0.5200274433105061 1.139966685416096
5.58648204803 0.0469455153476813 -0.1376047436283728 -1.146913120644127 1.930698533310988 2.050037204598331 -0.5200274433105061 1.139966685416096
5.58648204803 0.0469455153476813 -0.1376047436283728 -1.146913120644127 1.930698533310988 2.050037204598331 -0.5200274433105061 1.139966685416096
5.59652805328 0.0469455153476813 -0.1376047436283728 -1.146913120644127 1.930698533310988 2.050037204598331 -0.5200274433105061 1.139966685416096
5.59652805328 0.0469455153476813 -0.1376047436283728 -1.146913120644127 1.930698533310988 2.050037204598331 -0.5200274433105061 1.139966685416096
5.60652804375 0.0469455153476813 -0.1376047436283728 -1.146913120644127 1.930698533310988 2.050037204598331 -0.5200274433105061 1.139966685416096
5.60652804375 0.0469455153476813 -0.1376047436283728 -1.146913120644127 1.930698533310988 2.050037204598331 -0.5200274433105061 1.139966685416096
5.61651301384 0.0469455153476813 -0.1376047436283728 -1.146913120644127 1.930698533310988 2.050037204598331 -0.5200274433105061 1.139966685416096
5.61651301384 0.0469455153476813 -0.1376047436283728 -1.146913120644127 1.930698533310988 2.050037204598331 -0.5200274433105061 1.139966685416096
5.6264770031 0.0469455153476813 -0.1376047436283728 -1.146913120644127 1.930698533310988 2.050037204598331 -0.5200274433105061 1.139966685416096
5.6264770031 0.0469455153476813 -0.1376047436283728 -1.146913120644127 1.930698533310988 2.050037204598331 -0.5200274433105061 1.139966685416096
5.6364979744 0.0469455153476813 -0.1376047436283728 -1.146913120644127 1.930698533310988 2.050037204598331 -0.5200274433105061 1.139966685416096
5.6364979744 0.0469455153476813 -0.1376047436283728 -1.146913120644127 1.930698533310988 2.050037204598331 -0.5200274433105061 1.139966685416096
5.64640688896 0.0469455153476813 -0.1376047436283728 -1.146913120644127 1.930698533310988 2.050037204598331 -0.5200274433105061 1.139966685416096
5.64640688896 0.0469455153476813 -0.1376047436283728 -1.146913120644127 1.930698533310988 2.050037204598331 -0.5200274433105061 1.139966685416096
5.65633392334 0.0469455153476813 -0.1376047436283728 -1.146913120644127 1.930698533310988 2.050037204598331 -0.5200274433105061 1.139966685416096
5.65633392334 0.0469455153476813 -0.1376047436283728 -1.146913120644127 1.930698533310988 2.050037204598331 -0.5200274433105061 1.139966685416096
5.66639304161 0.0469455153476813 -0.1376047436283728 -1.146913120644127 1.930698533310988 2.050037204598331 -0.5200274433105061 1.139966685416096
5.66639304161 0.0469455153476813 -0.1376047436283728 -1.146913120644127 1.930698533310988 2.050037204598331 -0.5200274433105061 1.139966685416096
5.67648291588 0.0469455153476813 -0.1376047436283728 -1.146913120644127 1.930698533310988 2.050037204598331 -0.5200274433105061 1.139966685416096
5.67648291588 0.0469455153476813 -0.1376047436283728 -1.146913120644127 1.930698533310988 2.050037204598331 -0.5200274433105061 1.139966685416096
5.68654894829 0.0469455153476813 -0.1376047436283728 -1.146913120644127 1.930698533310988 2.050037204598331 -0.5200274433105061 1.139966685416096
5.68654894829 0.0469455153476813 -0.1376047436283728 -1.146913120644127 1.930698533310988 2.050037204598331 -0.5200274433105061 1.139966685416096
5.69650793076 0.0469455153476813 -0.1376047436283728 -1.146913120644127 1.930698533310988 2.050037204598331 -0.5200274433105061 1.139966685416096
5.69650793076 0.0469455153476813 -0.1376047436283728 -1.146913120644127 1.930698533310988 2.050037204598331 -0.5200274433105061 1.139966685416096
5.70648193359 0.0469455153476813 -0.1376047436283728 -1.146913120644127 1.930698533310988 2.050037204598331 -0.5200274433105061 1.139966685416096
5.70648193359 0.0469455153476813 -0.1376047436283728 -1.146913120644127 1.930698533310988 2.050037204598331 -0.5200274433105061 1.139966685416096
5.71648406982 0.0469455153476813 -0.1376047436283728 -1.146913120644127 1.930698533310988 2.050037204598331 -0.5200274433105061 1.139966685416096
5.71648406982 0.0469455153476813 -0.1376047436283728 -1.146913120644127 1.930698533310988 2.050037204598331 -0.5200274433105061 1.139966685416096
5.72635197639 0.0469455153476813 -0.1376047436283728 -1.146913120644127 1.930698533310988 2.050037204598331 -0.5200274433105061 1.139966685416096
5.72635197639 0.0469455153476813 -0.1376047436283728 -1.146913120644127 1.930698533310988 2.050037204598331 -0.5200274433105061 1.139966685416096
5.73648500443 0.0469455153476813 -0.1376047436283728 -1.146913120644127 1.930698533310988 2.050037204598331 -0.5200274433105061 1.139966685416096
5.73648500443 0.0469455153476813 -0.1376047436283728 -1.146913120644127 1.930698533310988 2.050037204598331 -0.5200274433105061 1.139966685416096
5.74650907516 0.0469455153476813 -0.1376047436283728 -1.146913120644127 1.930698533310988 2.050037204598331 -0.5200274433105061 1.139966685416096
5.74650907516 0.0469455153476813 -0.1376047436283728 -1.146913120644127 1.930698533310988 2.050037204598331 -0.5200274433105061 1.139966685416096
5.75647997856 0.0469455153476813 -0.1376047436283728 -1.146913120644127 1.930698533310988 2.050037204598331 -0.5200274433105061 1.139966685416096
5.75647997856 0.0469455153476813 -0.1376047436283728 -1.146913120644127 1.930698533310988 2.050037204598331 -0.5200274433105061 1.139966685416096
5.76644086838 0.0469455153476813 -0.1376047436283728 -1.146913120644127 1.930698533310988 2.050037204598331 -0.5200274433105061 1.139966685416096
5.76644086838 0.0469455153476813 -0.1376047436283728 -1.146913120644127 1.930698533310988 2.050037204598331 -0.5200274433105061 1.139966685416096
5.77649188042 0.0469455153476813 -0.1376047436283728 -1.146913120644127 1.930698533310988 2.050037204598331 -0.5200274433105061 1.139966685416096
5.77649188042 0.0469455153476813 -0.1376047436283728 -1.146913120644127 1.930698533310988 2.050037204598331 -0.5200274433105061 1.139966685416096
5.78640508652 0.0469455153476813 -0.1376047436283728 -1.146913120644127 1.930698533310988 2.050037204598331 -0.5200274433105061 1.139966685416096
5.78640508652 0.0469455153476813 -0.1376047436283728 -1.146913120644127 1.930698533310988 2.050037204598331 -0.5200274433105061 1.139966685416096
5.79648303986 0.0469455153476813 -0.1376047436283728 -1.146913120644127 1.930698533310988 2.050037204598331 -0.5200274433105061 1.139966685416096
5.79648303986 0.0469455153476813 -0.1376047436283728 -1.146913120644127 1.930698533310988 2.050037204598331 -0.5200274433105061 1.139966685416096
5.80652189255 0.0469455153476813 -0.1376047436283728 -1.146913120644127 1.930698533310988 2.050037204598331 -0.5200274433105061 1.139966685416096
5.80652189255 0.0469455153476813 -0.1376047436283728 -1.146913120644127 1.930698533310988 2.050037204598331 -0.5200274433105061 1.139966685416096
5.81631302834 0.0469455153476813 -0.1376047436283728 -1.146913120644127 1.930698533310988 2.050037204598331 -0.5200274433105061 1.139966685416096
5.81631302834 0.0469455153476813 -0.1376047436283728 -1.146913120644127 1.930698533310988 2.050037204598331 -0.5200274433105061 1.139966685416096
5.82651996613 0.0469455153476813 -0.1376047436283728 -1.146913120644127 1.930698533310988 2.050037204598331 -0.5200274433105061 1.139966685416096
5.82651996613 0.0469455153476813 -0.1376047436283728 -1.146913120644127 1.930698533310988 2.050037204598331 -0.5200274433105061 1.139966685416096
5.83648490906 0.0469455153476813 -0.1376047436283728 -1.146913120644127 1.930698533310988 2.050037204598331 -0.5200274433105061 1.139966685416096
5.83648490906 0.0469455153476813 -0.1376047436283728 -1.146913120644127 1.930698533310988 2.050037204598331 -0.5200274433105061 1.139966685416096
5.84630203247 0.0469455153476813 -0.1376047436283728 -1.146913120644127 1.930698533310988 2.050037204598331 -0.5200274433105061 1.139966685416096
5.84630203247 0.0469455153476813 -0.1376047436283728 -1.146913120644127 1.930698533310988 2.050037204598331 -0.5200274433105061 1.139966685416096
5.8564889431 0.0469455153476813 -0.1376047436283728 -1.146913120644127 1.930698533310988 2.050037204598331 -0.5200274433105061 1.139966685416096
5.8564889431 0.0469455153476813 -0.1376047436283728 -1.146913120644127 1.930698533310988 2.050037204598331 -0.5200274433105061 1.139966685416096
5.86649608612 0.0469455153476813 -0.1376047436283728 -1.146913120644127 1.930698533310988 2.050037204598331 -0.5200274433105061 1.139966685416096
5.86649608612 0.0469455153476813 -0.1376047436283728 -1.146913120644127 1.930698533310988 2.050037204598331 -0.5200274433105061 1.139966685416096
5.87655687332 0.0469455153476813 -0.1376047436283728 -1.146913120644127 1.930698533310988 2.050037204598331 -0.5200274433105061 1.139966685416096
5.87655687332 0.0469455153476813 -0.1376047436283728 -1.146913120644127 1.930698533310988 2.050037204598331 -0.5200274433105061 1.139966685416096
5.88642597198 0.0469455153476813 -0.1376047436283728 -1.146913120644127 1.930698533310988 2.050037204598331 -0.5200274433105061 1.139966685416096
5.88642597198 0.0469455153476813 -0.1376047436283728 -1.146913120644127 1.930698533310988 2.050037204598331 -0.5200274433105061 1.139966685416096
5.89651489258 0.0469455153476813 -0.1376047436283728 -1.146913120644127 1.930698533310988 2.050037204598331 -0.5200274433105061 1.139966685416096
5.89651489258 0.0469455153476813 -0.1376047436283728 -1.146913120644127 1.930698533310988 2.050037204598331 -0.5200274433105061 1.139966685416096
5.90652704239 0.0469455153476813 -0.1376047436283728 -1.146913120644127 1.930698533310988 2.050037204598331 -0.5200274433105061 1.139966685416096
5.90652704239 0.0469455153476813 -0.1376047436283728 -1.146913120644127 1.930698533310988 2.050037204598331 -0.5200274433105061 1.139966685416096
5.91650891304 0.0469455153476813 -0.1376047436283728 -1.146913120644127 1.930698533310988 2.050037204598331 -0.5200274433105061 1.139966685416096
5.91650891304 0.0469455153476813 -0.1376047436283728 -1.146913120644127 1.930698533310988 2.050037204598331 -0.5200274433105061 1.139966685416096
5.92645597458 0.0469455153476813 -0.1376047436283728 -1.146913120644127 1.930698533310988 2.050037204598331 -0.5200274433105061 1.139966685416096
5.92645597458 0.0469455153476813 -0.1376047436283728 -1.146913120644127 1.930698533310988 2.050037204598331 -0.5200274433105061 1.139966685416096
5.93656396866 0.0469455153476813 -0.1376047436283728 -1.146913120644127 1.930698533310988 2.050037204598331 -0.5200274433105061 1.139966685416096
5.93656396866 0.0469455153476813 -0.1376047436283728 -1.146913120644127 1.930698533310988 2.050037204598331 -0.5200274433105061 1.139966685416096
5.94650101662 0.0469455153476813 -0.1376047436283728 -1.146913120644127 1.930698533310988 2.050037204598331 -0.5200274433105061 1.139966685416096
5.94650101662 0.0469455153476813 -0.1376047436283728 -1.146913120644127 1.930698533310988 2.050037204598331 -0.5200274433105061 1.139966685416096
5.9565448761 0.0469455153476813 -0.1376047436283728 -1.146913120644127 1.930698533310988 2.050037204598331 -0.5200274433105061 1.139966685416096
5.9565448761 0.0469455153476813 -0.1376047436283728 -1.146913120644127 1.930698533310988 2.050037204598331 -0.5200274433105061 1.139966685416096
5.96647000313 0.0469455153476813 -0.1376047436283728 -1.146913120644127 1.930698533310988 2.050037204598331 -0.5200274433105061 1.139966685416096
5.96647000313 0.0469455153476813 -0.1376047436283728 -1.146913120644127 1.930698533310988 2.050037204598331 -0.5200274433105061 1.139966685416096
5.97649598122 0.0469455153476813 -0.1376047436283728 -1.146913120644127 1.930698533310988 2.050037204598331 -0.5200274433105061 1.139966685416096
5.97649598122 0.0469455153476813 -0.1376047436283728 -1.146913120644127 1.930698533310988 2.050037204598331 -0.5200274433105061 1.139966685416096
5.98651599884 0.0469455153476813 -0.1376047436283728 -1.146913120644127 1.930698533310988 2.050037204598331 -0.5200274433105061 1.139966685416096
5.98651599884 0.0469455153476813 -0.1376047436283728 -1.146913120644127 1.930698533310988 2.050037204598331 -0.5200274433105061 1.139966685416096
5.99654507637 0.0469455153476813 -0.1376047436283728 -1.146913120644127 1.930698533310988 2.050037204598331 -0.5200274433105061 1.139966685416096
5.99654507637 0.0469455153476813 -0.1376047436283728 -1.146913120644127 1.930698533310988 2.050037204598331 -0.5200274433105061 1.139966685416096
6.00655007362 0.0469455153476813 -0.1376047436283728 -1.146913120644127 1.930698533310988 2.050037204598331 -0.5200274433105061 1.139966685416096
6.00655007362 0.0469455153476813 -0.1376047436283728 -1.146913120644127 1.930698533310988 2.050037204598331 -0.5200274433105061 1.139966685416096
6.01653289795 0.0469455153476813 -0.1376047436283728 -1.146913120644127 1.930698533310988 2.050037204598331 -0.5200274433105061 1.139966685416096
6.01653289795 0.0469455153476813 -0.1376047436283728 -1.146913120644127 1.930698533310988 2.050037204598331 -0.5200274433105061 1.139966685416096
6.02649998665 0.0469455153476813 -0.1376047436283728 -1.146913120644127 1.930698533310988 2.050037204598331 -0.5200274433105061 1.139966685416096
6.02649998665 0.0469455153476813 -0.1376047436283728 -1.146913120644127 1.930698533310988 2.050037204598331 -0.5200274433105061 1.139966685416096
6.03649187088 0.0469455153476813 -0.1376047436283728 -1.146913120644127 1.930698533310988 2.050037204598331 -0.5200274433105061 1.139966685416096
6.03649187088 0.0469455153476813 -0.1376047436283728 -1.146913120644127 1.930698533310988 2.050037204598331 -0.5200274433105061 1.139966685416096
6.04648900032 0.0469455153476813 -0.1376047436283728 -1.146913120644127 1.930698533310988 2.050037204598331 -0.5200274433105061 1.139966685416096
6.04648900032 0.0469455153476813 -0.1376047436283728 -1.146913120644127 1.930698533310988 2.050037204598331 -0.5200274433105061 1.139966685416096
6.05651807785 0.0469455153476813 -0.1376047436283728 -1.146913120644127 1.930698533310988 2.050037204598331 -0.5200274433105061 1.139966685416096
6.05651807785 0.0469455153476813 -0.1376047436283728 -1.146913120644127 1.930698533310988 2.050037204598331 -0.5200274433105061 1.139966685416096
6.06641507149 0.0469455153476813 -0.1376047436283728 -1.146913120644127 1.930698533310988 2.050037204598331 -0.5200274433105061 1.139966685416096
6.06641507149 0.0469455153476813 -0.1376047436283728 -1.146913120644127 1.930698533310988 2.050037204598331 -0.5200274433105061 1.139966685416096
6.07651901245 0.0469455153476813 -0.1376047436283728 -1.146913120644127 1.930698533310988 2.050037204598331 -0.5200274433105061 1.139966685416096
6.07651901245 0.0469455153476813 -0.1376047436283728 -1.146913120644127 1.930698533310988 2.050037204598331 -0.5200274433105061 1.139966685416096
6.08651304245 0.0469455153476813 -0.1376047436283728 -1.146913120644127 1.930698533310988 2.050037204598331 -0.5200274433105061 1.139966685416096
6.08651304245 0.0469455153476813 -0.1376047436283728 -1.146913120644127 1.930698533310988 2.050037204598331 -0.5200274433105061 1.139966685416096
6.09632897377 0.0469455153476813 -0.1376047436283728 -1.146913120644127 1.930698533310988 2.050037204598331 -0.5200274433105061 1.139966685416096
6.09632897377 0.0469455153476813 -0.1376047436283728 -1.146913120644127 1.930698533310988 2.050037204598331 -0.5200274433105061 1.139966685416096
6.10651707649 0.0469455153476813 -0.1376047436283728 -1.146913120644127 1.930698533310988 2.050037204598331 -0.5200274433105061 1.139966685416096
6.10651707649 0.0469455153476813 -0.1376047436283728 -1.146913120644127 1.930698533310988 2.050037204598331 -0.5200274433105061 1.139966685416096
6.116533041 0.0469455153476813 -0.1376047436283728 -1.146913120644127 1.930698533310988 2.050037204598331 -0.5200274433105061 1.139966685416096
6.116533041 0.0469455153476813 -0.1376047436283728 -1.146913120644127 1.930698533310988 2.050037204598331 -0.5200274433105061 1.139966685416096
6.12631487846 0.0469455153476813 -0.1376047436283728 -1.146913120644127 1.930698533310988 2.050037204598331 -0.5200274433105061 1.139966685416096
6.12631487846 0.0469455153476813 -0.1376047436283728 -1.146913120644127 1.930698533310988 2.050037204598331 -0.5200274433105061 1.139966685416096
6.13647508621 0.0469455153476813 -0.1376047436283728 -1.146913120644127 1.930698533310988 2.050037204598331 -0.5200274433105061 1.139966685416096
6.13647508621 0.0469455153476813 -0.1376047436283728 -1.146913120644127 1.930698533310988 2.050037204598331 -0.5200274433105061 1.139966685416096
6.14653706551 0.0469455153476813 -0.1376047436283728 -1.146913120644127 1.930698533310988 2.050037204598331 -0.5200274433105061 1.139966685416096
6.14653706551 0.0469455153476813 -0.1376047436283728 -1.146913120644127 1.930698533310988 2.050037204598331 -0.5200274433105061 1.139966685416096
6.15628600121 0.0469455153476813 -0.1376047436283728 -1.146913120644127 1.930698533310988 2.050037204598331 -0.5200274433105061 1.139966685416096
6.15628600121 0.0469455153476813 -0.1376047436283728 -1.146913120644127 1.930698533310988 2.050037204598331 -0.5200274433105061 1.139966685416096
6.16649699211 0.0469455153476813 -0.1376047436283728 -1.146913120644127 1.930698533310988 2.050037204598331 -0.5200274433105061 1.139966685416096
6.16649699211 0.0469455153476813 -0.1376047436283728 -1.146913120644127 1.930698533310988 2.050037204598331 -0.5200274433105061 1.139966685416096
6.17648887634 0.0469455153476813 -0.1376047436283728 -1.146913120644127 1.930698533310988 2.050037204598331 -0.5200274433105061 1.139966685416096
6.17648887634 0.0469455153476813 -0.1376047436283728 -1.146913120644127 1.930698533310988 2.050037204598331 -0.5200274433105061 1.139966685416096
6.18652892113 0.0469455153476813 -0.1376047436283728 -1.146913120644127 1.930698533310988 2.050037204598331 -0.5200274433105061 1.139966685416096
6.18652892113 0.0469455153476813 -0.1376047436283728 -1.146913120644127 1.930698533310988 2.050037204598331 -0.5200274433105061 1.139966685416096
6.19637107849 0.0469455153476813 -0.1376047436283728 -1.146913120644127 1.930698533310988 2.050037204598331 -0.5200274433105061 1.139966685416096
6.19637107849 0.0469455153476813 -0.1376047436283728 -1.146913120644127 1.930698533310988 2.050037204598331 -0.5200274433105061 1.139966685416096
6.20649695396 0.0469455153476813 -0.1376047436283728 -1.146913120644127 1.930698533310988 2.050037204598331 -0.5200274433105061 1.139966685416096
6.20649695396 0.0469455153476813 -0.1376047436283728 -1.146913120644127 1.930698533310988 2.050037204598331 -0.5200274433105061 1.139966685416096
6.21653389931 0.0469455153476813 -0.1376047436283728 -1.146913120644127 1.930698533310988 2.050037204598331 -0.5200274433105061 1.139966685416096
6.21653389931 0.0469455153476813 -0.1376047436283728 -1.146913120644127 1.930698533310988 2.050037204598331 -0.5200274433105061 1.139966685416096
6.22646689415 0.0469455153476813 -0.1376047436283728 -1.146913120644127 1.930698533310988 2.050037204598331 -0.5200274433105061 1.139966685416096
6.22646689415 0.0469455153476813 -0.1376047436283728 -1.146913120644127 1.930698533310988 2.050037204598331 -0.5200274433105061 1.139966685416096
6.23651099205 0.0469455153476813 -0.1376047436283728 -1.146913120644127 1.930698533310988 2.050037204598331 -0.5200274433105061 1.139966685416096
6.23651099205 0.0469455153476813 -0.1376047436283728 -1.146913120644127 1.930698533310988 2.050037204598331 -0.5200274433105061 1.139966685416096
6.24654698372 0.0469455153476813 -0.1376047436283728 -1.146913120644127 1.930698533310988 2.050037204598331 -0.5200274433105061 1.139966685416096
6.24654698372 0.0469455153476813 -0.1376047436283728 -1.146913120644127 1.930698533310988 2.050037204598331 -0.5200274433105061 1.139966685416096
6.25650191307 0.0469455153476813 -0.1376047436283728 -1.146913120644127 1.930698533310988 2.050037204598331 -0.5200274433105061 1.139966685416096
6.25650191307 0.0469455153476813 -0.1376047436283728 -1.146913120644127 1.930698533310988 2.050037204598331 -0.5200274433105061 1.139966685416096
6.2664949894 0.0469455153476813 -0.1376047436283728 -1.146913120644127 1.930698533310988 2.050037204598331 -0.5200274433105061 1.139966685416096
6.2664949894 0.0469455153476813 -0.1376047436283728 -1.146913120644127 1.930698533310988 2.050037204598331 -0.5200274433105061 1.139966685416096
6.27642393112 0.0469455153476813 -0.1376047436283728 -1.146913120644127 1.930698533310988 2.050037204598331 -0.5200274433105061 1.139966685416096
6.27642393112 0.0469455153476813 -0.1376047436283728 -1.146913120644127 1.930698533310988 2.050037204598331 -0.5200274433105061 1.139966685416096
6.28641200066 0.0469455153476813 -0.1376047436283728 -1.146913120644127 1.930698533310988 2.050037204598331 -0.5200274433105061 1.139966685416096
6.28641200066 0.0469455153476813 -0.1376047436283728 -1.146913120644127 1.930698533310988 2.050037204598331 -0.5200274433105061 1.139966685416096
6.29649996758 0.0469455153476813 -0.1376047436283728 -1.146913120644127 1.930698533310988 2.050037204598331 -0.5200274433105061 1.139966685416096
6.29649996758 0.0469455153476813 -0.1376047436283728 -1.146913120644127 1.930698533310988 2.050037204598331 -0.5200274433105061 1.139966685416096
6.30655694008 0.0469455153476813 -0.1376047436283728 -1.146913120644127 1.930698533310988 2.050037204598331 -0.5200274433105061 1.139966685416096
6.30655694008 0.0469455153476813 -0.1376047436283728 -1.146913120644127 1.930698533310988 2.050037204598331 -0.5200274433105061 1.139966685416096
6.31626796722 0.0469455153476813 -0.1376047436283728 -1.146913120644127 1.930698533310988 2.050037204598331 -0.5200274433105061 1.139966685416096
6.31626796722 0.0469455153476813 -0.1376047436283728 -1.146913120644127 1.930698533310988 2.050037204598331 -0.5200274433105061 1.139966685416096
6.32637405396 0.0469455153476813 -0.1376047436283728 -1.146913120644127 1.930698533310988 2.050037204598331 -0.5200274433105061 1.139966685416096
6.32637405396 0.0469455153476813 -0.1376047436283728 -1.146913120644127 1.930698533310988 2.050037204598331 -0.5200274433105061 1.139966685416096
6.33660197258 0.0469455153476813 -0.1376047436283728 -1.146913120644127 1.930698533310988 2.050037204598331 -0.5200274433105061 1.139966685416096
6.33660197258 0.0469455153476813 -0.1376047436283728 -1.146913120644127 1.930698533310988 2.050037204598331 -0.5200274433105061 1.139966685416096
6.34636902809 0.0469455153476813 -0.1376047436283728 -1.146913120644127 1.930698533310988 2.050037204598331 -0.5200274433105061 1.139966685416096
6.34636902809 0.0469455153476813 -0.1376047436283728 -1.146913120644127 1.930698533310988 2.050037204598331 -0.5200274433105061 1.139966685416096
6.3564350605 0.0469455153476813 -0.1376047436283728 -1.146913120644127 1.930698533310988 2.050037204598331 -0.5200274433105061 1.139966685416096
6.3564350605 0.0469455153476813 -0.1376047436283728 -1.146913120644127 1.930698533310988 2.050037204598331 -0.5200274433105061 1.139966685416096
6.36648988724 0.0469455153476813 -0.1376047436283728 -1.146913120644127 1.930698533310988 2.050037204598331 -0.5200274433105061 1.139966685416096
6.36648988724 0.0469455153476813 -0.1376047436283728 -1.146913120644127 1.930698533310988 2.050037204598331 -0.5200274433105061 1.139966685416096
