riccardo-csl/Motion-Planning-for-TIAGo-Manipulator/T3_G_7/head_scan/head_scan/tiago_traiettorie_SG/4a-1b/place_1b_rep2.txt
time arm_1_joint arm_2_joint arm_3_joint arm_4_joint arm_5_joint arm_6_joint arm_7_joint
1.24318099022 0.04683813526822 -0.215946181601037 -1.1175983589512033 1.8686788674164356 2.050037204598331 -0.5200274433105061 1.139966685416096
1.25318288803 0.04683813526822 -0.215946181601037 -1.1175983589512033 1.8686788674164356 2.050037204598331 -0.5200274433105061 1.139966685416096
1.25318288803 0.04683813526822 -0.215946181601037 -1.1175983589512033 1.8686788674164356 2.050037204598331 -0.5200274433105061 1.139966685416096
1.26323008537 0.04683813526822 -0.215946181601037 -1.1175983589512033 1.8686788674164356 2.050037204598331 -0.5200274433105061 1.139966685416096
1.26323008537 0.04683813526822 -0.215946181601037 -1.1175983589512033 1.8686788674164356 2.050037204598331 -0.5200274433105061 1.139966685416096
1.27301597595 0.04683813526822 -0.215946181601037 -1.1175983589512033 1.8686788674164356 2.050037204598331 -0.5200274433105061 1.139966685416096
1.27301597595 0.04683813526822 -0.215946181601037 -1.1175983589512033 1.8686788674164356 2.050037204598331 -0.5200274433105061 1.139966685416096
1.2832429409 0.04683813526822 -0.215946181601037 -1.1175983589512033 1.8686788674164356 2.050037204598331 -0.5200274433105061 1.139966685416096
1.2832429409 0.04683813526822 -0.215946181601037 -1.1175983589512033 1.8686788674164356 2.050037204598331 -0.5200274433105061 1.139966685416096
1.29319405556 0.04683813526822 -0.215946181601037 -1.1175983589512033 1.8686788674164356 2.050037204598331 -0.5200274433105061 1.139966685416096
1.29319405556 0.04683813526822 -0.215946181601037 -1.1175983589512033 1.8686788674164356 2.050037204598331 -0.5200274433105061 1.139966685416096
1.30283808708 0.04683813526822 -0.215946181601037 -1.1175983589512033 1.8686788674164356 2.050037204598331 -0.5200274433105061 1.139966685416096
1.30283808708 0.04683813526822 -0.215946181601037 -1.1175983589512033 1.8686788674164356 2.050037204598331 -0.5200274433105061 1.139966685416096
1.31285595894 0.04683813526822 -0.215946181601037 -1.1175983589512033 1.8686788674164356 2.050037204598331 -0.5200274433105061 1.139966685416096
1.31285595894 0.04683813526822 -0.215946181601037 -1.1175983589512033 1.8686788674164356 2.050037204598331 -0.5200274433105061 1.139966685416096
1.32304286957 0.04683813526822 -0.215946181601037 -1.1175983589512033 1.8686788674164356 2.050037204598331 -0.5200274433105061 1.139966685416096
1.32304286957 0.04683813526822 -0.215946181601037 -1.1175983589512033 1.8686788674164356 2.050037204598331 -0.5200274433105061 1.139966685416096
1.3330719471 0.04683813526822 -0.215946181601037 -1.1175983589512033 1.8686788674164356 2.050037204598331 -0.5200274433105061 1.139966685416096
1.3330719471 0.04683813526822 -0.215946181601037 -1.1175983589512033 1.8686788674164356 2.050037204598331 -0.5200274433105061 1.139966685416096
1.34317708015 0.04683813526822 -0.215946181601037 -1.1175983589512033 1.8686788674164356 2.050037204598331 -0.5200274433105061 1.139966685416096
1.34317708015 0.04683813526822 -0.215946181601037 -1.1175983589512033 1.8686788674164356 2.050037204598331 -0.5200274433105061 1.139966685416096
1.35304903984 0.04683813526822 -0.215946181601037 -1.1175983589512033 1.8686788674164356 2.050037204598331 -0.5200274433105061 1.139966685416096
1.35304903984 0.04683813526822 -0.215946181601037 -1.1175983589512033 1.8686788674164356 2.050037204598331 -0.5200274433105061 1.139966685416096
1.3631529808 0.04683813526822 -0.215946181601037 -1.1175983589512033 1.8686788674164356 2.050037204598331 -0.5200274433105061 1.139966685416096
1.3631529808 0.04683813526822 -0.215946181601037 -1.1175983589512033 1.8686788674164356 2.050037204598331 -0.5200274433105061 1.139966685416096
1.37298202515 0.04683813526822 -0.215946181601037 -1.1175983589512033 1.8686788674164356 2.050037204598331 -0.5200274433105061 1.139966685416096
1.37298202515 0.04683813526822 -0.215946181601037 -1.1175983589512033 1.8686788674164356 2.050037204598331 -0.5200274433105061 1.139966685416096
1.38319396973 0.04683813526822 -0.215946181601037 -1.1175983589512033 1.8686788674164356 2.050037204598331 -0.5200274433105061 1.139966685416096
1.38319396973 0.04683813526822 -0.215946181601037 -1.1175983589512033 1.8686788674164356 2.050037204598331 -0.5200274433105061 1.139966685416096
1.39312386513 0.04683813526822 -0.215946181601037 -1.1175983589512033 1.8686788674164356 2.050037204598331 -0.5200274433105061 1.139966685416096
1.39312386513 0.04683813526822 -0.215946181601037 -1.1175983589512033 1.8686788674164356 2.050037204598331 -0.5200274433105061 1.139966685416096
1.40308594704 0.04683813526822 -0.215946181601037 -1.1175983589512033 1.8686788674164356 2.050037204598331 -0.5200274433105061 1.139966685416096
1.40308594704 0.04683813526822 -0.215946181601037 -1.1175983589512033 1.8686788674164356 2.050037204598331 -0.5200274433105061 1.139966685416096
1.41317892075 0.04683813526822 -0.215946181601037 -1.1175983589512033 1.8686788674164356 2.050037204598331 -0.5200274433105061 1.139966685416096
1.41317892075 0.04683813526822 -0.215946181601037 -1.1175983589512033 1.8686788674164356 2.050037204598331 -0.5200274433105061 1.139966685416096
1.42314505577 0.04683813526822 -0.215946181601037 -1.1175983589512033 1.8686788674164356 2.050037204598331 -0.5200274433105061 1.139966685416096
1.42314505577 0.04683813526822 -0.215946181601037 -1.1175983589512033 1.8686788674164356 2.050037204598331 -0.5200274433105061 1.139966685416096
1.43357300758 0.04683813526822 -0.215946181601037 -1.1175983589512033 1.8686788674164356 2.050037204598331 -0.5200274433105061 1.139966685416096
1.43357300758 0.04683813526822 -0.215946181601037 -1.1175983589512033 1.8686788674164356 2.050037204598331 -0.5200274433105061 1.139966685416096
1.44325399399 0.04683813526822 -0.215946181601037 -1.1175983589512033 1.8686788674164356 2.050037204598331 -0.5200274433105061 1.139966685416096
1.44325399399 0.04683813526822 -0.215946181601037 -1.1175983589512033 1.8686788674164356 2.050037204598331 -0.5200274433105061 1.139966685416096
1.45334196091 0.04683813526822 -0.215946181601037 -1.1175983589512033 1.8686788674164356 2.050037204598331 -0.5200274433105061 1.139966685416096
1.45334196091 0.04683813526822 -0.215946181601037 -1.1175983589512033 1.8686788674164356 2.050037204598331 -0.5200274433105061 1.139966685416096
1.46323990822 0.04683813526822 -0.215946181601037 -1.1175983589512033 1.8686788674164356 2.050037204598331 -0.5200274433105061 1.139966685416096
1.46323990822 0.04683813526822 -0.215946181601037 -1.1175983589512033 1.8686788674164356 2.050037204598331 -0.5200274433105061 1.139966685416096
1.4731528759 0.04683813526822 -0.215946181601037 -1.1175983589512033 1.8686788674164356 2.050037204598331 -0.5200274433105061 1.139966685416096
1.4731528759 0.04683813526822 -0.215946181601037 -1.1175983589512033 1.8686788674164356 2.050037204598331 -0.5200274433105061 1.139966685416096
1.48310494423 0.04683813526822 -0.215946181601037 -1.1175983589512033 1.8686788674164356 2.050037204598331 -0.5200274433105061 1.139966685416096
1.48310494423 0.04683813526822 -0.215946181601037 -1.1175983589512033 1.8686788674164356 2.050037204598331 -0.5200274433105061 1.139966685416096
1.49308800697 0.04683813526822 -0.215946181601037 -1.1175983589512033 1.8686788674164356 2.050037204598331 -0.5200274433105061 1.139966685416096
1.49308800697 0.04683813526822 -0.215946181601037 -1.1175983589512033 1.8686788674164356 2.050037204598331 -0.5200274433105061 1.139966685416096
1.50321793556 0.04683813526822 -0.215946181601037 -1.1175983589512033 1.8686788674164356 2.050037204598331 -0.5200274433105061 1.139966685416096
1.50321793556 0.04683813526822 -0.215946181601037 -1.1175983589512033 1.8686788674164356 2.050037204598331 -0.5200274433105061 1.139966685416096
1.5132060051 0.04683813526822 -0.215946181601037 -1.1175983589512033 1.8686788674164356 2.050037204598331 -0.5200274433105061 1.139966685416096
1.5132060051 0.04683813526822 -0.215946181601037 -1.1175983589512033 1.8686788674164356 2.050037204598331 -0.5200274433105061 1.139966685416096
1.52302789688 0.04683813526822 -0.215946181601037 -1.1175983589512033 1.8686788674164356 2.050037204598331 -0.5200274433105061 1.139966685416096
1.52302789688 0.04683813526822 -0.215946181601037 -1.1175983589512033 1.8686788674164356 2.050037204598331 -0.5200274433105061 1.139966685416096
1.5357530117 0.04683813526822 -0.215946181601037 -1.1175983589512033 1.8686788674164356 2.050037204598331 -0.5200274433105061 1.139966685416096
1.5357530117 0.04683813526822 -0.215946181601037 -1.1175983589512033 1.8686788674164356 2.050037204598331 -0.5200274433105061 1.139966685416096
1.54277706146 0.04683813526822 -0.215946181601037 -1.1175983589512033 1.8686788674164356 2.050037204598331 -0.5200274433105061 1.139966685416096
1.54277706146 0.04683813526822 -0.215946181601037 -1.1175983589512033 1.8686788674164356 2.050037204598331 -0.5200274433105061 1.139966685416096
1.55309104919 0.04683813526822 -0.215946181601037 -1.1175983589512033 1.8686788674164356 2.050037204598331 -0.5200274433105061 1.139966685416096
1.55309104919 0.04683813526822 -0.215946181601037 -1.1175983589512033 1.8686788674164356 2.050037204598331 -0.5200274433105061 1.139966685416096
1.56285405159 0.04683813526822 -0.215946181601037 -1.1175983589512033 1.8686788674164356 2.050037204598331 -0.5200274433105061 1.139966685416096
1.56285405159 0.04683813526822 -0.215946181601037 -1.1175983589512033 1.8686788674164356 2.050037204598331 -0.5200274433105061 1.139966685416096
1.57286500931 0.04683813526822 -0.215946181601037 -1.1175983589512033 1.8686788674164356 2.050037204598331 -0.5200274433105061 1.139966685416096
1.57286500931 0.04683813526822 -0.215946181601037 -1.1175983589512033 1.8686788674164356 2.050037204598331 -0.5200274433105061 1.139966685416096
1.58284401894 0.04683813526822 -0.215946181601037 -1.1175983589512033 1.8686788674164356 2.050037204598331 -0.5200274433105061 1.139966685416096
1.58284401894 0.04683813526822 -0.215946181601037 -1.1175983589512033 1.8686788674164356 2.050037204598331 -0.5200274433105061 1.139966685416096
1.59302306175 0.04683813526822 -0.215946181601037 -1.1175983589512033 1.8686788674164356 2.050037204598331 -0.5200274433105061 1.139966685416096
1.59302306175 0.04683813526822 -0.215946181601037 -1.1175983589512033 1.8686788674164356 2.050037204598331 -0.5200274433105061 1.139966685416096
1.6031908989 0.04683813526822 -0.215946181601037 -1.1175983589512033 1.8686788674164356 2.050037204598331 -0.5200274433105061 1.139966685416096
1.6031908989 0.04683813526822 -0.215946181601037 -1.1175983589512033 1.8686788674164356 2.050037204598331 -0.5200274433105061 1.139966685416096
1.61301708221 0.04683813526822 -0.215946181601037 -1.1175983589512033 1.8686788674164356 2.050037204598331 -0.5200274433105061 1.139966685416096
1.61301708221 0.04683813526822 -0.215946181601037 -1.1175983589512033 1.8686788674164356 2.050037204598331 -0.5200274433105061 1.139966685416096
1.6232149601 0.04683813526822 -0.215946181601037 -1.1175983589512033 1.8686788674164356 2.050037204598331 -0.5200274433105061 1.139966685416096
1.6232149601 0.04683813526822 -0.215946181601037 -1.1175983589512033 1.8686788674164356 2.050037204598331 -0.5200274433105061 1.139966685416096
1.63319897652 0.04683813526822 -0.215946181601037 -1.1175983589512033 1.8686788674164356 2.050037204598331 -0.5200274433105061 1.139966685416096
1.63319897652 0.04683813526822 -0.215946181601037 -1.1175983589512033 1.8686788674164356 2.050037204598331 -0.5200274433105061 1.139966685416096
1.64308404922 0.04683813526822 -0.215946181601037 -1.1175983589512033 1.8686788674164356 2.050037204598331 -0.5200274433105061 1.139966685416096
1.64308404922 0.04683813526822 -0.215946181601037 -1.1175983589512033 1.8686788674164356 2.050037204598331 -0.5200274433105061 1.139966685416096
1.65318989754 0.04683813526822 -0.215946181601037 -1.1175983589512033 1.8686788674164356 2.050037204598331 -0.5200274433105061 1.139966685416096
1.65318989754 0.04683813526822 -0.215946181601037 -1.1175983589512033 1.8686788674164356 2.050037204598331 -0.5200274433105061 1.139966685416096
1.6651070118 0.04683813526822 -0.215946181601037 -1.1175983589512033 1.8686788674164356 2.050037204598331 -0.5200274433105061 1.139966685416096
1.6651070118 0.04683813526822 -0.215946181601037 -1.1175983589512033 1.8686788674164356 2.050037204598331 -0.5200274433105061 1.139966685416096
1.67312002182 0.04683813526822 -0.215946181601037 -1.1175983589512033 1.8686788674164356 2.050037204598331 -0.5200274433105061 1.139966685416096
1.67312002182 0.04683813526822 -0.215946181601037 -1.1175983589512033 1.8686788674164356 2.050037204598331 -0.5200274433105061 1.139966685416096
1.68324589729 0.04683813526822 -0.215946181601037 -1.1175983589512033 1.8686788674164356 2.050037204598331 -0.5200274433105061 1.139966685416096
1.68324589729 0.04683813526822 -0.215946181601037 -1.1175983589512033 1.8686788674164356 2.050037204598331 -0.5200274433105061 1.139966685416096
1.69310498238 0.04683813526822 -0.215946181601037 -1.1175983589512033 1.8686788674164356 2.050037204598331 -0.5200274433105061 1.139966685416096
1.69310498238 0.04683813526822 -0.215946181601037 -1.1175983589512033 1.8686788674164356 2.050037204598331 -0.5200274433105061 1.139966685416096
1.70300102234 0.04683813526822 -0.215946181601037 -1.1175983589512033 1.8686788674164356 2.050037204598331 -0.5200274433105061 1.139966685416096
1.70300102234 0.04683813526822 -0.215946181601037 -1.1175983589512033 1.8686788674164356 2.050037204598331 -0.5200274433105061 1.139966685416096
1.71316409111 0.04683813526822 -0.215946181601037 -1.1175983589512033 1.8686788674164356 2.050037204598331 -0.5200274433105061 1.139966685416096
1.71316409111 0.04683813526822 -0.215946181601037 -1.1175983589512033 1.8686788674164356 2.050037204598331 -0.5200274433105061 1.139966685416096
1.72308492661 0.04683813526822 -0.215946181601037 -1.1175983589512033 1.8686788674164356 2.050037204598331 -0.5200274433105061 1.139966685416096
1.72308492661 0.04683813526822 -0.215946181601037 -1.1175983589512033 1.8686788674164356 2.050037204598331 -0.5200274433105061 1.139966685416096
1.73310494423 0.04683813526822 -0.215946181601037 -1.1175983589512033 1.8686788674164356 2.050037204598331 -0.5200274433105061 1.139966685416096
1.73310494423 0.04683813526822 -0.215946181601037 -1.1175983589512033 1.8686788674164356 2.050037204598331 -0.5200274433105061 1.139966685416096
1.74323296547 0.04683813526822 -0.215946181601037 -1.1175983589512033 1.8686788674164356 2.050037204598331 -0.5200274433105061 1.139966685416096
1.74323296547 0.04683813526822 -0.215946181601037 -1.1175983589512033 1.8686788674164356 2.050037204598331 -0.5200274433105061 1.139966685416096
1.75323486328 0.04683813526822 -0.215946181601037 -1.1175983589512033 1.8686788674164356 2.050037204598331 -0.5200274433105061 1.139966685416096
1.75323486328 0.04683813526822 -0.215946181601037 -1.1175983589512033 1.8686788674164356 2.050037204598331 -0.5200274433105061 1.139966685416096
1.76313495636 0.04683813526822 -0.215946181601037 -1.1175983589512033 1.8686788674164356 2.050037204598331 -0.5200274433105061 1.139966685416096
1.76313495636 0.04683813526822 -0.215946181601037 -1.1175983589512033 1.8686788674164356 2.050037204598331 -0.5200274433105061 1.139966685416096
1.77312493324 0.04683813526822 -0.215946181601037 -1.1175983589512033 1.8686788674164356 2.050037204598331 -0.5200274433105061 1.139966685416096
1.77312493324 0.04683813526822 -0.215946181601037 -1.1175983589512033 1.8686788674164356 2.050037204598331 -0.5200274433105061 1.139966685416096
1.78303098679 0.04683813526822 -0.215946181601037 -1.1175983589512033 1.8686788674164356 2.050037204598331 -0.5200274433105061 1.139966685416096
1.78303098679 0.04683813526822 -0.215946181601037 -1.1175983589512033 1.8686788674164356 2.050037204598331 -0.5200274433105061 1.139966685416096
1.79299807549 0.04683813526822 -0.215946181601037 -1.1175983589512033 1.8686788674164356 2.050037204598331 -0.5200274433105061 1.139966685416096
1.79299807549 0.04683813526822 -0.215946181601037 -1.1175983589512033 1.8686788674164356 2.050037204598331 -0.5200274433105061 1.139966685416096
1.8031668663 0.04683813526822 -0.215946181601037 -1.1175983589512033 1.8686788674164356 2.050037204598331 -0.5200274433105061 1.139966685416096
1.8031668663 0.04683813526822 -0.215946181601037 -1.1175983589512033 1.8686788674164356 2.050037204598331 -0.5200274433105061 1.139966685416096
1.81308102608 0.04683813526822 -0.215946181601037 -1.1175983589512033 1.8686788674164356 2.050037204598331 -0.5200274433105061 1.139966685416096
1.81308102608 0.04683813526822 -0.215946181601037 -1.1175983589512033 1.8686788674164356 2.050037204598331 -0.5200274433105061 1.139966685416096
1.82319998741 0.04683813526822 -0.215946181601037 -1.1175983589512033 1.8686788674164356 2.050037204598331 -0.5200274433105061 1.139966685416096
1.82319998741 0.04683813526822 -0.215946181601037 -1.1175983589512033 1.8686788674164356 2.050037204598331 -0.5200274433105061 1.139966685416096
1.83314299583 0.04683813526822 -0.215946181601037 -1.1175983589512033 1.8686788674164356 2.050037204598331 -0.5200274433105061 1.139966685416096
1.83314299583 0.04683813526822 -0.215946181601037 -1.1175983589512033 1.8686788674164356 2.050037204598331 -0.5200274433105061 1.139966685416096
1.84452199936 0.04683813526822 -0.215946181601037 -1.1175983589512033 1.8686788674164356 2.050037204598331 -0.5200274433105061 1.139966685416096
1.84452199936 0.04683813526822 -0.215946181601037 -1.1175983589512033 1.8686788674164356 2.050037204598331 -0.5200274433105061 1.139966685416096
1.85324788094 0.04683813526822 -0.215946181601037 -1.1175983589512033 1.8686788674164356 2.050037204598331 -0.5200274433105061 1.139966685416096
1.85324788094 0.04683813526822 -0.215946181601037 -1.1175983589512033 1.8686788674164356 2.050037204598331 -0.5200274433105061 1.139966685416096
1.86362099648 0.04683813526822 -0.215946181601037 -1.1175983589512033 1.8686788674164356 2.050037204598331 -0.5200274433105061 1.139966685416096
1.86362099648 0.04683813526822 -0.215946181601037 -1.1175983589512033 1.8686788674164356 2.050037204598331 -0.5200274433105061 1.139966685416096
1.87322592735 0.04683813526822 -0.215946181601037 -1.1175983589512033 1.8686788674164356 2.050037204598331 -0.5200274433105061 1.139966685416096
1.87322592735 0.04683813526822 -0.215946181601037 -1.1175983589512033 1.8686788674164356 2.050037204598331 -0.5200274433105061 1.139966685416096
1.88332104683 0.04683813526822 -0.215946181601037 -1.1175983589512033 1.8686788674164356 2.050037204598331 -0.5200274433105061 1.139966685416096
1.88332104683 0.04683813526822 -0.215946181601037 -1.1175983589512033 1.8686788674164356 2.050037204598331 -0.5200274433105061 1.139966685416096
1.89285206795 0.04683813526822 -0.215946181601037 -1.1175983589512033 1.8686788674164356 2.050037204598331 -0.5200274433105061 1.139966685416096
1.89285206795 0.04683813526822 -0.215946181601037 -1.1175983589512033 1.8686788674164356 2.050037204598331 -0.5200274433105061 1.139966685416096
1.90305399895 0.04683813526822 -0.215946181601037 -1.1175983589512033 1.8686788674164356 2.050037204598331 -0.5200274433105061 1.139966685416096
1.90305399895 0.04683813526822 -0.215946181601037 -1.1175983589512033 1.8686788674164356 2.050037204598331 -0.5200274433105061 1.139966685416096
1.91322994232 0.04683813526822 -0.215946181601037 -1.1175983589512033 1.8686788674164356 2.050037204598331 -0.5200274433105061 1.139966685416096
1.91322994232 0.04683813526822 -0.215946181601037 -1.1175983589512033 1.8686788674164356 2.050037204598331 -0.5200274433105061 1.139966685416096
1.92280101776 0.04683813526822 -0.215946181601037 -1.1175983589512033 1.8686788674164356 2.050037204598331 -0.5200274433105061 1.139966685416096
1.92280101776 0.04683813526822 -0.215946181601037 -1.1175983589512033 1.8686788674164356 2.050037204598331 -0.5200274433105061 1.139966685416096
1.93308901787 0.04683813526822 -0.215946181601037 -1.1175983589512033 1.8686788674164356 2.050037204598331 -0.5200274433105061 1.139966685416096
1.93308901787 0.04683813526822 -0.215946181601037 -1.1175983589512033 1.8686788674164356 2.050037204598331 -0.5200274433105061 1.139966685416096
1.94321799278 0.04683813526822 -0.215946181601037 -1.1175983589512033 1.8686788674164356 2.050037204598331 -0.5200274433105061 1.139966685416096
1.94321799278 0.04683813526822 -0.215946181601037 -1.1175983589512033 1.8686788674164356 2.050037204598331 -0.5200274433105061 1.139966685416096
1.9529979229 0.04683813526822 -0.215946181601037 -1.1175983589512033 1.8686788674164356 2.050037204598331 -0.5200274433105061 1.139966685416096
1.9529979229 0.04683813526822 -0.215946181601037 -1.1175983589512033 1.8686788674164356 2.050037204598331 -0.5200274433105061 1.139966685416096
1.96323990822 0.04683813526822 -0.215946181601037 -1.1175983589512033 1.8686788674164356 2.050037204598331 -0.5200274433105061 1.139966685416096
1.96323990822 0.04683813526822 -0.215946181601037 -1.1175983589512033 1.8686788674164356 2.050037204598331 -0.5200274433105061 1.139966685416096
1.97319698334 0.04683813526822 -0.215946181601037 -1.1175983589512033 1.8686788674164356 2.050037204598331 -0.5200274433105061 1.139966685416096
1.97319698334 0.04683813526822 -0.215946181601037 -1.1175983589512033 1.8686788674164356 2.050037204598331 -0.5200274433105061 1.139966685416096
1.98329806328 0.04683813526822 -0.215946181601037 -1.1175983589512033 1.8686788674164356 2.050037204598331 -0.5200274433105061 1.139966685416096
1.98329806328 0.04683813526822 -0.215946181601037 -1.1175983589512033 1.8686788674164356 2.050037204598331 -0.5200274433105061 1.139966685416096
1.99321103096 0.04683813526822 -0.215946181601037 -1.1175983589512033 1.8686788674164356 2.050037204598331 -0.5200274433105061 1.139966685416096
1.99321103096 0.04683813526822 -0.215946181601037 -1.1175983589512033 1.8686788674164356 2.050037204598331 -0.5200274433105061 1.139966685416096
2.00305700302 0.04683813526822 -0.215946181601037 -1.1175983589512033 1.8686788674164356 2.050037204598331 -0.5200274433105061 1.139966685416096
2.00305700302 0.04683813526822 -0.215946181601037 -1.1175983589512033 1.8686788674164356 2.050037204598331 -0.5200274433105061 1.139966685416096
2.01320505142 0.04683813526822 -0.215946181601037 -1.1175983589512033 1.8686788674164356 2.050037204598331 -0.5200274433105061 1.139966685416096
2.01320505142 0.04683813526822 -0.215946181601037 -1.1175983589512033 1.8686788674164356 2.050037204598331 -0.5200274433105061 1.139966685416096
2.02323102951 0.04683813526822 -0.215946181601037 -1.1175983589512033 1.8686788674164356 2.050037204598331 -0.5200274433105061 1.139966685416096
2.02323102951 0.04683813526822 -0.215946181601037 -1.1175983589512033 1.8686788674164356 2.050037204598331 -0.5200274433105061 1.139966685416096
2.03320288658 0.04683813526822 -0.215946181601037 -1.1175983589512033 1.8686788674164356 2.050037204598331 -0.5200274433105061 1.139966685416096
2.03320288658 0.04683813526822 -0.215946181601037 -1.1175983589512033 1.8686788674164356 2.050037204598331 -0.5200274433105061 1.139966685416096
2.04323291779 0.04683813526822 -0.215946181601037 -1.1175983589512033 1.8686788674164356 2.050037204598331 -0.5200274433105061 1.139966685416096
2.04323291779 0.04683813526822 -0.215946181601037 -1.1175983589512033 1.8686788674164356 2.050037204598331 -0.5200274433105061 1.139966685416096
2.05320596695 0.04683813526822 -0.215946181601037 -1.1175983589512033 1.8686788674164356 2.050037204598331 -0.5200274433105061 1.139966685416096
2.05320596695 0.04683813526822 -0.215946181601037 -1.1175983589512033 1.8686788674164356 2.050037204598331 -0.5200274433105061 1.139966685416096
2.06289196014 0.04683813526822 -0.215946181601037 -1.1175983589512033 1.8686788674164356 2.050037204598331 -0.5200274433105061 1.139966685416096
2.06289196014 0.04683813526822 -0.215946181601037 -1.1175983589512033 1.8686788674164356 2.050037204598331 -0.5200274433105061 1.139966685416096
2.07296991348 0.04683813526822 -0.215946181601037 -1.1175983589512033 1.8686788674164356 2.050037204598331 -0.5200274433105061 1.139966685416096
2.07296991348 0.04683813526822 -0.215946181601037 -1.1175983589512033 1.8686788674164356 2.050037204598331 -0.5200274433105061 1.139966685416096
2.08309602737 0.04683813526822 -0.215946181601037 -1.1175983589512033 1.8686788674164356 2.050037204598331 -0.5200274433105061 1.139966685416096
2.08309602737 0.04683813526822 -0.215946181601037 -1.1175983589512033 1.8686788674164356 2.050037204598331 -0.5200274433105061 1.139966685416096
2.09282398224 0.04683813526822 -0.215946181601037 -1.1175983589512033 1.8686788674164356 2.050046335517449 -0.5200274433105061 1.139966685416096
2.09282398224 0.04683813526822 -0.215946181601037 -1.1175983589512033 1.8686788674164356 2.050046335517449 -0.5200274433105061 1.139966685416096
2.10321903229 0.04683813526822 -0.215946181601037 -1.1175983589512033 1.8686788674164356 2.050037204598331 -0.5200274433105061 1.139966685416096
2.10321903229 0.04683813526822 -0.215946181601037 -1.1175983589512033 1.8686788674164356 2.050037204598331 -0.5200274433105061 1.139966685416096
2.11317491531 0.04683813526822 -0.215946181601037 -1.1175983589512033 1.8686788674164356 2.050037204598331 -0.5200274433105061 1.139966685416096
2.11317491531 0.04683813526822 -0.215946181601037 -1.1175983589512033 1.8686788674164356 2.050037204598331 -0.5200274433105061 1.139966685416096
2.12325787544 0.04683813526822 -0.215946181601037 -1.1175983589512033 1.8686788674164356 2.050037204598331 -0.5200274433105061 1.139966685416096
2.12325787544 0.04683813526822 -0.215946181601037 -1.1175983589512033 1.8686788674164356 2.050037204598331 -0.5200274433105061 1.139966685416096
2.13314986229 0.04683813526822 -0.215946181601037 -1.1175983589512033 1.8686788674164356 2.050037204598331 -0.5200274433105061 1.139966685416096
2.13314986229 0.04683813526822 -0.215946181601037 -1.1175983589512033 1.8686788674164356 2.050037204598331 -0.5200274433105061 1.139966685416096
2.14321994781 0.04683813526822 -0.215946181601037 -1.1175983589512033 1.8686788674164356 2.050037204598331 -0.5200274433105061 1.139966685416096
2.14321994781 0.04683813526822 -0.215946181601037 -1.1175983589512033 1.8686788674164356 2.050037204598331 -0.5200274433105061 1.139966685416096
2.15328407288 0.04683813526822 -0.215946181601037 -1.1175983589512033 1.8686788674164356 2.050037204598331 -0.5200274433105061 1.139966685416096
2.15328407288 0.04683813526822 -0.215946181601037 -1.1175983589512033 1.8686788674164356 2.050037204598331 -0.5200274433105061 1.139966685416096
2.16324806213 0.04683813526822 -0.215946181601037 -1.1175983589512033 1.8686788674164356 2.050037204598331 -0.5200274433105061 1.139966685416096
2.16324806213 0.04683813526822 -0.215946181601037 -1.1175983589512033 1.8686788674164356 2.050037204598331 -0.5200274433105061 1.139966685416096
2.17307901382 0.04683813526822 -0.215946181601037 -1.1175983589512033 1.8686788674164356 2.050037204598331 -0.5200274433105061 1.139966685416096
2.17307901382 0.04683813526822 -0.215946181601037 -1.1175983589512033 1.8686788674164356 2.050037204598331 -0.5200274433105061 1.139966685416096
2.18323707581 0.04683813526822 -0.215946181601037 -1.1175983589512033 1.8686788674164356 2.050037204598331 -0.5200274433105061 1.139966685416096
2.18323707581 0.04683813526822 -0.215946181601037 -1.1175983589512033 1.8686788674164356 2.050037204598331 -0.5200274433105061 1.139966685416096
2.19318509102 0.04683813526822 -0.215946181601037 -1.1175983589512033 1.8686788674164356 2.050037204598331 -0.5200274433105061 1.139966685416096
2.19318509102 0.04683813526822 -0.215946181601037 -1.1175983589512033 1.8686788674164356 2.050037204598331 -0.5200274433105061 1.139966685416096
2.20323395729 0.04683813526822 -0.215946181601037 -1.1175983589512033 1.8686788674164356 2.050037204598331 -0.5200274433105061 1.139966685416096
2.20323395729 0.04683813526822 -0.215946181601037 -1.1175983589512033 1.8686788674164356 2.050037204598331 -0.5200274433105061 1.139966685416096
2.21322107315 0.04683813526822 -0.215946181601037 -1.1175983589512033 1.8686788674164356 2.050037204598331 -0.5200274433105061 1.139966685416096
2.21322107315 0.04683813526822 -0.215946181601037 -1.1175983589512033 1.8686788674164356 2.050037204598331 -0.5200274433105061 1.139966685416096
2.22320890427 0.04683813526822 -0.215946181601037 -1.1175983589512033 1.8686788674164356 2.050037204598331 -0.5200274433105061 1.139966685416096
2.22320890427 0.04683813526822 -0.215946181601037 -1.1175983589512033 1.8686788674164356 2.050037204598331 -0.5200274433105061 1.139966685416096
2.2332508564 0.04683813526822 -0.215946181601037 -1.1175983589512033 1.8686788674164356 2.050037204598331 -0.5200274433105061 1.139966685416096
2.2332508564 0.04683813526822 -0.215946181601037 -1.1175983589512033 1.8686788674164356 2.050037204598331 -0.5200274433105061 1.139966685416096
2.24324202538 0.04683813526822 -0.215946181601037 -1.1175983589512033 1.8686788674164356 2.050037204598331 -0.5200274433105061 1.139966685416096
2.24324202538 0.04683813526822 -0.215946181601037 -1.1175983589512033 1.8686788674164356 2.050037204598331 -0.5200274433105061 1.139966685416096
2.25322508812 0.04683813526822 -0.215946181601037 -1.1175983589512033 1.8686788674164356 2.050037204598331 -0.5200274433105061 1.139966685416096
2.25322508812 0.04683813526822 -0.215946181601037 -1.1175983589512033 1.8686788674164356 2.050037204598331 -0.5200274433105061 1.139966685416096
2.26321387291 0.04683813526822 -0.215946181601037 -1.1175983589512033 1.8686788674164356 2.050037204598331 -0.5200274433105061 1.139966685416096
2.26321387291 0.04683813526822 -0.215946181601037 -1.1175983589512033 1.8686788674164356 2.050037204598331 -0.5200274433105061 1.139966685416096
2.27319502831 0.04683813526822 -0.215946181601037 -1.1175983589512033 1.8686788674164356 2.050037204598331 -0.5200274433105061 1.139966685416096
2.27319502831 0.04683813526822 -0.215946181601037 -1.1175983589512033 1.8686788674164356 2.050037204598331 -0.5200274433105061 1.139966685416096
2.28326296806 0.04683813526822 -0.215946181601037 -1.1175983589512033 1.8686788674164356 2.050037204598331 -0.5200274433105061 1.139966685416096
2.28326296806 0.04683813526822 -0.215946181601037 -1.1175983589512033 1.8686788674164356 2.050037204598331 -0.5200274433105061 1.139966685416096
2.29304790497 0.04683813526822 -0.215946181601037 -1.1175983589512033 1.8686788674164356 2.050037204598331 -0.5200274433105061 1.139966685416096
2.29304790497 0.04683813526822 -0.215946181601037 -1.1175983589512033 1.8686788674164356 2.050037204598331 -0.5200274433105061 1.139966685416096
2.30327296257 0.04683813526822 -0.215946181601037 -1.1175983589512033 1.8686788674164356 2.050037204598331 -0.5200274433105061 1.139966685416096
2.30327296257 0.04683813526822 -0.215946181601037 -1.1175983589512033 1.8686788674164356 2.050037204598331 -0.5200274433105061 1.139966685416096
2.31323194504 0.04683813526822 -0.215946181601037 -1.1175983589512033 1.8686788674164356 2.050037204598331 -0.5200274433105061 1.139966685416096
2.31323194504 0.04683813526822 -0.215946181601037 -1.1175983589512033 1.8686788674164356 2.050037204598331 -0.5200274433105061 1.139966685416096
2.32312107086 0.04683813526822 -0.215946181601037 -1.1175983589512033 1.8686788674164356 2.050037204598331 -0.5200274433105061 1.139966685416096
2.32312107086 0.04683813526822 -0.215946181601037 -1.1175983589512033 1.8686788674164356 2.050037204598331 -0.5200274433105061 1.139966685416096
2.33302688599 0.04683813526822 -0.215946181601037 -1.1175983589512033 1.8686788674164356 2.050037204598331 -0.5200274433105061 1.139966685416096
2.33302688599 0.04683813526822 -0.215946181601037 -1.1175983589512033 1.8686788674164356 2.050037204598331 -0.5200274433105061 1.139966685416096
2.34319996834 0.04683813526822 -0.215946181601037 -1.1175983589512033 1.8686788674164356 2.050037204598331 -0.5200274433105061 1.139966685416096
2.34319996834 0.04683813526822 -0.215946181601037 -1.1175983589512033 1.8686788674164356 2.050037204598331 -0.5200274433105061 1.139966685416096
2.3530049324 0.04683813526822 -0.215946181601037 -1.1175983589512033 1.8686788674164356 2.050037204598331 -0.5200274433105061 1.139966685416096
2.3530049324 0.04683813526822 -0.215946181601037 -1.1175983589512033 1.8686788674164356 2.050037204598331 -0.5200274433105061 1.139966685416096
2.36319494247 0.04683813526822 -0.215946181601037 -1.1175983589512033 1.8686788674164356 2.050037204598331 -0.5200274433105061 1.139966685416096
2.36319494247 0.04683813526822 -0.215946181601037 -1.1175983589512033 1.8686788674164356 2.050037204598331 -0.5200274433105061 1.139966685416096
2.37321090698 0.04683813526822 -0.215946181601037 -1.1175983589512033 1.8686788674164356 2.050037204598331 -0.5200274433105061 1.139966685416096
2.37321090698 0.04683813526822 -0.215946181601037 -1.1175983589512033 1.8686788674164356 2.050037204598331 -0.5200274433105061 1.139966685416096
2.38317394257 0.04683813526822 -0.215946181601037 -1.1175983589512033 1.8686788674164356 2.050037204598331 -0.5200274433105061 1.139966685416096
2.38317394257 0.04683813526822 -0.215946181601037 -1.1175983589512033 1.8686788674164356 2.050037204598331 -0.5200274433105061 1.139966685416096
2.39316701889 0.04683813526822 -0.215946181601037 -1.1175983589512033 1.8686788674164356 2.050037204598331 -0.5200274433105061 1.139966685416096
2.39316701889 0.04683813526822 -0.215946181601037 -1.1175983589512033 1.8686788674164356 2.050037204598331 -0.5200274433105061 1.139966685416096
2.40324807167 0.04683813526822 -0.215946181601037 -1.1175983589512033 1.8686788674164356 2.050037204598331 -0.5200274433105061 1.139966685416096
2.40324807167 0.04683813526822 -0.215946181601037 -1.1175983589512033 1.8686788674164356 2.050037204598331 -0.5200274433105061 1.139966685416096
2.4131860733 0.04683813526822 -0.215946181601037 -1.1175983589512033 1.8686788674164356 2.050037204598331 -0.5200274433105061 1.139966685416096
2.4131860733 0.04683813526822 -0.215946181601037 -1.1175983589512033 1.8686788674164356 2.050037204598331 -0.5200274433105061 1.139966685416096
2.42322802544 0.04683813526822 -0.215946181601037 -1.1175983589512033 1.8686788674164356 2.050037204598331 -0.5200274433105061 1.139966685416096
2.42322802544 0.04683813526822 -0.215946181601037 -1.1175983589512033 1.8686788674164356 2.050037204598331 -0.5200274433105061 1.139966685416096
2.43306207657 0.04683813526822 -0.215946181601037 -1.1175983589512033 1.8686788674164356 2.050037204598331 -0.5200274433105061 1.139966685416096
2.43306207657 0.04683813526822 -0.215946181601037 -1.1175983589512033 1.8686788674164356 2.050037204598331 -0.5200274433105061 1.139966685416096
2.44316005707 0.04683813526822 -0.215946181601037 -1.1175983589512033 1.8686788674164356 2.050037204598331 -0.5200274433105061 1.139966685416096
2.44316005707 0.04683813526822 -0.215946181601037 -1.1175983589512033 1.8686788674164356 2.050037204598331 -0.5200274433105061 1.139966685416096
2.4530479908 0.04683813526822 -0.215946181601037 -1.1175983589512033 1.8686788674164356 2.050037204598331 -0.5200274433105061 1.139966685416096
2.4530479908 0.04683813526822 -0.215946181601037 -1.1175983589512033 1.8686788674164356 2.050037204598331 -0.5200274433105061 1.139966685416096
2.46323394775 0.04683813526822 -0.215946181601037 -1.1175983589512033 1.8686788674164356 2.050037204598331 -0.5200274433105061 1.139966685416096
2.46323394775 0.04683813526822 -0.215946181601037 -1.1175983589512033 1.8686788674164356 2.050037204598331 -0.5200274433105061 1.139966685416096
2.47321486473 0.04683813526822 -0.215946181601037 -1.1175983589512033 1.8686788674164356 2.050037204598331 -0.5200274433105061 1.139966685416096
2.47321486473 0.04683813526822 -0.215946181601037 -1.1175983589512033 1.8686788674164356 2.050037204598331 -0.5200274433105061 1.139966685416096
2.48320293427 0.04683813526822 -0.215946181601037 -1.1175983589512033 1.8686788674164356 2.050037204598331 -0.5200274433105061 1.139966685416096
2.48320293427 0.04683813526822 -0.215946181601037 -1.1175983589512033 1.8686788674164356 2.050037204598331 -0.5200274433105061 1.139966685416096
2.49317097664 0.04683813526822 -0.215946181601037 -1.1175983589512033 1.8686788674164356 2.050037204598331 -0.5200274433105061 1.139966685416096
2.49317097664 0.04683813526822 -0.215946181601037 -1.1175983589512033 1.8686788674164356 2.050037204598331 -0.5200274433105061 1.139966685416096
2.50325202942 0.04683813526822 -0.215946181601037 -1.1175983589512033 1.8686788674164356 2.050037204598331 -0.5200274433105061 1.139966685416096
2.50325202942 0.04683813526822 -0.215946181601037 -1.1175983589512033 1.8686788674164356 2.050037204598331 -0.5200274433105061 1.139966685416096
2.51306009293 0.04683813526822 -0.215946181601037 -1.1175983589512033 1.8686788674164356 2.050037204598331 -0.5200274433105061 1.139966685416096
2.51306009293 0.04683813526822 -0.215946181601037 -1.1175983589512033 1.8686788674164356 2.050037204598331 -0.5200274433105061 1.139966685416096
2.52323794365 0.04683813526822 -0.215946181601037 -1.1175983589512033 1.8686788674164356 2.050037204598331 -0.5200274433105061 1.139966685416096
2.52323794365 0.04683813526822 -0.215946181601037 -1.1175983589512033 1.8686788674164356 2.050037204598331 -0.5200274433105061 1.139966685416096
2.53316903114 0.04683813526822 -0.215946181601037 -1.1175983589512033 1.8686788674164356 2.050037204598331 -0.5200274433105061 1.139966685416096
2.53316903114 0.04683813526822 -0.215946181601037 -1.1175983589512033 1.8686788674164356 2.050037204598331 -0.5200274433105061 1.139966685416096
2.54311800003 0.04683813526822 -0.215946181601037 -1.1175983589512033 1.8686788674164356 2.050037204598331 -0.5200274433105061 1.139966685416096
2.54311800003 0.04683813526822 -0.215946181601037 -1.1175983589512033 1.8686788674164356 2.050037204598331 -0.5200274433105061 1.139966685416096
2.55322504044 0.04683813526822 -0.215946181601037 -1.1175983589512033 1.8686788674164356 2.050037204598331 -0.5200274433105061 1.139966685416096
2.55322504044 0.04683813526822 -0.215946181601037 -1.1175983589512033 1.8686788674164356 2.050037204598331 -0.5200274433105061 1.139966685416096
2.56323409081 0.04683813526822 -0.215946181601037 -1.1175983589512033 1.8686788674164356 2.050037204598331 -0.5200274433105061 1.139966685416096
2.56323409081 0.04683813526822 -0.215946181601037 -1.1175983589512033 1.8686788674164356 2.050037204598331 -0.5200274433105061 1.139966685416096
2.57329201698 0.04683813526822 -0.215946181601037 -1.1175983589512033 1.8686788674164356 2.050037204598331 -0.5200274433105061 1.139966685416096
2.57329201698 0.04683813526822 -0.215946181601037 -1.1175983589512033 1.8686788674164356 2.050037204598331 -0.5200274433105061 1.139966685416096
2.58325695992 0.04683813526822 -0.215946181601037 -1.1175983589512033 1.8686788674164356 2.050037204598331 -0.5200274433105061 1.139966685416096
2.58325695992 0.04683813526822 -0.215946181601037 -1.1175983589512033 1.8686788674164356 2.050037204598331 -0.5200274433105061 1.139966685416096
2.59317088127 0.04683813526822 -0.215946181601037 -1.1175983589512033 1.8686788674164356 2.050037204598331 -0.5200274433105061 1.139966685416096
2.59317088127 0.04683813526822 -0.215946181601037 -1.1175983589512033 1.8686788674164356 2.050037204598331 -0.5200274433105061 1.139966685416096
2.60322999954 0.04683813526822 -0.215946181601037 -1.1175983589512033 1.8686788674164356 2.050037204598331 -0.5200274433105061 1.139966685416096
2.60322999954 0.04683813526822 -0.215946181601037 -1.1175983589512033 1.8686788674164356 2.050037204598331 -0.5200274433105061 1.139966685416096
2.61318993568 0.04683813526822 -0.215946181601037 -1.1175983589512033 1.8686788674164356 2.050037204598331 -0.5200274433105061 1.139966685416096
2.61318993568 0.04683813526822 -0.215946181601037 -1.1175983589512033 1.8686788674164356 2.050037204598331 -0.5200274433105061 1.139966685416096
2.62326192856 0.04683813526822 -0.215946181601037 -1.1175983589512033 1.8686788674164356 2.050037204598331 -0.5200274433105061 1.139966685416096
2.62326192856 0.04683813526822 -0.215946181601037 -1.1175983589512033 1.8686788674164356 2.050037204598331 -0.5200274433105061 1.139966685416096
2.63314795494 0.04683813526822 -0.215946181601037 -1.1175983589512033 1.8686788674164356 2.050037204598331 -0.5200274433105061 1.139966685416096
2.63314795494 0.04683813526822 -0.215946181601037 -1.1175983589512033 1.8686788674164356 2.050037204598331 -0.5200274433105061 1.139966685416096
2.64322495461 0.04683813526822 -0.215946181601037 -1.1175983589512033 1.8686788674164356 2.050037204598331 -0.5200274433105061 1.139966685416096
2.64322495461 0.04683813526822 -0.215946181601037 -1.1175983589512033 1.8686788674164356 2.050037204598331 -0.5200274433105061 1.139966685416096
2.65300607681 0.04683813526822 -0.215946181601037 -1.1175983589512033 1.8686788674164356 2.050037204598331 -0.5200274433105061 1.139966685416096
2.65300607681 0.04683813526822 -0.215946181601037 -1.1175983589512033 1.8686788674164356 2.050037204598331 -0.5200274433105061 1.139966685416096
2.66324996948 0.04683813526822 -0.215946181601037 -1.1175983589512033 1.8686788674164356 2.050037204598331 -0.5200274433105061 1.139966685416096
2.66324996948 0.04683813526822 -0.215946181601037 -1.1175983589512033 1.8686788674164356 2.050037204598331 -0.5200274433105061 1.139966685416096
2.67297005653 0.04683813526822 -0.215946181601037 -1.1175983589512033 1.8686788674164356 2.050037204598331 -0.5200274433105061 1.139966685416096
2.67297005653 0.04683813526822 -0.215946181601037 -1.1175983589512033 1.8686788674164356 2.050037204598331 -0.5200274433105061 1.139966685416096
2.68320798874 0.04683813526822 -0.215946181601037 -1.1175983589512033 1.8686788674164356 2.050037204598331 -0.5200274433105061 1.139966685416096
2.68320798874 0.04683813526822 -0.215946181601037 -1.1175983589512033 1.8686788674164356 2.050037204598331 -0.5200274433105061 1.139966685416096
2.69317507744 0.04683813526822 -0.215946181601037 -1.1175983589512033 1.8686788674164356 2.050037204598331 -0.5200274433105061 1.139966685416096
2.69317507744 0.04683813526822 -0.215946181601037 -1.1175983589512033 1.8686788674164356 2.050037204598331 -0.5200274433105061 1.139966685416096
2.7030570507 0.04683813526822 -0.215946181601037 -1.1175983589512033 1.8686788674164356 2.050037204598331 -0.5200274433105061 1.139966685416096
2.7030570507 0.04683813526822 -0.215946181601037 -1.1175983589512033 1.8686788674164356 2.050037204598331 -0.5200274433105061 1.139966685416096
2.71305704117 0.04683813526822 -0.215946181601037 -1.1175983589512033 1.8686788674164356 2.050037204598331 -0.5200274433105061 1.139966685416096
2.71305704117 0.04683813526822 -0.215946181601037 -1.1175983589512033 1.8686788674164356 2.050037204598331 -0.5200274433105061 1.139966685416096
2.72288990021 0.04683813526822 -0.215946181601037 -1.1175983589512033 1.8686788674164356 2.050037204598331 -0.5200274433105061 1.139966685416096
2.72288990021 0.04683813526822 -0.215946181601037 -1.1175983589512033 1.8686788674164356 2.050037204598331 -0.5200274433105061 1.139966685416096
2.73305797577 0.04683813526822 -0.215946181601037 -1.1175983589512033 1.8686788674164356 2.050037204598331 -0.5200274433105061 1.139966685416096
2.73305797577 0.04683813526822 -0.215946181601037 -1.1175983589512033 1.8686788674164356 2.050037204598331 -0.5200274433105061 1.139966685416096
2.74321198463 0.04683813526822 -0.215946181601037 -1.1175983589512033 1.8686788674164356 2.050037204598331 -0.5200274433105061 1.139966685416096
2.74321198463 0.04683813526822 -0.215946181601037 -1.1175983589512033 1.8686788674164356 2.050037204598331 -0.5200274433105061 1.139966685416096
2.7532389164 0.04683813526822 -0.215946181601037 -1.1175983589512033 1.8686788674164356 2.050037204598331 -0.5200274433105061 1.139966685416096
2.7532389164 0.04683813526822 -0.215946181601037 -1.1175983589512033 1.8686788674164356 2.050037204598331 -0.5200274433105061 1.139966685416096
2.76318597794 0.04683813526822 -0.215946181601037 -1.1175983589512033 1.8686788674164356 2.050037204598331 -0.5200274433105061 1.139966685416096
2.76318597794 0.04683813526822 -0.215946181601037 -1.1175983589512033 1.8686788674164356 2.050037204598331 -0.5200274433105061 1.139966685416096
2.77303385735 0.04683813526822 -0.215946181601037 -1.1175983589512033 1.8686788674164356 2.050037204598331 -0.5200274433105061 1.139966685416096
2.77303385735 0.04683813526822 -0.215946181601037 -1.1175983589512033 1.8686788674164356 2.050037204598331 -0.5200274433105061 1.139966685416096
2.78319001198 0.04683813526822 -0.215946181601037 -1.1175983589512033 1.8686788674164356 2.050037204598331 -0.5200274433105061 1.139966685416096
2.78319001198 0.04683813526822 -0.215946181601037 -1.1175983589512033 1.8686788674164356 2.050037204598331 -0.5200274433105061 1.139966685416096
2.79301095009 0.04683813526822 -0.215946181601037 -1.1175983589512033 1.8686788674164356 2.050037204598331 -0.5200274433105061 1.139966685416096
2.79301095009 0.04683813526822 -0.215946181601037 -1.1175983589512033 1.8686788674164356 2.050037204598331 -0.5200274433105061 1.139966685416096
2.80311608315 0.04683813526822 -0.215946181601037 -1.1175983589512033 1.8686788674164356 2.050037204598331 -0.5200274433105061 1.139966685416096
2.80311608315 0.04683813526822 -0.215946181601037 -1.1175983589512033 1.8686788674164356 2.050037204598331 -0.5200274433105061 1.139966685416096
2.81320905685 0.04683813526822 -0.215946181601037 -1.1175983589512033 1.8686788674164356 2.050037204598331 -0.5200274433105061 1.139966685416096
2.81320905685 0.04683813526822 -0.215946181601037 -1.1175983589512033 1.8686788674164356 2.050037204598331 -0.5200274433105061 1.139966685416096
2.8232319355 0.04683813526822 -0.215946181601037 -1.1175983589512033 1.8686788674164356 2.050037204598331 -0.5200274433105061 1.139966685416096
2.8232319355 0.04683813526822 -0.215946181601037 -1.1175983589512033 1.8686788674164356 2.050037204598331 -0.5200274433105061 1.139966685416096
2.83320903778 0.04683813526822 -0.215946181601037 -1.1175983589512033 1.8686788674164356 2.050037204598331 -0.5200274433105061 1.139966685416096
2.83320903778 0.04683813526822 -0.215946181601037 -1.1175983589512033 1.8686788674164356 2.050037204598331 -0.5200274433105061 1.139966685416096
2.84324002266 0.04683813526822 -0.215946181601037 -1.1175983589512033 1.8686788674164356 2.050037204598331 -0.5200274433105061 1.139966685416096
2.84324002266 0.04683813526822 -0.215946181601037 -1.1175983589512033 1.8686788674164356 2.050037204598331 -0.5200274433105061 1.139966685416096
2.8530600071 0.04683813526822 -0.215946181601037 -1.1175983589512033 1.8686788674164356 2.050037204598331 -0.5200274433105061 1.139966685416096
2.8530600071 0.04683813526822 -0.215946181601037 -1.1175983589512033 1.8686788674164356 2.050037204598331 -0.5200274433105061 1.139966685416096
2.86327195168 0.04683813526822 -0.215946181601037 -1.1175983589512033 1.8686788674164356 2.050037204598331 -0.5200274433105061 1.139966685416096
2.86327195168 0.04683813526822 -0.215946181601037 -1.1175983589512033 1.8686788674164356 2.050037204598331 -0.5200274433105061 1.139966685416096
2.87315893173 0.04683813526822 -0.215946181601037 -1.1175983589512033 1.8686788674164356 2.050037204598331 -0.5200274433105061 1.139966685416096
2.87315893173 0.04683813526822 -0.215946181601037 -1.1175983589512033 1.8686788674164356 2.050037204598331 -0.5200274433105061 1.139966685416096
2.88323497772 0.04683813526822 -0.215946181601037 -1.1175983589512033 1.8686788674164356 2.050037204598331 -0.5200274433105061 1.139966685416096
2.88323497772 0.04683813526822 -0.215946181601037 -1.1175983589512033 1.8686788674164356 2.050037204598331 -0.5200274433105061 1.139966685416096
2.89321088791 0.04683813526822 -0.215946181601037 -1.1175983589512033 1.8686788674164356 2.050037204598331 -0.5200274433105061 1.139966685416096
2.89321088791 0.04683813526822 -0.215946181601037 -1.1175983589512033 1.8686788674164356 2.050037204598331 -0.5200274433105061 1.139966685416096
2.90329694748 0.04683813526822 -0.215946181601037 -1.1175983589512033 1.8686788674164356 2.050037204598331 -0.5200274433105061 1.139966685416096
2.90329694748 0.04683813526822 -0.215946181601037 -1.1175983589512033 1.8686788674164356 2.050037204598331 -0.5200274433105061 1.139966685416096
2.91319108009 0.04683813526822 -0.215946181601037 -1.1175983589512033 1.8686788674164356 2.050037204598331 -0.5200274433105061 1.139966685416096
2.91319108009 0.04683813526822 -0.215946181601037 -1.1175983589512033 1.8686788674164356 2.050037204598331 -0.5200274433105061 1.139966685416096
2.92325806618 0.04683813526822 -0.215946181601037 -1.1175983589512033 1.8686788674164356 2.050037204598331 -0.5200274433105061 1.139966685416096
2.92325806618 0.04683813526822 -0.215946181601037 -1.1175983589512033 1.8686788674164356 2.050037204598331 -0.5200274433105061 1.139966685416096
2.9331870079 0.04683813526822 -0.215946181601037 -1.1175983589512033 1.8686788674164356 2.050037204598331 -0.5200274433105061 1.139966685416096
2.9331870079 0.04683813526822 -0.215946181601037 -1.1175983589512033 1.8686788674164356 2.050037204598331 -0.5200274433105061 1.139966685416096
2.94315004349 0.04683813526822 -0.215946181601037 -1.1175983589512033 1.8686788674164356 2.050037204598331 -0.5200274433105061 1.139966685416096
2.94315004349 0.04683813526822 -0.215946181601037 -1.1175983589512033 1.8686788674164356 2.050037204598331 -0.5200274433105061 1.139966685416096
2.9531750679 0.04683813526822 -0.215946181601037 -1.1175983589512033 1.8686788674164356 2.050037204598331 -0.5200274433105061 1.139966685416096
2.9531750679 0.04683813526822 -0.215946181601037 -1.1175983589512033 1.8686788674164356 2.050037204598331 -0.5200274433105061 1.139966685416096
2.96322488785 0.04683813526822 -0.215946181601037 -1.1175983589512033 1.8686788674164356 2.050037204598331 -0.5200274433105061 1.139966685416096
2.96322488785 0.04683813526822 -0.215946181601037 -1.1175983589512033 1.8686788674164356 2.050037204598331 -0.5200274433105061 1.139966685416096
2.97310209274 0.04683813526822 -0.215946181601037 -1.1175983589512033 1.8686788674164356 2.050037204598331 -0.5200274433105061 1.139966685416096
2.97310209274 0.04683813526822 -0.215946181601037 -1.1175983589512033 1.8686788674164356 2.050037204598331 -0.5200274433105061 1.139966685416096
2.98306393623 0.04683813526822 -0.215946181601037 -1.1175983589512033 1.8686788674164356 2.050037204598331 -0.5200274433105061 1.139966685416096
2.98306393623 0.04683813526822 -0.215946181601037 -1.1175983589512033 1.8686788674164356 2.050037204598331 -0.5200274433105061 1.139966685416096
2.99319291115 0.04683813526822 -0.215946181601037 -1.1175983589512033 1.8686788674164356 2.050037204598331 -0.5200274433105061 1.139966685416096
2.99319291115 0.04683813526822 -0.215946181601037 -1.1175983589512033 1.8686788674164356 2.050037204598331 -0.5200274433105061 1.139966685416096
3.00321006775 0.04683813526822 -0.215946181601037 -1.1175983589512033 1.8686788674164356 2.050037204598331 -0.5200274433105061 1.139966685416096
3.00321006775 0.04683813526822 -0.215946181601037 -1.1175983589512033 1.8686788674164356 2.050037204598331 -0.5200274433105061 1.139966685416096
3.01320886612 0.04683813526822 -0.215946181601037 -1.1175983589512033 1.8686788674164356 2.050037204598331 -0.5200274433105061 1.139966685416096
3.01320886612 0.04683813526822 -0.215946181601037 -1.1175983589512033 1.8686788674164356 2.050037204598331 -0.5200274433105061 1.139966685416096
3.02317500114 0.04683813526822 -0.215946181601037 -1.1175983589512033 1.8686788674164356 2.050037204598331 -0.5200274433105061 1.139966685416096
3.02317500114 0.04683813526822 -0.215946181601037 -1.1175983589512033 1.8686788674164356 2.050037204598331 -0.5200274433105061 1.139966685416096
3.03320193291 0.04683813526822 -0.215946181601037 -1.1175983589512033 1.8686788674164356 2.050037204598331 -0.5200274433105061 1.139966685416096
3.03320193291 0.04683813526822 -0.215946181601037 -1.1175983589512033 1.8686788674164356 2.050037204598331 -0.5200274433105061 1.139966685416096
3.04323291779 0.04683813526822 -0.215946181601037 -1.1175983589512033 1.8686788674164356 2.050037204598331 -0.5200274433105061 1.139966685416096
3.04323291779 0.04683813526822 -0.215946181601037 -1.1175983589512033 1.8686788674164356 2.050037204598331 -0.5200274433105061 1.139966685416096
3.05322194099 0.04683813526822 -0.215946181601037 -1.1175983589512033 1.8686788674164356 2.050037204598331 -0.5200274433105061 1.139966685416096
3.05322194099 0.04683813526822 -0.215946181601037 -1.1175983589512033 1.8686788674164356 2.050037204598331 -0.5200274433105061 1.139966685416096
3.06329488754 0.04683813526822 -0.215946181601037 -1.1175983589512033 1.8686788674164356 2.050037204598331 -0.5200274433105061 1.139966685416096
3.06329488754 0.04683813526822 -0.215946181601037 -1.1175983589512033 1.8686788674164356 2.050037204598331 -0.5200274433105061 1.139966685416096
3.07320690155 0.04683813526822 -0.215946181601037 -1.1175983589512033 1.8686788674164356 2.050037204598331 -0.5200274433105061 1.139966685416096
3.07320690155 0.04683813526822 -0.215946181601037 -1.1175983589512033 1.8686788674164356 2.050037204598331 -0.5200274433105061 1.139966685416096
3.08325886726 0.04683813526822 -0.215946181601037 -1.1175983589512033 1.8686788674164356 2.050037204598331 -0.5200274433105061 1.139966685416096
3.08325886726 0.04683813526822 -0.215946181601037 -1.1175983589512033 1.8686788674164356 2.050037204598331 -0.5200274433105061 1.139966685416096
3.09303593636 0.04683813526822 -0.215946181601037 -1.1175983589512033 1.8686788674164356 2.050037204598331 -0.5200274433105061 1.139966685416096
3.09303593636 0.04683813526822 -0.215946181601037 -1.1175983589512033 1.8686788674164356 2.050037204598331 -0.5200274433105061 1.139966685416096
3.10317087173 0.04683813526822 -0.215946181601037 -1.1175983589512033 1.8686788674164356 2.050037204598331 -0.5200274433105061 1.139966685416096
3.10317087173 0.04683813526822 -0.215946181601037 -1.1175983589512033 1.8686788674164356 2.050037204598331 -0.5200274433105061 1.139966685416096
3.11317896843 0.04683813526822 -0.215946181601037 -1.1175983589512033 1.8686788674164356 2.050037204598331 -0.5200274433105061 1.139966685416096
3.11317896843 0.04683813526822 -0.215946181601037 -1.1175983589512033 1.8686788674164356 2.050037204598331 -0.5200274433105061 1.139966685416096
3.12324500084 0.04683813526822 -0.215946181601037 -1.1175983589512033 1.8686788674164356 2.050037204598331 -0.5200274433105061 1.139966685416096
3.12324500084 0.04683813526822 -0.215946181601037 -1.1175983589512033 1.8686788674164356 2.050037204598331 -0.5200274433105061 1.139966685416096
3.13312888145 0.04683813526822 -0.215946181601037 -1.1175983589512033 1.8686788674164356 2.050037204598331 -0.5200274433105061 1.139966685416096
3.13312888145 0.04683813526822 -0.215946181601037 -1.1175983589512033 1.8686788674164356 2.050037204598331 -0.5200274433105061 1.139966685416096
3.14324998856 0.04683813526822 -0.215946181601037 -1.1175983589512033 1.8686788674164356 2.050037204598331 -0.5200274433105061 1.139966685416096
3.14324998856 0.04683813526822 -0.215946181601037 -1.1175983589512033 1.8686788674164356 2.050037204598331 -0.5200274433105061 1.139966685416096
3.15629005432 0.04683813526822 -0.215946181601037 -1.1175983589512033 1.8686788674164356 2.050037204598331 -0.5200274433105061 1.139966685416096
3.15629005432 0.04683813526822 -0.215946181601037 -1.1175983589512033 1.8686788674164356 2.050037204598331 -0.5200274433105061 1.139966685416096
3.16279792786 0.04683813526822 -0.215946181601037 -1.1175983589512033 1.8686788674164356 2.050037204598331 -0.5200274433105061 1.139966685416096
3.16279792786 0.04683813526822 -0.215946181601037 -1.1175983589512033 1.8686788674164356 2.050037204598331 -0.5200274433105061 1.139966685416096
3.17278289795 0.04683813526822 -0.215946181601037 -1.1175983589512033 1.8687555674731933 2.050037204598331 -0.5200274433105061 1.139966685416096
3.17278289795 0.04683813526822 -0.215946181601037 -1.1175983589512033 1.8687555674731933 2.050037204598331 -0.5200274433105061 1.139966685416096
3.1828379631 0.04683813526822 -0.215946181601037 -1.1175983589512033 1.8687555674731933 2.050037204598331 -0.5200274433105061 1.139966685416096
3.1828379631 0.04683813526822 -0.215946181601037 -1.1175983589512033 1.8687555674731933 2.050037204598331 -0.5200274433105061 1.139966685416096
3.19304609299 0.04683813526822 -0.215946181601037 -1.1175983589512033 1.8687555674731933 2.050037204598331 -0.5200274433105061 1.139966685416096
3.19304609299 0.04683813526822 -0.215946181601037 -1.1175983589512033 1.8687555674731933 2.050037204598331 -0.5200274433105061 1.139966685416096
3.20324087143 0.04683813526822 -0.215946181601037 -1.1175983589512033 1.8687555674731933 2.050037204598331 -0.5200274433105061 1.139966685416096
3.20324087143 0.04683813526822 -0.215946181601037 -1.1175983589512033 1.8687555674731933 2.050037204598331 -0.5200274433105061 1.139966685416096
3.21322107315 0.04683813526822 -0.215946181601037 -1.1175983589512033 1.8687555674731933 2.050037204598331 -0.5200274433105061 1.139966685416096
3.21322107315 0.04683813526822 -0.215946181601037 -1.1175983589512033 1.8687555674731933 2.050037204598331 -0.5200274433105061 1.139966685416096
3.22321295738 0.04683813526822 -0.215946181601037 -1.1175983589512033 1.8687555674731933 2.050037204598331 -0.5200274433105061 1.139966685416096
3.22321295738 0.04683813526822 -0.215946181601037 -1.1175983589512033 1.8687555674731933 2.050037204598331 -0.5200274433105061 1.139966685416096
3.2331969738 0.04683813526822 -0.215946181601037 -1.1175983589512033 1.8687555674731933 2.050037204598331 -0.5200274433105061 1.139966685416096
3.2331969738 0.04683813526822 -0.215946181601037 -1.1175983589512033 1.8687555674731933 2.050037204598331 -0.5200274433105061 1.139966685416096
3.24324703217 0.04683813526822 -0.215946181601037 -1.1175983589512033 1.8687555674731933 2.050037204598331 -0.5200274433105061 1.139966685416096
3.24324703217 0.04683813526822 -0.215946181601037 -1.1175983589512033 1.8687555674731933 2.050037204598331 -0.5200274433105061 1.139966685416096
3.25318002701 0.04683813526822 -0.215946181601037 -1.1175983589512033 1.868847607541303 2.050037204598331 -0.5200274433105061 1.139966685416096
3.25318002701 0.04683813526822 -0.215946181601037 -1.1175983589512033 1.868847607541303 2.050037204598331 -0.5200274433105061 1.139966685416096
3.26352596283 0.04683813526822 -0.215946181601037 -1.1175983589512033 1.8688629475526544 2.050037204598331 -0.5200274433105061 1.139966685416096
3.26352596283 0.04683813526822 -0.215946181601037 -1.1175983589512033 1.8688629475526544 2.050037204598331 -0.5200274433105061 1.139966685416096
3.27296495438 0.04683813526822 -0.215946181601037 -1.1175983589512033 1.8688782875640064 2.050037204598331 -0.5200274433105061 1.139966685416096
3.27296495438 0.04683813526822 -0.215946181601037 -1.1175983589512033 1.8688782875640064 2.050037204598331 -0.5200274433105061 1.139966685416096
3.28303194046 0.0468381352682 -0.215946181601 -1.11759835895 1.8689243076 2.0500372046 -0.520027443311 1.13996668542
3.28303194046 0.0468381352682 -0.215946181601 -1.11759835895 1.8689243076 2.0500372046 -0.520027443311 1.13996668542
3.2929148674 0.04683813526822 -0.215946181601037 -1.1175983589512033 1.8689243075980608 2.050037204598331 -0.5200274433105061 1.139966685416096
3.2929148674 0.04683813526822 -0.215946181601037 -1.1175983589512033 1.8689243075980608 2.050037204598331 -0.5200274433105061 1.139966685416096
3.30289292336 0.04683813526822 -0.215946181601037 -1.1175983589512033 1.8689243075980608 2.050037204598331 -0.5200274433105061 1.139966685416096
3.30289292336 0.04683813526822 -0.215946181601037 -1.1175983589512033 1.8689243075980608 2.050037204598331 -0.5200274433105061 1.139966685416096
3.31299495697 0.04683813526822 -0.215946181601037 -1.1175983589512033 1.8689243075980608 2.050037204598331 -0.5200274433105061 1.139966685416096
3.31299495697 0.04683813526822 -0.215946181601037 -1.1175983589512033 1.8689243075980608 2.050037204598331 -0.5200274433105061 1.139966685416096
3.32296490669 0.04683813526822 -0.215946181601037 -1.1175983589512033 1.868939647609413 2.050037204598331 -0.5200274433105061 1.139966685416096
3.32296490669 0.04683813526822 -0.215946181601037 -1.1175983589512033 1.868939647609413 2.050037204598331 -0.5200274433105061 1.139966685416096
3.33329391479 0.04683813526822 -0.215946181601037 -1.1175983589512033 1.868954987620764 2.050037204598331 -0.5200274433105061 1.139966685416096
3.33329391479 0.04683813526822 -0.215946181601037 -1.1175983589512033 1.868954987620764 2.050037204598331 -0.5200274433105061 1.139966685416096
3.3428299427 0.04683813526822 -0.215946181601037 -1.1175983589512033 1.868954987620764 2.050037204598331 -0.5200274433105061 1.139966685416096
3.3428299427 0.04683813526822 -0.215946181601037 -1.1175983589512033 1.868954987620764 2.050037204598331 -0.5200274433105061 1.139966685416096
3.35315203667 0.04683813526822 -0.215946181601037 -1.1175983589512033 1.868954987620764 2.050037204598331 -0.5200274433105061 1.139966685416096
3.35315203667 0.04683813526822 -0.215946181601037 -1.1175983589512033 1.868954987620764 2.050037204598331 -0.5200274433105061 1.139966685416096
3.36321687698 0.04683813526822 -0.215946181601037 -1.1175983589512033 1.868954987620764 2.050037204598331 -0.5200274433105061 1.139966685416096
3.36321687698 0.04683813526822 -0.215946181601037 -1.1175983589512033 1.868954987620764 2.050037204598331 -0.5200274433105061 1.139966685416096
3.37340188026 0.04683813526822 -0.2159308415896854 -1.1175983589512033 1.872022989891086 2.050037204598331 -0.5200274433105061 1.139966685416096
3.37340188026 0.04683813526822 -0.2159308415896854 -1.1175983589512033 1.872022989891086 2.050037204598331 -0.5200274433105061 1.139966685416096
3.38294696808 0.04683813526822 -0.2147956807496663 -1.1175983589512033 1.8857983200848305 2.050037204598331 -0.5200274433105061 1.139966685416096
3.38294696808 0.04683813526822 -0.2147956807496663 -1.1175983589512033 1.8857983200848305 2.050037204598331 -0.5200274433105061 1.139966685416096
3.39318990707 0.04683813526822 -0.2123259389220573 -1.1177977790987743 1.901598531776987 2.050037204598331 -0.5200274433105061 1.139966685416096
3.39318990707 0.04683813526822 -0.2123259389220573 -1.1177977790987743 1.901598531776987 2.050037204598331 -0.5200274433105061 1.139966685416096
3.40357589722 0.04683813526822 -0.1949610460720367 -1.1391510749002132 1.9526961095891944 2.050037204598331 -0.5200274433105061 1.139966685416096
3.40357589722 0.04683813526822 -0.1949610460720367 -1.1391510749002132 1.9526961095891944 2.050037204598331 -0.5200274433105061 1.139966685416096
3.41281795502 0.04683813526822 -0.1949610460720367 -1.1391510749002132 1.9526961095891944 2.050037204598331 -0.5200274433105061 1.139966685416096
3.41281795502 0.04683813526822 -0.1949610460720367 -1.1391510749002132 1.9526961095891944 2.050037204598331 -0.5200274433105061 1.139966685416096
3.42317795753 0.04683813526822 -0.1949610460720367 -1.1391510749002132 1.9526961095891944 2.050037204598331 -0.5200274433105061 1.139966685416096
3.42317795753 0.04683813526822 -0.1949610460720367 -1.1391510749002132 1.9526961095891944 2.050037204598331 -0.5200274433105061 1.139966685416096
3.43318605423 0.04683813526822 -0.1949610460720367 -1.1391510749002132 1.9526961095891944 2.050037204598331 -0.5200274433105061 1.139966685416096
3.43318605423 0.04683813526822 -0.1949610460720367 -1.1391510749002132 1.9526961095891944 2.050037204598331 -0.5200274433105061 1.139966685416096
3.44310307503 0.04683813526822 -0.1906198228595315 -1.154905266558315 1.9602433951741856 2.050037204598331 -0.5200274433105061 1.139966685416096
3.44310307503 0.04683813526822 -0.1906198228595315 -1.154905266558315 1.9602433951741856 2.050037204598331 -0.5200274433105061 1.139966685416096
3.45320701599 0.04683813526822 -0.1906198228595315 -1.154905266558315 1.9602433951741856 2.050037204598331 -0.5200274433105061 1.139966685416096
3.45320701599 0.04683813526822 -0.1906198228595315 -1.154905266558315 1.9602433951741856 2.050037204598331 -0.5200274433105061 1.139966685416096
3.46326398849 0.0468534752796 -0.187091620249 -1.18251728699 1.96326537741 2.05005546644 -0.520027443311 1.13996668542
3.46326398849 0.0468534752796 -0.187091620249 -1.18251728699 1.96326537741 2.05005546644 -0.520027443311 1.13996668542
3.47283887863 0.0468534752795716 -0.1866620999308165 -1.190156612644311 1.963296057433156 2.050055466436567 -0.5200274433105061 1.139966685416096
3.47283887863 0.0468534752795716 -0.1866620999308165 -1.190156612644311 1.963296057433156 2.050055466436567 -0.5200274433105061 1.139966685416096
3.4830288887 0.0468688152909233 -0.1830265172404854 -1.2304394824536349 1.963296057433156 2.050055466436567 -0.5200274433105061 1.139966685416096
3.4830288887 0.0468688152909233 -0.1830265172404854 -1.2304394824536349 1.963296057433156 2.050055466436567 -0.5200274433105061 1.139966685416096
3.49316596985 0.0468688152909233 -0.1830265172404854 -1.2304394824536349 1.963296057433156 2.050055466436567 -0.5200274433105061 1.139966685416096
3.49316596985 0.0468688152909233 -0.1830265172404854 -1.2304394824536349 1.963296057433156 2.050055466436567 -0.5200274433105061 1.139966685416096
3.50319290161 0.0468688152909233 -0.1830265172404854 -1.2304394824536349 1.963296057433156 2.050055466436567 -0.5200274433105061 1.139966685416096
3.50319290161 0.0468688152909233 -0.1830265172404854 -1.2304394824536349 1.963296057433156 2.050055466436567 -0.5200274433105061 1.139966685416096
3.51327705383 0.0468688152909233 -0.1830265172404854 -1.2304394824536349 1.963296057433156 2.050055466436567 -0.5200274433105061 1.139966685416096
3.51327705383 0.0468688152909233 -0.1830265172404854 -1.2304394824536349 1.963296057433156 2.050055466436567 -0.5200274433105061 1.139966685416096
3.52289009094 0.0475591158017456 -0.1697574074213441 -1.287350924568102 1.963296057433156 2.050046335517449 -0.5200274433105061 1.139966685416096
3.52289009094 0.0475591158017456 -0.1697574074213441 -1.287350924568102 1.963296057433156 2.050046335517449 -0.5200274433105061 1.139966685416096
3.53279399872 0.0475591158017456 -0.1697574074213441 -1.287350924568102 1.963296057433156 2.050046335517449 -0.5200274433105061 1.139966685416096
3.53279399872 0.0475591158017456 -0.1697574074213441 -1.287350924568102 1.963296057433156 2.050046335517449 -0.5200274433105061 1.139966685416096
3.54283690453 0.0475591158017456 -0.1697574074213441 -1.287350924568102 1.963296057433156 2.050046335517449 -0.5200274433105061 1.139966685416096
3.54283690453 0.0475591158017456 -0.1697574074213441 -1.287350924568102 1.963296057433156 2.050046335517449 -0.5200274433105061 1.139966685416096
3.55314207077 0.0475591158017456 -0.1697574074213441 -1.287350924568102 1.963296057433156 2.050046335517449 -0.5200274433105061 1.139966685416096
3.55314207077 0.0475591158017456 -0.1697574074213441 -1.287350924568102 1.963296057433156 2.050046335517449 -0.5200274433105061 1.139966685416096
3.5631070137 0.0475591158017456 -0.1697574074213441 -1.287350924568102 1.963296057433156 2.050046335517449 -0.5200274433105061 1.139966685416096
3.5631070137 0.0475591158017456 -0.1697574074213441 -1.287350924568102 1.963296057433156 2.050046335517449 -0.5200274433105061 1.139966685416096
3.57314991951 0.0475591158017456 -0.1697574074213441 -1.287350924568102 1.963296057433156 2.050046335517449 -0.5200274433105061 1.139966685416096
3.57314991951 0.0475591158017456 -0.1697574074213441 -1.287350924568102 1.963296057433156 2.050046335517449 -0.5200274433105061 1.139966685416096
3.58322000504 0.0475591158017456 -0.1697574074213441 -1.287350924568102 1.963296057433156 2.050046335517449 -0.5200274433105061 1.139966685416096
3.58322000504 0.0475591158017456 -0.1697574074213441 -1.287350924568102 1.963296057433156 2.050046335517449 -0.5200274433105061 1.139966685416096
3.59307289124 0.0475591158017456 -0.1697574074213441 -1.287350924568102 1.963296057433156 2.050046335517449 -0.5200274433105061 1.139966685416096
3.59307289124 0.0475591158017456 -0.1697574074213441 -1.287350924568102 1.963296057433156 2.050046335517449 -0.5200274433105061 1.139966685416096
3.60417103767 0.0477585359493166 -0.162041381711485 -1.317632106976177 1.963296057433156 2.050046335517449 -0.5200274433105061 1.139966685416096
3.60417103767 0.0477585359493166 -0.162041381711485 -1.317632106976177 1.963296057433156 2.050046335517449 -0.5200274433105061 1.139966685416096
3.61284589767 0.0477585359493166 -0.162041381711485 -1.317632106976177 1.963296057433156 2.050046335517449 -0.5200274433105061 1.139966685416096
3.61284589767 0.0477585359493166 -0.162041381711485 -1.317632106976177 1.963296057433156 2.050046335517449 -0.5200274433105061 1.139966685416096
3.62287902832 0.0477585359493166 -0.162041381711485 -1.317632106976177 1.963296057433156 2.050046335517449 -0.5200274433105061 1.139966685416096
3.62287902832 0.0477585359493166 -0.162041381711485 -1.317632106976177 1.963296057433156 2.050046335517449 -0.5200274433105061 1.139966685416096
3.6328830719 0.0477585359493166 -0.162041381711485 -1.317632106976177 1.963296057433156 2.050046335517449 -0.5200274433105061 1.139966685416096
3.6328830719 0.0477585359493166 -0.162041381711485 -1.317632106976177 1.963296057433156 2.050046335517449 -0.5200274433105061 1.139966685416096
3.64312386513 0.0477585359493166 -0.162041381711485 -1.317632106976177 1.963296057433156 2.050046335517449 -0.5200274433105061 1.139966685416096
3.64312386513 0.0477585359493166 -0.162041381711485 -1.317632106976177 1.963296057433156 2.050046335517449 -0.5200274433105061 1.139966685416096
3.6530649662 0.0477585359493166 -0.162041381711485 -1.317632106976177 1.963296057433156 2.050046335517449 -0.5200274433105061 1.139966685416096
3.6530649662 0.0477585359493166 -0.162041381711485 -1.317632106976177 1.963296057433156 2.050046335517449 -0.5200274433105061 1.139966685416096
3.6632130146 0.0477585359493166 -0.162041381711485 -1.317632106976177 1.963296057433156 2.050046335517449 -0.5200274433105061 1.139966685416096
3.6632130146 0.0477585359493166 -0.162041381711485 -1.317632106976177 1.963296057433156 2.050046335517449 -0.5200274433105061 1.139966685416096
3.67316102982 0.0477585359493166 -0.162041381711485 -1.317632106976177 1.963296057433156 2.050046335517449 -0.5200274433105061 1.139966685416096
3.67316102982 0.0477585359493166 -0.162041381711485 -1.317632106976177 1.963296057433156 2.050046335517449 -0.5200274433105061 1.139966685416096
3.6832549572 0.0477585359493166 -0.162041381711485 -1.317632106976177 1.963296057433156 2.050046335517449 -0.5200274433105061 1.139966685416096
3.6832549572 0.0477585359493166 -0.162041381711485 -1.317632106976177 1.963296057433156 2.050046335517449 -0.5200274433105061 1.139966685416096
3.69319391251 0.0477585359493166 -0.162041381711485 -1.317632106976177 1.963296057433156 2.050046335517449 -0.5200274433105061 1.139966685416096
3.69319391251 0.0477585359493166 -0.162041381711485 -1.317632106976177 1.963296057433156 2.050046335517449 -0.5200274433105061 1.139966685416096
3.7032930851 0.0477585359493166 -0.152055034321588 -1.339016082800319 1.963296057433156 2.050046335517449 -0.5200274433105061 1.139966685416096
3.7032930851 0.0477585359493166 -0.152055034321588 -1.339016082800319 1.963296057433156 2.050046335517449 -0.5200274433105061 1.139966685416096
3.71281695366 0.0477585359493166 -0.1478978912453021 -1.345873067874488 1.963296057433156 2.050046335517449 -0.5200274433105061 1.139966685416096
3.71281695366 0.0477585359493166 -0.1478978912453021 -1.345873067874488 1.963296057433156 2.050046335517449 -0.5200274433105061 1.139966685416096
3.72281503677 0.0477585359493166 -0.1391234047521821 -1.3600625783747258 1.963296057433156 2.050046335517449 -0.5200274433105061 1.139966685416096
3.72281503677 0.0477585359493166 -0.1391234047521821 -1.3600625783747258 1.963296057433156 2.050046335517449 -0.5200274433105061 1.139966685416096
3.73301506042 0.0477585359493166 -0.1391234047521821 -1.3600625783747258 1.963296057433156 2.050046335517449 -0.5200274433105061 1.139966685416096
3.73301506042 0.0477585359493166 -0.1391234047521821 -1.3600625783747258 1.963296057433156 2.050046335517449 -0.5200274433105061 1.139966685416096
3.74326896667 0.0477585359493166 -0.1391234047521821 -1.3600625783747258 1.963296057433156 2.050046335517449 -0.5200274433105061 1.139966685416096
3.74326896667 0.0477585359493166 -0.1391234047521821 -1.3600625783747258 1.963296057433156 2.050046335517449 -0.5200274433105061 1.139966685416096
3.75306987762 0.0477585359493166 -0.1391234047521821 -1.3600625783747258 1.963296057433156 2.050046335517449 -0.5200274433105061 1.139966685416096
3.75306987762 0.0477585359493166 -0.1391234047521821 -1.3600625783747258 1.963296057433156 2.050046335517449 -0.5200274433105061 1.139966685416096
3.76287198067 0.0477585359493166 -0.1311159188266425 -1.3741293687841507 1.963296057433156 2.050046335517449 -0.5200274433105061 1.139966685416096
3.76287198067 0.0477585359493166 -0.1311159188266425 -1.3741293687841507 1.963296057433156 2.050046335517449 -0.5200274433105061 1.139966685416096
3.77293205261 0.0477585359493166 -0.1311159188266425 -1.3741293687841507 1.963296057433156 2.050046335517449 -0.5200274433105061 1.139966685416096
3.77293205261 0.0477585359493166 -0.1311159188266425 -1.3741293687841507 1.963296057433156 2.050046335517449 -0.5200274433105061 1.139966685416096
3.7828578949 0.0477585359493166 -0.1311159188266425 -1.3741293687841507 1.963296057433156 2.050046335517449 -0.5200274433105061 1.139966685416096
3.7828578949 0.0477585359493166 -0.1311159188266425 -1.3741293687841507 1.963296057433156 2.050046335517449 -0.5200274433105061 1.139966685416096
3.79298996925 0.0477585359493166 -0.1268820756935986 -1.3812164540285936 1.963280717421804 2.050046335517449 -0.5200274433105061 1.139966685416096
3.79298996925 0.0477585359493166 -0.1268820756935986 -1.3812164540285936 1.963280717421804 2.050046335517449 -0.5200274433105061 1.139966685416096
3.80307006836 0.0477585359493166 -0.1225715325037966 -1.3875058586827531 1.963280717421804 2.050046335517449 -0.5200274433105061 1.139966685416096
3.80307006836 0.0477585359493166 -0.1225715325037966 -1.3875058586827531 1.963280717421804 2.050046335517449 -0.5200274433105061 1.139966685416096
3.81317901611 0.0477585359493166 -0.1181842892572366 -1.3937185632801543 1.963280717421804 2.050046335517449 -0.5200274433105061 1.139966685416096
3.81317901611 0.0477585359493166 -0.1181842892572366 -1.3937185632801543 1.963280717421804 2.050046335517449 -0.5200274433105061 1.139966685416096
3.82321405411 0.0477585359493166 -0.1181842892572366 -1.3937185632801543 1.963280717421804 2.050046335517449 -0.5200274433105061 1.139966685416096
3.82321405411 0.0477585359493166 -0.1181842892572366 -1.3937185632801543 1.963280717421804 2.050046335517449 -0.5200274433105061 1.139966685416096
3.83315300941 0.0477585359493166 -0.1181842892572366 -1.3937185632801543 1.963280717421804 2.050046335517449 -0.5200274433105061 1.139966685416096
3.83315300941 0.0477585359493166 -0.1181842892572366 -1.3937185632801543 1.963280717421804 2.050046335517449 -0.5200274433105061 1.139966685416096
3.84325408936 0.0477585359493166 -0.1181842892572366 -1.3937185632801543 1.963280717421804 2.050046335517449 -0.5200274433105061 1.139966685416096
3.84325408936 0.0477585359493166 -0.1181842892572366 -1.3937185632801543 1.963280717421804 2.050046335517449 -0.5200274433105061 1.139966685416096
3.85311603546 0.0477585359493166 -0.1181842892572366 -1.3937185632801543 1.963280717421804 2.050046335517449 -0.5200274433105061 1.139966685416096
3.85311603546 0.0477585359493166 -0.1181842892572366 -1.3937185632801543 1.963280717421804 2.050046335517449 -0.5200274433105061 1.139966685416096
3.86311602592 0.0477585359493166 -0.1101921433430486 -1.4054229919414318 1.9632653774104527 2.050046335517449 -0.5200274433105061 1.139966685416096
3.86311602592 0.0477585359493166 -0.1101921433430486 -1.4054229919414318 1.9632653774104527 2.050046335517449 -0.5200274433105061 1.139966685416096
3.8731970787 0.0477585359493166 -0.1101921433430486 -1.4054229919414318 1.9632653774104527 2.050046335517449 -0.5200274433105061 1.139966685416096
3.8731970787 0.0477585359493166 -0.1101921433430486 -1.4054229919414318 1.9632653774104527 2.050046335517449 -0.5200274433105061 1.139966685416096
3.88320302963 0.0477585359493166 -0.1068940409024528 -1.4114362763912622 1.9632500373991009 2.050046335517449 -0.5200274433105061 1.139966685416096
3.88320302963 0.0477585359493166 -0.1068940409024528 -1.4114362763912622 1.9632500373991009 2.050046335517449 -0.5200274433105061 1.139966685416096
3.89327406883 0.0477585359493166 -0.1068940409024528 -1.4114362763912622 1.9632500373991009 2.050046335517449 -0.5200274433105061 1.139966685416096
3.89327406883 0.0477585359493166 -0.1068940409024528 -1.4114362763912622 1.9632500373991009 2.050046335517449 -0.5200274433105061 1.139966685416096
3.90287899971 0.0477585359493166 -0.103948758722944 -1.417756361068125 1.9631579973309912 2.050046335517449 -0.5200274433105061 1.139966685416096
3.90287899971 0.0477585359493166 -0.103948758722944 -1.417756361068125 1.9631579973309912 2.050046335517449 -0.5200274433105061 1.139966685416096
3.91319489479 0.0477585359493166 -0.103948758722944 -1.417756361068125 1.9631579973309912 2.050046335517449 -0.5200274433105061 1.139966685416096
3.91319489479 0.0477585359493166 -0.103948758722944 -1.417756361068125 1.9631579973309912 2.050046335517449 -0.5200274433105061 1.139966685416096
3.92327189445 0.0477585359493166 -0.103948758722944 -1.417756361068125 1.9631579973309912 2.050046335517449 -0.5200274433105061 1.139966685416096
3.92327189445 0.0477585359493166 -0.103948758722944 -1.417756361068125 1.9631579973309912 2.050046335517449 -0.5200274433105061 1.139966685416096
3.93309998512 0.0476358158585037 -0.1015557169520931 -1.4243525659493166 1.962820517081256 2.050046335517449 -0.5200274433105061 1.139966685416096
3.93309998512 0.0476358158585037 -0.1015557169520931 -1.4243525659493166 1.962820517081256 2.050046335517449 -0.5200274433105061 1.139966685416096
3.94327688217 0.0476358158585037 -0.1015557169520931 -1.4243525659493166 1.962820517081256 2.050046335517449 -0.5200274433105061 1.139966685416096
3.94327688217 0.0476358158585037 -0.1015557169520931 -1.4243525659493166 1.962820517081256 2.050046335517449 -0.5200274433105061 1.139966685416096
3.95323300362 0.0476358158585037 -0.1015557169520931 -1.4243525659493166 1.962820517081256 2.050046335517449 -0.5200274433105061 1.139966685416096
3.95323300362 0.0476358158585037 -0.1015557169520931 -1.4243525659493166 1.962820517081256 2.050046335517449 -0.5200274433105061 1.139966685416096
3.96315097809 0.0476358158585037 -0.1015557169520931 -1.4243525659493166 1.962820517081256 2.050046335517449 -0.5200274433105061 1.139966685416096
3.96315097809 0.0476358158585037 -0.1015557169520931 -1.4243525659493166 1.962820517081256 2.050046335517449 -0.5200274433105061 1.139966685416096
3.97307085991 0.0475130957676907 -0.0993467553174615 -1.4311942110121338 1.9622682766725985 2.050046335517449 -0.5200274433105061 1.139966685416096
3.97307085991 0.0475130957676907 -0.0993467553174615 -1.4311942110121338 1.9622682766725985 2.050046335517449 -0.5200274433105061 1.139966685416096
3.9829480648 0.0473290156314715 -0.0951282521957692 -1.4448008010810105 1.9601053350720212 2.050046335517449 -0.5200274433105061 1.139966685416096
3.9829480648 0.0473290156314715 -0.0951282521957692 -1.4448008010810105 1.9601053350720212 2.050046335517449 -0.5200274433105061 1.139966685416096
3.99302005768 0.0472829955974167 -0.0929192905611376 -1.4519645863822117 1.9582491936984765 2.050046335517449 -0.5200274433105061 1.139966685416096
3.99302005768 0.0472829955974167 -0.0929192905611376 -1.4519645863822117 1.9582491936984765 2.050046335517449 -0.5200274433105061 1.139966685416096
4.00327301025 0.0472829955974167 -0.0929192905611376 -1.4519645863822117 1.9582491936984765 2.050046335517449 -0.5200274433105061 1.139966685416096
4.00327301025 0.0472829955974167 -0.0929192905611376 -1.4519645863822117 1.9582491936984765 2.050046335517449 -0.5200274433105061 1.139966685416096
4.01322889328 0.0472523155747135 -0.090710328926506 -1.4591283716834127 1.9559481919957356 2.050046335517449 -0.5200274433105061 1.139966685416096
4.01322889328 0.0472523155747135 -0.090710328926506 -1.4591283716834127 1.9559481919957356 2.050046335517449 -0.5200274433105061 1.139966685416096
4.02318191528 0.0472523155747135 -0.090710328926506 -1.4591283716834127 1.9559481919957356 2.050046335517449 -0.5200274433105061 1.139966685416096
4.02318191528 0.0472523155747135 -0.090710328926506 -1.4591283716834127 1.9559481919957356 2.050046335517449 -0.5200274433105061 1.139966685416096
4.03302192688 0.0472523155747135 -0.090710328926506 -1.4591283716834127 1.9559481919957356 2.050046335517449 -0.5200274433105061 1.139966685416096
4.03302192688 0.0472523155747135 -0.090710328926506 -1.4591283716834127 1.9559481919957356 2.050046335517449 -0.5200274433105061 1.139966685416096
4.04325294495 0.0472523155747135 -0.090710328926506 -1.4591283716834127 1.9559481919957356 2.050046335517449 -0.5200274433105061 1.139966685416096
4.04325294495 0.0472523155747135 -0.090710328926506 -1.4591283716834127 1.9559481919957356 2.050046335517449 -0.5200274433105061 1.139966685416096
4.05314707756 0.0472369755633618 -0.0883326271670067 -1.4663841970527236 1.9533097100432584 2.050046335517449 -0.5200274433105061 1.139966685416096
4.05314707756 0.0472369755633618 -0.0883326271670067 -1.4663841970527236 1.9533097100432584 2.050046335517449 -0.5200274433105061 1.139966685416096
4.06325387955 0.0472369755633618 -0.0883326271670067 -1.4663841970527236 1.9533097100432584 2.050046335517449 -0.5200274433105061 1.139966685416096
4.06325387955 0.0472369755633618 -0.0883326271670067 -1.4663841970527236 1.9533097100432584 2.050046335517449 -0.5200274433105061 1.139966685416096
4.07307887077 0.0472369755633618 -0.0883326271670067 -1.4663841970527236 1.9533097100432584 2.050046335517449 -0.5200274433105061 1.139966685416096
4.07307887077 0.0472369755633618 -0.0883326271670067 -1.4663841970527236 1.9533097100432584 2.050046335517449 -0.5200274433105061 1.139966685416096
4.08311200142 0.0472369755633618 -0.0883326271670067 -1.4663841970527236 1.9533097100432584 2.050046335517449 -0.5200274433105061 1.139966685416096
4.08311200142 0.0472369755633618 -0.0883326271670067 -1.4663841970527236 1.9533097100432584 2.050046335517449 -0.5200274433105061 1.139966685416096
4.09320807457 0.0472369755633618 -0.0883326271670067 -1.4663841970527236 1.9533097100432584 2.050046335517449 -0.5200274433105061 1.139966685416096
4.09320807457 0.0472369755633618 -0.0883326271670067 -1.4663841970527236 1.9533097100432584 2.050046335517449 -0.5200274433105061 1.139966685416096
4.10315489769 0.0472369755633618 -0.0883326271670067 -1.4663841970527236 1.9533097100432584 2.050046335517449 -0.5200274433105061 1.139966685416096
4.10315489769 0.0472369755633618 -0.0883326271670067 -1.4663841970527236 1.9533097100432584 2.050046335517449 -0.5200274433105061 1.139966685416096
4.11315798759 0.0472369755633618 -0.0883326271670067 -1.4663841970527236 1.9533097100432584 2.050046335517449 -0.5200274433105061 1.139966685416096
4.11315798759 0.0472369755633618 -0.0883326271670067 -1.4663841970527236 1.9533097100432584 2.050046335517449 -0.5200274433105061 1.139966685416096
4.12321090698 0.0472369755633618 -0.0883326271670067 -1.4663841970527236 1.9533097100432584 2.050046335517449 -0.5200274433105061 1.139966685416096
4.12321090698 0.0472369755633618 -0.0883326271670067 -1.4663841970527236 1.9533097100432584 2.050046335517449 -0.5200274433105061 1.139966685416096
4.13356804848 0.0472216355520102 -0.076490138403565 -1.48971635431852 1.937708918498673 2.050046335517449 -0.5200274433105061 1.139966685416096
4.13356804848 0.0472216355520102 -0.076490138403565 -1.48971635431852 1.937708918498673 2.050046335517449 -0.5200274433105061 1.139966685416096
4.14299607277 0.0472216355520102 -0.076490138403565 -1.48971635431852 1.937708918498673 2.050046335517449 -0.5200274433105061 1.139966685416096
4.14299607277 0.0472216355520102 -0.076490138403565 -1.48971635431852 1.937708918498673 2.050046335517449 -0.5200274433105061 1.139966685416096
4.15302705765 0.0472216355520102 -0.076490138403565 -1.48971635431852 1.937708918498673 2.050046335517449 -0.5200274433105061 1.139966685416096
4.15302705765 0.0472216355520102 -0.076490138403565 -1.48971635431852 1.937708918498673 2.050046335517449 -0.5200274433105061 1.139966685416096
4.16319608688 0.0472216355520102 -0.076490138403565 -1.48971635431852 1.937708918498673 2.050046335517449 -0.5200274433105061 1.139966685416096
4.16319608688 0.0472216355520102 -0.076490138403565 -1.48971635431852 1.937708918498673 2.050046335517449 -0.5200274433105061 1.139966685416096
4.17322802544 0.0472216355520102 -0.0729926158153983 -1.4937507773039929 1.9329074949456195 2.050046335517449 -0.5200274433105061 1.139966685416096
4.17322802544 0.0472216355520102 -0.0729926158153983 -1.4937507773039929 1.9329074949456195 2.050046335517449 -0.5200274433105061 1.139966685416096
4.18307209015 0.0472216355520102 -0.0729926158153983 -1.4937507773039929 1.9329074949456195 2.050046335517449 -0.5200274433105061 1.139966685416096
4.18307209015 0.0472216355520102 -0.0729926158153983 -1.4937507773039929 1.9329074949456195 2.050046335517449 -0.5200274433105061 1.139966685416096
4.19321990013 0.0472216355520102 -0.0729926158153983 -1.4937507773039929 1.9329074949456195 2.050046335517449 -0.5200274433105061 1.139966685416096
4.19321990013 0.0472216355520102 -0.0729926158153983 -1.4937507773039929 1.9329074949456195 2.050046335517449 -0.5200274433105061 1.139966685416096
4.20341300964 0.0472062955406586 -0.0637886090044333 -1.5021571035246744 1.9180890439799656 2.050046335517449 -0.5200274433105061 1.139966685416096
4.20341300964 0.0472062955406586 -0.0637886090044333 -1.5021571035246744 1.9180890439799656 2.050046335517449 -0.5200274433105061 1.139966685416096
4.21322989464 0.0472062955406586 -0.0637886090044333 -1.5021571035246744 1.9180890439799656 2.050046335517449 -0.5200274433105061 1.139966685416096
4.21322989464 0.0472062955406586 -0.0637886090044333 -1.5021571035246744 1.9180890439799656 2.050046335517449 -0.5200274433105061 1.139966685416096
4.22328186035 0.0472062955406586 -0.0637886090044333 -1.5021571035246744 1.9180890439799656 2.050046335517449 -0.5200274433105061 1.139966685416096
4.22328186035 0.0472062955406586 -0.0637886090044333 -1.5021571035246744 1.9180890439799656 2.050046335517449 -0.5200274433105061 1.139966685416096
4.2332470417 0.0472062955406586 -0.0637886090044333 -1.5021571035246744 1.9180890439799656 2.050046335517449 -0.5200274433105061 1.139966685416096
4.2332470417 0.0472062955406586 -0.0637886090044333 -1.5021571035246744 1.9180890439799656 2.050046335517449 -0.5200274433105061 1.139966685416096
4.24303793907 0.0472062955406586 -0.06070526672276 -1.503307604376045 1.9128120800750128 2.050046335517449 -0.5200274433105061 1.139966685416096
4.24303793907 0.0472062955406586 -0.06070526672276 -1.503307604376045 1.9128120800750128 2.050046335517449 -0.5200274433105061 1.139966685416096
4.25322699547 0.0472062955406586 -0.06070526672276 -1.503307604376045 1.9128120800750128 2.050046335517449 -0.5200274433105061 1.139966685416096
4.25322699547 0.0472062955406586 -0.06070526672276 -1.503307604376045 1.9128120800750128 2.050046335517449 -0.5200274433105061 1.139966685416096
4.26291704178 0.0472062955406586 -0.0575145443616254 -1.5034916845122643 1.9074123960792464 2.050046335517449 -0.5200274433105061 1.139966685416096
4.26291704178 0.0472062955406586 -0.0575145443616254 -1.5034916845122643 1.9074123960792464 2.050046335517449 -0.5200274433105061 1.139966685416096
4.27303600311 0.0472062955406586 -0.0575145443616254 -1.5034916845122643 1.9074123960792464 2.050046335517449 -0.5200274433105061 1.139966685416096
4.27303600311 0.0472062955406586 -0.0575145443616254 -1.5034916845122643 1.9074123960792464 2.050046335517449 -0.5200274433105061 1.139966685416096
4.28302097321 0.0472062955406586 -0.0575145443616254 -1.5034916845122643 1.9074123960792464 2.050046335517449 -0.5200274433105061 1.139966685416096
4.28302097321 0.0472062955406586 -0.0575145443616254 -1.5034916845122643 1.9074123960792464 2.050046335517449 -0.5200274433105061 1.139966685416096
4.29320907593 0.0472062955406586 -0.0575145443616254 -1.5034916845122643 1.9074123960792464 2.050046335517449 -0.5200274433105061 1.139966685416096
4.29320907593 0.0472062955406586 -0.0575145443616254 -1.5034916845122643 1.9074123960792464 2.050046335517449 -0.5200274433105061 1.139966685416096
4.30327606201 0.0472062955406586 -0.0575145443616254 -1.5034916845122643 1.9074123960792464 2.050046335517449 -0.5200274433105061 1.139966685416096
4.30327606201 0.0472062955406586 -0.0575145443616254 -1.5034916845122643 1.9074123960792464 2.050046335517449 -0.5200274433105061 1.139966685416096
4.31492590904 0.0472062955406586 -0.0417296726808204 -1.5034916845122643 1.886473280584301 2.050046335517449 -0.5200274433105061 1.139966685416096
4.31492590904 0.0472062955406586 -0.0417296726808204 -1.5034916845122643 1.886473280584301 2.050046335517449 -0.5200274433105061 1.139966685416096
4.32283592224 0.0472062955406586 -0.0417296726808204 -1.5034916845122643 1.886473280584301 2.050046335517449 -0.5200274433105061 1.139966685416096
4.32283592224 0.0472062955406586 -0.0417296726808204 -1.5034916845122643 1.886473280584301 2.050046335517449 -0.5200274433105061 1.139966685416096
4.33286094666 0.0472062955406586 -0.0417296726808204 -1.5034916845122643 1.886473280584301 2.050046335517449 -0.5200274433105061 1.139966685416096
4.33286094666 0.0472062955406586 -0.0417296726808204 -1.5034916845122643 1.886473280584301 2.050046335517449 -0.5200274433105061 1.139966685416096
4.3428580761 0.0472062955406586 -0.0366061088893832 -1.503461004489561 1.8812269967020507 2.050046335517449 -0.5200274433105061 1.139966685416096
4.3428580761 0.0472062955406586 -0.0366061088893832 -1.503461004489561 1.8812269967020507 2.050046335517449 -0.5200274433105061 1.139966685416096
4.35315608978 0.0472062955406586 -0.0311604048595621 -1.503461004489561 1.875581872524659 2.050046335517449 -0.5200274433105061 1.139966685416096
4.35315608978 0.0472062955406586 -0.0311604048595621 -1.503461004489561 1.875581872524659 2.050046335517449 -0.5200274433105061 1.139966685416096
4.36319708824 0.0472062955406586 -0.0311604048595621 -1.503461004489561 1.875581872524659 2.050046335517449 -0.5200274433105061 1.139966685416096
4.36319708824 0.0472062955406586 -0.0311604048595621 -1.503461004489561 1.875581872524659 2.050046335517449 -0.5200274433105061 1.139966685416096
4.37315988541 0.0472062955406586 -0.0311604048595621 -1.503461004489561 1.875581872524659 2.050046335517449 -0.5200274433105061 1.139966685416096
4.37315988541 0.0472062955406586 -0.0311604048595621 -1.503461004489561 1.875581872524659 2.050046335517449 -0.5200274433105061 1.139966685416096
4.38323903084 0.0472062955406586 -0.025407900602709 -1.503461004489561 1.8699674283699703 2.050046335517449 -0.5200274433105061 1.139966685416096
4.38323903084 0.0472062955406586 -0.025407900602709 -1.503461004489561 1.8699674283699703 2.050046335517449 -0.5200274433105061 1.139966685416096
4.39308190346 0.0472062955406586 -0.0196553963458558 -1.503461004489561 1.8645524043628523 2.050046335517449 -0.5200274433105061 1.139966685416096
4.39308190346 0.0472062955406586 -0.0196553963458558 -1.503461004489561 1.8645524043628523 2.050046335517449 -0.5200274433105061 1.139966685416096
4.40323996544 0.0472062955406586 -0.0141943523046833 -1.503461004489561 1.859168060378438 2.050046335517449 -0.5200274433105061 1.139966685416096
4.40323996544 0.0472062955406586 -0.0141943523046833 -1.503461004489561 1.859168060378438 2.050046335517449 -0.5200274433105061 1.139966685416096
4.41319298744 0.0472062955406586 -0.0141943523046833 -1.503461004489561 1.859168060378438 2.050046335517449 -0.5200274433105061 1.139966685416096
4.41319298744 0.0472062955406586 -0.0141943523046833 -1.503461004489561 1.859168060378438 2.050046335517449 -0.5200274433105061 1.139966685416096
4.42321491241 0.0472062955406586 -0.0096537089446072 -1.503461004489561 1.853645656291859 2.050046335517449 -0.5200274433105061 1.139966685416096
4.42321491241 0.0472062955406586 -0.0096537089446072 -1.503461004489561 1.853645656291859 2.050046335517449 -0.5200274433105061 1.139966685416096
4.43320202827 0.0472062955406586 -0.0096537089446072 -1.503461004489561 1.853645656291859 2.050046335517449 -0.5200274433105061 1.139966685416096
4.43320202827 0.0472062955406586 -0.0096537089446072 -1.503461004489561 1.853645656291859 2.050046335517449 -0.5200274433105061 1.139966685416096
4.44323301315 0.0472062955406586 -0.0096537089446072 -1.503461004489561 1.853645656291859 2.050046335517449 -0.5200274433105061 1.139966685416096
4.44323301315 0.0472062955406586 -0.0096537089446072 -1.503461004489561 1.853645656291859 2.050046335517449 -0.5200274433105061 1.139966685416096
4.4531750679 0.0472062955406586 -0.0096537089446072 -1.503461004489561 1.853645656291859 2.050046335517449 -0.5200274433105061 1.139966685416096
4.4531750679 0.0472062955406586 -0.0096537089446072 -1.503461004489561 1.853645656291859 2.050046335517449 -0.5200274433105061 1.139966685416096
4.46322703362 0.0472062955406586 -0.0096537089446072 -1.503461004489561 1.853645656291859 2.050046335517449 -0.5200274433105061 1.139966685416096
4.46322703362 0.0472062955406586 -0.0096537089446072 -1.503461004489561 1.853645656291859 2.050046335517449 -0.5200274433105061 1.139966685416096
4.47323799133 0.0472062955406586 -0.0096537089446072 -1.503461004489561 1.853645656291859 2.050046335517449 -0.5200274433105061 1.139966685416096
4.47323799133 0.0472062955406586 -0.0096537089446072 -1.503461004489561 1.853645656291859 2.050046335517449 -0.5200274433105061 1.139966685416096
4.48305606842 0.0472369755633618 -0.0003116420314777 -1.503461004489561 1.837799424565648 2.050046335517449 -0.5200274433105061 1.139966685416096
4.48305606842 0.0472369755633618 -0.0003116420314777 -1.503461004489561 1.837799424565648 2.050046335517449 -0.5200274433105061 1.139966685416096
4.49299097061 0.0472369755633618 -0.0003116420314777 -1.503461004489561 1.837799424565648 2.050046335517449 -0.5200274433105061 1.139966685416096
4.49299097061 0.0472369755633618 -0.0003116420314777 -1.503461004489561 1.837799424565648 2.050046335517449 -0.5200274433105061 1.139966685416096
4.50303387642 0.0472676555860651 0.0016518794215281 -1.5035530445576708 1.8328139208763747 2.050046335517449 -0.5200274433105061 1.139966685416096
4.50303387642 0.0472676555860651 0.0016518794215281 -1.5035530445576708 1.8328139208763747 2.050046335517449 -0.5200274433105061 1.139966685416096
4.51293492317 0.0472676555860651 0.0016518794215281 -1.5035530445576708 1.8328139208763747 2.050046335517449 -0.5200274433105061 1.139966685416096
4.51293492317 0.0472676555860651 0.0016518794215281 -1.5035530445576708 1.8328139208763747 2.050046335517449 -0.5200274433105061 1.139966685416096
4.52300405502 0.0472676555860651 0.0026489801593826 -1.5037064446711867 1.8277056970962893 2.050046335517449 -0.5200274433105061 1.139966685416096
4.52300405502 0.0472676555860651 0.0026489801593826 -1.5037064446711867 1.8277056970962893 2.050046335517449 -0.5200274433105061 1.139966685416096
4.53302693367 0.0472676555860651 0.0026489801593826 -1.5037064446711867 1.8277056970962893 2.050046335517449 -0.5200274433105061 1.139966685416096
4.53302693367 0.0472676555860651 0.0026489801593826 -1.5037064446711867 1.8277056970962893 2.050046335517449 -0.5200274433105061 1.139966685416096
4.54322886467 0.0472676555860651 0.0026489801593826 -1.5037064446711867 1.8277056970962893 2.050046335517449 -0.5200274433105061 1.139966685416096
4.54322886467 0.0472676555860651 0.0026489801593826 -1.5037064446711867 1.8277056970962893 2.050046335517449 -0.5200274433105061 1.139966685416096
4.55303907394 0.0472676555860651 0.0026489801593826 -1.5037064446711867 1.8277056970962893 2.050046335517449 -0.5200274433105061 1.139966685416096
4.55303907394 0.0472676555860651 0.0026489801593826 -1.5037064446711867 1.8277056970962893 2.050046335517449 -0.5200274433105061 1.139966685416096
4.56320500374 0.0472676555860651 0.0026489801593826 -1.5037064446711867 1.8277056970962893 2.050046335517449 -0.5200274433105061 1.139966685416096
4.56320500374 0.0472676555860651 0.0026489801593826 -1.5037064446711867 1.8277056970962893 2.050046335517449 -0.5200274433105061 1.139966685416096
4.57316303253 0.0472676555860651 0.0026489801593826 -1.5037064446711867 1.8277056970962893 2.050046335517449 -0.5200274433105061 1.139966685416096
4.57316303253 0.0472676555860651 0.0026489801593826 -1.5037064446711867 1.8277056970962893 2.050046335517449 -0.5200274433105061 1.139966685416096
4.58314108849 0.0472676555860651 0.0026489801593826 -1.5037064446711867 1.8277056970962893 2.050046335517449 -0.5200274433105061 1.139966685416096
4.58314108849 0.0472676555860651 0.0026489801593826 -1.5037064446711867 1.8277056970962893 2.050046335517449 -0.5200274433105061 1.139966685416096
4.59310698509 0.0472676555860651 0.0026489801593826 -1.5037064446711867 1.8277056970962893 2.050046335517449 -0.5200274433105061 1.139966685416096
4.59310698509 0.0472676555860651 0.0026489801593826 -1.5037064446711867 1.8277056970962893 2.050046335517449 -0.5200274433105061 1.139966685416096
4.60325598717 0.0472676555860651 0.0026489801593826 -1.5037064446711867 1.8277056970962893 2.050046335517449 -0.5200274433105061 1.139966685416096
4.60325598717 0.0472676555860651 0.0026489801593826 -1.5037064446711867 1.8277056970962893 2.050046335517449 -0.5200274433105061 1.139966685416096
4.61357498169 0.0472676555860651 0.0027410202274923 -1.504826265499854 1.81607796849177 2.050046335517449 -0.5200274433105061 1.139966685416096
4.61357498169 0.0472676555860651 0.0027410202274923 -1.504826265499854 1.81607796849177 2.050046335517449 -0.5200274433105061 1.139966685416096
4.62294101715 0.0472676555860651 0.0027410202274923 -1.504826265499854 1.81607796849177 2.050046335517449 -0.5200274433105061 1.139966685416096
4.62294101715 0.0472676555860651 0.0027410202274923 -1.504826265499854 1.81607796849177 2.050046335517449 -0.5200274433105061 1.139966685416096
4.63283991814 0.0472676555860651 0.0027410202274923 -1.504826265499854 1.81607796849177 2.050046335517449 -0.5200274433105061 1.139966685416096
4.63283991814 0.0472676555860651 0.0027410202274923 -1.504826265499854 1.81607796849177 2.050046335517449 -0.5200274433105061 1.139966685416096
4.64316105843 0.0472676555860651 0.0027410202274923 -1.504826265499854 1.81607796849177 2.050046335517449 -0.5200274433105061 1.139966685416096
4.64316105843 0.0472676555860651 0.0027410202274923 -1.504826265499854 1.81607796849177 2.050046335517449 -0.5200274433105061 1.139966685416096
4.65317797661 0.0472676555860651 0.0027410202274923 -1.504826265499854 1.81607796849177 2.050046335517449 -0.5200274433105061 1.139966685416096
4.65317797661 0.0472676555860651 0.0027410202274923 -1.504826265499854 1.81607796849177 2.050046335517449 -0.5200274433105061 1.139966685416096
