riccardo-csl/Motion-Planning-for-TIAGo-Manipulator/T3_G_7/head_scan/head_scan/tiago_traiettorie_SG/2a-4b/pick_2a_rep1.txt
time arm_1_joint arm_2_joint arm_3_joint arm_4_joint arm_5_joint arm_6_joint arm_7_joint
2.12635207176 0.0701089324886101 0.0922960064981821 -3.099911325862799 1.3626732529722807 2.050055466436567 -0.5200183123913877 1.1400032090925691
2.12635207176 0.0701089324886101 0.0922960064981821 -3.099911325862799 1.3626732529722807 2.050055466436567 -0.5200183123913877 1.1400032090925691
2.13642692566 0.0701089324886101 0.0922960064981821 -3.099911325862799 1.3626732529722807 2.050055466436567 -0.5200183123913877 1.1400032090925691
2.13642692566 0.0701089324886101 0.0922960064981821 -3.099911325862799 1.3626732529722807 2.050055466436567 -0.5200183123913877 1.1400032090925691
2.14634108543 0.0701089324886101 0.0922960064981821 -3.099911325862799 1.3626732529722807 2.050055466436567 -0.5200183123913877 1.1400032090925691
2.14634108543 0.0701089324886101 0.0922960064981821 -3.099911325862799 1.3626732529722807 2.050055466436567 -0.5200183123913877 1.1400032090925691
2.15639090538 0.0701089324886101 0.0922960064981821 -3.099911325862799 1.3626732529722807 2.050055466436567 -0.5200183123913877 1.1400032090925691
2.15639090538 0.0701089324886101 0.0922960064981821 -3.099911325862799 1.3626732529722807 2.050055466436567 -0.5200183123913877 1.1400032090925691
2.16624307632 0.0701089324886101 0.0922960064981821 -3.099911325862799 1.3626732529722807 2.050055466436567 -0.5200183123913877 1.1400032090925691
2.16624307632 0.0701089324886101 0.0922960064981821 -3.099911325862799 1.3626732529722807 2.050055466436567 -0.5200183123913877 1.1400032090925691
2.17641091347 0.0701089324886101 0.0922960064981821 -3.099911325862799 1.3626732529722807 2.050055466436567 -0.5200183123913877 1.1400032090925691
2.17641091347 0.0701089324886101 0.0922960064981821 -3.099911325862799 1.3626732529722807 2.050055466436567 -0.5200183123913877 1.1400032090925691
2.18634390831 0.0701089324886101 0.0922960064981821 -3.099911325862799 1.3626732529722807 2.050055466436567 -0.5200183123913877 1.1400032090925691
2.18634390831 0.0701089324886101 0.0922960064981821 -3.099911325862799 1.3626732529722807 2.050055466436567 -0.5200183123913877 1.1400032090925691
2.19641304016 0.0701089324886101 0.0922960064981821 -3.099911325862799 1.3626732529722807 2.050055466436567 -0.5200183123913877 1.1400032090925691
2.19641304016 0.0701089324886101 0.0922960064981821 -3.099911325862799 1.3626732529722807 2.050055466436567 -0.5200183123913877 1.1400032090925691
2.206346035 0.0701089324886101 0.0922960064981821 -3.099911325862799 1.3626732529722807 2.050055466436567 -0.5200183123913877 1.1400032090925691
2.206346035 0.0701089324886101 0.0922960064981821 -3.099911325862799 1.3626732529722807 2.050055466436567 -0.5200183123913877 1.1400032090925691
2.21643900871 0.0701089324886101 0.0922960064981821 -3.099911325862799 1.3626732529722807 2.050055466436567 -0.5200183123913877 1.1400032090925691
2.21643900871 0.0701089324886101 0.0922960064981821 -3.099911325862799 1.3626732529722807 2.050055466436567 -0.5200183123913877 1.1400032090925691
2.22629785538 0.0701089324886101 0.0922960064981821 -3.099911325862799 1.3626732529722807 2.050055466436567 -0.5200183123913877 1.1400032090925691
2.22629785538 0.0701089324886101 0.0922960064981821 -3.099911325862799 1.3626732529722807 2.050055466436567 -0.5200183123913877 1.1400032090925691
2.23627185822 0.0701089324886101 0.0922960064981821 -3.099911325862799 1.3626732529722807 2.050055466436567 -0.5200183123913877 1.1400032090925691
2.23627185822 0.0701089324886101 0.0922960064981821 -3.099911325862799 1.3626732529722807 2.050055466436567 -0.5200183123913877 1.1400032090925691
2.24629092216 0.0701089324886101 0.0922960064981821 -3.099911325862799 1.3626732529722807 2.050055466436567 -0.5200183123913877 1.1400032090925691
2.24629092216 0.0701089324886101 0.0922960064981821 -3.099911325862799 1.3626732529722807 2.050055466436567 -0.5200183123913877 1.1400032090925691
2.25645899773 0.0701089324886101 0.0922960064981821 -3.099911325862799 1.3626732529722807 2.050055466436567 -0.5200183123913877 1.1400032090925691
2.25645899773 0.0701089324886101 0.0922960064981821 -3.099911325862799 1.3626732529722807 2.050055466436567 -0.5200183123913877 1.1400032090925691
2.26634001732 0.0701089324886101 0.0922960064981821 -3.099911325862799 1.3626732529722807 2.050055466436567 -0.5200183123913877 1.1400032090925691
2.26634001732 0.0701089324886101 0.0922960064981821 -3.099911325862799 1.3626732529722807 2.050055466436567 -0.5200183123913877 1.1400032090925691
2.27641201019 0.0701089324886101 0.0922960064981821 -3.099911325862799 1.3626732529722807 2.050055466436567 -0.5200183123913877 1.1400032090925691
2.27641201019 0.0701089324886101 0.0922960064981821 -3.099911325862799 1.3626732529722807 2.050055466436567 -0.5200183123913877 1.1400032090925691
2.28629899025 0.0701089324886101 0.0922960064981821 -3.099911325862799 1.3626732529722807 2.050055466436567 -0.5200183123913877 1.1400032090925691
2.28629899025 0.0701089324886101 0.0922960064981821 -3.099911325862799 1.3626732529722807 2.050055466436567 -0.5200183123913877 1.1400032090925691
2.29644608498 0.0701089324886101 0.0922960064981821 -3.099911325862799 1.3626732529722807 2.050055466436567 -0.5200183123913877 1.1400032090925691
2.29644608498 0.0701089324886101 0.0922960064981821 -3.099911325862799 1.3626732529722807 2.050055466436567 -0.5200183123913877 1.1400032090925691
2.30636787415 0.0701089324886101 0.0922960064981821 -3.099911325862799 1.3626732529722807 2.050055466436567 -0.5200183123913877 1.1400032090925691
2.30636787415 0.0701089324886101 0.0922960064981821 -3.099911325862799 1.3626732529722807 2.050055466436567 -0.5200183123913877 1.1400032090925691
2.31631398201 0.0701089324886101 0.0922960064981821 -3.099911325862799 1.3626732529722807 2.050055466436567 -0.5200183123913877 1.1400032090925691
2.31631398201 0.0701089324886101 0.0922960064981821 -3.099911325862799 1.3626732529722807 2.050055466436567 -0.5200183123913877 1.1400032090925691
2.32633090019 0.0701089324886101 0.0922960064981821 -3.099911325862799 1.3626732529722807 2.050055466436567 -0.5200183123913877 1.1400032090925691
2.32633090019 0.0701089324886101 0.0922960064981821 -3.099911325862799 1.3626732529722807 2.050055466436567 -0.5200183123913877 1.1400032090925691
2.33644485474 0.0701089324886101 0.0922960064981821 -3.099911325862799 1.3626732529722807 2.050055466436567 -0.5200183123913877 1.1400032090925691
2.33644485474 0.0701089324886101 0.0922960064981821 -3.099911325862799 1.3626732529722807 2.050055466436567 -0.5200183123913877 1.1400032090925691
2.34622597694 0.0701089324886101 0.0922960064981821 -3.099911325862799 1.3626732529722807 2.050055466436567 -0.5200183123913877 1.1400032090925691
2.34622597694 0.0701089324886101 0.0922960064981821 -3.099911325862799 1.3626732529722807 2.050055466436567 -0.5200183123913877 1.1400032090925691
2.3563709259 0.0701089324886101 0.0922960064981821 -3.099911325862799 1.3626732529722807 2.050055466436567 -0.5200183123913877 1.1400032090925691
2.3563709259 0.0701089324886101 0.0922960064981821 -3.099911325862799 1.3626732529722807 2.050055466436567 -0.5200183123913877 1.1400032090925691
2.36632990837 0.0701089324886101 0.0922960064981821 -3.099911325862799 1.3626732529722807 2.050055466436567 -0.5200183123913877 1.1400032090925691
2.36632990837 0.0701089324886101 0.0922960064981821 -3.099911325862799 1.3626732529722807 2.050055466436567 -0.5200183123913877 1.1400032090925691
2.37641787529 0.0701089324886101 0.0922960064981821 -3.099911325862799 1.3626732529722807 2.050055466436567 -0.5200183123913877 1.1400032090925691
2.37641787529 0.0701089324886101 0.0922960064981821 -3.099911325862799 1.3626732529722807 2.050055466436567 -0.5200183123913877 1.1400032090925691
2.38635587692 0.0701089324886101 0.0922960064981821 -3.099911325862799 1.3626732529722807 2.050055466436567 -0.5200183123913877 1.1400032090925691
2.38635587692 0.0701089324886101 0.0922960064981821 -3.099911325862799 1.3626732529722807 2.050055466436567 -0.5200183123913877 1.1400032090925691
2.39639997482 0.0701089324886101 0.0922960064981821 -3.099911325862799 1.3626732529722807 2.050055466436567 -0.5200183123913877 1.1400032090925691
2.39639997482 0.0701089324886101 0.0922960064981821 -3.099911325862799 1.3626732529722807 2.050055466436567 -0.5200183123913877 1.1400032090925691
2.40630698204 0.0701089324886101 0.0922960064981821 -3.099911325862799 1.3626732529722807 2.050055466436567 -0.5200183123913877 1.1400032090925691
2.40630698204 0.0701089324886101 0.0922960064981821 -3.099911325862799 1.3626732529722807 2.050055466436567 -0.5200183123913877 1.1400032090925691
2.41642308235 0.0701089324886101 0.0922960064981821 -3.099911325862799 1.3626732529722807 2.050055466436567 -0.5200183123913877 1.1400032090925691
2.41642308235 0.0701089324886101 0.0922960064981821 -3.099911325862799 1.3626732529722807 2.050055466436567 -0.5200183123913877 1.1400032090925691
2.42634701729 0.0701089324886101 0.0922960064981821 -3.099911325862799 1.3626732529722807 2.050055466436567 -0.5200183123913877 1.1400032090925691
2.42634701729 0.0701089324886101 0.0922960064981821 -3.099911325862799 1.3626732529722807 2.050055466436567 -0.5200183123913877 1.1400032090925691
2.4362950325 0.0701089324886101 0.0922960064981821 -3.099911325862799 1.3626732529722807 2.050055466436567 -0.5200183123913877 1.1400032090925691
2.4362950325 0.0701089324886101 0.0922960064981821 -3.099911325862799 1.3626732529722807 2.050055466436567 -0.5200183123913877 1.1400032090925691
2.44631385803 0.0701089324886101 0.0922960064981821 -3.099911325862799 1.3626732529722807 2.050055466436567 -0.5200183123913877 1.1400032090925691
2.44631385803 0.0701089324886101 0.0922960064981821 -3.099911325862799 1.3626732529722807 2.050055466436567 -0.5200183123913877 1.1400032090925691
2.45622086525 0.0701089324886101 0.0922960064981821 -3.099911325862799 1.3626732529722807 2.050055466436567 -0.5200183123913877 1.1400032090925691
2.45622086525 0.0701089324886101 0.0922960064981821 -3.099911325862799 1.3626732529722807 2.050055466436567 -0.5200183123913877 1.1400032090925691
2.46629691124 0.0701089324886101 0.0922960064981821 -3.099911325862799 1.3626732529722807 2.050055466436567 -0.5200183123913877 1.1400032090925691
2.46629691124 0.0701089324886101 0.0922960064981821 -3.099911325862799 1.3626732529722807 2.050055466436567 -0.5200183123913877 1.1400032090925691
2.47621798515 0.0701089324886101 0.0922960064981821 -3.099911325862799 1.3626732529722807 2.050055466436567 -0.5200183123913877 1.1400032090925691
2.47621798515 0.0701089324886101 0.0922960064981821 -3.099911325862799 1.3626732529722807 2.050055466436567 -0.5200183123913877 1.1400032090925691
2.48632788658 0.0701089324886101 0.0922960064981821 -3.099911325862799 1.3626732529722807 2.050055466436567 -0.5200183123913877 1.1400032090925691
2.48632788658 0.0701089324886101 0.0922960064981821 -3.099911325862799 1.3626732529722807 2.050055466436567 -0.5200183123913877 1.1400032090925691
2.49640703201 0.0701089324886101 0.0922960064981821 -3.099911325862799 1.3626732529722807 2.050055466436567 -0.5200183123913877 1.1400032090925691
2.49640703201 0.0701089324886101 0.0922960064981821 -3.099911325862799 1.3626732529722807 2.050055466436567 -0.5200183123913877 1.1400032090925691
2.50634694099 0.0701089324886101 0.0922960064981821 -3.099911325862799 1.3626732529722807 2.050055466436567 -0.5200183123913877 1.1400032090925691
2.50634694099 0.0701089324886101 0.0922960064981821 -3.099911325862799 1.3626732529722807 2.050055466436567 -0.5200183123913877 1.1400032090925691
2.51640701294 0.0701089324886101 0.0922960064981821 -3.099911325862799 1.3626732529722807 2.050055466436567 -0.5200183123913877 1.1400032090925691
2.51640701294 0.0701089324886101 0.0922960064981821 -3.099911325862799 1.3626732529722807 2.050055466436567 -0.5200183123913877 1.1400032090925691
2.5263428688 0.0701089324886101 0.0922960064981821 -3.099911325862799 1.3626732529722807 2.050055466436567 -0.5200183123913877 1.1400032090925691
2.5263428688 0.0701089324886101 0.0922960064981821 -3.099911325862799 1.3626732529722807 2.050055466436567 -0.5200183123913877 1.1400032090925691
2.53646397591 0.0701089324886101 0.0922960064981821 -3.099911325862799 1.3626732529722807 2.050055466436567 -0.5200183123913877 1.1400032090925691
2.53646397591 0.0701089324886101 0.0922960064981821 -3.099911325862799 1.3626732529722807 2.050055466436567 -0.5200183123913877 1.1400032090925691
2.54625606537 0.0701089324886101 0.0922960064981821 -3.099911325862799 1.3626732529722807 2.050055466436567 -0.5200183123913877 1.1400032090925691
2.54625606537 0.0701089324886101 0.0922960064981821 -3.099911325862799 1.3626732529722807 2.050055466436567 -0.5200183123913877 1.1400032090925691
2.55611801147 0.0701089324886101 0.0922960064981821 -3.099911325862799 1.3626732529722807 2.050055466436567 -0.5200183123913877 1.1400032090925691
2.55611801147 0.0701089324886101 0.0922960064981821 -3.099911325862799 1.3626732529722807 2.050055466436567 -0.5200183123913877 1.1400032090925691
2.56619405746 0.0701089324886101 0.0922960064981821 -3.099911325862799 1.3626732529722807 2.050055466436567 -0.5200228778509468 1.1400077745521284
2.56619405746 0.0701089324886101 0.0922960064981821 -3.099911325862799 1.3626732529722807 2.050055466436567 -0.5200228778509468 1.1400077745521284
2.57639884949 0.0701089324886101 0.0922960064981821 -3.099911325862799 1.3626732529722807 2.050055466436567 -0.5200228778509468 1.1400077745521284
2.57639884949 0.0701089324886101 0.0922960064981821 -3.099911325862799 1.3626732529722807 2.050055466436567 -0.5200228778509468 1.1400077745521284
2.58630204201 0.0701089324886101 0.0922960064981821 -3.099911325862799 1.3626732529722807 2.050055466436567 -0.5200228778509468 1.1400077745521284
2.58630204201 0.0701089324886101 0.0922960064981821 -3.099911325862799 1.3626732529722807 2.050055466436567 -0.5200228778509468 1.1400077745521284
2.59631705284 0.0701089324886101 0.0922960064981821 -3.099911325862799 1.3626732529722807 2.050055466436567 -0.5200228778509468 1.1400077745521284
2.59631705284 0.0701089324886101 0.0922960064981821 -3.099911325862799 1.3626732529722807 2.050055466436567 -0.5200228778509468 1.1400077745521284
2.60634899139 0.0701089324886101 0.0922960064981821 -3.099911325862799 1.3626732529722807 2.050055466436567 -0.5200228778509468 1.1400077745521284
2.60634899139 0.0701089324886101 0.0922960064981821 -3.099911325862799 1.3626732529722807 2.050055466436567 -0.5200228778509468 1.1400077745521284
2.61640787125 0.0701089324886101 0.0922960064981821 -3.099911325862799 1.3626732529722807 2.050055466436567 -0.5200228778509468 1.1400077745521284
2.61640787125 0.0701089324886101 0.0922960064981821 -3.099911325862799 1.3626732529722807 2.050055466436567 -0.5200228778509468 1.1400077745521284
2.62628006935 0.0701089324886101 0.0922960064981821 -3.099911325862799 1.3626732529722807 2.050055466436567 -0.5200228778509468 1.1400077745521284
2.62628006935 0.0701089324886101 0.0922960064981821 -3.099911325862799 1.3626732529722807 2.050055466436567 -0.5200228778509468 1.1400077745521284
2.63636898994 0.0701089324886101 0.0922960064981821 -3.099911325862799 1.3626732529722807 2.050055466436567 -0.5200228778509468 1.1400077745521284
2.63636898994 0.0701089324886101 0.0922960064981821 -3.099911325862799 1.3626732529722807 2.050055466436567 -0.5200228778509468 1.1400077745521284
2.64632487297 0.0701089324886101 0.0922960064981821 -3.099911325862799 1.3626732529722807 2.050055466436567 -0.5200228778509468 1.1400077745521284
2.64632487297 0.0701089324886101 0.0922960064981821 -3.099911325862799 1.3626732529722807 2.050055466436567 -0.5200228778509468 1.1400077745521284
2.6564309597 0.0701089324886101 0.0922960064981821 -3.099911325862799 1.3626732529722807 2.050055466436567 -0.5200228778509468 1.1400077745521284
2.6564309597 0.0701089324886101 0.0922960064981821 -3.099911325862799 1.3626732529722807 2.050055466436567 -0.5200228778509468 1.1400077745521284
2.66635489464 0.0701089324886101 0.0922960064981821 -3.099911325862799 1.3626732529722807 2.050055466436567 -0.5200228778509468 1.1400077745521284
2.66635489464 0.0701089324886101 0.0922960064981821 -3.099911325862799 1.3626732529722807 2.050055466436567 -0.5200228778509468 1.1400077745521284
2.67598295212 0.0701089324886101 0.0922960064981821 -3.099911325862799 1.3626732529722807 2.050055466436567 -0.5200228778509468 1.1400077745521284
2.67598295212 0.0701089324886101 0.0922960064981821 -3.099911325862799 1.3626732529722807 2.050055466436567 -0.5200228778509468 1.1400077745521284
2.68590688705 0.0701089324886101 0.0922960064981821 -3.099911325862799 1.3626732529722807 2.050055466436567 -0.5200228778509468 1.1400077745521284
2.68590688705 0.0701089324886101 0.0922960064981821 -3.099911325862799 1.3626732529722807 2.050055466436567 -0.5200228778509468 1.1400077745521284
2.69596385956 0.0701089324886101 0.0922960064981821 -3.099911325862799 1.3626732529722807 2.050055466436567 -0.5200457051487426 1.1400306018499242
2.69596385956 0.0701089324886101 0.0922960064981821 -3.099911325862799 1.3626732529722807 2.050055466436567 -0.5200457051487426 1.1400306018499242
2.70590996742 0.0701089324886101 0.0922960064981821 -3.099911325862799 1.3626732529722807 2.050055466436567 -0.52005940152742 1.1400442982286016
2.70590996742 0.0701089324886101 0.0922960064981821 -3.099911325862799 1.3626732529722807 2.050055466436567 -0.52005940152742 1.1400442982286016
2.71593999863 0.0701089324886101 0.0922960064981821 -3.099911325862799 1.3626732529722807 2.050055466436567 -0.52005940152742 1.1400442982286016
2.71593999863 0.0701089324886101 0.0922960064981821 -3.099911325862799 1.3626732529722807 2.050055466436567 -0.52005940152742 1.1400442982286016
2.725949049 0.0701089324886101 0.0922960064981821 -3.099911325862799 1.3626732529722807 2.050055466436567 -0.52005940152742 1.1400442982286016
2.725949049 0.0701089324886101 0.0922960064981821 -3.099911325862799 1.3626732529722807 2.050055466436567 -0.52005940152742 1.1400442982286016
2.73604798317 0.0701089324886101 0.0922960064981821 -3.099911325862799 1.3626732529722807 2.050055466436567 -0.52005940152742 1.1400442982286016
2.73604798317 0.0701089324886101 0.0922960064981821 -3.099911325862799 1.3626732529722807 2.050055466436567 -0.52005940152742 1.1400442982286016
2.74634003639 0.0701089324886101 0.0922960064981821 -3.099911325862799 1.3626732529722807 2.050055466436567 -0.52005940152742 1.1400442982286016
2.74634003639 0.0701089324886101 0.0922960064981821 -3.099911325862799 1.3626732529722807 2.050055466436567 -0.52005940152742 1.1400442982286016
2.75639104843 0.0701089324886101 0.0922960064981821 -3.099911325862799 1.3626732529722807 2.050055466436567 -0.52005940152742 1.1400442982286016
2.75639104843 0.0701089324886101 0.0922960064981821 -3.099911325862799 1.3626732529722807 2.050055466436567 -0.52005940152742 1.1400442982286016
2.76632285118 0.0701089324886101 0.0922960064981821 -3.099911325862799 1.3626732529722807 2.050055466436567 -0.52005940152742 1.1400442982286016
2.76632285118 0.0701089324886101 0.0922960064981821 -3.099911325862799 1.3626732529722807 2.050055466436567 -0.52005940152742 1.1400442982286016
2.7763068676 0.0701089324886101 0.0922960064981821 -3.099911325862799 1.3626732529722807 2.050055466436567 -0.52005940152742 1.1400442982286016
2.7763068676 0.0701089324886101 0.0922960064981821 -3.099911325862799 1.3626732529722807 2.050055466436567 -0.52005940152742 1.1400442982286016
2.78624606133 0.0701089324886101 0.0922960064981821 -3.099911325862799 1.3626732529722807 2.050055466436567 -0.52005940152742 1.1400442982286016
2.78624606133 0.0701089324886101 0.0922960064981821 -3.099911325862799 1.3626732529722807 2.050055466436567 -0.52005940152742 1.1400442982286016
2.79640603065 0.0701089324886101 0.0922960064981821 -3.099911325862799 1.3626732529722807 2.050055466436567 -0.52005940152742 1.1400442982286016
2.79640603065 0.0701089324886101 0.0922960064981821 -3.099911325862799 1.3626732529722807 2.050055466436567 -0.52005940152742 1.1400442982286016
2.8062980175 0.0701089324886101 0.0922960064981821 -3.099911325862799 1.3626732529722807 2.050055466436567 -0.52005940152742 1.1400442982286016
2.8062980175 0.0701089324886101 0.0922960064981821 -3.099911325862799 1.3626732529722807 2.050055466436567 -0.52005940152742 1.1400442982286016
2.81639790535 0.0701089324886101 0.0922960064981821 -3.099911325862799 1.3626732529722807 2.050055466436567 -0.52005940152742 1.1400442982286016
2.81639790535 0.0701089324886101 0.0922960064981821 -3.099911325862799 1.3626732529722807 2.050055466436567 -0.52005940152742 1.1400442982286016
2.82632803917 0.0701089324886101 0.0922960064981821 -3.099911325862799 1.3626732529722807 2.050055466436567 -0.52005940152742 1.1400442982286016
2.82632803917 0.0701089324886101 0.0922960064981821 -3.099911325862799 1.3626732529722807 2.050055466436567 -0.52005940152742 1.1400442982286016
2.83639597893 0.0701089324886101 0.0922960064981821 -3.099911325862799 1.3626732529722807 2.050055466436567 -0.52005940152742 1.1400442982286016
2.83639597893 0.0701089324886101 0.0922960064981821 -3.099911325862799 1.3626732529722807 2.050055466436567 -0.52005940152742 1.1400442982286016
2.84623408318 0.0701089324886101 0.0922960064981821 -3.099911325862799 1.3626732529722807 2.050055466436567 -0.52005940152742 1.1400442982286016
2.84623408318 0.0701089324886101 0.0922960064981821 -3.099911325862799 1.3626732529722807 2.050055466436567 -0.52005940152742 1.1400442982286016
2.85640001297 0.0701089324886101 0.0922960064981821 -3.099911325862799 1.3626732529722807 2.050055466436567 -0.52005940152742 1.1400442982286016
2.85640001297 0.0701089324886101 0.0922960064981821 -3.099911325862799 1.3626732529722807 2.050055466436567 -0.52005940152742 1.1400442982286016
2.8663649559 0.0701089324886101 0.0922960064981821 -3.099911325862799 1.3626732529722807 2.050055466436567 -0.52005940152742 1.1400442982286016
2.8663649559 0.0701089324886101 0.0922960064981821 -3.099911325862799 1.3626732529722807 2.050055466436567 -0.52005940152742 1.1400442982286016
2.87622189522 0.0701089324886101 0.0922960064981821 -3.099911325862799 1.3626732529722807 2.050055466436567 -0.52005940152742 1.1400442982286016
2.87622189522 0.0701089324886101 0.0922960064981821 -3.099911325862799 1.3626732529722807 2.050055466436567 -0.52005940152742 1.1400442982286016
2.88633108139 0.0701089324886101 0.0922960064981821 -3.099911325862799 1.3626732529722807 2.050055466436567 -0.52005940152742 1.1400442982286016
2.88633108139 0.0701089324886101 0.0922960064981821 -3.099911325862799 1.3626732529722807 2.050055466436567 -0.52005940152742 1.1400442982286016
2.89625692368 0.0701089324886101 0.0922960064981821 -3.099911325862799 1.3626732529722807 2.050055466436567 -0.52005940152742 1.1400442982286016
2.89625692368 0.0701089324886101 0.0922960064981821 -3.099911325862799 1.3626732529722807 2.050055466436567 -0.52005940152742 1.1400442982286016
2.90631604195 0.0701089324886101 0.0922960064981821 -3.099911325862799 1.3626732529722807 2.050055466436567 -0.52005940152742 1.1400442982286016
2.90631604195 0.0701089324886101 0.0922960064981821 -3.099911325862799 1.3626732529722807 2.050055466436567 -0.52005940152742 1.1400442982286016
2.9162569046 0.0701089324886101 0.0922960064981821 -3.099911325862799 1.3626732529722807 2.050055466436567 -0.52005940152742 1.1400442982286016
2.9162569046 0.0701089324886101 0.0922960064981821 -3.099911325862799 1.3626732529722807 2.050055466436567 -0.52005940152742 1.1400442982286016
2.92630696297 0.0701089324886101 0.0922960064981821 -3.099911325862799 1.3626732529722807 2.050055466436567 -0.52005940152742 1.1400442982286016
2.92630696297 0.0701089324886101 0.0922960064981821 -3.099911325862799 1.3626732529722807 2.050055466436567 -0.52005940152742 1.1400442982286016
2.9364118576 0.0701089324886101 0.0922960064981821 -3.099911325862799 1.3626732529722807 2.050055466436567 -0.52005940152742 1.1400442982286016
2.9364118576 0.0701089324886101 0.0922960064981821 -3.099911325862799 1.3626732529722807 2.050055466436567 -0.52005940152742 1.1400442982286016
2.94620895386 0.0701089324886101 0.0922960064981821 -3.099911325862799 1.3626732529722807 2.050055466436567 -0.52005940152742 1.1400442982286016
2.94620895386 0.0701089324886101 0.0922960064981821 -3.099911325862799 1.3626732529722807 2.050055466436567 -0.52005940152742 1.1400442982286016
2.95640587807 0.0701089324886101 0.0922960064981821 -3.099911325862799 1.3626732529722807 2.050055466436567 -0.52005940152742 1.1400442982286016
2.95640587807 0.0701089324886101 0.0922960064981821 -3.099911325862799 1.3626732529722807 2.050055466436567 -0.52005940152742 1.1400442982286016
2.96627306938 0.0701089324886101 0.0922960064981821 -3.099911325862799 1.3626732529722807 2.050055466436567 -0.52005940152742 1.1400442982286016
2.96627306938 0.0701089324886101 0.0922960064981821 -3.099911325862799 1.3626732529722807 2.050055466436567 -0.52005940152742 1.1400442982286016
2.9764008522 0.0701089324886101 0.0922960064981821 -3.099911325862799 1.3626732529722807 2.050055466436567 -0.52005940152742 1.1400442982286016
2.9764008522 0.0701089324886101 0.0922960064981821 -3.099911325862799 1.3626732529722807 2.050055466436567 -0.52005940152742 1.1400442982286016
2.98634386063 0.0701089324886101 0.0922960064981821 -3.099911325862799 1.3626732529722807 2.050055466436567 -0.52005940152742 1.1400442982286016
2.98634386063 0.0701089324886101 0.0922960064981821 -3.099911325862799 1.3626732529722807 2.050055466436567 -0.52005940152742 1.1400442982286016
2.99646186829 0.0701089324886101 0.0922960064981821 -3.099911325862799 1.3626732529722807 2.050055466436567 -0.52005940152742 1.1400442982286016
2.99646186829 0.0701089324886101 0.0922960064981821 -3.099911325862799 1.3626732529722807 2.050055466436567 -0.52005940152742 1.1400442982286016
3.00625300407 0.0701089324886101 0.0922960064981821 -3.099911325862799 1.3626732529722807 2.050055466436567 -0.52005940152742 1.1400442982286016
3.00625300407 0.0701089324886101 0.0922960064981821 -3.099911325862799 1.3626732529722807 2.050055466436567 -0.52005940152742 1.1400442982286016
3.01639294624 0.0701089324886101 0.0922960064981821 -3.099911325862799 1.3626732529722807 2.050055466436567 -0.52005940152742 1.1400442982286016
3.01639294624 0.0701089324886101 0.0922960064981821 -3.099911325862799 1.3626732529722807 2.050055466436567 -0.52005940152742 1.1400442982286016
3.02628588676 0.0701089324886101 0.0922960064981821 -3.099911325862799 1.3626732529722807 2.050055466436567 -0.52005940152742 1.1400442982286016
3.02628588676 0.0701089324886101 0.0922960064981821 -3.099911325862799 1.3626732529722807 2.050055466436567 -0.52005940152742 1.1400442982286016
3.03641796112 0.0701089324886101 0.0922960064981821 -3.099911325862799 1.3626732529722807 2.050055466436567 -0.52005940152742 1.1400442982286016
3.03641796112 0.0701089324886101 0.0922960064981821 -3.099911325862799 1.3626732529722807 2.050055466436567 -0.52005940152742 1.1400442982286016
3.04634690285 0.0701089324886101 0.0922960064981821 -3.099911325862799 1.3626732529722807 2.050055466436567 -0.52005940152742 1.1400442982286016
3.04634690285 0.0701089324886101 0.0922960064981821 -3.099911325862799 1.3626732529722807 2.050055466436567 -0.52005940152742 1.1400442982286016
3.05642795563 0.0701089324886101 0.0922960064981821 -3.099911325862799 1.3626732529722807 2.050055466436567 -0.52005940152742 1.1400442982286016
3.05642795563 0.0701089324886101 0.0922960064981821 -3.099911325862799 1.3626732529722807 2.050055466436567 -0.52005940152742 1.1400442982286016
3.06633090973 0.0701089324886101 0.0922960064981821 -3.099911325862799 1.3626732529722807 2.050055466436567 -0.52005940152742 1.1400442982286016
3.06633090973 0.0701089324886101 0.0922960064981821 -3.099911325862799 1.3626732529722807 2.050055466436567 -0.52005940152742 1.1400442982286016
3.0764439106 0.0701089324886101 0.0922960064981821 -3.099911325862799 1.3626732529722807 2.050055466436567 -0.52005940152742 1.1400442982286016
3.0764439106 0.0701089324886101 0.0922960064981821 -3.099911325862799 1.3626732529722807 2.050055466436567 -0.52005940152742 1.1400442982286016
3.08634996414 0.0701089324886101 0.0922960064981821 -3.099911325862799 1.3626732529722807 2.050055466436567 -0.52005940152742 1.1400442982286016
3.08634996414 0.0701089324886101 0.0922960064981821 -3.099911325862799 1.3626732529722807 2.050055466436567 -0.52005940152742 1.1400442982286016
3.09627699852 0.0701089324886101 0.0922960064981821 -3.099911325862799 1.3626732529722807 2.050055466436567 -0.52005940152742 1.1400442982286016
3.09627699852 0.0701089324886101 0.0922960064981821 -3.099911325862799 1.3626732529722807 2.050055466436567 -0.52005940152742 1.1400442982286016
3.10636591911 0.0701089324886101 0.0922960064981821 -3.099911325862799 1.3626732529722807 2.050055466436567 -0.52005940152742 1.1400442982286016
3.10636591911 0.0701089324886101 0.0922960064981821 -3.099911325862799 1.3626732529722807 2.050055466436567 -0.52005940152742 1.1400442982286016
3.11630105972 0.0701089324886101 0.0922960064981821 -3.099911325862799 1.3626732529722807 2.050055466436567 -0.52005940152742 1.1400442982286016
3.11630105972 0.0701089324886101 0.0922960064981821 -3.099911325862799 1.3626732529722807 2.050055466436567 -0.52005940152742 1.1400442982286016
3.12634301186 0.0701089324886101 0.0922960064981821 -3.099911325862799 1.3626732529722807 2.050055466436567 -0.52005940152742 1.1400442982286016
3.12634301186 0.0701089324886101 0.0922960064981821 -3.099911325862799 1.3626732529722807 2.050055466436567 -0.52005940152742 1.1400442982286016
3.13646292686 0.0701089324886101 0.0922960064981821 -3.099911325862799 1.3626732529722807 2.050055466436567 -0.52005940152742 1.1400442982286016
3.13646292686 0.0701089324886101 0.0922960064981821 -3.099911325862799 1.3626732529722807 2.050055466436567 -0.52005940152742 1.1400442982286016
3.14630794525 0.0701089324886101 0.0922960064981821 -3.099911325862799 1.3626732529722807 2.050055466436567 -0.52005940152742 1.1400442982286016
3.14630794525 0.0701089324886101 0.0922960064981821 -3.099911325862799 1.3626732529722807 2.050055466436567 -0.52005940152742 1.1400442982286016
3.15640902519 0.0701089324886101 0.0922960064981821 -3.099911325862799 1.3626732529722807 2.050055466436567 -0.52005940152742 1.1400442982286016
3.15640902519 0.0701089324886101 0.0922960064981821 -3.099911325862799 1.3626732529722807 2.050055466436567 -0.52005940152742 1.1400442982286016
3.16644406319 0.0701089324886101 0.0922960064981821 -3.099911325862799 1.3626732529722807 2.050055466436567 -0.52005940152742 1.1400442982286016
3.16644406319 0.0701089324886101 0.0922960064981821 -3.099911325862799 1.3626732529722807 2.050055466436567 -0.52005940152742 1.1400442982286016
3.17626285553 0.0701089324886101 0.0922960064981821 -3.099911325862799 1.3626732529722807 2.050055466436567 -0.52005940152742 1.1400442982286016
3.17626285553 0.0701089324886101 0.0922960064981821 -3.099911325862799 1.3626732529722807 2.050055466436567 -0.52005940152742 1.1400442982286016
3.18625688553 0.0701089324886101 0.0922960064981821 -3.099911325862799 1.3626732529722807 2.050055466436567 -0.52005940152742 1.1400442982286016
3.18625688553 0.0701089324886101 0.0922960064981821 -3.099911325862799 1.3626732529722807 2.050055466436567 -0.52005940152742 1.1400442982286016
3.19638800621 0.0701089324886101 0.0922960064981821 -3.099911325862799 1.3626732529722807 2.050055466436567 -0.52005940152742 1.1400442982286016
3.19638800621 0.0701089324886101 0.0922960064981821 -3.099911325862799 1.3626732529722807 2.050055466436567 -0.52005940152742 1.1400442982286016
3.20619606972 0.0701089324886101 0.0922960064981821 -3.099911325862799 1.3626732529722807 2.050055466436567 -0.52005940152742 1.1400442982286016
3.20619606972 0.0701089324886101 0.0922960064981821 -3.099911325862799 1.3626732529722807 2.050055466436567 -0.52005940152742 1.1400442982286016
3.21628189087 0.0701089324886101 0.0922960064981821 -3.099911325862799 1.3626732529722807 2.050055466436567 -0.52005940152742 1.1400442982286016
3.21628189087 0.0701089324886101 0.0922960064981821 -3.099911325862799 1.3626732529722807 2.050055466436567 -0.52005940152742 1.1400442982286016
3.22635793686 0.0701089324886101 0.0922960064981821 -3.099911325862799 1.3626732529722807 2.050055466436567 -0.52005940152742 1.1400442982286016
3.22635793686 0.0701089324886101 0.0922960064981821 -3.099911325862799 1.3626732529722807 2.050055466436567 -0.52005940152742 1.1400442982286016
3.23638701439 0.0701089324886101 0.0922960064981821 -3.099911325862799 1.3626732529722807 2.050055466436567 -0.52005940152742 1.1400442982286016
3.23638701439 0.0701089324886101 0.0922960064981821 -3.099911325862799 1.3626732529722807 2.050055466436567 -0.52005940152742 1.1400442982286016
3.24632501602 0.0701089324886101 0.0922960064981821 -3.099911325862799 1.3626732529722807 2.050055466436567 -0.52005940152742 1.1400442982286016
3.24632501602 0.0701089324886101 0.0922960064981821 -3.099911325862799 1.3626732529722807 2.050055466436567 -0.52005940152742 1.1400442982286016
3.2563970089 0.0701089324886101 0.0922960064981821 -3.099911325862799 1.3626732529722807 2.050055466436567 -0.52005940152742 1.1400442982286016
3.2563970089 0.0701089324886101 0.0922960064981821 -3.099911325862799 1.3626732529722807 2.050055466436567 -0.52005940152742 1.1400442982286016
3.26636099815 0.0701089324886101 0.0922960064981821 -3.099911325862799 1.3626732529722807 2.050055466436567 -0.52005940152742 1.1400442982286016
3.26636099815 0.0701089324886101 0.0922960064981821 -3.099911325862799 1.3626732529722807 2.050055466436567 -0.52005940152742 1.1400442982286016
3.27645087242 0.0701089324886101 0.0922960064981821 -3.099911325862799 1.3626732529722807 2.050055466436567 -0.52005940152742 1.1400442982286016
3.27645087242 0.0701089324886101 0.0922960064981821 -3.099911325862799 1.3626732529722807 2.050055466436567 -0.52005940152742 1.1400442982286016
3.28624296188 0.0701089324886101 0.0922960064981821 -3.099911325862799 1.3626732529722807 2.050055466436567 -0.52005940152742 1.1400442982286016
3.28624296188 0.0701089324886101 0.0922960064981821 -3.099911325862799 1.3626732529722807 2.050055466436567 -0.52005940152742 1.1400442982286016
3.29644298553 0.0701089324886101 0.0922960064981821 -3.099911325862799 1.3626732529722807 2.050055466436567 -0.52005940152742 1.1400442982286016
3.29644298553 0.0701089324886101 0.0922960064981821 -3.099911325862799 1.3626732529722807 2.050055466436567 -0.52005940152742 1.1400442982286016
3.30647397041 0.0701089324886101 0.0922960064981821 -3.099911325862799 1.3626732529722807 2.050055466436567 -0.52005940152742 1.1400442982286016
3.30647397041 0.0701089324886101 0.0922960064981821 -3.099911325862799 1.3626732529722807 2.050055466436567 -0.52005940152742 1.1400442982286016
3.316437006 0.0701089324886101 0.0922960064981821 -3.099911325862799 1.3626732529722807 2.050055466436567 -0.52005940152742 1.1400442982286016
3.316437006 0.0701089324886101 0.0922960064981821 -3.099911325862799 1.3626732529722807 2.050055466436567 -0.52005940152742 1.1400442982286016
3.3263759613 0.0701089324886101 0.0922960064981821 -3.099911325862799 1.3626732529722807 2.050055466436567 -0.52005940152742 1.1400442982286016
3.3263759613 0.0701089324886101 0.0922960064981821 -3.099911325862799 1.3626732529722807 2.050055466436567 -0.52005940152742 1.1400442982286016
3.3364739418 0.0701089324886101 0.0922960064981821 -3.099911325862799 1.3626732529722807 2.050055466436567 -0.52005940152742 1.1400442982286016
3.3364739418 0.0701089324886101 0.0922960064981821 -3.099911325862799 1.3626732529722807 2.050055466436567 -0.52005940152742 1.1400442982286016
3.34625601768 0.0701089324886101 0.0922960064981821 -3.099911325862799 1.3626732529722807 2.050055466436567 -0.52005940152742 1.1400442982286016
3.34625601768 0.0701089324886101 0.0922960064981821 -3.099911325862799 1.3626732529722807 2.050055466436567 -0.52005940152742 1.1400442982286016
3.35640501976 0.0701089324886101 0.0922960064981821 -3.099911325862799 1.3626732529722807 2.050055466436567 -0.52005940152742 1.1400442982286016
3.35640501976 0.0701089324886101 0.0922960064981821 -3.099911325862799 1.3626732529722807 2.050055466436567 -0.52005940152742 1.1400442982286016
3.36650204659 0.0701089324886101 0.0922960064981821 -3.099911325862799 1.3626732529722807 2.050055466436567 -0.52005940152742 1.1400442982286016
3.36650204659 0.0701089324886101 0.0922960064981821 -3.099911325862799 1.3626732529722807 2.050055466436567 -0.52005940152742 1.1400442982286016
3.3764128685 0.0701089324886101 0.0922960064981821 -3.099911325862799 1.3626732529722807 2.050055466436567 -0.52005940152742 1.1400442982286016
3.3764128685 0.0701089324886101 0.0922960064981821 -3.099911325862799 1.3626732529722807 2.050055466436567 -0.52005940152742 1.1400442982286016
3.38634705544 0.0701089324886101 0.0922960064981821 -3.099911325862799 1.3626732529722807 2.050055466436567 -0.52005940152742 1.1400442982286016
3.38634705544 0.0701089324886101 0.0922960064981821 -3.099911325862799 1.3626732529722807 2.050055466436567 -0.52005940152742 1.1400442982286016
3.39630293846 0.0701089324886101 0.0922960064981821 -3.099911325862799 1.3626732529722807 2.050055466436567 -0.52005940152742 1.1400442982286016
3.39630293846 0.0701089324886101 0.0922960064981821 -3.099911325862799 1.3626732529722807 2.050055466436567 -0.52005940152742 1.1400442982286016
3.40637588501 0.0701089324886101 0.0922960064981821 -3.099911325862799 1.3626732529722807 2.050055466436567 -0.52005940152742 1.1400442982286016
3.40637588501 0.0701089324886101 0.0922960064981821 -3.099911325862799 1.3626732529722807 2.050055466436567 -0.52005940152742 1.1400442982286016
3.41643285751 0.0701089324886101 0.0922960064981821 -3.099911325862799 1.3626732529722807 2.050055466436567 -0.52005940152742 1.1400442982286016
3.41643285751 0.0701089324886101 0.0922960064981821 -3.099911325862799 1.3626732529722807 2.050055466436567 -0.52005940152742 1.1400442982286016
3.42649888992 0.0701089324886101 0.0922960064981821 -3.099911325862799 1.3626732529722807 2.050055466436567 -0.52005940152742 1.1400442982286016
3.42649888992 0.0701089324886101 0.0922960064981821 -3.099911325862799 1.3626732529722807 2.050055466436567 -0.52005940152742 1.1400442982286016
3.43644499779 0.0701089324886101 0.0922960064981821 -3.099911325862799 1.3626732529722807 2.050055466436567 -0.52005940152742 1.1400442982286016
3.43644499779 0.0701089324886101 0.0922960064981821 -3.099911325862799 1.3626732529722807 2.050055466436567 -0.52005940152742 1.1400442982286016
3.44635105133 0.0701089324886101 0.0922960064981821 -3.099911325862799 1.3626732529722807 2.050055466436567 -0.52005940152742 1.1400442982286016
3.44635105133 0.0701089324886101 0.0922960064981821 -3.099911325862799 1.3626732529722807 2.050055466436567 -0.52005940152742 1.1400442982286016
3.45626091957 0.0701089324886101 0.0922960064981821 -3.099911325862799 1.3626732529722807 2.050055466436567 -0.52005940152742 1.1400442982286016
3.45626091957 0.0701089324886101 0.0922960064981821 -3.099911325862799 1.3626732529722807 2.050055466436567 -0.52005940152742 1.1400442982286016
3.46635890007 0.0701089324886101 0.0922960064981821 -3.099911325862799 1.3626732529722807 2.050055466436567 -0.52005940152742 1.1400442982286016
3.46635890007 0.0701089324886101 0.0922960064981821 -3.099911325862799 1.3626732529722807 2.050055466436567 -0.52005940152742 1.1400442982286016
3.47625207901 0.0701089324886101 0.0922960064981821 -3.099911325862799 1.3626732529722807 2.050055466436567 -0.52005940152742 1.1400442982286016
3.47625207901 0.0701089324886101 0.0922960064981821 -3.099911325862799 1.3626732529722807 2.050055466436567 -0.52005940152742 1.1400442982286016
3.48635292053 0.0701089324886101 0.0922960064981821 -3.099911325862799 1.3626732529722807 2.050055466436567 -0.52005940152742 1.1400442982286016
3.48635292053 0.0701089324886101 0.0922960064981821 -3.099911325862799 1.3626732529722807 2.050055466436567 -0.52005940152742 1.1400442982286016
3.49647402763 0.0701089324886101 0.0922960064981821 -3.099911325862799 1.3626732529722807 2.050055466436567 -0.52005940152742 1.1400442982286016
3.49647402763 0.0701089324886101 0.0922960064981821 -3.099911325862799 1.3626732529722807 2.050055466436567 -0.52005940152742 1.1400442982286016
3.50643086433 0.0701089324886101 0.0922960064981821 -3.099911325862799 1.3626732529722807 2.050055466436567 -0.52005940152742 1.1400442982286016
3.50643086433 0.0701089324886101 0.0922960064981821 -3.099911325862799 1.3626732529722807 2.050055466436567 -0.52005940152742 1.1400442982286016
3.51642107964 0.0701089324886101 0.0922960064981821 -3.099911325862799 1.3626732529722807 2.050055466436567 -0.52005940152742 1.1400442982286016
3.51642107964 0.0701089324886101 0.0922960064981821 -3.099911325862799 1.3626732529722807 2.050055466436567 -0.52005940152742 1.1400442982286016
3.52625703812 0.0701089324886101 0.0922960064981821 -3.099911325862799 1.3626732529722807 2.050055466436567 -0.52005940152742 1.1400442982286016
3.52625703812 0.0701089324886101 0.0922960064981821 -3.099911325862799 1.3626732529722807 2.050055466436567 -0.52005940152742 1.1400442982286016
3.53644800186 0.0701089324886101 0.0922960064981821 -3.099911325862799 1.3626732529722807 2.050055466436567 -0.52005940152742 1.1400442982286016
3.53644800186 0.0701089324886101 0.0922960064981821 -3.099911325862799 1.3626732529722807 2.050055466436567 -0.52005940152742 1.1400442982286016
3.54638385773 0.0701089324886101 0.0922960064981821 -3.099911325862799 1.3626732529722807 2.050055466436567 -0.52005940152742 1.1400442982286016
3.54638385773 0.0701089324886101 0.0922960064981821 -3.099911325862799 1.3626732529722807 2.050055466436567 -0.52005940152742 1.1400442982286016
3.55635404587 0.0701089324886101 0.0922960064981821 -3.099911325862799 1.3626732529722807 2.050055466436567 -0.52005940152742 1.1400442982286016
3.55635404587 0.0701089324886101 0.0922960064981821 -3.099911325862799 1.3626732529722807 2.050055466436567 -0.52005940152742 1.1400442982286016
3.56720805168 0.0701089324886 0.0922960064982 -3.09991132586 1.36267325297 2.05005546644 -0.520054836068 1.14003973277
3.56720805168 0.0701089324886 0.0922960064982 -3.09991132586 1.36267325297 2.05005546644 -0.520054836068 1.14003973277
3.57595300674 0.0701089324886101 0.0922960064981821 -3.099911325862799 1.3626732529722807 2.050055466436567 -0.5200046160127103 1.1399895127138917
3.57595300674 0.0701089324886101 0.0922960064981821 -3.099911325862799 1.3626732529722807 2.050055466436567 -0.5200046160127103 1.1399895127138917
3.58602404594 0.0701089324886101 0.0922960064981821 -3.099911325862799 1.3626732529722807 2.050055466436567 -0.5200046160127103 1.1399895127138917
3.58602404594 0.0701089324886101 0.0922960064981821 -3.099911325862799 1.3626732529722807 2.050055466436567 -0.5200046160127103 1.1399895127138917
3.59601187706 0.0701089324886101 0.0922960064981821 -3.099911325862799 1.3626732529722807 2.050055466436567 -0.5200046160127103 1.1399895127138917
3.59601187706 0.0701089324886101 0.0922960064981821 -3.099911325862799 1.3626732529722807 2.050055466436567 -0.5200046160127103 1.1399895127138917
3.60630488396 0.0701089324886101 0.0922960064981821 -3.099911325862799 1.3626732529722807 2.050055466436567 -0.5200046160127103 1.1399895127138917
3.60630488396 0.0701089324886101 0.0922960064981821 -3.099911325862799 1.3626732529722807 2.050055466436567 -0.5200046160127103 1.1399895127138917
3.61633205414 0.0701089324886101 0.0922960064981821 -3.099911325862799 1.3626732529722807 2.050055466436567 -0.5200046160127103 1.1399895127138917
3.61633205414 0.0701089324886101 0.0922960064981821 -3.099911325862799 1.3626732529722807 2.050055466436567 -0.5200046160127103 1.1399895127138917
3.62634992599 0.0701089324886101 0.0922960064981821 -3.099911325862799 1.3626732529722807 2.050055466436567 -0.5200046160127103 1.1399895127138917
3.62634992599 0.0701089324886101 0.0922960064981821 -3.099911325862799 1.3626732529722807 2.050055466436567 -0.5200046160127103 1.1399895127138917
3.63642692566 0.0701089324886101 0.0922960064981821 -3.099911325862799 1.3626732529722807 2.050055466436567 -0.5200046160127103 1.1399895127138917
3.63642692566 0.0701089324886101 0.0922960064981821 -3.099911325862799 1.3626732529722807 2.050055466436567 -0.5200046160127103 1.1399895127138917
3.64648389816 0.0701089324886101 0.0922960064981821 -3.099911325862799 1.3626732529722807 2.050055466436567 -0.5200046160127103 1.1399895127138917
3.64648389816 0.0701089324886101 0.0922960064981821 -3.099911325862799 1.3626732529722807 2.050055466436567 -0.5200046160127103 1.1399895127138917
3.65643191338 0.0701089324886101 0.0922960064981821 -3.099911325862799 1.3626732529722807 2.050055466436567 -0.5200046160127103 1.1399895127138917
3.65643191338 0.0701089324886101 0.0922960064981821 -3.099911325862799 1.3626732529722807 2.050055466436567 -0.5200046160127103 1.1399895127138917
3.66634702682 0.0701089324886101 0.0922960064981821 -3.099911325862799 1.3626732529722807 2.050055466436567 -0.5200046160127103 1.1399895127138917
3.66634702682 0.0701089324886101 0.0922960064981821 -3.099911325862799 1.3626732529722807 2.050055466436567 -0.5200046160127103 1.1399895127138917
3.67635297775 0.0701089324886101 0.0922960064981821 -3.099911325862799 1.3626732529722807 2.050055466436567 -0.5200046160127103 1.1399895127138917
3.67635297775 0.0701089324886101 0.0922960064981821 -3.099911325862799 1.3626732529722807 2.050055466436567 -0.5200046160127103 1.1399895127138917
3.68620896339 0.0701089324886101 0.0922960064981821 -3.099911325862799 1.3626732529722807 2.050055466436567 -0.5200046160127103 1.1399895127138917
3.68620896339 0.0701089324886101 0.0922960064981821 -3.099911325862799 1.3626732529722807 2.050055466436567 -0.5200046160127103 1.1399895127138917
3.69640493393 0.0701089324886101 0.0922960064981821 -3.099911325862799 1.3626732529722807 2.050055466436567 -0.5200046160127103 1.1399895127138917
3.69640493393 0.0701089324886101 0.0922960064981821 -3.099911325862799 1.3626732529722807 2.050055466436567 -0.5200046160127103 1.1399895127138917
3.70635294914 0.0701089324886101 0.0922960064981821 -3.099911325862799 1.3626732529722807 2.050055466436567 -0.5200046160127103 1.1399895127138917
3.70635294914 0.0701089324886101 0.0922960064981821 -3.099911325862799 1.3626732529722807 2.050055466436567 -0.5200046160127103 1.1399895127138917
3.7163310051 0.0701089324886101 0.0922960064981821 -3.099911325862799 1.3626732529722807 2.050055466436567 -0.5200046160127103 1.1399895127138917
3.7163310051 0.0701089324886101 0.0922960064981821 -3.099911325862799 1.3626732529722807 2.050055466436567 -0.5200046160127103 1.1399895127138917
3.72634506226 0.0701089324886101 0.0922960064981821 -3.099911325862799 1.3626732529722807 2.050055466436567 -0.5200046160127103 1.1399895127138917
3.72634506226 0.0701089324886101 0.0922960064981821 -3.099911325862799 1.3626732529722807 2.050055466436567 -0.5200046160127103 1.1399895127138917
3.73633599281 0.0701089324886101 0.0922960064981821 -3.099911325862799 1.3626732529722807 2.050055466436567 -0.5200046160127103 1.1399895127138917
3.73633599281 0.0701089324886101 0.0922960064981821 -3.099911325862799 1.3626732529722807 2.050055466436567 -0.5200046160127103 1.1399895127138917
3.74635100365 0.0701089324886101 0.0922960064981821 -3.099911325862799 1.3626732529722807 2.050055466436567 -0.5200046160127103 1.1399895127138917
3.74635100365 0.0701089324886101 0.0922960064981821 -3.099911325862799 1.3626732529722807 2.050055466436567 -0.5200046160127103 1.1399895127138917
3.7564470768 0.0701089324886101 0.0922960064981821 -3.099911325862799 1.3626732529722807 2.050055466436567 -0.5200046160127103 1.1399895127138917
3.7564470768 0.0701089324886101 0.0922960064981821 -3.099911325862799 1.3626732529722807 2.050055466436567 -0.5200046160127103 1.1399895127138917
3.76636886597 0.0701089324886101 0.0922960064981821 -3.099911325862799 1.3626732529722807 2.050055466436567 -0.5200046160127103 1.1399895127138917
3.76636886597 0.0701089324886101 0.0922960064981821 -3.099911325862799 1.3626732529722807 2.050055466436567 -0.5200046160127103 1.1399895127138917
3.77641296387 0.0701089324886101 0.0922960064981821 -3.099911325862799 1.3626732529722807 2.050055466436567 -0.5200046160127103 1.1399895127138917
3.77641296387 0.0701089324886101 0.0922960064981821 -3.099911325862799 1.3626732529722807 2.050055466436567 -0.5200046160127103 1.1399895127138917
3.78652191162 0.0701089324886101 0.0922960064981821 -3.099911325862799 1.3626732529722807 2.050055466436567 -0.5200046160127103 1.1399895127138917
3.78652191162 0.0701089324886101 0.0922960064981821 -3.099911325862799 1.3626732529722807 2.050055466436567 -0.5200046160127103 1.1399895127138917
3.79629397392 0.0701089324886101 0.0922960064981821 -3.099911325862799 1.3626732529722807 2.050055466436567 -0.5200046160127103 1.1399895127138917
3.79629397392 0.0701089324886101 0.0922960064981821 -3.099911325862799 1.3626732529722807 2.050055466436567 -0.5200046160127103 1.1399895127138917
3.806442976 0.0701089324886101 0.0922960064981821 -3.099911325862799 1.3626732529722807 2.050055466436567 -0.5200046160127103 1.1399895127138917
3.806442976 0.0701089324886101 0.0922960064981821 -3.099911325862799 1.3626732529722807 2.050055466436567 -0.5200046160127103 1.1399895127138917
3.81628990173 0.0701089324886101 0.0922960064981821 -3.099911325862799 1.3626732529722807 2.050055466436567 -0.5200046160127103 1.1399895127138917
3.81628990173 0.0701089324886101 0.0922960064981821 -3.099911325862799 1.3626732529722807 2.050055466436567 -0.5200046160127103 1.1399895127138917
3.82638096809 0.0701089324886101 0.0922960064981821 -3.099911325862799 1.3626732529722807 2.050055466436567 -0.5200046160127103 1.1399895127138917
3.82638096809 0.0701089324886101 0.0922960064981821 -3.099911325862799 1.3626732529722807 2.050055466436567 -0.5200046160127103 1.1399895127138917
3.83643889427 0.0701089324886101 0.0922960064981821 -3.099911325862799 1.3626732529722807 2.050055466436567 -0.5200046160127103 1.1399895127138917
3.83643889427 0.0701089324886101 0.0922960064981821 -3.099911325862799 1.3626732529722807 2.050055466436567 -0.5200046160127103 1.1399895127138917
3.84637784958 0.0701089324886101 0.0922960064981821 -3.099911325862799 1.3626732529722807 2.050055466436567 -0.5200046160127103 1.1399895127138917
3.84637784958 0.0701089324886101 0.0922960064981821 -3.099911325862799 1.3626732529722807 2.050055466436567 -0.5200046160127103 1.1399895127138917
3.85643792152 0.0701089324886101 0.0922960064981821 -3.099911325862799 1.3626732529722807 2.050055466436567 -0.5200046160127103 1.1399895127138917
3.85643792152 0.0701089324886101 0.0922960064981821 -3.099911325862799 1.3626732529722807 2.050055466436567 -0.5200046160127103 1.1399895127138917
3.86621308327 0.0701089324886101 0.0922960064981821 -3.099911325862799 1.3626732529722807 2.050055466436567 -0.5200046160127103 1.1399895127138917
3.86621308327 0.0701089324886101 0.0922960064981821 -3.099911325862799 1.3626732529722807 2.050055466436567 -0.5200046160127103 1.1399895127138917
3.87642288208 0.0701089324886101 0.0922960064981821 -3.099911325862799 1.3626732529722807 2.050055466436567 -0.5200046160127103 1.1399895127138917
3.87642288208 0.0701089324886101 0.0922960064981821 -3.099911325862799 1.3626732529722807 2.050055466436567 -0.5200046160127103 1.1399895127138917
3.88639307022 0.0701089324886101 0.0922960064981821 -3.099911325862799 1.3626732529722807 2.050055466436567 -0.5200046160127103 1.1399895127138917
3.88639307022 0.0701089324886101 0.0922960064981821 -3.099911325862799 1.3626732529722807 2.050055466436567 -0.5200046160127103 1.1399895127138917
3.89631700516 0.0701089324886101 0.0922960064981821 -3.099911325862799 1.3626732529722807 2.050055466436567 -0.5200046160127103 1.1399895127138917
3.89631700516 0.0701089324886101 0.0922960064981821 -3.099911325862799 1.3626732529722807 2.050055466436567 -0.5200046160127103 1.1399895127138917
3.90625405312 0.0701089324886101 0.0922960064981821 -3.099911325862799 1.3626732529722807 2.050055466436567 -0.5200046160127103 1.1399895127138917
3.90625405312 0.0701089324886101 0.0922960064981821 -3.099911325862799 1.3626732529722807 2.050055466436567 -0.5200046160127103 1.1399895127138917
3.91649389267 0.0701089324886101 0.0922960064981821 -3.099911325862799 1.3626732529722807 2.050055466436567 -0.5200046160127103 1.1399895127138917
3.91649389267 0.0701089324886101 0.0922960064981821 -3.099911325862799 1.3626732529722807 2.050055466436567 -0.5200046160127103 1.1399895127138917
3.92629885674 0.0701089324886101 0.0922960064981821 -3.099911325862799 1.3626732529722807 2.050055466436567 -0.5200046160127103 1.1399895127138917
3.92629885674 0.0701089324886101 0.0922960064981821 -3.099911325862799 1.3626732529722807 2.050055466436567 -0.5200046160127103 1.1399895127138917
3.93640494347 0.0701089324886101 0.0922960064981821 -3.099911325862799 1.3626732529722807 2.050055466436567 -0.5200046160127103 1.1399895127138917
3.93640494347 0.0701089324886101 0.0922960064981821 -3.099911325862799 1.3626732529722807 2.050055466436567 -0.5200046160127103 1.1399895127138917
3.94634795189 0.0701089324886101 0.0922960064981821 -3.099911325862799 1.3626732529722807 2.050055466436567 -0.5200046160127103 1.1399895127138917
3.94634795189 0.0701089324886101 0.0922960064981821 -3.099911325862799 1.3626732529722807 2.050055466436567 -0.5200046160127103 1.1399895127138917
3.95648193359 0.0701089324886101 0.0922960064981821 -3.099911325862799 1.3626732529722807 2.050055466436567 -0.5200046160127103 1.1399895127138917
3.95648193359 0.0701089324886101 0.0922960064981821 -3.099911325862799 1.3626732529722807 2.050055466436567 -0.5200046160127103 1.1399895127138917
3.96635985374 0.0701089324886101 0.0922960064981821 -3.099911325862799 1.3626732529722807 2.050055466436567 -0.5200046160127103 1.1399895127138917
3.96635985374 0.0701089324886101 0.0922960064981821 -3.099911325862799 1.3626732529722807 2.050055466436567 -0.5200046160127103 1.1399895127138917
3.97646188736 0.0701089324886101 0.0922960064981821 -3.099911325862799 1.3626732529722807 2.050055466436567 -0.5200046160127103 1.1399895127138917
3.97646188736 0.0701089324886101 0.0922960064981821 -3.099911325862799 1.3626732529722807 2.050055466436567 -0.5200046160127103 1.1399895127138917
3.98648095131 0.0701089324886101 0.0922960064981821 -3.099911325862799 1.3626732529722807 2.050055466436567 -0.5200046160127103 1.1399895127138917
3.98648095131 0.0701089324886101 0.0922960064981821 -3.099911325862799 1.3626732529722807 2.050055466436567 -0.5200046160127103 1.1399895127138917
3.99645090103 0.0701089324886101 0.0922960064981821 -3.099911325862799 1.3626732529722807 2.050055466436567 -0.5200046160127103 1.1399895127138917
3.99645090103 0.0701089324886101 0.0922960064981821 -3.099911325862799 1.3626732529722807 2.050055466436567 -0.5200046160127103 1.1399895127138917
4.00635004044 0.0701089324886101 0.0922960064981821 -3.099911325862799 1.3626732529722807 2.050055466436567 -0.5200046160127103 1.1399895127138917
4.00635004044 0.0701089324886101 0.0922960064981821 -3.099911325862799 1.3626732529722807 2.050055466436567 -0.5200046160127103 1.1399895127138917
4.01620292664 0.0701089324886101 0.0922960064981821 -3.099911325862799 1.3626732529722807 2.050055466436567 -0.5200046160127103 1.1399895127138917
4.01620292664 0.0701089324886101 0.0922960064981821 -3.099911325862799 1.3626732529722807 2.050055466436567 -0.5200046160127103 1.1399895127138917
4.02633905411 0.0701089324886101 0.0922960064981821 -3.099911325862799 1.3626732529722807 2.050055466436567 -0.5200046160127103 1.1399895127138917
4.02633905411 0.0701089324886101 0.0922960064981821 -3.099911325862799 1.3626732529722807 2.050055466436567 -0.5200046160127103 1.1399895127138917
4.03639006615 0.0701089324886101 0.0922960064981821 -3.099911325862799 1.3626732529722807 2.050055466436567 -0.5200046160127103 1.1399895127138917
4.03639006615 0.0701089324886101 0.0922960064981821 -3.099911325862799 1.3626732529722807 2.050055466436567 -0.5200046160127103 1.1399895127138917
4.04634594917 0.0701089324886101 0.0922960064981821 -3.099911325862799 1.3626732529722807 2.050055466436567 -0.5200046160127103 1.1399895127138917
4.04634594917 0.0701089324886101 0.0922960064981821 -3.099911325862799 1.3626732529722807 2.050055466436567 -0.5200046160127103 1.1399895127138917
4.05649089813 0.0701089324886101 0.0922960064981821 -3.099911325862799 1.3626732529722807 2.050055466436567 -0.5200046160127103 1.1399895127138917
4.05649089813 0.0701089324886101 0.0922960064981821 -3.099911325862799 1.3626732529722807 2.050055466436567 -0.5200046160127103 1.1399895127138917
4.06624698639 0.0701089324886101 0.0922960064981821 -3.099911325862799 1.3626732529722807 2.050055466436567 -0.5200046160127103 1.1399895127138917
4.06624698639 0.0701089324886101 0.0922960064981821 -3.099911325862799 1.3626732529722807 2.050055466436567 -0.5200046160127103 1.1399895127138917
4.07645201683 0.0701089324886101 0.0922960064981821 -3.099911325862799 1.3626732529722807 2.050055466436567 -0.5200046160127103 1.1399895127138917
4.07645201683 0.0701089324886101 0.0922960064981821 -3.099911325862799 1.3626732529722807 2.050055466436567 -0.5200046160127103 1.1399895127138917
4.08632302284 0.0701089324886101 0.0922960064981821 -3.099911325862799 1.3626732529722807 2.050055466436567 -0.5200046160127103 1.1399895127138917
4.08632302284 0.0701089324886101 0.0922960064981821 -3.099911325862799 1.3626732529722807 2.050055466436567 -0.5200046160127103 1.1399895127138917
4.09639000893 0.0701089324886101 0.0922960064981821 -3.099911325862799 1.3626732529722807 2.050055466436567 -0.5200046160127103 1.1399895127138917
4.09639000893 0.0701089324886101 0.0922960064981821 -3.099911325862799 1.3626732529722807 2.050055466436567 -0.5200046160127103 1.1399895127138917
4.10651803017 0.0701089324886101 0.0922960064981821 -3.099911325862799 1.3626732529722807 2.050055466436567 -0.5200046160127103 1.1399895127138917
4.10651803017 0.0701089324886101 0.0922960064981821 -3.099911325862799 1.3626732529722807 2.050055466436567 -0.5200046160127103 1.1399895127138917
4.11625385284 0.0701089324886101 0.0922960064981821 -3.099911325862799 1.3626732529722807 2.050055466436567 -0.5200046160127103 1.1399895127138917
4.11625385284 0.0701089324886101 0.0922960064981821 -3.099911325862799 1.3626732529722807 2.050055466436567 -0.5200046160127103 1.1399895127138917
4.12623906136 0.0701089324886101 0.0922960064981821 -3.099911325862799 1.3626732529722807 2.050055466436567 -0.5200046160127103 1.1399895127138917
4.12623906136 0.0701089324886101 0.0922960064981821 -3.099911325862799 1.3626732529722807 2.050055466436567 -0.5200046160127103 1.1399895127138917
4.13636898994 0.0701089324886101 0.0922960064981821 -3.099911325862799 1.3626732529722807 2.050055466436567 -0.5200046160127103 1.1399895127138917
4.13636898994 0.0701089324886101 0.0922960064981821 -3.099911325862799 1.3626732529722807 2.050055466436567 -0.5200046160127103 1.1399895127138917
4.14626908302 0.0701089324886101 0.0922960064981821 -3.099911325862799 1.3626732529722807 2.050055466436567 -0.5200046160127103 1.1399895127138917
4.14626908302 0.0701089324886101 0.0922960064981821 -3.099911325862799 1.3626732529722807 2.050055466436567 -0.5200046160127103 1.1399895127138917
4.15636491776 0.0701089324886101 0.0922960064981821 -3.099911325862799 1.3626732529722807 2.050055466436567 -0.5200046160127103 1.1399895127138917
4.15636491776 0.0701089324886101 0.0922960064981821 -3.099911325862799 1.3626732529722807 2.050055466436567 -0.5200046160127103 1.1399895127138917
4.16633701324 0.0701089324886101 0.0922960064981821 -3.099911325862799 1.3626732529722807 2.050055466436567 -0.5200046160127103 1.1399895127138917
4.16633701324 0.0701089324886101 0.0922960064981821 -3.099911325862799 1.3626732529722807 2.050055466436567 -0.5200046160127103 1.1399895127138917
4.17645788193 0.0701089324886101 0.0922960064981821 -3.099911325862799 1.3626732529722807 2.050055466436567 -0.5200046160127103 1.1399895127138917
4.17645788193 0.0701089324886101 0.0922960064981821 -3.099911325862799 1.3626732529722807 2.050055466436567 -0.5200046160127103 1.1399895127138917
4.18602585793 0.0701089324886101 0.0922960064981821 -3.099911325862799 1.3626732529722807 2.050055466436567 -0.5200046160127103 1.1399895127138917
4.18602585793 0.0701089324886101 0.0922960064981821 -3.099911325862799 1.3626732529722807 2.050055466436567 -0.5200046160127103 1.1399895127138917
4.19633102417 0.0701089324886101 0.0922960064981821 -3.099911325862799 1.3626732529722807 2.050055466436567 -0.5200046160127103 1.1399895127138917
4.19633102417 0.0701089324886101 0.0922960064981821 -3.099911325862799 1.3626732529722807 2.050055466436567 -0.5200046160127103 1.1399895127138917
4.20619606972 0.0701089324886101 0.0922960064981821 -3.099911325862799 1.3626732529722807 2.050055466436567 -0.5200046160127103 1.1399895127138917
4.20619606972 0.0701089324886101 0.0922960064981821 -3.099911325862799 1.3626732529722807 2.050055466436567 -0.5200046160127103 1.1399895127138917
4.21638798714 0.0701089324886101 0.0922960064981821 -3.099911325862799 1.3626732529722807 2.050055466436567 -0.5200046160127103 1.1399895127138917
4.21638798714 0.0701089324886101 0.0922960064981821 -3.099911325862799 1.3626732529722807 2.050055466436567 -0.5200046160127103 1.1399895127138917
4.2263250351 0.0701089324886101 0.0922960064981821 -3.099911325862799 1.3626732529722807 2.050055466436567 -0.5200046160127103 1.1399895127138917
4.2263250351 0.0701089324886101 0.0922960064981821 -3.099911325862799 1.3626732529722807 2.050055466436567 -0.5200046160127103 1.1399895127138917
4.23629999161 0.0701089324886101 0.0922960064981821 -3.099911325862799 1.3626732529722807 2.050055466436567 -0.5200046160127103 1.1399895127138917
4.23629999161 0.0701089324886101 0.0922960064981821 -3.099911325862799 1.3626732529722807 2.050055466436567 -0.5200046160127103 1.1399895127138917
4.24601697922 0.0701089324886101 0.0923113465095338 -3.099911325862799 1.3626732529722807 2.050055466436567 -0.52005940152742 1.1400442982286016
4.24601697922 0.0701089324886101 0.0923113465095338 -3.099911325862799 1.3626732529722807 2.050055466436567 -0.52005940152742 1.1400442982286016
4.25600886345 0.0701089324886101 0.0923113465095338 -3.099911325862799 1.3626732529722807 2.050055466436567 -0.52005940152742 1.1400442982286016
4.25600886345 0.0701089324886101 0.0923113465095338 -3.099911325862799 1.3626732529722807 2.050055466436567 -0.52005940152742 1.1400442982286016
4.26621985435 0.0701089324886101 0.0923113465095338 -3.099911325862799 1.3626732529722807 2.050055466436567 -0.52005940152742 1.1400442982286016
4.26621985435 0.0701089324886101 0.0923113465095338 -3.099911325862799 1.3626732529722807 2.050055466436567 -0.52005940152742 1.1400442982286016
4.27638506889 0.0701089324886101 0.0923113465095338 -3.099911325862799 1.3626732529722807 2.050055466436567 -0.52005940152742 1.1400442982286016
4.27638506889 0.0701089324886101 0.0923113465095338 -3.099911325862799 1.3626732529722807 2.050055466436567 -0.52005940152742 1.1400442982286016
4.28633308411 0.0701089324886101 0.0923113465095338 -3.099911325862799 1.3626732529722807 2.050055466436567 -0.52005940152742 1.1400442982286016
4.28633308411 0.0701089324886101 0.0923113465095338 -3.099911325862799 1.3626732529722807 2.050055466436567 -0.52005940152742 1.1400442982286016
4.2960050106 0.0701089324886101 0.0923113465095338 -3.099343745442789 1.3626732529722807 2.050055466436567 -0.52005940152742 1.1400442982286016
4.2960050106 0.0701089324886101 0.0923113465095338 -3.099343745442789 1.3626732529722807 2.050055466436567 -0.52005940152742 1.1400442982286016
4.30616402626 0.0701089324886101 0.0923113465095338 -3.099343745442789 1.3626732529722807 2.050055466436567 -0.52005940152742 1.1400442982286016
4.30616402626 0.0701089324886101 0.0923113465095338 -3.099343745442789 1.3626732529722807 2.050055466436567 -0.52005940152742 1.1400442982286016
4.31639504433 0.0701089324886101 0.0923113465095338 -3.099343745442789 1.3626732529722807 2.050055466436567 -0.52005940152742 1.1400442982286016
4.31639504433 0.0701089324886101 0.0923113465095338 -3.099343745442789 1.3626732529722807 2.050055466436567 -0.52005940152742 1.1400442982286016
4.326390028 0.0701089324886101 0.0923113465095338 -3.098791505034132 1.3626732529722807 2.050055466436567 -0.5200365742296242 1.140021470930806
4.326390028 0.0701089324886101 0.0923113465095338 -3.098791505034132 1.3626732529722807 2.050055466436567 -0.5200365742296242 1.140021470930806
4.33641600609 0.0702009725567196 0.0923113465095338 -3.09791712438709 1.3626732529722807 2.050055466436567 -0.5200228778509468 1.1400077745521284
4.33641600609 0.0702009725567196 0.0923113465095338 -3.09791712438709 1.3626732529722807 2.050055466436567 -0.5200228778509468 1.1400077745521284
4.34620904922 0.0702009725567196 0.0923113465095338 -3.09791712438709 1.3626732529722807 2.050055466436567 -0.5200228778509468 1.1400077745521284
4.34620904922 0.0702009725567196 0.0923113465095338 -3.09791712438709 1.3626732529722807 2.050055466436567 -0.5200228778509468 1.1400077745521284
4.35625004768 0.0702009725567196 0.0923113465095338 -3.09791712438709 1.3626732529722807 2.050055466436567 -0.5200228778509468 1.1400077745521284
4.35625004768 0.0702009725567196 0.0923113465095338 -3.09791712438709 1.3626732529722807 2.050055466436567 -0.5200228778509468 1.1400077745521284
4.36641597748 0.0702009725567196 0.0923113465095338 -3.09791712438709 1.3626732529722807 2.050055466436567 -0.5200228778509468 1.1400077745521284
4.36641597748 0.0702009725567196 0.0923113465095338 -3.09791712438709 1.3626732529722807 2.050055466436567 -0.5200228778509468 1.1400077745521284
4.376527071 0.0702009725567196 0.0923113465095338 -3.09791712438709 1.3626732529722807 2.050055466436567 -0.5200228778509468 1.1400077745521284
4.376527071 0.0702009725567196 0.0923113465095338 -3.09791712438709 1.3626732529722807 2.050055466436567 -0.5200228778509468 1.1400077745521284
4.38619804382 0.0702009725567196 0.0923113465095338 -3.09791712438709 1.3626732529722807 2.050055466436567 -0.5200228778509468 1.1400077745521284
4.38619804382 0.0702009725567196 0.0923113465095338 -3.09791712438709 1.3626732529722807 2.050055466436567 -0.5200228778509468 1.1400077745521284
4.39645886421 0.0702009725567196 0.0923113465095338 -3.09791712438709 1.3626732529722807 2.050055466436567 -0.5200228778509468 1.1400077745521284
4.39645886421 0.0702009725567196 0.0923113465095338 -3.09791712438709 1.3626732529722807 2.050055466436567 -0.5200228778509468 1.1400077745521284
4.40635585785 0.0702009725567196 0.0923113465095338 -3.09791712438709 1.3626732529722807 2.050055466436567 -0.5200228778509468 1.1400077745521284
4.40635585785 0.0702009725567196 0.0923113465095338 -3.09791712438709 1.3626732529722807 2.050055466436567 -0.5200228778509468 1.1400077745521284
4.41629195213 0.0702009725567196 0.0923113465095338 -3.09791712438709 1.3626732529722807 2.050055466436567 -0.5200228778509468 1.1400077745521284
4.41629195213 0.0702009725567196 0.0923113465095338 -3.09791712438709 1.3626732529722807 2.050055466436567 -0.5200228778509468 1.1400077745521284
4.42635703087 0.0702009725567196 0.0923113465095338 -3.09791712438709 1.3626732529722807 2.050055466436567 -0.5200228778509468 1.1400077745521284
4.42635703087 0.0702009725567196 0.0923113465095338 -3.09791712438709 1.3626732529722807 2.050055466436567 -0.5200228778509468 1.1400077745521284
4.43641901016 0.0702009725567196 0.0923113465095338 -3.09791712438709 1.3626732529722807 2.050055466436567 -0.5200228778509468 1.1400077745521284
4.43641901016 0.0702009725567196 0.0923113465095338 -3.09791712438709 1.3626732529722807 2.050055466436567 -0.5200228778509468 1.1400077745521284
4.44647502899 0.0702009725567196 0.0923113465095338 -3.09791712438709 1.3626732529722807 2.050055466436567 -0.5200228778509468 1.1400077745521284
4.44647502899 0.0702009725567196 0.0923113465095338 -3.09791712438709 1.3626732529722807 2.050055466436567 -0.5200228778509468 1.1400077745521284
4.4562599659 0.0702009725567196 0.0923113465095338 -3.09791712438709 1.3626732529722807 2.050055466436567 -0.5200228778509468 1.1400077745521284
4.4562599659 0.0702009725567196 0.0923113465095338 -3.09791712438709 1.3626732529722807 2.050055466436567 -0.5200228778509468 1.1400077745521284
4.46618795395 0.0702009725567196 0.0923113465095338 -3.09791712438709 1.3626732529722807 2.050055466436567 -0.5200228778509468 1.1400077745521284
4.46618795395 0.0702009725567196 0.0923113465095338 -3.09791712438709 1.3626732529722807 2.050055466436567 -0.5200228778509468 1.1400077745521284
4.4762699604 0.0702009725567196 0.0923113465095338 -3.09791712438709 1.3626732529722807 2.050055466436567 -0.5200228778509468 1.1400077745521284
4.4762699604 0.0702009725567196 0.0923113465095338 -3.09791712438709 1.3626732529722807 2.050055466436567 -0.5200228778509468 1.1400077745521284
4.48623585701 0.0702009725567196 0.0923113465095338 -3.09791712438709 1.3626732529722807 2.050055466436567 -0.5200228778509468 1.1400077745521284
4.48623585701 0.0702009725567196 0.0923113465095338 -3.09791712438709 1.3626732529722807 2.050055466436567 -0.5200228778509468 1.1400077745521284
4.49635195732 0.0702009725567196 0.0923113465095338 -3.09791712438709 1.3626732529722807 2.050055466436567 -0.5200228778509468 1.1400077745521284
4.49635195732 0.0702009725567196 0.0923113465095338 -3.09791712438709 1.3626732529722807 2.050055466436567 -0.5200228778509468 1.1400077745521284
4.50635385513 0.0702009725567196 0.0923113465095338 -3.09791712438709 1.3626732529722807 2.050055466436567 -0.5200228778509468 1.1400077745521284
4.50635385513 0.0702009725567196 0.0923113465095338 -3.09791712438709 1.3626732529722807 2.050055466436567 -0.5200228778509468 1.1400077745521284
4.51627206802 0.0702009725567196 0.0923113465095338 -3.09791712438709 1.3626732529722807 2.050055466436567 -0.5200228778509468 1.1400077745521284
4.51627206802 0.0702009725567196 0.0923113465095338 -3.09791712438709 1.3626732529722807 2.050055466436567 -0.5200228778509468 1.1400077745521284
4.52632904053 0.0702009725567196 0.0923113465095338 -3.09791712438709 1.3626732529722807 2.050055466436567 -0.5200228778509468 1.1400077745521284
4.52632904053 0.0702009725567196 0.0923113465095338 -3.09791712438709 1.3626732529722807 2.050055466436567 -0.5200228778509468 1.1400077745521284
4.53639888763 0.0702009725567196 0.0923113465095338 -3.09791712438709 1.3626732529722807 2.050055466436567 -0.5200228778509468 1.1400077745521284
4.53639888763 0.0702009725567196 0.0923113465095338 -3.09791712438709 1.3626732529722807 2.050055466436567 -0.5200228778509468 1.1400077745521284
4.54624795914 0.0702009725567196 0.0923113465095338 -3.09791712438709 1.3626732529722807 2.050055466436567 -0.5200228778509468 1.1400077745521284
4.54624795914 0.0702009725567196 0.0923113465095338 -3.09791712438709 1.3626732529722807 2.050055466436567 -0.5200228778509468 1.1400077745521284
4.55642199516 0.0702009725567196 0.0923113465095338 -3.09791712438709 1.3626732529722807 2.050055466436567 -0.5200228778509468 1.1400077745521284
4.55642199516 0.0702009725567196 0.0923113465095338 -3.09791712438709 1.3626732529722807 2.050055466436567 -0.5200228778509468 1.1400077745521284
4.56631994247 0.0702009725567196 0.0923113465095338 -3.09791712438709 1.3626732529722807 2.050055466436567 -0.5200228778509468 1.1400077745521284
4.56631994247 0.0702009725567196 0.0923113465095338 -3.09791712438709 1.3626732529722807 2.050055466436567 -0.5200228778509468 1.1400077745521284
4.57605004311 0.0702009725567196 0.0923113465095338 -3.09791712438709 1.3626732529722807 2.050055466436567 -0.5200228778509468 1.1400077745521284
4.57605004311 0.0702009725567196 0.0923113465095338 -3.09791712438709 1.3626732529722807 2.050055466436567 -0.5200228778509468 1.1400077745521284
4.58612799644 0.0702009725567196 0.0923113465095338 -3.09791712438709 1.3626732529722807 2.050055466436567 -0.5200228778509468 1.1400077745521284
4.58612799644 0.0702009725567196 0.0923113465095338 -3.09791712438709 1.3626732529722807 2.050055466436567 -0.5200228778509468 1.1400077745521284
4.59620285034 0.0702009725567196 0.0923113465095338 -3.09791712438709 1.3626732529722807 2.050055466436567 -0.5200228778509468 1.1400077745521284
4.59620285034 0.0702009725567196 0.0923113465095338 -3.09791712438709 1.3626732529722807 2.050055466436567 -0.5200228778509468 1.1400077745521284
4.60628700256 0.0702009725567196 0.0923113465095338 -3.09791712438709 1.3626732529722807 2.050055466436567 -0.5200228778509468 1.1400077745521284
4.60628700256 0.0702009725567196 0.0923113465095338 -3.09791712438709 1.3626732529722807 2.050055466436567 -0.5200228778509468 1.1400077745521284
4.61652898788 0.0702009725567196 0.0923113465095338 -3.09791712438709 1.3626732529722807 2.050055466436567 -0.5200228778509468 1.1400077745521284
4.61652898788 0.0702009725567196 0.0923113465095338 -3.09791712438709 1.3626732529722807 2.050055466436567 -0.5200228778509468 1.1400077745521284
4.62629795074 0.0702009725567196 0.0923113465095338 -3.09791712438709 1.3626732529722807 2.050055466436567 -0.5200228778509468 1.1400077745521284
4.62629795074 0.0702009725567196 0.0923113465095338 -3.09791712438709 1.3626732529722807 2.050055466436567 -0.5200228778509468 1.1400077745521284
4.63643193245 0.0702009725567196 0.0923113465095338 -3.09791712438709 1.3626732529722807 2.050055466436567 -0.5200228778509468 1.1400077745521284
4.63643193245 0.0702009725567196 0.0923113465095338 -3.09791712438709 1.3626732529722807 2.050055466436567 -0.5200228778509468 1.1400077745521284
4.64634203911 0.0702009725567196 0.0923113465095338 -3.09791712438709 1.3626732529722807 2.050055466436567 -0.5200228778509468 1.1400077745521284
4.64634203911 0.0702009725567196 0.0923113465095338 -3.09791712438709 1.3626732529722807 2.050055466436567 -0.5200228778509468 1.1400077745521284
4.65643286705 0.0702009725567196 0.0923113465095338 -3.09791712438709 1.3626732529722807 2.050055466436567 -0.5200228778509468 1.1400077745521284
4.65643286705 0.0702009725567196 0.0923113465095338 -3.09791712438709 1.3626732529722807 2.050055466436567 -0.5200228778509468 1.1400077745521284
4.66645503044 0.0702009725567196 0.0923113465095338 -3.09791712438709 1.3626732529722807 2.050055466436567 -0.5200228778509468 1.1400077745521284
4.66645503044 0.0702009725567196 0.0923113465095338 -3.09791712438709 1.3626732529722807 2.050055466436567 -0.5200228778509468 1.1400077745521284
4.6763010025 0.0702009725567196 0.0923113465095338 -3.09791712438709 1.3626732529722807 2.050055466436567 -0.5200228778509468 1.1400077745521284
4.6763010025 0.0702009725567196 0.0923113465095338 -3.09791712438709 1.3626732529722807 2.050055466436567 -0.5200228778509468 1.1400077745521284
4.68614196777 0.0702009725567196 0.0923113465095338 -3.09791712438709 1.3626732529722807 2.050055466436567 -0.5200228778509468 1.1400077745521284
4.68614196777 0.0702009725567196 0.0923113465095338 -3.09791712438709 1.3626732529722807 2.050055466436567 -0.5200228778509468 1.1400077745521284
4.69636893272 0.0702009725567196 0.0923113465095338 -3.09791712438709 1.3626732529722807 2.050055466436567 -0.5200228778509468 1.1400077745521284
4.69636893272 0.0702009725567196 0.0923113465095338 -3.09791712438709 1.3626732529722807 2.050055466436567 -0.5200228778509468 1.1400077745521284
4.70618891716 0.0702009725567196 0.0923113465095338 -3.09791712438709 1.3626732529722807 2.050055466436567 -0.5200228778509468 1.1400077745521284
4.70618891716 0.0702009725567196 0.0923113465095338 -3.09791712438709 1.3626732529722807 2.050055466436567 -0.5200228778509468 1.1400077745521284
4.71637201309 0.0702009725567196 0.0923113465095338 -3.09791712438709 1.3626732529722807 2.050055466436567 -0.5200228778509468 1.1400077745521284
4.71637201309 0.0702009725567196 0.0923113465095338 -3.09791712438709 1.3626732529722807 2.050055466436567 -0.5200228778509468 1.1400077745521284
4.72633194923 0.0702009725567196 0.0923113465095338 -3.09791712438709 1.3626732529722807 2.050055466436567 -0.5200228778509468 1.1400077745521284
4.72633194923 0.0702009725567196 0.0923113465095338 -3.09791712438709 1.3626732529722807 2.050055466436567 -0.5200228778509468 1.1400077745521284
4.73640584946 0.0702009725567196 0.0923113465095338 -3.09791712438709 1.3626732529722807 2.050055466436567 -0.5200228778509468 1.1400077745521284
4.73640584946 0.0702009725567196 0.0923113465095338 -3.09791712438709 1.3626732529722807 2.050055466436567 -0.5200228778509468 1.1400077745521284
4.74634003639 0.0702009725567196 0.0923113465095338 -3.09791712438709 1.3626732529722807 2.050055466436567 -0.5200228778509468 1.1400077745521284
4.74634003639 0.0702009725567196 0.0923113465095338 -3.09791712438709 1.3626732529722807 2.050055466436567 -0.5200228778509468 1.1400077745521284
4.7562789917 0.0702009725567196 0.0923113465095338 -3.09791712438709 1.3626732529722807 2.050055466436567 -0.5200228778509468 1.1400077745521284
4.7562789917 0.0702009725567196 0.0923113465095338 -3.09791712438709 1.3626732529722807 2.050055466436567 -0.5200228778509468 1.1400077745521284
4.76632404327 0.0702009725567196 0.0923113465095338 -3.09791712438709 1.3626732529722807 2.050055466436567 -0.5200228778509468 1.1400077745521284
4.76632404327 0.0702009725567196 0.0923113465095338 -3.09791712438709 1.3626732529722807 2.050055466436567 -0.5200228778509468 1.1400077745521284
4.77644395828 0.0702009725567196 0.0923113465095338 -3.09791712438709 1.3626732529722807 2.050055466436567 -0.5200228778509468 1.1400077745521284
4.77644395828 0.0702009725567196 0.0923113465095338 -3.09791712438709 1.3626732529722807 2.050055466436567 -0.5200228778509468 1.1400077745521284
4.78637886047 0.0702009725567196 0.0923113465095338 -3.09791712438709 1.3626732529722807 2.050055466436567 -0.5200228778509468 1.1400077745521284
4.78637886047 0.0702009725567196 0.0923113465095338 -3.09791712438709 1.3626732529722807 2.050055466436567 -0.5200228778509468 1.1400077745521284
4.79634404182 0.0702009725567196 0.0923113465095338 -3.09791712438709 1.3626732529722807 2.050055466436567 -0.5200228778509468 1.1400077745521284
4.79634404182 0.0702009725567196 0.0923113465095338 -3.09791712438709 1.3626732529722807 2.050055466436567 -0.5200228778509468 1.1400077745521284
4.80618095398 0.0702009725567196 0.0923113465095338 -3.09791712438709 1.3626732529722807 2.050055466436567 -0.5200228778509468 1.1400077745521284
4.80618095398 0.0702009725567196 0.0923113465095338 -3.09791712438709 1.3626732529722807 2.050055466436567 -0.5200228778509468 1.1400077745521284
4.81626391411 0.0702009725567196 0.0923113465095338 -3.09791712438709 1.3626732529722807 2.050055466436567 -0.5200228778509468 1.1400077745521284
4.81626391411 0.0702009725567196 0.0923113465095338 -3.09791712438709 1.3626732529722807 2.050055466436567 -0.5200228778509468 1.1400077745521284
4.82620096207 0.0702009725567196 0.0923113465095338 -3.09791712438709 1.3626732529722807 2.050055466436567 -0.5200228778509468 1.1400077745521284
4.82620096207 0.0702009725567196 0.0923113465095338 -3.09791712438709 1.3626732529722807 2.050055466436567 -0.5200228778509468 1.1400077745521284
4.83639502525 0.0702009725567196 0.0923113465095338 -3.09791712438709 1.3626732529722807 2.050055466436567 -0.5200228778509468 1.1400077745521284
4.83639502525 0.0702009725567196 0.0923113465095338 -3.09791712438709 1.3626732529722807 2.050055466436567 -0.5200228778509468 1.1400077745521284
4.84636497498 0.0702009725567196 0.0923113465095338 -3.09791712438709 1.3626732529722807 2.050055466436567 -0.5200228778509468 1.1400077745521284
4.84636497498 0.0702009725567196 0.0923113465095338 -3.09791712438709 1.3626732529722807 2.050055466436567 -0.5200228778509468 1.1400077745521284
4.85625004768 0.0702009725567196 0.0923113465095338 -3.09791712438709 1.3626732529722807 2.050055466436567 -0.5200228778509468 1.1400077745521284
4.85625004768 0.0702009725567196 0.0923113465095338 -3.09791712438709 1.3626732529722807 2.050055466436567 -0.5200228778509468 1.1400077745521284
4.866314888 0.0702009725567196 0.0923113465095338 -3.09791712438709 1.3626732529722807 2.050055466436567 -0.5200228778509468 1.1400077745521284
4.866314888 0.0702009725567196 0.0923113465095338 -3.09791712438709 1.3626732529722807 2.050055466436567 -0.5200228778509468 1.1400077745521284
4.87642097473 0.0702009725567196 0.0923113465095338 -3.09791712438709 1.3626732529722807 2.050055466436567 -0.5200228778509468 1.1400077745521284
4.87642097473 0.0702009725567196 0.0923113465095338 -3.09791712438709 1.3626732529722807 2.050055466436567 -0.5200228778509468 1.1400077745521284
4.88622689247 0.0702009725567196 0.0923113465095338 -3.09791712438709 1.3626732529722807 2.050055466436567 -0.5200228778509468 1.1400077745521284
4.88622689247 0.0702009725567196 0.0923113465095338 -3.09791712438709 1.3626732529722807 2.050055466436567 -0.5200228778509468 1.1400077745521284
4.89642000198 0.0702009725567196 0.0923113465095338 -3.09791712438709 1.3626732529722807 2.050055466436567 -0.5200228778509468 1.1400077745521284
4.89642000198 0.0702009725567196 0.0923113465095338 -3.09791712438709 1.3626732529722807 2.050055466436567 -0.5200228778509468 1.1400077745521284
4.90623688698 0.0702009725567196 0.0923113465095338 -3.09791712438709 1.3626732529722807 2.050055466436567 -0.5200228778509468 1.1400077745521284
4.90623688698 0.0702009725567196 0.0923113465095338 -3.09791712438709 1.3626732529722807 2.050055466436567 -0.5200228778509468 1.1400077745521284
4.91629099846 0.0702009725567196 0.0923113465095338 -3.09791712438709 1.3626732529722807 2.050055466436567 -0.5200228778509468 1.1400077745521284
4.91629099846 0.0702009725567196 0.0923113465095338 -3.09791712438709 1.3626732529722807 2.050055466436567 -0.5200228778509468 1.1400077745521284
4.9262650013 0.0702009725567196 0.0923113465095338 -3.09791712438709 1.3626732529722807 2.050055466436567 -0.5200228778509468 1.1400077745521284
4.9262650013 0.0702009725567196 0.0923113465095338 -3.09791712438709 1.3626732529722807 2.050055466436567 -0.5200228778509468 1.1400077745521284
4.93637800217 0.0702009725567196 0.0923113465095338 -3.09791712438709 1.3626732529722807 2.050055466436567 -0.5200228778509468 1.1400077745521284
4.93637800217 0.0702009725567196 0.0923113465095338 -3.09791712438709 1.3626732529722807 2.050055466436567 -0.5200228778509468 1.1400077745521284
4.94632697105 0.0702009725567196 0.0923113465095338 -3.09791712438709 1.3626732529722807 2.050055466436567 -0.5200228778509468 1.1400077745521284
4.94632697105 0.0702009725567196 0.0923113465095338 -3.09791712438709 1.3626732529722807 2.050055466436567 -0.5200228778509468 1.1400077745521284
4.95636892319 0.0702009725567196 0.0923113465095338 -3.09791712438709 1.3626732529722807 2.050055466436567 -0.5200228778509468 1.1400077745521284
4.95636892319 0.0702009725567196 0.0923113465095338 -3.09791712438709 1.3626732529722807 2.050055466436567 -0.5200228778509468 1.1400077745521284
4.96633195877 0.0702009725567196 0.0923113465095338 -3.09791712438709 1.3626732529722807 2.050055466436567 -0.5200228778509468 1.1400077745521284
4.96633195877 0.0702009725567196 0.0923113465095338 -3.09791712438709 1.3626732529722807 2.050055466436567 -0.5200228778509468 1.1400077745521284
4.97645688057 0.0702009725567196 0.0923113465095338 -3.09791712438709 1.3626732529722807 2.050055466436567 -0.5200228778509468 1.1400077745521284
4.97645688057 0.0702009725567196 0.0923113465095338 -3.09791712438709 1.3626732529722807 2.050055466436567 -0.5200228778509468 1.1400077745521284
4.98633503914 0.0702009725567196 0.0923113465095338 -3.09791712438709 1.3626732529722807 2.050055466436567 -0.5200228778509468 1.1400077745521284
4.98633503914 0.0702009725567196 0.0923113465095338 -3.09791712438709 1.3626732529722807 2.050055466436567 -0.5200228778509468 1.1400077745521284
4.99644303322 0.0702009725567196 0.0923113465095338 -3.09791712438709 1.3626732529722807 2.050055466436567 -0.5200228778509468 1.1400077745521284
4.99644303322 0.0702009725567196 0.0923113465095338 -3.09791712438709 1.3626732529722807 2.050055466436567 -0.5200228778509468 1.1400077745521284
5.00645208359 0.0702009725567196 0.0923113465095338 -3.09791712438709 1.3626732529722807 2.050055466436567 -0.5200228778509468 1.1400077745521284
5.00645208359 0.0702009725567196 0.0923113465095338 -3.09791712438709 1.3626732529722807 2.050055466436567 -0.5200228778509468 1.1400077745521284
5.0163359642 0.0702009725567196 0.0923113465095338 -3.09791712438709 1.3626732529722807 2.050055466436567 -0.5200228778509468 1.1400077745521284
5.0163359642 0.0702009725567196 0.0923113465095338 -3.09791712438709 1.3626732529722807 2.050055466436567 -0.5200228778509468 1.1400077745521284
5.02630996704 0.0702009725567196 0.0923113465095338 -3.09791712438709 1.3626732529722807 2.050055466436567 -0.5200228778509468 1.1400077745521284
5.02630996704 0.0702009725567196 0.0923113465095338 -3.09791712438709 1.3626732529722807 2.050055466436567 -0.5200228778509468 1.1400077745521284
5.03641986847 0.0702009725567196 0.0923113465095338 -3.09791712438709 1.3626732529722807 2.050055466436567 -0.5200228778509468 1.1400077745521284
5.03641986847 0.0702009725567196 0.0923113465095338 -3.09791712438709 1.3626732529722807 2.050055466436567 -0.5200228778509468 1.1400077745521284
5.04623389244 0.0702009725567196 0.0923113465095338 -3.09791712438709 1.3626732529722807 2.050055466436567 -0.5200228778509468 1.1400077745521284
5.04623389244 0.0702009725567196 0.0923113465095338 -3.09791712438709 1.3626732529722807 2.050055466436567 -0.5200228778509468 1.1400077745521284
5.0563929081 0.0702009725567196 0.0923113465095338 -3.09791712438709 1.3626732529722807 2.050055466436567 -0.5200228778509468 1.1400077745521284
5.0563929081 0.0702009725567196 0.0923113465095338 -3.09791712438709 1.3626732529722807 2.050055466436567 -0.5200228778509468 1.1400077745521284
5.06629395485 0.0702009725567196 0.0923113465095338 -3.09791712438709 1.3626732529722807 2.050055466436567 -0.5200228778509468 1.1400077745521284
5.06629395485 0.0702009725567196 0.0923113465095338 -3.09791712438709 1.3626732529722807 2.050055466436567 -0.5200228778509468 1.1400077745521284
5.07640600204 0.0702009725567196 0.0923113465095338 -3.09791712438709 1.3626732529722807 2.050055466436567 -0.5200228778509468 1.1400077745521284
5.07640600204 0.0702009725567196 0.0923113465095338 -3.09791712438709 1.3626732529722807 2.050055466436567 -0.5200228778509468 1.1400077745521284
5.08632993698 0.0702009725567196 0.0923113465095338 -3.09791712438709 1.3626732529722807 2.050055466436567 -0.5200228778509468 1.1400077745521284
5.08632993698 0.0702009725567196 0.0923113465095338 -3.09791712438709 1.3626732529722807 2.050055466436567 -0.5200228778509468 1.1400077745521284
5.0964858532 0.0702009725567196 0.0923113465095338 -3.09791712438709 1.3626732529722807 2.050055466436567 -0.5200228778509468 1.1400077745521284
5.0964858532 0.0702009725567196 0.0923113465095338 -3.09791712438709 1.3626732529722807 2.050055466436567 -0.5200228778509468 1.1400077745521284
5.10602593422 0.0702009725567196 0.0923113465095338 -3.09791712438709 1.3626732529722807 2.050055466436567 -0.5200228778509468 1.1400077745521284
5.10602593422 0.0702009725567196 0.0923113465095338 -3.09791712438709 1.3626732529722807 2.050055466436567 -0.5200228778509468 1.1400077745521284
5.11635899544 0.0702009725567196 0.0923113465095338 -3.09791712438709 1.3626732529722807 2.050055466436567 -0.5200228778509468 1.1400077745521284
5.11635899544 0.0702009725567196 0.0923113465095338 -3.09791712438709 1.3626732529722807 2.050055466436567 -0.5200228778509468 1.1400077745521284
5.12626600266 0.0702009725567196 0.0923113465095338 -3.09791712438709 1.3626732529722807 2.050055466436567 -0.5200228778509468 1.1400077745521284
5.12626600266 0.0702009725567196 0.0923113465095338 -3.09791712438709 1.3626732529722807 2.050055466436567 -0.5200228778509468 1.1400077745521284
5.13647508621 0.0702009725567196 0.0923113465095338 -3.09791712438709 1.3626732529722807 2.050055466436567 -0.5200228778509468 1.1400077745521284
5.13647508621 0.0702009725567196 0.0923113465095338 -3.09791712438709 1.3626732529722807 2.050055466436567 -0.5200228778509468 1.1400077745521284
5.14626407623 0.0702009725567196 0.0923113465095338 -3.09791712438709 1.3626732529722807 2.050055466436567 -0.5200228778509468 1.1400077745521284
5.14626407623 0.0702009725567196 0.0923113465095338 -3.09791712438709 1.3626732529722807 2.050055466436567 -0.5200228778509468 1.1400077745521284
5.15641498566 0.0702009725567196 0.0923113465095338 -3.09791712438709 1.3626732529722807 2.050055466436567 -0.5200228778509468 1.1400077745521284
5.15641498566 0.0702009725567196 0.0923113465095338 -3.09791712438709 1.3626732529722807 2.050055466436567 -0.5200228778509468 1.1400077745521284
5.16633486748 0.0702009725567196 0.0923113465095338 -3.09791712438709 1.3626732529722807 2.050055466436567 -0.5200228778509468 1.1400077745521284
5.16633486748 0.0702009725567196 0.0923113465095338 -3.09791712438709 1.3626732529722807 2.050055466436567 -0.5200228778509468 1.1400077745521284
5.1763010025 0.0702009725567196 0.0923113465095338 -3.09791712438709 1.3626732529722807 2.050055466436567 -0.5200228778509468 1.1400077745521284
5.1763010025 0.0702009725567196 0.0923113465095338 -3.09791712438709 1.3626732529722807 2.050055466436567 -0.5200228778509468 1.1400077745521284
5.18633008003 0.0702009725567196 0.0923113465095338 -3.09791712438709 1.3626732529722807 2.050055466436567 -0.5200228778509468 1.1400077745521284
5.18633008003 0.0702009725567196 0.0923113465095338 -3.09791712438709 1.3626732529722807 2.050055466436567 -0.5200228778509468 1.1400077745521284
5.19640803337 0.0702009725567196 0.0923113465095338 -3.09791712438709 1.3626732529722807 2.050055466436567 -0.5200228778509468 1.1400077745521284
5.19640803337 0.0702009725567196 0.0923113465095338 -3.09791712438709 1.3626732529722807 2.050055466436567 -0.5200228778509468 1.1400077745521284
5.2063639164 0.0702009725567196 0.0923113465095338 -3.09791712438709 1.3626732529722807 2.050055466436567 -0.5200228778509468 1.1400077745521284
5.2063639164 0.0702009725567196 0.0923113465095338 -3.09791712438709 1.3626732529722807 2.050055466436567 -0.5200228778509468 1.1400077745521284
5.2164349556 0.0702009725567196 0.0923113465095338 -3.09791712438709 1.3626732529722807 2.050055466436567 -0.5200228778509468 1.1400077745521284
5.2164349556 0.0702009725567196 0.0923113465095338 -3.09791712438709 1.3626732529722807 2.050055466436567 -0.5200228778509468 1.1400077745521284
5.22633004189 0.0702009725567196 0.0923113465095338 -3.09791712438709 1.3626732529722807 2.050055466436567 -0.5200228778509468 1.1400077745521284
5.22633004189 0.0702009725567196 0.0923113465095338 -3.09791712438709 1.3626732529722807 2.050055466436567 -0.5200228778509468 1.1400077745521284
5.2363049984 0.0702009725567196 0.0923113465095338 -3.09791712438709 1.3626732529722807 2.050055466436567 -0.5200228778509468 1.1400077745521284
5.2363049984 0.0702009725567196 0.0923113465095338 -3.09791712438709 1.3626732529722807 2.050055466436567 -0.5200228778509468 1.1400077745521284
5.24633193016 0.0702009725567196 0.0923113465095338 -3.09791712438709 1.3626732529722807 2.050055466436567 -0.5200228778509468 1.1400077745521284
5.24633193016 0.0702009725567196 0.0923113465095338 -3.09791712438709 1.3626732529722807 2.050055466436567 -0.5200228778509468 1.1400077745521284
5.25620388985 0.0702009725567196 0.0923113465095338 -3.09791712438709 1.3626732529722807 2.050055466436567 -0.5200228778509468 1.1400077745521284
5.25620388985 0.0702009725567196 0.0923113465095338 -3.09791712438709 1.3626732529722807 2.050055466436567 -0.5200228778509468 1.1400077745521284
5.26630496979 0.0702009725567196 0.0923113465095338 -3.09791712438709 1.3626732529722807 2.050055466436567 -0.5200228778509468 1.1400077745521284
5.26630496979 0.0702009725567196 0.0923113465095338 -3.09791712438709 1.3626732529722807 2.050055466436567 -0.5200228778509468 1.1400077745521284
5.27644491196 0.0702009725567196 0.0923113465095338 -3.09791712438709 1.3626732529722807 2.050055466436567 -0.5200228778509468 1.1400077745521284
5.27644491196 0.0702009725567196 0.0923113465095338 -3.09791712438709 1.3626732529722807 2.050055466436567 -0.5200228778509468 1.1400077745521284
5.28637504578 0.0702009725567196 0.0923113465095338 -3.09791712438709 1.3626732529722807 2.050055466436567 -0.5200228778509468 1.1400077745521284
5.28637504578 0.0702009725567196 0.0923113465095338 -3.09791712438709 1.3626732529722807 2.050055466436567 -0.5200228778509468 1.1400077745521284
5.29643297195 0.0702009725567196 0.0923113465095338 -3.09791712438709 1.3626732529722807 2.050055466436567 -0.5200228778509468 1.1400077745521284
5.29643297195 0.0702009725567196 0.0923113465095338 -3.09791712438709 1.3626732529722807 2.050055466436567 -0.5200228778509468 1.1400077745521284
5.30623888969 0.0702009725567196 0.0923113465095338 -3.09791712438709 1.3626732529722807 2.050055466436567 -0.5200228778509468 1.1400077745521284
5.30623888969 0.0702009725567196 0.0923113465095338 -3.09791712438709 1.3626732529722807 2.050055466436567 -0.5200228778509468 1.1400077745521284
5.3163690567 0.0702009725567196 0.0923113465095338 -3.09791712438709 1.3626732529722807 2.050055466436567 -0.5200228778509468 1.1400077745521284
5.3163690567 0.0702009725567196 0.0923113465095338 -3.09791712438709 1.3626732529722807 2.050055466436567 -0.5200228778509468 1.1400077745521284
5.32633590698 0.0702009725567196 0.0923113465095338 -3.09791712438709 1.3626732529722807 2.050055466436567 -0.5200228778509468 1.1400077745521284
5.32633590698 0.0702009725567196 0.0923113465095338 -3.09791712438709 1.3626732529722807 2.050055466436567 -0.5200228778509468 1.1400077745521284
5.33640289307 0.0702009725567196 0.0923113465095338 -3.09791712438709 1.3626732529722807 2.050055466436567 -0.5200228778509468 1.1400077745521284
5.33640289307 0.0702009725567196 0.0923113465095338 -3.09791712438709 1.3626732529722807 2.050055466436567 -0.5200228778509468 1.1400077745521284
5.34620499611 0.0702009725567196 0.0923113465095338 -3.09791712438709 1.3626732529722807 2.050055466436567 -0.5200228778509468 1.1400077745521284
5.34620499611 0.0702009725567196 0.0923113465095338 -3.09791712438709 1.3626732529722807 2.050055466436567 -0.5200228778509468 1.1400077745521284
5.3564350605 0.0702009725567196 0.0923113465095338 -3.09791712438709 1.3626732529722807 2.050055466436567 -0.5200228778509468 1.1400077745521284
5.3564350605 0.0702009725567196 0.0923113465095338 -3.09791712438709 1.3626732529722807 2.050055466436567 -0.5200228778509468 1.1400077745521284
5.36620092392 0.0702009725567196 0.0923113465095338 -3.09791712438709 1.3626732529722807 2.050055466436567 -0.5200228778509468 1.1400077745521284
5.36620092392 0.0702009725567196 0.0923113465095338 -3.09791712438709 1.3626732529722807 2.050055466436567 -0.5200228778509468 1.1400077745521284
5.37637090683 0.0702009725567196 0.0923113465095338 -3.09791712438709 1.3626732529722807 2.050055466436567 -0.5200228778509468 1.1400077745521284
5.37637090683 0.0702009725567196 0.0923113465095338 -3.09791712438709 1.3626732529722807 2.050055466436567 -0.5200228778509468 1.1400077745521284
5.38634204865 0.0702009725567196 0.0923113465095338 -3.09791712438709 1.3626732529722807 2.050055466436567 -0.5200228778509468 1.1400077745521284
5.38634204865 0.0702009725567196 0.0923113465095338 -3.09791712438709 1.3626732529722807 2.050055466436567 -0.5200228778509468 1.1400077745521284
5.39641785622 0.0702009725567196 0.0923113465095338 -3.09791712438709 1.3626732529722807 2.050055466436567 -0.5200228778509468 1.1400077745521284
5.39641785622 0.0702009725567196 0.0923113465095338 -3.09791712438709 1.3626732529722807 2.050055466436567 -0.5200228778509468 1.1400077745521284
5.4064180851 0.0702009725567196 0.0923113465095338 -3.09791712438709 1.3626732529722807 2.050055466436567 -0.5200228778509468 1.1400077745521284
5.4064180851 0.0702009725567196 0.0923113465095338 -3.09791712438709 1.3626732529722807 2.050055466436567 -0.5200228778509468 1.1400077745521284
5.41641902924 0.0702009725567196 0.0923113465095338 -3.09791712438709 1.3626732529722807 2.050055466436567 -0.5200228778509468 1.1400077745521284
5.41641902924 0.0702009725567196 0.0923113465095338 -3.09791712438709 1.3626732529722807 2.050055466436567 -0.5200228778509468 1.1400077745521284
5.42633104324 0.0702009725567196 0.0923113465095338 -3.09791712438709 1.3626732529722807 2.050055466436567 -0.5200228778509468 1.1400077745521284
5.42633104324 0.0702009725567196 0.0923113465095338 -3.09791712438709 1.3626732529722807 2.050055466436567 -0.5200228778509468 1.1400077745521284
5.43650007248 0.0702009725567196 0.0923113465095338 -3.09791712438709 1.3626732529722807 2.050055466436567 -0.5200228778509468 1.1400077745521284
5.43650007248 0.0702009725567196 0.0923113465095338 -3.09791712438709 1.3626732529722807 2.050055466436567 -0.5200228778509468 1.1400077745521284
5.44626808167 0.0702009725567196 0.0923113465095338 -3.09791712438709 1.3626732529722807 2.050055466436567 -0.5200228778509468 1.1400077745521284
5.44626808167 0.0702009725567196 0.0923113465095338 -3.09791712438709 1.3626732529722807 2.050055466436567 -0.5200228778509468 1.1400077745521284
5.4562690258 0.0702009725567196 0.0923113465095338 -3.09791712438709 1.3626732529722807 2.050055466436567 -0.5200228778509468 1.1400077745521284
5.4562690258 0.0702009725567196 0.0923113465095338 -3.09791712438709 1.3626732529722807 2.050055466436567 -0.5200228778509468 1.1400077745521284
5.46632289886 0.0702009725567196 0.0923113465095338 -3.09791712438709 1.3626732529722807 2.050055466436567 -0.5200228778509468 1.1400077745521284
5.46632289886 0.0702009725567196 0.0923113465095338 -3.09791712438709 1.3626732529722807 2.050055466436567 -0.5200228778509468 1.1400077745521284
5.47621798515 0.0702009725567196 0.0923113465095338 -3.09791712438709 1.3626732529722807 2.050055466436567 -0.5200228778509468 1.1400077745521284
5.47621798515 0.0702009725567196 0.0923113465095338 -3.09791712438709 1.3626732529722807 2.050055466436567 -0.5200228778509468 1.1400077745521284
5.48633885384 0.0702009725567196 0.0923113465095338 -3.09791712438709 1.3626732529722807 2.050055466436567 -0.5200228778509468 1.1400077745521284
5.48633885384 0.0702009725567196 0.0923113465095338 -3.09791712438709 1.3626732529722807 2.050055466436567 -0.5200228778509468 1.1400077745521284
5.49639105797 0.0702009725567196 0.0923113465095338 -3.09791712438709 1.3626732529722807 2.050055466436567 -0.5200228778509468 1.1400077745521284
5.49639105797 0.0702009725567196 0.0923113465095338 -3.09791712438709 1.3626732529722807 2.050055466436567 -0.5200228778509468 1.1400077745521284
5.50648188591 0.0702009725567196 0.0923113465095338 -3.09791712438709 1.3626732529722807 2.050055466436567 -0.5200228778509468 1.1400077745521284
5.50648188591 0.0702009725567196 0.0923113465095338 -3.09791712438709 1.3626732529722807 2.050055466436567 -0.5200228778509468 1.1400077745521284
5.51641201973 0.0702009725567196 0.0923113465095338 -3.09791712438709 1.3626732529722807 2.050055466436567 -0.5200228778509468 1.1400077745521284
5.51641201973 0.0702009725567196 0.0923113465095338 -3.09791712438709 1.3626732529722807 2.050055466436567 -0.5200228778509468 1.1400077745521284
