riccardo-csl/Motion-Planning-for-TIAGo-Manipulator/T3_G_7/head_scan/head_scan/tiago_traiettorie_SG/2a-4b/place_4b_rep1.txt
time arm_1_joint arm_2_joint arm_3_joint arm_4_joint arm_5_joint arm_6_joint arm_7_joint
0.554688930511 0.4011310374449676 -0.1313920390309714 -1.0209102674020156 2.1280631193607817 2.0501011210321587 -0.5200046160127103 1.1399895127138917
0.564796924591 0.4011310374449676 -0.1313920390309714 -1.0209102674020156 2.1280631193607817 2.0501011210321587 -0.5200046160127103 1.1399895127138917
0.564796924591 0.4011310374449676 -0.1313920390309714 -1.0209102674020156 2.1280631193607817 2.0501011210321587 -0.5200046160127103 1.1399895127138917
0.575011968613 0.4011310374449676 -0.1313920390309714 -1.0209102674020156 2.1280631193607817 2.0501011210321587 -0.5200046160127103 1.1399895127138917
0.575011968613 0.4011310374449676 -0.1313920390309714 -1.0209102674020156 2.1280631193607817 2.0501011210321587 -0.5200046160127103 1.1399895127138917
0.584904909134 0.4011310374449676 -0.1313920390309714 -1.0209102674020156 2.1280631193607817 2.0501011210321587 -0.5200046160127103 1.1399895127138917
0.584904909134 0.4011310374449676 -0.1313920390309714 -1.0209102674020156 2.1280631193607817 2.0501011210321587 -0.5200046160127103 1.1399895127138917
0.595000982285 0.4011310374449676 -0.1313920390309714 -1.0209102674020156 2.1280631193607817 2.0501011210321587 -0.5200046160127103 1.1399895127138917
0.595000982285 0.4011310374449676 -0.1313920390309714 -1.0209102674020156 2.1280631193607817 2.0501011210321587 -0.5200046160127103 1.1399895127138917
0.604963064194 0.4011310374449676 -0.1313920390309714 -1.0209102674020156 2.1280631193607817 2.0501011210321587 -0.5200046160127103 1.1399895127138917
0.604963064194 0.4011310374449676 -0.1313920390309714 -1.0209102674020156 2.1280631193607817 2.0501011210321587 -0.5200046160127103 1.1399895127138917
0.614764928818 0.4011310374449676 -0.1313920390309714 -1.0209102674020156 2.1280631193607817 2.0501011210321587 -0.5200046160127103 1.1399895127138917
0.614764928818 0.4011310374449676 -0.1313920390309714 -1.0209102674020156 2.1280631193607817 2.0501011210321587 -0.5200046160127103 1.1399895127138917
0.62494802475 0.4011310374449676 -0.1313920390309714 -1.0209102674020156 2.1280631193607817 2.0501011210321587 -0.5200046160127103 1.1399895127138917
0.62494802475 0.4011310374449676 -0.1313920390309714 -1.0209102674020156 2.1280631193607817 2.0501011210321587 -0.5200046160127103 1.1399895127138917
0.635155916214 0.4011310374449676 -0.1313920390309714 -1.0209102674020156 2.1280631193607817 2.0501011210321587 -0.5200046160127103 1.1399895127138917
0.635155916214 0.4011310374449676 -0.1313920390309714 -1.0209102674020156 2.1280631193607817 2.0501011210321587 -0.5200046160127103 1.1399895127138917
0.645109891891 0.4011310374449676 -0.1313920390309714 -1.0209102674020156 2.1280631193607817 2.0501011210321587 -0.5200046160127103 1.1399895127138917
0.645109891891 0.4011310374449676 -0.1313920390309714 -1.0209102674020156 2.1280631193607817 2.0501011210321587 -0.5200046160127103 1.1399895127138917
0.655117988586 0.4011310374449676 -0.1313920390309714 -1.0209102674020156 2.1280631193607817 2.0501011210321587 -0.5200046160127103 1.1399895127138917
0.655117988586 0.4011310374449676 -0.1313920390309714 -1.0209102674020156 2.1280631193607817 2.0501011210321587 -0.5200046160127103 1.1399895127138917
0.664978027344 0.4011310374449676 -0.1313920390309714 -1.0209102674020156 2.1280631193607817 2.0501011210321587 -0.5200046160127103 1.1399895127138917
0.664978027344 0.4011310374449676 -0.1313920390309714 -1.0209102674020156 2.1280631193607817 2.0501011210321587 -0.5200046160127103 1.1399895127138917
0.674874067307 0.4011310374449676 -0.1313920390309714 -1.0209102674020156 2.1280631193607817 2.0501011210321587 -0.5200046160127103 1.1399895127138917
0.674874067307 0.4011310374449676 -0.1313920390309714 -1.0209102674020156 2.1280631193607817 2.0501011210321587 -0.5200046160127103 1.1399895127138917
0.685132980347 0.4011310374449676 -0.1313920390309714 -1.0209102674020156 2.1280631193607817 2.0501011210321587 -0.5200046160127103 1.1399895127138917
0.685132980347 0.4011310374449676 -0.1313920390309714 -1.0209102674020156 2.1280631193607817 2.0501011210321587 -0.5200046160127103 1.1399895127138917
0.695132017136 0.4011310374449676 -0.1313920390309714 -1.0209102674020156 2.1280631193607817 2.0501011210321587 -0.5200046160127103 1.1399895127138917
0.695132017136 0.4011310374449676 -0.1313920390309714 -1.0209102674020156 2.1280631193607817 2.0501011210321587 -0.5200046160127103 1.1399895127138917
0.704956054688 0.4011310374449676 -0.1313920390309714 -1.0209102674020156 2.1280631193607817 2.0501011210321587 -0.5200046160127103 1.1399895127138917
0.704956054688 0.4011310374449676 -0.1313920390309714 -1.0209102674020156 2.1280631193607817 2.0501011210321587 -0.520004616013 1.13998951271
0.714881896973 0.4011310374449676 -0.1313920390309714 -1.0209102674020156 2.1280631193607817 2.0501011210321587 -0.5200046160127103 1.1399895127138917
0.714881896973 0.4011310374449676 -0.1313920390309714 -1.0209102674020156 2.1280631193607817 2.0501011210321587 -0.5200046160127103 1.1399895127138917
0.724956035614 0.4011310374449676 -0.1313920390309714 -1.0209102674020156 2.1280631193607817 2.0501011210321587 -0.5200046160127103 1.1399895127138917
0.724956035614 0.4011310374449676 -0.1313920390309714 -1.0209102674020156 2.1280631193607817 2.0501011210321587 -0.5200046160127103 1.1399895127138917
0.73478102684 0.4011310374449676 -0.1313920390309714 -1.0209102674020156 2.1280631193607817 2.0501011210321587 -0.5200046160127103 1.1399895127138917
0.73478102684 0.4011310374449676 -0.1313920390309714 -1.0209102674020156 2.1280631193607817 2.0501011210321587 -0.5200046160127103 1.1399895127138917
0.744820833206 0.4011310374449676 -0.1313920390309714 -1.0209102674020156 2.1280631193607817 2.0501011210321587 -0.5200046160127103 1.1399895127138917
0.744820833206 0.4011310374449676 -0.1313920390309714 -1.0209102674020156 2.1280631193607817 2.0501011210321587 -0.5200046160127103 1.1399895127138917
0.755046844482 0.4011310374449676 -0.1313920390309714 -1.0209102674020156 2.1280631193607817 2.0501011210321587 -0.5200046160127103 1.1399895127138917
0.755046844482 0.4011310374449676 -0.1313920390309714 -1.0209102674020156 2.1280631193607817 2.0501011210321587 -0.5200046160127103 1.1399895127138917
0.76487493515 0.4011310374449676 -0.1313920390309714 -1.0209102674020156 2.1280631193607817 2.0501011210321587 -0.5200046160127103 1.1399895127138917
0.76487493515 0.4011310374449676 -0.1313920390309714 -1.0209102674020156 2.1280631193607817 2.0501011210321587 -0.5200046160127103 1.1399895127138917
0.775027036667 0.4011310374449676 -0.1313920390309714 -1.0209102674020156 2.1280631193607817 2.0501011210321587 -0.5200046160127103 1.1399895127138917
0.775027036667 0.4011310374449676 -0.1313920390309714 -1.0209102674020156 2.1280631193607817 2.0501011210321587 -0.5200046160127103 1.1399895127138917
0.784814834595 0.4011310374449676 -0.1313920390309714 -1.0209102674020156 2.1280631193607817 2.0501011210321587 -0.5200046160127103 1.1399895127138917
0.784814834595 0.4011310374449676 -0.1313920390309714 -1.0209102674020156 2.1280631193607817 2.0501011210321587 -0.5200046160127103 1.1399895127138917
0.795071840286 0.4011310374449676 -0.1313920390309714 -1.0209102674020156 2.1280631193607817 2.0501011210321587 -0.5200046160127103 1.1399895127138917
0.795071840286 0.4011310374449676 -0.1313920390309714 -1.0209102674020156 2.1280631193607817 2.0501011210321587 -0.5200046160127103 1.1399895127138917
0.805065870285 0.4011310374449676 -0.1313920390309714 -1.0209102674020156 2.1280631193607817 2.0501011210321587 -0.5200046160127103 1.1399895127138917
0.805065870285 0.4011310374449676 -0.1313920390309714 -1.0209102674020156 2.1280631193607817 2.0501011210321587 -0.5200046160127103 1.1399895127138917
0.814851999283 0.4011310374449676 -0.1313920390309714 -1.0209102674020156 2.1280631193607817 2.0501011210321587 -0.5200046160127103 1.1399895127138917
0.814851999283 0.4011310374449676 -0.1313920390309714 -1.0209102674020156 2.1280631193607817 2.0501011210321587 -0.5200046160127103 1.1399895127138917
0.825006961823 0.4011310374449676 -0.1313920390309714 -1.0209102674020156 2.1280631193607817 2.0501011210321587 -0.5200046160127103 1.1399895127138917
0.825006961823 0.4011310374449676 -0.1313920390309714 -1.0209102674020156 2.1280631193607817 2.0501011210321587 -0.5200046160127103 1.1399895127138917
0.834969997406 0.4011310374449676 -0.1313920390309714 -1.0209102674020156 2.1280631193607817 2.0501011210321587 -0.5200046160127103 1.1399895127138917
0.834969997406 0.4011310374449676 -0.1313920390309714 -1.0209102674020156 2.1280631193607817 2.0501011210321587 -0.5200046160127103 1.1399895127138917
0.8451359272 0.4011310374449676 -0.1313920390309714 -1.0209102674020156 2.1280631193607817 2.0501011210321587 -0.5200046160127103 1.1399895127138917
0.8451359272 0.4011310374449676 -0.1313920390309714 -1.0209102674020156 2.1280631193607817 2.0501011210321587 -0.5200046160127103 1.1399895127138917
0.855198860168 0.4011310374449676 -0.1313920390309714 -1.0209102674020156 2.1280631193607817 2.0501011210321587 -0.5200046160127103 1.1399895127138917
0.855198860168 0.4011310374449676 -0.1313920390309714 -1.0209102674020156 2.1280631193607817 2.0501011210321587 -0.5200046160127103 1.1399895127138917
0.865021944046 0.4011310374449676 -0.1313920390309714 -1.0209102674020156 2.1280631193607817 2.0501011210321587 -0.5200046160127103 1.1399895127138917
0.865021944046 0.4011310374449676 -0.1313920390309714 -1.0209102674020156 2.1280631193607817 2.0501011210321587 -0.5200046160127103 1.1399895127138917
0.875087976456 0.4011310374449676 -0.1313920390309714 -1.0209102674020156 2.1280631193607817 2.0501011210321587 -0.5200046160127103 1.1399895127138917
0.875087976456 0.4011310374449676 -0.1313920390309714 -1.0209102674020156 2.1280631193607817 2.0501011210321587 -0.5200046160127103 1.1399895127138917
0.885015010834 0.4011310374449676 -0.1313920390309714 -1.0209102674020156 2.1280631193607817 2.0501011210321587 -0.5200046160127103 1.1399895127138917
0.885015010834 0.4011310374449676 -0.1313920390309714 -1.0209102674020156 2.1280631193607817 2.0501011210321587 -0.5200046160127103 1.1399895127138917
0.895019054413 0.4011310374449676 -0.1313920390309714 -1.0209102674020156 2.1280631193607817 2.0501011210321587 -0.5200046160127103 1.1399895127138917
0.895019054413 0.4011310374449676 -0.1313920390309714 -1.0209102674020156 2.1280631193607817 2.0501011210321587 -0.5200046160127103 1.1399895127138917
0.904847860336 0.4011310374449676 -0.1313920390309714 -1.0209102674020156 2.1280631193607817 2.0501011210321587 -0.5200046160127103 1.1399895127138917
0.904847860336 0.4011310374449676 -0.1313920390309714 -1.0209102674020156 2.1280631193607817 2.0501011210321587 -0.5200046160127103 1.1399895127138917
0.915058851242 0.4011310374449676 -0.1313920390309714 -1.0209102674020156 2.1280631193607817 2.0501011210321587 -0.5200046160127103 1.1399895127138917
0.915058851242 0.4011310374449676 -0.1313920390309714 -1.0209102674020156 2.1280631193607817 2.0501011210321587 -0.5200046160127103 1.1399895127138917
0.924947977066 0.4011310374449676 -0.1313920390309714 -1.0209102674020156 2.1280631193607817 2.0501011210321587 -0.5200046160127103 1.1399895127138917
0.924947977066 0.4011310374449676 -0.1313920390309714 -1.0209102674020156 2.1280631193607817 2.0501011210321587 -0.5200046160127103 1.1399895127138917
0.935047864914 0.4011310374449676 -0.1313920390309714 -1.0209102674020156 2.1280631193607817 2.0501011210321587 -0.5200046160127103 1.1399895127138917
0.935047864914 0.4011310374449676 -0.1313920390309714 -1.0209102674020156 2.1280631193607817 2.0501011210321587 -0.5200046160127103 1.1399895127138917
0.945070981979 0.4011310374449676 -0.1313920390309714 -1.0209102674020156 2.1280631193607817 2.0501011210321587 -0.5200046160127103 1.1399895127138917
0.945070981979 0.4011310374449676 -0.1313920390309714 -1.0209102674020156 2.1280631193607817 2.0501011210321587 -0.5200046160127103 1.1399895127138917
0.955102920532 0.4011310374449676 -0.1313920390309714 -1.0209102674020156 2.1280631193607817 2.0501011210321587 -0.5200046160127103 1.1399895127138917
0.955102920532 0.4011310374449676 -0.1313920390309714 -1.0209102674020156 2.1280631193607817 2.0501011210321587 -0.5200046160127103 1.1399895127138917
0.965004920959 0.4011310374449676 -0.1313920390309714 -1.0209102674020156 2.1280631193607817 2.0501011210321587 -0.5200046160127103 1.1399895127138917
0.965004920959 0.4011310374449676 -0.1313920390309714 -1.0209102674020156 2.1280631193607817 2.0501011210321587 -0.5200046160127103 1.1399895127138917
0.975111961365 0.4011310374449676 -0.1313920390309714 -1.0209102674020156 2.1280631193607817 2.0501011210321587 -0.5200046160127103 1.1399895127138917
0.975111961365 0.4011310374449676 -0.1313920390309714 -1.0209102674020156 2.1280631193607817 2.0501011210321587 -0.5200046160127103 1.1399895127138917
0.984902858734 0.4011310374449676 -0.1313920390309714 -1.0209102674020156 2.1280631193607817 2.0501011210321587 -0.5200046160127103 1.1399895127138917
0.984902858734 0.4011310374449676 -0.1313920390309714 -1.0209102674020156 2.1280631193607817 2.0501011210321587 -0.5200046160127103 1.1399895127138917
0.995084047318 0.4011310374449676 -0.1313920390309714 -1.0209102674020156 2.1280631193607817 2.0501011210321587 -0.5200046160127103 1.1399895127138917
0.995084047318 0.4011310374449676 -0.1313920390309714 -1.0209102674020156 2.1280631193607817 2.0501011210321587 -0.5200046160127103 1.1399895127138917
1.00508284569 0.4011310374449676 -0.1313920390309714 -1.0209102674020156 2.1280631193607817 2.0501011210321587 -0.5200046160127103 1.1399895127138917
1.00508284569 0.4011310374449676 -0.1313920390309714 -1.0209102674020156 2.1280631193607817 2.0501011210321587 -0.5200046160127103 1.1399895127138917
1.01497006416 0.4011310374449676 -0.1313920390309714 -1.0209102674020156 2.1280631193607817 2.0501011210321587 -0.5200046160127103 1.1399895127138917
1.01497006416 0.4011310374449676 -0.1313920390309714 -1.0209102674020156 2.1280631193607817 2.0501011210321587 -0.5200046160127103 1.1399895127138917
1.02503395081 0.4011310374449676 -0.1313920390309714 -1.0209102674020156 2.1280631193607817 2.0501011210321587 -0.5200046160127103 1.1399895127138917
1.02503395081 0.4011310374449676 -0.1313920390309714 -1.0209102674020156 2.1280631193607817 2.0501011210321587 -0.5200046160127103 1.1399895127138917
1.03509998322 0.4011310374449676 -0.1313920390309714 -1.0209102674020156 2.1280631193607817 2.0501011210321587 -0.5200046160127103 1.1399895127138917
1.03509998322 0.4011310374449676 -0.1313920390309714 -1.0209102674020156 2.1280631193607817 2.0501011210321587 -0.5200046160127103 1.1399895127138917
1.04490804672 0.4011310374449676 -0.1313920390309714 -1.0209102674020156 2.1280631193607817 2.0501011210321587 -0.5200046160127103 1.1399895127138917
1.04490804672 0.4011310374449676 -0.1313920390309714 -1.0209102674020156 2.1280631193607817 2.0501011210321587 -0.5200046160127103 1.1399895127138917
1.05509400368 0.4011310374449676 -0.1313920390309714 -1.0209102674020156 2.1280631193607817 2.0501011210321587 -0.5200046160127103 1.1399895127138917
1.05509400368 0.4011310374449676 -0.1313920390309714 -1.0209102674020156 2.1280631193607817 2.0501011210321587 -0.5200046160127103 1.1399895127138917
1.06492400169 0.4011310374449676 -0.1313920390309714 -1.0209102674020156 2.1280631193607817 2.0501011210321587 -0.5200046160127103 1.1399895127138917
1.06492400169 0.4011310374449676 -0.1313920390309714 -1.0209102674020156 2.1280631193607817 2.0501011210321587 -0.5200046160127103 1.1399895127138917
1.07479286194 0.4011310374449676 -0.1313920390309714 -1.0209102674020156 2.1280631193607817 2.0501011210321587 -0.5200046160127103 1.1399895127138917
1.07479286194 0.4011310374449676 -0.1313920390309714 -1.0209102674020156 2.1280631193607817 2.0501011210321587 -0.5200046160127103 1.1399895127138917
1.08467006683 0.4011310374449676 -0.1313920390309714 -1.0209102674020156 2.1280631193607817 2.0501011210321587 -0.5200046160127103 1.1399895127138917
1.08467006683 0.4011310374449676 -0.1313920390309714 -1.0209102674020156 2.1280631193607817 2.0501011210321587 -0.5200046160127103 1.1399895127138917
1.09506583214 0.4011310374449676 -0.1313920390309714 -1.0209102674020156 2.1280631193607817 2.0501011210321587 -0.5200046160127103 1.1399895127138917
1.09506583214 0.4011310374449676 -0.1313920390309714 -1.0209102674020156 2.1280631193607817 2.0501011210321587 -0.5200046160127103 1.1399895127138917
1.10665297508 0.4011310374449676 -0.1313920390309714 -1.0209102674020156 2.1280631193607817 2.0501011210321587 -0.5200046160127103 1.1399895127138917
1.10665297508 0.4011310374449676 -0.1313920390309714 -1.0209102674020156 2.1280631193607817 2.0501011210321587 -0.5200046160127103 1.1399895127138917
1.11463499069 0.4011310374449676 -0.1313920390309714 -1.0209102674020156 2.1280631193607817 2.0501011210321587 -0.5200046160127103 1.1399895127138917
1.11463499069 0.4011310374449676 -0.1313920390309714 -1.0209102674020156 2.1280631193607817 2.0501011210321587 -0.5200046160127103 1.1399895127138917
1.12469601631 0.4011310374449676 -0.1313920390309714 -1.0209102674020156 2.1280631193607817 2.0501011210321587 -0.5200046160127103 1.1399895127138917
1.12469601631 0.4011310374449676 -0.1313920390309714 -1.0209102674020156 2.1280631193607817 2.0501011210321587 -0.5200046160127103 1.1399895127138917
1.13505291939 0.4011310374449676 -0.1313920390309714 -1.0209102674020156 2.1280631193607817 2.0501011210321587 -0.5200046160127103 1.1399895127138917
1.13505291939 0.4011310374449676 -0.1313920390309714 -1.0209102674020156 2.1280631193607817 2.0501011210321587 -0.5200046160127103 1.1399895127138917
1.14486789703 0.4011310374449676 -0.1313920390309714 -1.0209102674020156 2.1280631193607817 2.0501011210321587 -0.5200046160127103 1.1399895127138917
1.14486789703 0.4011310374449676 -0.1313920390309714 -1.0209102674020156 2.1280631193607817 2.0501011210321587 -0.5200046160127103 1.1399895127138917
1.15509200096 0.4011310374449676 -0.1313920390309714 -1.0209102674020156 2.1280631193607817 2.0501011210321587 -0.5200046160127103 1.1399895127138917
1.15509200096 0.4011310374449676 -0.1313920390309714 -1.0209102674020156 2.1280631193607817 2.0501011210321587 -0.5200046160127103 1.1399895127138917
1.16501283646 0.4011310374449676 -0.1313920390309714 -1.0209102674020156 2.1280631193607817 2.0501011210321587 -0.5200046160127103 1.1399895127138917
1.16501283646 0.4011310374449676 -0.1313920390309714 -1.0209102674020156 2.1280631193607817 2.0501011210321587 -0.5200046160127103 1.1399895127138917
1.17499685287 0.4011310374449676 -0.1313920390309714 -1.0209102674020156 2.1280631193607817 2.0501011210321587 -0.5200046160127103 1.1399895127138917
1.17499685287 0.4011310374449676 -0.1313920390309714 -1.0209102674020156 2.1280631193607817 2.0501011210321587 -0.5200046160127103 1.1399895127138917
1.1850130558 0.4011310374449676 -0.1313920390309714 -1.0209102674020156 2.1280631193607817 2.0501011210321587 -0.5200046160127103 1.1399895127138917
1.1850130558 0.4011310374449676 -0.1313920390309714 -1.0209102674020156 2.1280631193607817 2.0501011210321587 -0.5200046160127103 1.1399895127138917
1.19515395164 0.4011310374449676 -0.1313920390309714 -1.0209102674020156 2.1280631193607817 2.0501011210321587 -0.5200046160127103 1.1399895127138917
1.19515395164 0.4011310374449676 -0.1313920390309714 -1.0209102674020156 2.1280631193607817 2.0501011210321587 -0.5200046160127103 1.1399895127138917
1.20508790016 0.4011310374449676 -0.1313920390309714 -1.0209102674020156 2.1280631193607817 2.0501011210321587 -0.5200046160127103 1.1399895127138917
1.20508790016 0.4011310374449676 -0.1313920390309714 -1.0209102674020156 2.1280631193607817 2.0501011210321587 -0.5200046160127103 1.1399895127138917
1.21509885788 0.4011310374449676 -0.1313920390309714 -1.0209102674020156 2.1280631193607817 2.0501011210321587 -0.5200046160127103 1.1399895127138917
1.21509885788 0.4011310374449676 -0.1313920390309714 -1.0209102674020156 2.1280631193607817 2.0501011210321587 -0.5200046160127103 1.1399895127138917
1.22505283356 0.4011310374449676 -0.1313920390309714 -1.0209102674020156 2.1280631193607817 2.0501011210321587 -0.5200046160127103 1.1399895127138917
1.22505283356 0.4011310374449676 -0.1313920390309714 -1.0209102674020156 2.1280631193607817 2.0501011210321587 -0.5200046160127103 1.1399895127138917
1.23484992981 0.4011310374449676 -0.1313920390309714 -1.0209102674020156 2.1280631193607817 2.0501011210321587 -0.5200046160127103 1.1399895127138917
1.23484992981 0.4011310374449676 -0.1313920390309714 -1.0209102674020156 2.1280631193607817 2.0501011210321587 -0.5200046160127103 1.1399895127138917
1.24497485161 0.4011310374449676 -0.1313920390309714 -1.0209102674020156 2.1280631193607817 2.0501011210321587 -0.5200046160127103 1.1399895127138917
1.24497485161 0.4011310374449676 -0.1313920390309714 -1.0209102674020156 2.1280631193607817 2.0501011210321587 -0.5200046160127103 1.1399895127138917
1.25503492355 0.4011310374449676 -0.1313920390309714 -1.0209102674020156 2.1280631193607817 2.0501011210321587 -0.5200046160127103 1.1399895127138917
1.25503492355 0.4011310374449676 -0.1313920390309714 -1.0209102674020156 2.1280631193607817 2.0501011210321587 -0.5200046160127103 1.1399895127138917
1.26488399506 0.4011310374449676 -0.1313920390309714 -1.0209102674020156 2.1280631193607817 2.0501011210321587 -0.5200046160127103 1.1399895127138917
1.26488399506 0.4011310374449676 -0.1313920390309714 -1.0209102674020156 2.1280631193607817 2.0501011210321587 -0.5200046160127103 1.1399895127138917
1.27508091927 0.4011310374449676 -0.1313920390309714 -1.0209102674020156 2.1280631193607817 2.0501011210321587 -0.5200046160127103 1.1399895127138917
1.27508091927 0.4011310374449676 -0.1313920390309714 -1.0209102674020156 2.1280631193607817 2.0501011210321587 -0.5200046160127103 1.1399895127138917
1.28501605988 0.4011310374449676 -0.1313920390309714 -1.0209102674020156 2.1280631193607817 2.0501011210321587 -0.5200046160127103 1.1399895127138917
1.28501605988 0.4011310374449676 -0.1313920390309714 -1.0209102674020156 2.1280631193607817 2.0501011210321587 -0.5200046160127103 1.1399895127138917
1.29492783546 0.4011310374449676 -0.1313920390309714 -1.0209102674020156 2.1280631193607817 2.0501011210321587 -0.5200046160127103 1.1399895127138917
1.29492783546 0.4011310374449676 -0.1313920390309714 -1.0209102674020156 2.1280631193607817 2.0501011210321587 -0.5200046160127103 1.1399895127138917
1.30506205559 0.4011310374449676 -0.1313920390309714 -1.0209102674020156 2.1280631193607817 2.0501011210321587 -0.5200046160127103 1.1399895127138917
1.30506205559 0.4011310374449676 -0.1313920390309714 -1.0209102674020156 2.1280631193607817 2.0501011210321587 -0.5200046160127103 1.1399895127138917
1.31512284279 0.4011310374449676 -0.1313920390309714 -1.0209102674020156 2.1280631193607817 2.0501011210321587 -0.5200046160127103 1.1399895127138917
1.31512284279 0.4011310374449676 -0.1313920390309714 -1.0209102674020156 2.1280631193607817 2.0501011210321587 -0.5200046160127103 1.1399895127138917
1.32494592667 0.4011310374449676 -0.1313920390309714 -1.0209102674020156 2.1280631193607817 2.0501011210321587 -0.5200046160127103 1.1399895127138917
1.32494592667 0.4011310374449676 -0.1313920390309714 -1.0209102674020156 2.1280631193607817 2.0501011210321587 -0.5200046160127103 1.1399895127138917
1.33505988121 0.4011310374449676 -0.1313920390309714 -1.0209102674020156 2.1280631193607817 2.0501011210321587 -0.5200046160127103 1.1399895127138917
1.33505988121 0.4011310374449676 -0.1313920390309714 -1.0209102674020156 2.1280631193607817 2.0501011210321587 -0.5200046160127103 1.1399895127138917
1.3449549675 0.4011310374449676 -0.1313920390309714 -1.0209102674020156 2.1280631193607817 2.0501011210321587 -0.5200046160127103 1.1399895127138917
1.3449549675 0.4011310374449676 -0.1313920390309714 -1.0209102674020156 2.1280631193607817 2.0501011210321587 -0.5200046160127103 1.1399895127138917
1.35491085052 0.4011310374449676 -0.1313920390309714 -1.0209102674020156 2.1280631193607817 2.0501011210321587 -0.5200046160127103 1.1399895127138917
1.35491085052 0.4011310374449676 -0.1313920390309714 -1.0209102674020156 2.1280631193607817 2.0501011210321587 -0.5200046160127103 1.1399895127138917
1.36475801468 0.4011463774563192 -0.1313920390309714 -1.0209256074133672 2.1280477793494303 2.0501011210321587 -0.5200046160127103 1.1399895127138917
1.36475801468 0.4011463774563192 -0.1313920390309714 -1.0209256074133672 2.1280477793494303 2.0501011210321587 -0.5200046160127103 1.1399895127138917
1.37487888336 0.4011463774563192 -0.1313920390309714 -1.0209256074133672 2.1280477793494303 2.0501011210321587 -0.5200046160127103 1.1399895127138917
1.37487888336 0.4011463774563192 -0.1313920390309714 -1.0209256074133672 2.1280477793494303 2.0501011210321587 -0.5200046160127103 1.1399895127138917
1.38470602036 0.4011463774563192 -0.1313920390309714 -1.0209256074133672 2.1280477793494303 2.0501011210321587 -0.5200046160127103 1.1399895127138917
1.38470602036 0.4011463774563192 -0.1313920390309714 -1.0209256074133672 2.1280477793494303 2.0501011210321587 -0.5200046160127103 1.1399895127138917
1.39471006393 0.4011463774563192 -0.1313920390309714 -1.0209256074133672 2.1280477793494303 2.0501011210321587 -0.5200046160127103 1.1399895127138917
1.39471006393 0.4011463774563192 -0.1313920390309714 -1.0209256074133672 2.1280477793494303 2.0501011210321587 -0.5200046160127103 1.1399895127138917
1.40469503403 0.4011463774563192 -0.1313920390309714 -1.0209256074133672 2.1280477793494303 2.0501011210321587 -0.5200046160127103 1.1399895127138917
1.40469503403 0.4011463774563192 -0.1313920390309714 -1.0209256074133672 2.1280477793494303 2.0501011210321587 -0.5200046160127103 1.1399895127138917
1.41468787193 0.4011463774563192 -0.1313920390309714 -1.0209256074133672 2.1280477793494303 2.0501011210321587 -0.5200046160127103 1.1399895127138917
1.41468787193 0.4011463774563192 -0.1313920390309714 -1.0209256074133672 2.1280477793494303 2.0501011210321587 -0.5200046160127103 1.1399895127138917
1.424710989 0.4011463774563192 -0.1313920390309714 -1.0209256074133672 2.1280477793494303 2.0501011210321587 -0.5200046160127103 1.1399895127138917
1.424710989 0.4011463774563192 -0.1313920390309714 -1.0209256074133672 2.1280477793494303 2.0501011210321587 -0.5200046160127103 1.1399895127138917
1.43468403816 0.4011463774563192 -0.1313920390309714 -1.0209256074133672 2.1280477793494303 2.0501011210321587 -0.5200046160127103 1.1399895127138917
1.43468403816 0.4011463774563192 -0.1313920390309714 -1.0209256074133672 2.1280477793494303 2.0501011210321587 -0.5200046160127103 1.1399895127138917
1.44458198547 0.4011463774563192 -0.1313920390309714 -1.0209256074133672 2.1280477793494303 2.0501011210321587 -0.5200046160127103 1.1399895127138917
1.44458198547 0.4011463774563192 -0.1313920390309714 -1.0209256074133672 2.1280477793494303 2.0501011210321587 -0.5200046160127103 1.1399895127138917
1.45466804504 0.4011463774563192 -0.1313920390309714 -1.0209256074133672 2.1280477793494303 2.0501011210321587 -0.5200046160127103 1.1399895127138917
1.45466804504 0.4011463774563192 -0.1313920390309714 -1.0209256074133672 2.1280477793494303 2.0501011210321587 -0.5200046160127103 1.1399895127138917
1.46462702751 0.4011463774563192 -0.1313920390309714 -1.0209256074133672 2.1280477793494303 2.0501011210321587 -0.5200046160127103 1.1399895127138917
1.46462702751 0.4011463774563192 -0.1313920390309714 -1.0209256074133672 2.1280477793494303 2.0501011210321587 -0.5200046160127103 1.1399895127138917
1.47459101677 0.4011463774563192 -0.1313920390309714 -1.0209256074133672 2.1280477793494303 2.0501011210321587 -0.5200046160127103 1.1399895127138917
1.47459101677 0.4011463774563192 -0.1313920390309714 -1.0209256074133672 2.1280477793494303 2.0501011210321587 -0.5200046160127103 1.1399895127138917
1.48459386826 0.4011463774563192 -0.1313920390309714 -1.0209256074133672 2.1280477793494303 2.0501011210321587 -0.5200046160127103 1.1399895127138917
1.48459386826 0.4011463774563192 -0.1313920390309714 -1.0209256074133672 2.1280477793494303 2.0501011210321587 -0.5200046160127103 1.1399895127138917
1.49459505081 0.4011463774563192 -0.1313920390309714 -1.0209256074133672 2.1280477793494303 2.0501011210321587 -0.5200046160127103 1.1399895127138917
1.49459505081 0.4011463774563192 -0.1313920390309714 -1.0209256074133672 2.1280477793494303 2.0501011210321587 -0.5200046160127103 1.1399895127138917
1.50464701653 0.4011463774563192 -0.1313920390309714 -1.0209256074133672 2.1280477793494303 2.0501011210321587 -0.5200046160127103 1.1399895127138917
1.50464701653 0.4011463774563192 -0.1313920390309714 -1.0209256074133672 2.1280477793494303 2.0501011210321587 -0.5200046160127103 1.1399895127138917
1.51467084885 0.4011463774563192 -0.1313920390309714 -1.0209256074133672 2.1280477793494303 2.0501011210321587 -0.5200046160127103 1.1399895127138917
1.51467084885 0.4011463774563192 -0.1313920390309714 -1.0209256074133672 2.1280477793494303 2.0501011210321587 -0.5200046160127103 1.1399895127138917
1.52465701103 0.4011463774563192 -0.1313920390309714 -1.0209256074133672 2.1280477793494303 2.0501011210321587 -0.5200046160127103 1.1399895127138917
1.52465701103 0.4011463774563192 -0.1313920390309714 -1.0209256074133672 2.1280477793494303 2.0501011210321587 -0.5200046160127103 1.1399895127138917
1.53461790085 0.4011463774563192 -0.1313920390309714 -1.0209256074133672 2.1280477793494303 2.0501011210321587 -0.5200046160127103 1.1399895127138917
1.53461790085 0.4011463774563192 -0.1313920390309714 -1.0209256074133672 2.1280477793494303 2.0501011210321587 -0.5200046160127103 1.1399895127138917
1.54466199875 0.4011463774563192 -0.1313920390309714 -1.0209256074133672 2.1280477793494303 2.0501011210321587 -0.5200046160127103 1.1399895127138917
1.54466199875 0.4011463774563192 -0.1313920390309714 -1.0209256074133672 2.1280477793494303 2.0501011210321587 -0.5200046160127103 1.1399895127138917
1.55459690094 0.4011463774563192 -0.1313920390309714 -1.0209256074133672 2.1280477793494303 2.0501011210321587 -0.5200046160127103 1.1399895127138917
1.55459690094 0.4011463774563192 -0.1313920390309714 -1.0209256074133672 2.1280477793494303 2.0501011210321587 -0.5200046160127103 1.1399895127138917
1.56456303596 0.4011463774563192 -0.1313920390309714 -1.0209256074133672 2.1280477793494303 2.0501011210321587 -0.5200046160127103 1.1399895127138917
1.56456303596 0.4011463774563192 -0.1313920390309714 -1.0209256074133672 2.1280477793494303 2.0501011210321587 -0.5200046160127103 1.1399895127138917
1.57466101646 0.4011463774563192 -0.1313920390309714 -1.0209256074133672 2.1280477793494303 2.0501011210321587 -0.5200046160127103 1.1399895127138917
1.57466101646 0.4011463774563192 -0.1313920390309714 -1.0209256074133672 2.1280477793494303 2.0501011210321587 -0.5200046160127103 1.1399895127138917
1.58457589149 0.4011463774563192 -0.1313920390309714 -1.0209256074133672 2.1280477793494303 2.0501011210321587 -0.5200046160127103 1.1399895127138917
1.58457589149 0.4011463774563192 -0.1313920390309714 -1.0209256074133672 2.1280477793494303 2.0501011210321587 -0.5200046160127103 1.1399895127138917
1.59460306168 0.4011463774563192 -0.1313920390309714 -1.0209256074133672 2.1280477793494303 2.0501011210321587 -0.5200046160127103 1.1399895127138917
1.59460306168 0.4011463774563192 -0.1313920390309714 -1.0209256074133672 2.1280477793494303 2.0501011210321587 -0.5200046160127103 1.1399895127138917
1.60464596748 0.4011463774563192 -0.1313920390309714 -1.0209256074133672 2.1280477793494303 2.0501011210321587 -0.5200046160127103 1.1399895127138917
1.60464596748 0.4011463774563192 -0.1313920390309714 -1.0209256074133672 2.1280477793494303 2.0501011210321587 -0.5200046160127103 1.1399895127138917
1.61459183693 0.4011463774563192 -0.1313920390309714 -1.0209256074133672 2.1280477793494303 2.0501011210321587 -0.5200046160127103 1.1399895127138917
1.61459183693 0.4011463774563192 -0.1313920390309714 -1.0209256074133672 2.1280477793494303 2.0501011210321587 -0.5200046160127103 1.1399895127138917
1.62464690208 0.4011463774563192 -0.1313920390309714 -1.0209256074133672 2.1280477793494303 2.0501011210321587 -0.5200046160127103 1.1399895127138917
1.62464690208 0.4011463774563192 -0.1313920390309714 -1.0209256074133672 2.1280477793494303 2.0501011210321587 -0.5200046160127103 1.1399895127138917
1.63462805748 0.4011463774563192 -0.1313920390309714 -1.0209256074133672 2.1280477793494303 2.0501011210321587 -0.5200046160127103 1.1399895127138917
1.63462805748 0.4011463774563192 -0.1313920390309714 -1.0209256074133672 2.1280477793494303 2.0501011210321587 -0.5200046160127103 1.1399895127138917
1.64459586143 0.4011463774563192 -0.1313920390309714 -1.0209256074133672 2.1280477793494303 2.0501011210321587 -0.5200046160127103 1.1399895127138917
1.64459586143 0.4011463774563192 -0.1313920390309714 -1.0209256074133672 2.1280477793494303 2.0501011210321587 -0.5200046160127103 1.1399895127138917
1.65467500687 0.4011463774563192 -0.1313920390309714 -1.0209256074133672 2.1280477793494303 2.0501011210321587 -0.5200046160127103 1.1399895127138917
1.65467500687 0.4011463774563192 -0.1313920390309714 -1.0209256074133672 2.1280477793494303 2.0501011210321587 -0.5200046160127103 1.1399895127138917
1.66460800171 0.4011463774563192 -0.1313920390309714 -1.0209256074133672 2.1280477793494303 2.0501011210321587 -0.5200046160127103 1.1399895127138917
1.66460800171 0.4011463774563192 -0.1313920390309714 -1.0209256074133672 2.1280477793494303 2.0501011210321587 -0.5200046160127103 1.1399895127138917
1.67464494705 0.4011463774563192 -0.1313920390309714 -1.0209256074133672 2.1280477793494303 2.0501011210321587 -0.5200046160127103 1.1399895127138917
1.67464494705 0.4011463774563192 -0.1313920390309714 -1.0209256074133672 2.1280477793494303 2.0501011210321587 -0.5200046160127103 1.1399895127138917
1.68456792831 0.4011463774563192 -0.1313920390309714 -1.0209256074133672 2.1280477793494303 2.0501011210321587 -0.5200046160127103 1.1399895127138917
1.68456792831 0.4011463774563192 -0.1313920390309714 -1.0209256074133672 2.1280477793494303 2.0501011210321587 -0.5200046160127103 1.1399895127138917
1.69463086128 0.4011463774563192 -0.1313920390309714 -1.0209256074133672 2.1280477793494303 2.0501011210321587 -0.5200046160127103 1.1399895127138917
1.69463086128 0.4011463774563192 -0.1313920390309714 -1.0209256074133672 2.1280477793494303 2.0501011210321587 -0.5200046160127103 1.1399895127138917
1.70460486412 0.4011463774563192 -0.1313920390309714 -1.0209256074133672 2.1280477793494303 2.0501011210321587 -0.5200046160127103 1.1399895127138917
1.70460486412 0.4011463774563192 -0.1313920390309714 -1.0209256074133672 2.1280477793494303 2.0501011210321587 -0.5200046160127103 1.1399895127138917
1.71459698677 0.4011463774563192 -0.1313920390309714 -1.0209256074133672 2.1280477793494303 2.0501011210321587 -0.5200046160127103 1.1399895127138917
1.71459698677 0.4011463774563192 -0.1313920390309714 -1.0209256074133672 2.1280477793494303 2.0501011210321587 -0.5200046160127103 1.1399895127138917
1.72462797165 0.4011463774563192 -0.1313920390309714 -1.0209256074133672 2.1280477793494303 2.0501011210321587 -0.5200046160127103 1.1399895127138917
1.72462797165 0.4011463774563192 -0.1313920390309714 -1.0209256074133672 2.1280477793494303 2.0501011210321587 -0.5200046160127103 1.1399895127138917
1.73459100723 0.4011463774563192 -0.1313920390309714 -1.0209256074133672 2.1280477793494303 2.0501011210321587 -0.5200046160127103 1.1399895127138917
1.73459100723 0.4011463774563192 -0.1313920390309714 -1.0209256074133672 2.1280477793494303 2.0501011210321587 -0.5200046160127103 1.1399895127138917
1.74462294579 0.4011463774563192 -0.1313920390309714 -1.0209256074133672 2.1280477793494303 2.0501011210321587 -0.5200046160127103 1.1399895127138917
1.74462294579 0.4011463774563192 -0.1313920390309714 -1.0209256074133672 2.1280477793494303 2.0501011210321587 -0.5200046160127103 1.1399895127138917
1.75465297699 0.4011463774563192 -0.1313920390309714 -1.0209256074133672 2.1280477793494303 2.0501011210321587 -0.5200046160127103 1.1399895127138917
1.75465297699 0.4011463774563192 -0.1313920390309714 -1.0209256074133672 2.1280477793494303 2.0501011210321587 -0.5200046160127103 1.1399895127138917
1.76463294029 0.4011617174676709 -0.1313920390309714 -1.0209256074133672 2.127940399269969 2.0501011210321587 -0.5200046160127103 1.1399895127138917
1.76463294029 0.4011617174676709 -0.1313920390309714 -1.0209256074133672 2.127940399269969 2.0501011210321587 -0.5200046160127103 1.1399895127138917
1.77465295792 0.4011617174676709 -0.1313920390309714 -1.0209256074133672 2.127909719247266 2.0501011210321587 -0.5200046160127103 1.1399895127138917
1.77465295792 0.4011617174676709 -0.1313920390309714 -1.0209256074133672 2.127909719247266 2.0501011210321587 -0.5200046160127103 1.1399895127138917
1.7846300602 0.4011617174676709 -0.1313920390309714 -1.0209256074133672 2.127909719247266 2.0501011210321587 -0.5200046160127103 1.1399895127138917
1.7846300602 0.4011617174676709 -0.1313920390309714 -1.0209256074133672 2.127909719247266 2.0501011210321587 -0.5200046160127103 1.1399895127138917
1.79463100433 0.4011617174676709 -0.1313920390309714 -1.0209256074133672 2.127909719247266 2.0501011210321587 -0.5200046160127103 1.1399895127138917
1.79463100433 0.4011617174676709 -0.1313920390309714 -1.0209256074133672 2.127909719247266 2.0501011210321587 -0.5200046160127103 1.1399895127138917
1.80458593369 0.4011617174676709 -0.1313920390309714 -1.0209256074133672 2.127909719247266 2.0501011210321587 -0.5200046160127103 1.1399895127138917
1.80458593369 0.4011617174676709 -0.1313920390309714 -1.0209256074133672 2.127909719247266 2.0501011210321587 -0.5200046160127103 1.1399895127138917
1.8145968914 0.4011617174676709 -0.1313920390309714 -1.0209256074133672 2.127909719247266 2.0501011210321587 -0.5200046160127103 1.1399895127138917
1.8145968914 0.4011617174676709 -0.1313920390309714 -1.0209256074133672 2.127909719247266 2.0501011210321587 -0.5200046160127103 1.1399895127138917
1.82461595535 0.4011617174676709 -0.1313920390309714 -1.0209256074133672 2.127909719247266 2.0501011210321587 -0.5200046160127103 1.1399895127138917
1.82461595535 0.4011617174676709 -0.1313920390309714 -1.0209256074133672 2.127909719247266 2.0501011210321587 -0.5200046160127103 1.1399895127138917
1.83461093903 0.4011617174676709 -0.1313920390309714 -1.0209256074133672 2.127909719247266 2.0501011210321587 -0.5200046160127103 1.1399895127138917
1.83461093903 0.4011617174676709 -0.1313920390309714 -1.0209256074133672 2.127909719247266 2.0501011210321587 -0.5200046160127103 1.1399895127138917
1.84461784363 0.4011617174676709 -0.1313920390309714 -1.0209256074133672 2.127909719247266 2.0501011210321587 -0.5200046160127103 1.1399895127138917
1.84461784363 0.4011617174676709 -0.1313920390309714 -1.0209256074133672 2.127909719247266 2.0501011210321587 -0.5200046160127103 1.1399895127138917
1.85463190079 0.4011617174676709 -0.1313920390309714 -1.0209256074133672 2.127909719247266 2.0501011210321587 -0.5200046160127103 1.1399895127138917
1.85463190079 0.4011617174676709 -0.1313920390309714 -1.0209256074133672 2.127909719247266 2.0501011210321587 -0.5200046160127103 1.1399895127138917
1.86461806297 0.4011617174676709 -0.1313920390309714 -1.0209256074133672 2.127909719247266 2.0501011210321587 -0.5200046160127103 1.1399895127138917
1.86461806297 0.4011617174676709 -0.1313920390309714 -1.0209256074133672 2.127909719247266 2.0501011210321587 -0.5200046160127103 1.1399895127138917
1.87464690208 0.4011617174676709 -0.1313920390309714 -1.0209256074133672 2.127909719247266 2.0501011210321587 -0.5200046160127103 1.1399895127138917
1.87464690208 0.4011617174676709 -0.1313920390309714 -1.0209256074133672 2.127909719247266 2.0501011210321587 -0.5200046160127103 1.1399895127138917
1.88463497162 0.4011617174676709 -0.1313920390309714 -1.0209256074133672 2.127909719247266 2.0501011210321587 -0.5200046160127103 1.1399895127138917
1.88463497162 0.4011617174676709 -0.1313920390309714 -1.0209256074133672 2.127909719247266 2.0501011210321587 -0.5200046160127103 1.1399895127138917
1.89461898804 0.4011617174676709 -0.1313920390309714 -1.0209256074133672 2.127909719247266 2.0501011210321587 -0.5200046160127103 1.1399895127138917
1.89461898804 0.4011617174676709 -0.1313920390309714 -1.0209256074133672 2.127909719247266 2.0501011210321587 -0.5200046160127103 1.1399895127138917
1.90464091301 0.4011617174676709 -0.1313920390309714 -1.0209256074133672 2.127909719247266 2.0501011210321587 -0.5200046160127103 1.1399895127138917
1.90464091301 0.4011617174676709 -0.1313920390309714 -1.0209256074133672 2.127909719247266 2.0501011210321587 -0.5200046160127103 1.1399895127138917
1.91465091705 0.4011617174676709 -0.1313920390309714 -1.0209256074133672 2.127909719247266 2.0501011210321587 -0.5200046160127103 1.1399895127138917
1.91465091705 0.4011617174676709 -0.1313920390309714 -1.0209256074133672 2.127909719247266 2.0501011210321587 -0.5200046160127103 1.1399895127138917
1.92457294464 0.4011617174676709 -0.1313920390309714 -1.0209256074133672 2.127909719247266 2.0501011210321587 -0.5200046160127103 1.1399895127138917
1.92457294464 0.4011617174676709 -0.1313920390309714 -1.0209256074133672 2.127909719247266 2.0501011210321587 -0.5200046160127103 1.1399895127138917
1.93464493752 0.4011617174676709 -0.1313920390309714 -1.0209256074133672 2.127909719247266 2.0501011210321587 -0.5200046160127103 1.1399895127138917
1.93464493752 0.4011617174676709 -0.1313920390309714 -1.0209256074133672 2.127909719247266 2.0501011210321587 -0.5200046160127103 1.1399895127138917
1.94459104538 0.4011617174676709 -0.1313920390309714 -1.0209256074133672 2.127909719247266 2.0501011210321587 -0.5200046160127103 1.1399895127138917
1.94459104538 0.4011617174676709 -0.1313920390309714 -1.0209256074133672 2.127909719247266 2.0501011210321587 -0.5200046160127103 1.1399895127138917
1.95459198952 0.4011617174676709 -0.1313920390309714 -1.0209256074133672 2.127909719247266 2.0501011210321587 -0.5200046160127103 1.1399895127138917
1.95459198952 0.4011617174676709 -0.1313920390309714 -1.0209256074133672 2.127909719247266 2.0501011210321587 -0.5200046160127103 1.1399895127138917
1.96463990211 0.4011617174676709 -0.1313920390309714 -1.0209256074133672 2.127909719247266 2.0501011210321587 -0.5200046160127103 1.1399895127138917
1.96463990211 0.4011617174676709 -0.1313920390309714 -1.0209256074133672 2.127909719247266 2.0501011210321587 -0.5200046160127103 1.1399895127138917
1.97460484505 0.4016219178082191 -0.1313920390309714 -1.0349310377773857 2.1279250592586174 2.0501011210321587 -0.5200046160127103 1.1399895127138917
1.97460484505 0.4016219178082191 -0.1313920390309714 -1.0349310377773857 2.1279250592586174 2.0501011210321587 -0.5200046160127103 1.1399895127138917
1.98460197449 0.4030792188866218 -0.1313920390309714 -1.0483995677440978 2.1280477793494303 2.0501011210321587 -0.5200046160127103 1.1399895127138917
1.98460197449 0.4030792188866218 -0.1313920390309714 -1.0483995677440978 2.1280477793494303 2.0501011210321587 -0.5200046160127103 1.1399895127138917
1.99460291862 0.4030792188866218 -0.1313920390309714 -1.0483995677440978 2.1280477793494303 2.0501011210321587 -0.5200046160127103 1.1399895127138917
1.99460291862 0.4030792188866218 -0.1313920390309714 -1.0483995677440978 2.1280477793494303 2.0501011210321587 -0.5200046160127103 1.1399895127138917
2.00464701653 0.4030792188866218 -0.1313920390309714 -1.0483995677440978 2.1280477793494303 2.0501011210321587 -0.5200046160127103 1.1399895127138917
2.00464701653 0.4030792188866218 -0.1313920390309714 -1.0483995677440978 2.1280477793494303 2.0501011210321587 -0.5200046160127103 1.1399895127138917
2.01462388039 0.4035394192271701 -0.1313920390309714 -1.0580637748956112 2.1282011794629465 2.0501011210321587 -0.5200046160127103 1.1399895127138917
2.01462388039 0.4035394192271701 -0.1313920390309714 -1.0580637748956112 2.1282011794629465 2.0501011210321587 -0.5200046160127103 1.1399895127138917
2.02460885048 0.4035394192271701 -0.1313920390309714 -1.0580637748956112 2.1282011794629465 2.0501011210321587 -0.5200046160127103 1.1399895127138917
2.02460885048 0.4035394192271701 -0.1313920390309714 -1.0580637748956112 2.1282011794629465 2.0501011210321587 -0.5200046160127103 1.1399895127138917
2.03460502625 0.4035394192271701 -0.1313920390309714 -1.0580637748956112 2.1282011794629465 2.0501011210321587 -0.5200046160127103 1.1399895127138917
2.03460502625 0.4035394192271701 -0.1313920390309714 -1.0580637748956112 2.1282011794629465 2.0501011210321587 -0.5200046160127103 1.1399895127138917
2.04467606544 0.4035394192271701 -0.1313920390309714 -1.0580637748956112 2.1282011794629465 2.0501011210321587 -0.5200046160127103 1.1399895127138917
2.04467606544 0.4035394192271701 -0.1313920390309714 -1.0580637748956112 2.1282011794629465 2.0501011210321587 -0.5200046160127103 1.1399895127138917
2.05501389503 0.4035394192271701 -0.1313920390309714 -1.0580637748956112 2.1282011794629465 2.0501011210321587 -0.5200046160127103 1.1399895127138917
2.05501389503 0.4035394192271701 -0.1313920390309714 -1.0580637748956112 2.1282011794629465 2.0501011210321587 -0.5200046160127103 1.1399895127138917
2.06482291222 0.4035394192271701 -0.1313920390309714 -1.0580637748956112 2.1282011794629465 2.0501011210321587 -0.5200046160127103 1.1399895127138917
2.06482291222 0.4035394192271701 -0.1313920390309714 -1.0580637748956112 2.1282011794629465 2.0501011210321587 -0.5200046160127103 1.1399895127138917
2.07503986359 0.4035394192271701 -0.1313920390309714 -1.0580637748956112 2.1282011794629465 2.0501011210321587 -0.5200046160127103 1.1399895127138917
2.07503986359 0.4035394192271701 -0.1313920390309714 -1.0580637748956112 2.1282011794629465 2.0501011210321587 -0.5200046160127103 1.1399895127138917
2.08502602577 0.4035394192271701 -0.1313920390309714 -1.0580637748956112 2.1282011794629465 2.0501011210321587 -0.5200046160127103 1.1399895127138917
2.08502602577 0.4035394192271701 -0.1313920390309714 -1.0580637748956112 2.1282011794629465 2.0501011210321587 -0.5200046160127103 1.1399895127138917
2.09467291832 0.4037234993633895 -0.1313920390309714 -1.0675285618995536 2.128922159996472 2.0501011210321587 -0.5200046160127103 1.1399895127138917
2.09467291832 0.4037234993633895 -0.1313920390309714 -1.0675285618995536 2.128922159996472 2.0501011210321587 -0.5200046160127103 1.1399895127138917
2.10466599464 0.4037234993633895 -0.1313920390309714 -1.0675285618995536 2.128922159996472 2.0501011210321587 -0.5200046160127103 1.1399895127138917
2.10466599464 0.4037234993633895 -0.1313920390309714 -1.0675285618995536 2.128922159996472 2.0501011210321587 -0.5200046160127103 1.1399895127138917
2.11470603943 0.4037234993633895 -0.1313920390309714 -1.0675285618995536 2.128922159996472 2.0501011210321587 -0.5200046160127103 1.1399895127138917
2.11470603943 0.4037234993633895 -0.1313920390309714 -1.0675285618995536 2.128922159996472 2.0501011210321587 -0.5200046160127103 1.1399895127138917
2.12494397163 0.4037234993633895 -0.1313920390309714 -1.0675285618995536 2.128922159996472 2.0501011210321587 -0.5200046160127103 1.1399895127138917
2.12494397163 0.4037234993633895 -0.1313920390309714 -1.0675285618995536 2.128922159996472 2.0501011210321587 -0.5200046160127103 1.1399895127138917
2.13509297371 0.4037234993633895 -0.1313920390309714 -1.0675285618995536 2.128922159996472 2.0501011210321587 -0.5200046160127103 1.1399895127138917
2.13509297371 0.4037234993633895 -0.1313920390309714 -1.0675285618995536 2.128922159996472 2.0501011210321587 -0.5200046160127103 1.1399895127138917
2.14509487152 0.4037234993633895 -0.1313920390309714 -1.0675285618995536 2.128922159996472 2.0501011210321587 -0.5200046160127103 1.1399895127138917
2.14509487152 0.4037234993633895 -0.1313920390309714 -1.0675285618995536 2.128922159996472 2.0501011210321587 -0.5200046160127103 1.1399895127138917
2.15488100052 0.4038615594655541 -0.1313920390309714 -1.089173317916673 2.134521264139809 2.0501011210321587 -0.5200046160127103 1.1399895127138917
2.15488100052 0.4038615594655541 -0.1313920390309714 -1.089173317916673 2.134521264139809 2.0501011210321587 -0.5200046160127103 1.1399895127138917
2.16508293152 0.4038615594655541 -0.1313920390309714 -1.089173317916673 2.134521264139809 2.0501011210321587 -0.5200046160127103 1.1399895127138917
2.16508293152 0.4038615594655541 -0.1313920390309714 -1.089173317916673 2.134521264139809 2.0501011210321587 -0.5200046160127103 1.1399895127138917
2.17498898506 0.4038615594655541 -0.1313920390309714 -1.089173317916673 2.134521264139809 2.0501011210321587 -0.5200046160127103 1.1399895127138917
2.17498898506 0.4038615594655541 -0.1313920390309714 -1.089173317916673 2.134521264139809 2.0501011210321587 -0.5200046160127103 1.1399895127138917
2.18495893478 0.4038615594655541 -0.1313920390309714 -1.089173317916673 2.134521264139809 2.0501011210321587 -0.5200046160127103 1.1399895127138917
2.18495893478 0.4038615594655541 -0.1313920390309714 -1.089173317916673 2.134521264139809 2.0501011210321587 -0.5200046160127103 1.1399895127138917
2.19492292404 0.4038615594655541 -0.1313920390309714 -1.089173317916673 2.134521264139809 2.0501011210321587 -0.5200046160127103 1.1399895127138917
2.19492292404 0.4038615594655541 -0.1313920390309714 -1.089173317916673 2.134521264139809 2.0501011210321587 -0.5200046160127103 1.1399895127138917
2.20487189293 0.4038615594655541 -0.1313920390309714 -1.089173317916673 2.134521264139809 2.0501011210321587 -0.5200046160127103 1.1399895127138917
2.20487189293 0.4038615594655541 -0.1313920390309714 -1.089173317916673 2.134521264139809 2.0501011210321587 -0.5200046160127103 1.1399895127138917
2.21505594254 0.4038615594655541 -0.1313920390309714 -1.089173317916673 2.134521264139809 2.0501011210321587 -0.5200046160127103 1.1399895127138917
2.21505594254 0.4038615594655541 -0.1313920390309714 -1.089173317916673 2.134521264139809 2.0501011210321587 -0.5200046160127103 1.1399895127138917
2.2249250412 0.4038615594655541 -0.1313920390309714 -1.089173317916673 2.134521264139809 2.0501011210321587 -0.5200046160127103 1.1399895127138917
2.2249250412 0.4038615594655541 -0.1313920390309714 -1.089173317916673 2.134521264139809 2.0501011210321587 -0.5200046160127103 1.1399895127138917
2.23509502411 0.4038615594655541 -0.1313920390309714 -1.089173317916673 2.134521264139809 2.0501011210321587 -0.5200046160127103 1.1399895127138917
2.23509502411 0.4038615594655541 -0.1313920390309714 -1.089173317916673 2.134521264139809 2.0501011210321587 -0.5200046160127103 1.1399895127138917
2.24507689476 0.4038615594655541 -0.1313920390309714 -1.089173317916673 2.134521264139809 2.0501011210321587 -0.5200046160127103 1.1399895127138917
2.24507689476 0.4038615594655541 -0.1313920390309714 -1.089173317916673 2.134521264139809 2.0501011210321587 -0.5200046160127103 1.1399895127138917
2.25487303734 0.4038615594655541 -0.1313920390309714 -1.089173317916673 2.134521264139809 2.0501011210321587 -0.5200046160127103 1.1399895127138917
2.25487303734 0.4038615594655541 -0.1313920390309714 -1.089173317916673 2.134521264139809 2.0501011210321587 -0.5200046160127103 1.1399895127138917
2.26506185532 0.4038615594655541 -0.1313920390309714 -1.089173317916673 2.134521264139809 2.0501011210321587 -0.5200046160127103 1.1399895127138917
2.26506185532 0.4038615594655541 -0.1313920390309714 -1.089173317916673 2.134521264139809 2.0501011210321587 -0.5200046160127103 1.1399895127138917
2.27493286133 0.4039689395450151 -0.1313920390309714 -1.0977023642281674 2.140933388884781 2.0501011210321587 -0.5200046160127103 1.1399895127138917
2.27493286133 0.4039689395450151 -0.1313920390309714 -1.0977023642281674 2.140933388884781 2.0501011210321587 -0.5200046160127103 1.1399895127138917
2.28503799438 0.4046592400558377 -0.1313920390309714 -1.1196999405063737 2.1621946446181104 2.0501011210321587 -0.5200046160127103 1.1399895127138917
2.28503799438 0.4046592400558377 -0.1313920390309714 -1.1196999405063737 2.1621946446181104 2.0501011210321587 -0.5200046160127103 1.1399895127138917
2.29471683502 0.4047359401125955 -0.1313920390309714 -1.123580963378331 2.1667046079554835 2.0501011210321587 -0.5200046160127103 1.1399895127138917
2.29471683502 0.4047359401125955 -0.1313920390309714 -1.123580963378331 2.1667046079554835 2.0501011210321587 -0.5200046160127103 1.1399895127138917
2.30476403236 0.4047359401125955 -0.1313920390309714 -1.123580963378331 2.1667046079554835 2.0501011210321587 -0.5200046160127103 1.1399895127138917
2.30476403236 0.4047359401125955 -0.1313920390309714 -1.123580963378331 2.1667046079554835 2.0501011210321587 -0.5200046160127103 1.1399895127138917
2.31471705437 0.4047359401125955 -0.1313920390309714 -1.123580963378331 2.1667046079554835 2.0501011210321587 -0.5200046160127103 1.1399895127138917
2.31471705437 0.4047359401125955 -0.1313920390309714 -1.123580963378331 2.1667046079554835 2.0501011210321587 -0.5200046160127103 1.1399895127138917
2.3253929615 0.4047359401125955 -0.1313920390309714 -1.123580963378331 2.1667046079554835 2.0501011210321587 -0.5200046160127103 1.1399895127138917
2.3253929615 0.4047359401125955 -0.1313920390309714 -1.123580963378331 2.1667046079554835 2.0501011210321587 -0.5200046160127103 1.1399895127138917
2.33482193947 0.4047359401125955 -0.1313920390309714 -1.123580963378331 2.1667046079554835 2.0501011210321587 -0.5200046160127103 1.1399895127138917
2.33482193947 0.4047359401125955 -0.1313920390309714 -1.123580963378331 2.1667046079554835 2.0501011210321587 -0.5200046160127103 1.1399895127138917
2.34500694275 0.4047666201352988 -0.1313920390309714 -1.1272012060573102 2.170984471122582 2.0501011210321587 -0.5200046160127103 1.1399895127138917
2.34500694275 0.4047666201352988 -0.1313920390309714 -1.1272012060573102 2.170984471122582 2.0501011210321587 -0.5200046160127103 1.1399895127138917
2.35506606102 0.4047666201352988 -0.1313920390309714 -1.1272012060573102 2.170984471122582 2.0501011210321587 -0.5200046160127103 1.1399895127138917
2.35506606102 0.4047666201352988 -0.1313920390309714 -1.1272012060573102 2.170984471122582 2.0501011210321587 -0.5200046160127103 1.1399895127138917
2.36493992805 0.4047666201352988 -0.1313920390309714 -1.1272012060573102 2.170984471122582 2.0501011210321587 -0.5200046160127103 1.1399895127138917
2.36493992805 0.4047666201352988 -0.1313920390309714 -1.1272012060573102 2.170984471122582 2.0501011210321587 -0.5200046160127103 1.1399895127138917
2.37488889694 0.4047666201352988 -0.1313920390309714 -1.1272012060573102 2.170984471122582 2.0501011210321587 -0.5200046160127103 1.1399895127138917
2.37488889694 0.4047666201352988 -0.1313920390309714 -1.1272012060573102 2.170984471122582 2.0501011210321587 -0.5200046160127103 1.1399895127138917
2.38479995728 0.4047666201352988 -0.1313920390309714 -1.1272012060573102 2.170984471122582 2.0501011210321587 -0.5200046160127103 1.1399895127138917
2.38479995728 0.4047666201352988 -0.1313920390309714 -1.1272012060573102 2.170984471122582 2.0501011210321587 -0.5200046160127103 1.1399895127138917
2.39471006393 0.4048126401693536 -0.1313766990196198 -1.130852128758993 2.174988214085352 2.0501011210321587 -0.5200046160127103 1.1399895127138917
2.39471006393 0.4048126401693536 -0.1313766990196198 -1.130852128758993 2.174988214085352 2.0501011210321587 -0.5200046160127103 1.1399895127138917
2.40461397171 0.4048126401693536 -0.1313613590082682 -1.1383687343212812 2.18173781908006 2.0501011210321587 -0.5200046160127103 1.1399895127138917
2.40461397171 0.4048126401693536 -0.1313613590082682 -1.1383687343212812 2.18173781908006 2.0501011210321587 -0.5200046160127103 1.1399895127138917
2.41482901573 0.4048279801807052 -0.1313613590082682 -1.142372477284051 2.1845297011460523 2.0501011210321587 -0.5200046160127103 1.1399895127138917
2.41482901573 0.4048279801807052 -0.1313613590082682 -1.142372477284051 2.1845297011460523 2.0501011210321587 -0.5200046160127103 1.1399895127138917
2.42495894432 0.4048279801807052 -0.1313613590082682 -1.142372477284051 2.1845297011460523 2.0501011210321587 -0.5200046160127103 1.1399895127138917
2.42495894432 0.4048279801807052 -0.1313613590082682 -1.142372477284051 2.1845297011460523 2.0501011210321587 -0.5200046160127103 1.1399895127138917
2.43487596512 0.4048279801807052 -0.1313613590082682 -1.142372477284051 2.1845297011460523 2.0501011210321587 -0.5200046160127103 1.1399895127138917
2.43487596512 0.4048279801807052 -0.1313613590082682 -1.142372477284051 2.1845297011460523 2.0501011210321587 -0.5200046160127103 1.1399895127138917
2.44509005547 0.4048279801807052 -0.1313613590082682 -1.142372477284051 2.1845297011460523 2.0501011210321587 -0.5200046160127103 1.1399895127138917
2.44509005547 0.4048279801807052 -0.1313613590082682 -1.142372477284051 2.1845297011460523 2.0501011210321587 -0.5200046160127103 1.1399895127138917
2.45503592491 0.4048279801807052 -0.1313613590082682 -1.142372477284051 2.1845297011460523 2.0501011210321587 -0.5200046160127103 1.1399895127138917
2.45503592491 0.4048279801807052 -0.1313613590082682 -1.142372477284051 2.1845297011460523 2.0501011210321587 -0.5200046160127103 1.1399895127138917
2.46509695053 0.4048586602034085 -0.1310852388039393 -1.1502879231414809 2.1891623845742383 2.0501011210321587 -0.5200046160127103 1.1399895127138917
2.46509695053 0.4048586602034085 -0.1310852388039393 -1.1502879231414809 2.1891623845742383 2.0501011210321587 -0.5200046160127103 1.1399895127138917
2.47473192215 0.4048586602034085 -0.1310852388039393 -1.1502879231414809 2.1891623845742383 2.0501011210321587 -0.5200046160127103 1.1399895127138917
2.47473192215 0.4048586602034085 -0.1310852388039393 -1.1502879231414809 2.1891623845742383 2.0501011210321587 -0.5200046160127103 1.1399895127138917
2.48493790627 0.4048586602034085 -0.1310852388039393 -1.1502879231414809 2.1891623845742383 2.0501011210321587 -0.5200046160127103 1.1399895127138917
2.48493790627 0.4048586602034085 -0.1310852388039393 -1.1502879231414809 2.1891623845742383 2.0501011210321587 -0.5200046160127103 1.1399895127138917
2.49488186836 0.4048586602034085 -0.1310852388039393 -1.1502879231414809 2.1891623845742383 2.0501011210321587 -0.5200046160127103 1.1399895127138917
2.49488186836 0.4048586602034085 -0.1310852388039393 -1.1502879231414809 2.1891623845742383 2.0501011210321587 -0.5200046160127103 1.1399895127138917
2.50474905968 0.4048586602034085 -0.13090115866772 -1.1588323094643267 2.1928746673213277 2.0501011210321587 -0.5200046160127103 1.1399895127138917
2.50474905968 0.4048586602034085 -0.13090115866772 -1.1588323094643267 2.1928746673213277 2.0501011210321587 -0.5200046160127103 1.1399895127138917
2.51513600349 0.4048586602034085 -0.13090115866772 -1.1588323094643267 2.1928746673213277 2.0501011210321587 -0.5200046160127103 1.1399895127138917
2.51513600349 0.4048740002147601 -0.1307784385769071 -1.1688800168996305 2.195313729126233 2.0501011210321587 -0.5200046160127103 1.1399895127138917
2.52468490601 0.4048740002147601 -0.1307784385769071 -1.1688800168996305 2.195313729126233 2.0501011210321587 -0.5200046160127103 1.1399895127138917
2.52468490601 0.4048740002147601 -0.1307784385769071 -1.1688800168996305 2.195313729126233 2.0501011210321587 -0.5200046160127103 1.1399895127138917
2.53466105461 0.4048740002147601 -0.1305943584406878 -1.1742030008386384 2.19623412980733 2.0501011210321587 -0.5200046160127103 1.1399895127138917
2.53466105461 0.4048740002147601 -0.1305943584406878 -1.1742030008386384 2.19623412980733 2.0501011210321587 -0.5200046160127103 1.1399895127138917
2.54464292526 0.4048740002147601 -0.1305943584406878 -1.1742030008386384 2.19623412980733 2.0501011210321587 -0.5200046160127103 1.1399895127138917
2.54464292526 0.4048740002147601 -0.1305943584406878 -1.1742030008386384 2.19623412980733 2.0501011210321587 -0.5200046160127103 1.1399895127138917
2.55474495888 0.4048740002147601 -0.1305943584406878 -1.1742030008386384 2.19623412980733 2.0501011210321587 -0.5200046160127103 1.1399895127138917
2.55474495888 0.4048740002147601 -0.1305943584406878 -1.1742030008386384 2.19623412980733 2.0501011210321587 -0.5200046160127103 1.1399895127138917
2.56462883949 0.4048740002147601 -0.1305943584406878 -1.1742030008386384 2.19623412980733 2.0501011210321587 -0.5200046160127103 1.1399895127138917
2.56462883949 0.4048740002147601 -0.1305943584406878 -1.1742030008386384 2.19623412980733 2.0501011210321587 -0.5200046160127103 1.1399895127138917
2.57466697693 0.4048740002147601 -0.1305943584406878 -1.1742030008386384 2.19623412980733 2.0501011210321587 -0.5200046160127103 1.1399895127138917
2.57466697693 0.4048740002147601 -0.1305943584406878 -1.1742030008386384 2.19623412980733 2.0501011210321587 -0.5200046160127103 1.1399895127138917
2.58465099335 0.4048740002147601 -0.1300881380660847 -1.1796487048684594 2.1968630702727454 2.0501011210321587 -0.5200046160127103 1.1399895127138917
2.58465099335 0.4048740002147601 -0.1300881380660847 -1.1796487048684594 2.1968630702727454 2.0501011210321587 -0.5200046160127103 1.1399895127138917
2.59465789795 0.4048740002147601 -0.1291063773395818 -1.1850637288755772 2.197445990704107 2.0501011210321587 -0.5200046160127103 1.1399895127138917
2.59465789795 0.4048740002147601 -0.1291063773395818 -1.1850637288755772 2.197445990704107 2.0501011210321587 -0.5200046160127103 1.1399895127138917
2.60462999344 0.4048740002147601 -0.1291063773395818 -1.1850637288755772 2.197445990704107 2.0501011210321587 -0.5200046160127103 1.1399895127138917
2.60462999344 0.4048740002147601 -0.1291063773395818 -1.1850637288755772 2.197445990704107 2.0501011210321587 -0.5200046160127103 1.1399895127138917
2.61472892761 0.4048740002147601 -0.1291063773395818 -1.1850637288755772 2.197445990704107 2.0501011210321587 -0.5200046160127103 1.1399895127138917
2.61472892761 0.4048740002147601 -0.1291063773395818 -1.1850637288755772 2.197445990704107 2.0501011210321587 -0.5200046160127103 1.1399895127138917
2.62464785576 0.4048740002147601 -0.1280939365903756 -1.190831573143782 2.1979982311127646 2.0501011210321587 -0.5200046160127103 1.1399895127138917
2.62464785576 0.4048740002147601 -0.1280939365903756 -1.190831573143782 2.1979982311127646 2.0501011210321587 -0.5200046160127103 1.1399895127138917
2.63468694687 0.4048893402261117 -0.1263911953303471 -1.1968908776276672 2.198351051373852 2.0501011210321587 -0.5200046160127103 1.1399895127138917
2.63468694687 0.4048893402261117 -0.1263911953303471 -1.1968908776276672 2.198351051373852 2.0501011210321587 -0.5200046160127103 1.1399895127138917
2.64462304115 0.4048893402261117 -0.1263911953303471 -1.1968908776276672 2.198351051373852 2.0501011210321587 -0.5200046160127103 1.1399895127138917
2.64462304115 0.4048893402261117 -0.1263911953303471 -1.1968908776276672 2.198351051373852 2.0501011210321587 -0.5200046160127103 1.1399895127138917
2.65467405319 0.4049046802374633 -0.1244890339227477 -1.203241642327233 2.1987498916689936 2.0501011210321587 -0.5200046160127103 1.1399895127138917
2.65467405319 0.4049046802374633 -0.1244890339227477 -1.203241642327233 2.1987498916689936 2.0501011210321587 -0.5200046160127103 1.1399895127138917
2.66466188431 0.4049046802374633 -0.1244890339227477 -1.203241642327233 2.1987498916689936 2.0501011210321587 -0.5200046160127103 1.1399895127138917
2.66466188431 0.4049046802374633 -0.1244890339227477 -1.203241642327233 2.1987498916689936 2.0501011210321587 -0.5200046160127103 1.1399895127138917
2.67465305328 0.4049660402828698 -0.1221726922086548 -1.209546386992744 2.1990260118733223 2.0501011210321587 -0.5200046160127103 1.1399895127138917
2.67465305328 0.4049660402828698 -0.1221726922086548 -1.209546386992744 2.1990260118733223 2.0501011210321587 -0.5200046160127103 1.1399895127138917
2.68463802338 0.4050580803509795 -0.1193654701313105 -1.215820451635552 2.199240772032245 2.0501011210321587 -0.5200046160127103 1.1399895127138917
2.68463802338 0.4050580803509795 -0.1193654701313105 -1.215820451635552 2.199240772032245 2.0501011210321587 -0.5200046160127103 1.1399895127138917
2.6947748661 0.4050580803509795 -0.1193654701313105 -1.215820451635552 2.199240772032245 2.0501011210321587 -0.5200046160127103 1.1399895127138917
2.6947748661 0.4050580803509795 -0.1193654701313105 -1.215820451635552 2.199240772032245 2.0501011210321587 -0.5200046160127103 1.1399895127138917
2.70498394966 0.4050580803509795 -0.1193654701313105 -1.215820451635552 2.199240772032245 2.0501011210321587 -0.5200046160127103 1.1399895127138917
2.70498394966 0.4050580803509795 -0.1193654701313105 -1.215820451635552 2.199240772032245 2.0501011210321587 -0.5200046160127103 1.1399895127138917
2.71469497681 0.4050580803509795 -0.1193654701313105 -1.215820451635552 2.199240772032245 2.0501011210321587 -0.5200046160127103 1.1399895127138917
2.71469497681 0.4050580803509795 -0.1193654701313105 -1.215820451635552 2.199240772032245 2.0501011210321587 -0.5200046160127103 1.1399895127138917
2.72463297844 0.4050580803509795 -0.1193654701313105 -1.215820451635552 2.199240772032245 2.0501011210321587 -0.5200046160127103 1.1399895127138917
2.72463297844 0.4050580803509795 -0.1193654701313105 -1.215820451635552 2.199240772032245 2.0501011210321587 -0.5200046160127103 1.1399895127138917
2.73468184471 0.4057944008958566 -0.1084433820489653 -1.235915866506159 2.200176512724693 2.0501011210321587 -0.5200046160127103 1.1399895127138917
2.73468184471 0.4057944008958566 -0.1084433820489653 -1.235915866506159 2.200176512724693 2.0501011210321587 -0.5200046160127103 1.1399895127138917
2.74464297295 0.4057944008958566 -0.1084433820489653 -1.235915866506159 2.200176512724693 2.0501011210321587 -0.5200046160127103 1.1399895127138917
2.74464297295 0.4057944008958566 -0.1084433820489653 -1.235915866506159 2.200176512724693 2.0501011210321587 -0.5200046160127103 1.1399895127138917
2.75470685959 0.4062239212137017 -0.1043475990180859 -1.2425120713873503 2.200375932872264 2.0501011210321587 -0.5200046160127103 1.1399895127138917
2.75470685959 0.4062239212137017 -0.1043475990180859 -1.2425120713873503 2.200375932872264 2.0501011210321587 -0.5200046160127103 1.1399895127138917
2.76462388039 0.4062239212137017 -0.1043475990180859 -1.2425120713873503 2.200375932872264 2.0501011210321587 -0.5200046160127103 1.1399895127138917
2.76462388039 0.4062239212137017 -0.1043475990180859 -1.2425120713873503 2.200375932872264 2.0501011210321587 -0.5200046160127103 1.1399895127138917
2.77464294434 0.407113641872095 -0.1001137558850419 -1.2489395361436744 2.2004679729403733 2.0501011210321587 -0.5200046160127103 1.1399895127138917
2.77464294434 0.407113641872095 -0.1001137558850419 -1.2489395361436744 2.2004679729403733 2.0501011210321587 -0.5200046160127103 1.1399895127138917
2.78475904465 0.407113641872095 -0.1001137558850419 -1.2489395361436744 2.2004679729403733 2.0501011210321587 -0.5200046160127103 1.1399895127138917
2.78475904465 0.407113641872095 -0.1001137558850419 -1.2489395361436744 2.2004679729403733 2.0501011210321587 -0.5200046160127103 1.1399895127138917
2.79463505745 0.407113641872095 -0.1001137558850419 -1.2489395361436744 2.2004679729403733 2.0501011210321587 -0.5200046160127103 1.1399895127138917
2.79463505745 0.407113641872095 -0.1001137558850419 -1.2489395361436744 2.2004679729403733 2.0501011210321587 -0.5200046160127103 1.1399895127138917
2.80465102196 0.407113641872095 -0.1001137558850419 -1.2489395361436744 2.2004679729403733 2.0501011210321587 -0.5200046160127103 1.1399895127138917
2.80465102196 0.407113641872095 -0.1001137558850419 -1.2489395361436744 2.2004679729403733 2.0501011210321587 -0.5200046160127103 1.1399895127138917
2.81468987465 0.4081414226326527 -0.0954350524228013 -1.2551982607751306 2.200544672997132 2.0501011210321587 -0.5200046160127103 1.1399895127138917
2.81468987465 0.4081414226326527 -0.0954350524228013 -1.2551982607751306 2.200544672997132 2.0501011210321587 -0.5200046160127103 1.1399895127138917
2.82469201088 0.4088777431775298 -0.0906029488470447 -1.2613496053271256 2.2006367130652413 2.0501011210321587 -0.5200046160127103 1.1399895127138917
2.82469201088 0.4088777431775298 -0.0906029488470447 -1.2613496053271256 2.2006367130652413 2.0501011210321587 -0.5200046160127103 1.1399895127138917
2.8346889019 0.4088777431775298 -0.0906029488470447 -1.2613496053271256 2.2006367130652413 2.0501011210321587 -0.5200046160127103 1.1399895127138917
2.8346889019 0.4088777431775298 -0.0906029488470447 -1.2613496053271256 2.2006367130652413 2.0501011210321587 -0.5200046160127103 1.1399895127138917
2.84467697144 0.4088777431775298 -0.0906029488470447 -1.2613496053271256 2.2006367130652413 2.0501011210321587 -0.5200046160127103 1.1399895127138917
2.84467697144 0.4088777431775298 -0.0906029488470447 -1.2613496053271256 2.2006367130652413 2.0501011210321587 -0.5200046160127103 1.1399895127138917
2.85466885567 0.4088777431775298 -0.0906029488470447 -1.2613496053271256 2.2006367130652413 2.0501011210321587 -0.5200046160127103 1.1399895127138917
2.85466885567 0.4088777431775298 -0.0906029488470447 -1.2613496053271256 2.2006367130652413 2.0501011210321587 -0.5200046160127103 1.1399895127138917
2.86458897591 0.4088777431775298 -0.0906029488470447 -1.2613496053271256 2.2006367130652413 2.0501011210321587 -0.5200046160127103 1.1399895127138917
2.86458897591 0.4088777431775298 -0.0906029488470447 -1.2613496053271256 2.2006367130652413 2.0501011210321587 -0.5200046160127103 1.1399895127138917
2.87469506264 0.4095066836429459 -0.0858475453280461 -1.2673168697429014 2.200667393087945 2.0501011210321587 -0.5200046160127103 1.1399895127138917
2.87469506264 0.4095066836429459 -0.0858475453280461 -1.2673168697429014 2.200667393087945 2.0501011210321587 -0.5200046160127103 1.1399895127138917
2.88468885422 0.4103043642332295 -0.0808313616160702 -1.2728699538521837 2.200698073110648 2.0501011210321587 -0.5200046160127103 1.1399895127138917
2.88468885422 0.4103043642332295 -0.0808313616160702 -1.2728699538521837 2.200698073110648 2.0501011210321587 -0.5200046160127103 1.1399895127138917
2.89467096329 0.4109946647440518 -0.0759992580403135 -1.278453717984169 2.200790113178757 2.0501011210321587 -0.5200046160127103 1.1399895127138917
2.89467096329 0.4109946647440518 -0.0759992580403135 -1.278453717984169 2.200790113178757 2.0501011210321587 -0.5200046160127103 1.1399895127138917
2.90463995934 0.4109946647440518 -0.0759992580403135 -1.278453717984169 2.200790113178757 2.0501011210321587 -0.5200046160127103 1.1399895127138917
2.90463995934 0.4109946647440518 -0.0759992580403135 -1.278453717984169 2.200790113178757 2.0501011210321587 -0.5200046160127103 1.1399895127138917
2.91461992264 0.4109946647440518 -0.0759992580403135 -1.278453717984169 2.200790113178757 2.0501011210321587 -0.5200046160127103 1.1399895127138917
2.91461992264 0.4109946647440518 -0.0759992580403135 -1.278453717984169 2.200790113178757 2.0501011210321587 -0.5200046160127103 1.1399895127138917
2.92464399338 0.4109946647440518 -0.0759992580403135 -1.278453717984169 2.200790113178757 2.0501011210321587 -0.5200046160127103 1.1399895127138917
2.92464399338 0.4109946647440518 -0.0759992580403135 -1.278453717984169 2.200790113178757 2.0501011210321587 -0.5200046160127103 1.1399895127138917
2.93470191956 0.4109946647440518 -0.0759992580403135 -1.278453717984169 2.200790113178757 2.0501011210321587 -0.5200046160127103 1.1399895127138917
2.93470191956 0.4109946647440518 -0.0759992580403135 -1.278453717984169 2.200790113178757 2.0501011210321587 -0.5200046160127103 1.1399895127138917
2.94462800026 0.4109946647440518 -0.0759992580403135 -1.278453717984169 2.200790113178757 2.0501011210321587 -0.5200046160127103 1.1399895127138917
2.94462800026 0.4109946647440518 -0.0759992580403135 -1.278453717984169 2.200790113178757 2.0501011210321587 -0.5200046160127103 1.1399895127138917
2.95467090607 0.4109946647440518 -0.0759992580403135 -1.278453717984169 2.200790113178757 2.0501011210321587 -0.5200046160127103 1.1399895127138917
2.95467090607 0.4109946647440518 -0.0759992580403135 -1.278453717984169 2.200790113178757 2.0501011210321587 -0.5200046160127103 1.1399895127138917
2.9646320343 0.4109946647440518 -0.0759992580403135 -1.278453717984169 2.200790113178757 2.0501011210321587 -0.5200046160127103 1.1399895127138917
2.9646320343 0.4109946647440518 -0.0759992580403135 -1.278453717984169 2.200790113178757 2.0501011210321587 -0.5200046160127103 1.1399895127138917
2.97468304634 0.4109946647440518 -0.0759992580403135 -1.278453717984169 2.200790113178757 2.0501011210321587 -0.5200046160127103 1.1399895127138917
2.97468304634 0.4109946647440518 -0.0759992580403135 -1.278453717984169 2.200790113178757 2.0501011210321587 -0.5200046160127103 1.1399895127138917
2.98462891579 0.4109946647440518 -0.0759992580403135 -1.278453717984169 2.200790113178757 2.0501011210321587 -0.5200046160127103 1.1399895127138917
2.98462891579 0.4109946647440518 -0.0759992580403135 -1.278453717984169 2.200790113178757 2.0501011210321587 -0.5200046160127103 1.1399895127138917
2.99463200569 0.4109946647440518 -0.0759992580403135 -1.278453717984169 2.200790113178757 2.0501011210321587 -0.5200046160127103 1.1399895127138917
2.99463200569 0.4109946647440518 -0.0759992580403135 -1.278453717984169 2.200790113178757 2.0501011210321587 -0.5200046160127103 1.1399895127138917
3.00462698936 0.4109946647440518 -0.0759992580403135 -1.278453717984169 2.200790113178757 2.0501011210321587 -0.5200046160127103 1.1399895127138917
3.00462698936 0.4109946647440518 -0.0759992580403135 -1.278453717984169 2.200790113178757 2.0501011210321587 -0.5200046160127103 1.1399895127138917
3.0146420002 0.4109946647440518 -0.0759992580403135 -1.278453717984169 2.200790113178757 2.0501011210321587 -0.5200046160127103 1.1399895127138917
3.0146420002 0.4109946647440518 -0.0759992580403135 -1.278453717984169 2.200790113178757 2.0501011210321587 -0.5200046160127103 1.1399895127138917
3.02461504936 0.4112707849483809 -0.071473954691589 -1.2838534019799352 2.200805453190109 2.0501011210321587 -0.5200046160127103 1.1399895127138917
3.02461504936 0.4112707849483809 -0.071473954691589 -1.2838534019799352 2.200805453190109 2.0501011210321587 -0.5200046160127103 1.1399895127138917
3.03470897675 0.4112707849483809 -0.071473954691589 -1.2838534019799352 2.200805453190109 2.0501011210321587 -0.5200046160127103 1.1399895127138917
3.03470897675 0.4112707849483809 -0.071473954691589 -1.2838534019799352 2.200805453190109 2.0501011210321587 -0.5200046160127103 1.1399895127138917
3.04465603828 0.4112707849483809 -0.071473954691589 -1.2838534019799352 2.200805453190109 2.0501011210321587 -0.5200046160127103 1.1399895127138917
3.04465603828 0.4112707849483809 -0.071473954691589 -1.2838534019799352 2.200805453190109 2.0501011210321587 -0.5200046160127103 1.1399895127138917
3.05466294289 0.4112707849483809 -0.071473954691589 -1.2838534019799352 2.200805453190109 2.0501011210321587 -0.5200046160127103 1.1399895127138917
3.05466294289 0.4112707849483809 -0.071473954691589 -1.2838534019799352 2.200805453190109 2.0501011210321587 -0.5200046160127103 1.1399895127138917
3.06464791298 0.4112707849483809 -0.071473954691589 -1.2838534019799352 2.200805453190109 2.0501011210321587 -0.5200046160127103 1.1399895127138917
3.06464791298 0.4112707849483809 -0.071473954691589 -1.2838534019799352 2.200805453190109 2.0501011210321587 -0.5200046160127103 1.1399895127138917
3.07471203804 0.4112707849483809 -0.071473954691589 -1.2838534019799352 2.200805453190109 2.0501011210321587 -0.5200046160127103 1.1399895127138917
3.07471203804 0.4112707849483809 -0.071473954691589 -1.2838534019799352 2.200805453190109 2.0501011210321587 -0.5200046160127103 1.1399895127138917
3.08463287354 0.4112707849483809 -0.071473954691589 -1.2838534019799352 2.200805453190109 2.0501011210321587 -0.5200046160127103 1.1399895127138917
3.08463287354 0.4112707849483809 -0.071473954691589 -1.2838534019799352 2.200805453190109 2.0501011210321587 -0.5200046160127103 1.1399895127138917
3.09472894669 0.4115315651413582 -0.0532807012285815 -1.3056515581105708 2.201035553360383 2.0501011210321587 -0.5200046160127103 1.1399895127138917
3.09472894669 0.4115315651413582 -0.0532807012285815 -1.3056515581105708 2.201035553360383 2.0501011210321587 -0.5200046160127103 1.1399895127138917
3.104626894 0.4115315651413582 -0.0532807012285815 -1.3056515581105708 2.201035553360383 2.0501011210321587 -0.5200046160127103 1.1399895127138917
3.104626894 0.4115315651413582 -0.0532807012285815 -1.3056515581105708 2.201035553360383 2.0501011210321587 -0.5200046160127103 1.1399895127138917
3.11469602585 0.4115315651413582 -0.0381554500358956 -1.3216972099843531 2.201035553360383 2.0501011210321587 -0.5200046160127103 1.1399895127138917
3.11469602585 0.4115315651413582 -0.0381554500358956 -1.3216972099843531 2.201035553360383 2.0501011210321587 -0.5200046160127103 1.1399895127138917
3.12464404106 0.4115315651413582 -0.0381554500358956 -1.3216972099843531 2.201035553360383 2.0501011210321587 -0.5200046160127103 1.1399895127138917
3.12464404106 0.4115315651413582 -0.0381554500358956 -1.3216972099843531 2.201035553360383 2.0501011210321587 -0.5200046160127103 1.1399895127138917
3.13466787338 0.4115315651413582 -0.0381554500358956 -1.3216972099843531 2.201035553360383 2.0501011210321587 -0.5200046160127103 1.1399895127138917
3.13466787338 0.4115315651413582 -0.0381554500358956 -1.3216972099843531 2.201035553360383 2.0501011210321587 -0.5200046160127103 1.1399895127138917
3.14463996887 0.4115315651413582 -0.0381554500358956 -1.3216972099843531 2.201035553360383 2.0501011210321587 -0.5200046160127103 1.1399895127138917
3.14463996887 0.4115315651413582 -0.0381554500358956 -1.3216972099843531 2.201035553360383 2.0501011210321587 -0.5200046160127103 1.1399895127138917
3.15462183952 0.4115315651413582 -0.0381554500358956 -1.3216972099843531 2.201035553360383 2.0501011210321587 -0.5200046160127103 1.1399895127138917
3.15462183952 0.4115315651413582 -0.0381554500358956 -1.3216972099843531 2.201035553360383 2.0501011210321587 -0.5200046160127103 1.1399895127138917
3.16463303566 0.4115315651413582 -0.0381554500358956 -1.3216972099843531 2.201035553360383 2.0501011210321587 -0.5200046160127103 1.1399895127138917
3.16463303566 0.4115315651413582 -0.0381554500358956 -1.3216972099843531 2.201035553360383 2.0501011210321587 -0.5200046160127103 1.1399895127138917
3.17471885681 0.4115315651413582 -0.0381554500358956 -1.3216972099843531 2.201035553360383 2.0501011210321587 -0.5200046160127103 1.1399895127138917
3.17471885681 0.4115315651413582 -0.0381554500358956 -1.3216972099843531 2.201035553360383 2.0501011210321587 -0.5200046160127103 1.1399895127138917
3.18462991714 0.4115315651413582 -0.0381554500358956 -1.3216972099843531 2.201035553360383 2.0501011210321587 -0.5200046160127103 1.1399895127138917
3.18462991714 0.4115315651413582 -0.0381554500358956 -1.3216972099843531 2.201035553360383 2.0501011210321587 -0.5200046160127103 1.1399895127138917
3.19464087486 0.4115315651413582 -0.0381554500358956 -1.3216972099843531 2.201035553360383 2.0501011210321587 -0.5200046160127103 1.1399895127138917
3.19464087486 0.4115315651413582 -0.0381554500358956 -1.3216972099843531 2.201035553360383 2.0501011210321587 -0.5200046160127103 1.1399895127138917
3.20462989807 0.4115315651413582 -0.0381554500358956 -1.3216972099843531 2.201035553360383 2.0501011210321587 -0.5200046160127103 1.1399895127138917
3.20462989807 0.4115315651413582 -0.0381554500358956 -1.3216972099843531 2.201035553360383 2.0501011210321587 -0.5200046160127103 1.1399895127138917
3.21468901634 0.4115315651413582 -0.0381554500358956 -1.3216972099843531 2.201035553360383 2.0501011210321587 -0.5200046160127103 1.1399895127138917
3.21468901634 0.4115315651413582 -0.0381554500358956 -1.3216972099843531 2.201035553360383 2.0501011210321587 -0.5200046160127103 1.1399895127138917
3.22463202477 0.4115315651413582 -0.0381554500358956 -1.3216972099843531 2.201035553360383 2.0501011210321587 -0.5200046160127103 1.1399895127138917
3.22463202477 0.4115315651413582 -0.0381554500358956 -1.3216972099843531 2.201035553360383 2.0501011210321587 -0.5200046160127103 1.1399895127138917
3.23465895653 0.4115315651413582 -0.0381554500358956 -1.3216972099843531 2.201035553360383 2.0501011210321587 -0.5200046160127103 1.1399895127138917
3.23465895653 0.4115315651413582 -0.0381554500358956 -1.3216972099843531 2.201035553360383 2.0501011210321587 -0.5200046160127103 1.1399895127138917
3.24464702606 0.4115315651413582 -0.0381554500358956 -1.3216972099843531 2.201035553360383 2.0501011210321587 -0.5200046160127103 1.1399895127138917
3.24464702606 0.4115315651413582 -0.0381554500358956 -1.3216972099843531 2.201035553360383 2.0501011210321587 -0.5200046160127103 1.1399895127138917
3.25462603569 0.4115315651413582 -0.0381554500358956 -1.3216972099843531 2.201035553360383 2.0501011210321587 -0.5200046160127103 1.1399895127138917
3.25462603569 0.4115315651413582 -0.0381554500358956 -1.3216972099843531 2.201035553360383 2.0501011210321587 -0.5200046160127103 1.1399895127138917
3.26464295387 0.4115315651413582 -0.0381554500358956 -1.3216972099843531 2.201035553360383 2.0501011210321587 -0.5200046160127103 1.1399895127138917
3.26464295387 0.4115315651413582 -0.0381554500358956 -1.3216972099843531 2.201035553360383 2.0501011210321587 -0.5200046160127103 1.1399895127138917
3.27469396591 0.4115315651413582 -0.0381554500358956 -1.3216972099843531 2.201035553360383 2.0501011210321587 -0.5200046160127103 1.1399895127138917
3.27469396591 0.4115315651413582 -0.0381554500358956 -1.3216972099843531 2.201035553360383 2.0501011210321587 -0.5200046160127103 1.1399895127138917
3.28461790085 0.4115315651413582 -0.0381554500358956 -1.3216972099843531 2.201035553360383 2.0501011210321587 -0.5200046160127103 1.1399895127138917
3.28461790085 0.4115315651413582 -0.0381554500358956 -1.3216972099843531 2.201035553360383 2.0501011210321587 -0.5200046160127103 1.1399895127138917
3.29469490051 0.4115315651413582 -0.0381554500358956 -1.3216972099843531 2.201035553360383 2.0501011210321587 -0.5200046160127103 1.1399895127138917
3.29469490051 0.4115315651413582 -0.0381554500358956 -1.3216972099843531 2.201035553360383 2.0501011210321587 -0.5200046160127103 1.1399895127138917
3.30464887619 0.4115315651413582 -0.0381554500358956 -1.3216972099843531 2.201035553360383 2.0501011210321587 -0.5200046160127103 1.1399895127138917
3.30464887619 0.4115315651413582 -0.0381554500358956 -1.3216972099843531 2.201035553360383 2.0501011210321587 -0.5200046160127103 1.1399895127138917
3.31468605995 0.4115315651413582 -0.0381554500358956 -1.3216972099843531 2.201035553360383 2.0501011210321587 -0.5200046160127103 1.1399895127138917
3.31468605995 0.4115315651413582 -0.0381554500358956 -1.3216972099843531 2.201035553360383 2.0501011210321587 -0.5200046160127103 1.1399895127138917
3.32471394539 0.4115315651413582 -0.0381554500358956 -1.3216972099843531 2.201035553360383 2.0501011210321587 -0.5200046160127103 1.1399895127138917
3.32471394539 0.4115315651413582 -0.0381554500358956 -1.3216972099843531 2.201035553360383 2.0501011210321587 -0.5200046160127103 1.1399895127138917
3.33469986916 0.4115315651413582 -0.0381554500358956 -1.3216972099843531 2.201035553360383 2.0501011210321587 -0.5200046160127103 1.1399895127138917
3.33469986916 0.4115315651413582 -0.0381554500358956 -1.3216972099843531 2.201035553360383 2.0501011210321587 -0.5200046160127103 1.1399895127138917
3.3446700573 0.4115315651413582 -0.0381554500358956 -1.3216972099843531 2.201035553360383 2.0501011210321587 -0.5200046160127103 1.1399895127138917
3.3446700573 0.4115315651413582 -0.0381554500358956 -1.3216972099843531 2.201035553360383 2.0501011210321587 -0.5200046160127103 1.1399895127138917
3.35469484329 0.4115315651413582 -0.0381554500358956 -1.3216972099843531 2.201035553360383 2.0501011210321587 -0.5200046160127103 1.1399895127138917
3.35469484329 0.4115315651413582 -0.0381554500358956 -1.3216972099843531 2.201035553360383 2.0501011210321587 -0.5200046160127103 1.1399895127138917
3.36463403702 0.4115315651413582 -0.0282611427141082 -1.3332482385321145 2.201035553360383 2.0501011210321587 -0.5200046160127103 1.1399895127138917
3.36463403702 0.4115315651413582 -0.0282611427141082 -1.3332482385321145 2.201035553360383 2.0501011210321587 -0.5200046160127103 1.1399895127138917
3.37480783463 0.4115315651413582 -0.0282611427141082 -1.3332482385321145 2.201035553360383 2.0501011210321587 -0.5200046160127103 1.1399895127138917
3.37480783463 0.4115315651413582 -0.0282611427141082 -1.3332482385321145 2.201035553360383 2.0501011210321587 -0.5200046160127103 1.1399895127138917
3.38493299484 0.4115315651413582 -0.0282611427141082 -1.3332482385321145 2.201035553360383 2.0501011210321587 -0.5200046160127103 1.1399895127138917
3.38493299484 0.4115315651413582 -0.0282611427141082 -1.3332482385321145 2.201035553360383 2.0501011210321587 -0.5200046160127103 1.1399895127138917
3.39488983154 0.4115315651413582 -0.0282611427141082 -1.3332482385321145 2.201035553360383 2.0501011210321587 -0.5200046160127103 1.1399895127138917
3.39488983154 0.4115315651413582 -0.0282611427141082 -1.3332482385321145 2.201035553360383 2.0501011210321587 -0.5200046160127103 1.1399895127138917
3.4050450325 0.4115315651413582 -0.0282611427141082 -1.3332482385321145 2.201035553360383 2.0501011210321587 -0.5200046160127103 1.1399895127138917
3.4050450325 0.4115315651413582 -0.0282611427141082 -1.3332482385321145 2.201035553360383 2.0501011210321587 -0.5200046160127103 1.1399895127138917
3.41509890556 0.4115315651413582 -0.0282611427141082 -1.3332482385321145 2.201035553360383 2.0501011210321587 -0.5200046160127103 1.1399895127138917
3.41509890556 0.4115315651413582 -0.0282611427141082 -1.3332482385321145 2.201035553360383 2.0501011210321587 -0.5200046160127103 1.1399895127138917
3.42507100105 0.4115315651413582 -0.0282611427141082 -1.3332482385321145 2.201035553360383 2.0501011210321587 -0.5200046160127103 1.1399895127138917
3.42507100105 0.4115315651413582 -0.0282611427141082 -1.3332482385321145 2.201035553360383 2.0501011210321587 -0.5200046160127103 1.1399895127138917
3.43503093719 0.4115315651413582 -0.0282611427141082 -1.3332482385321145 2.201035553360383 2.0501011210321587 -0.5200046160127103 1.1399895127138917
3.43503093719 0.4115315651413582 -0.0282611427141082 -1.3332482385321145 2.201035553360383 2.0501011210321587 -0.5200046160127103 1.1399895127138917
3.44513201714 0.4115315651413582 -0.0282611427141082 -1.3332482385321145 2.201035553360383 2.0501011210321587 -0.5200046160127103 1.1399895127138917
3.44513201714 0.4115315651413582 -0.0282611427141082 -1.3332482385321145 2.201035553360383 2.0501011210321587 -0.5200046160127103 1.1399895127138917
3.45489501953 0.4115315651413582 -0.0282611427141082 -1.3332482385321145 2.201035553360383 2.0501011210321587 -0.5200046160127103 1.1399895127138917
3.45489501953 0.4115315651413582 -0.0282611427141082 -1.3332482385321145 2.201035553360383 2.0501011210321587 -0.5200046160127103 1.1399895127138917
3.46504092216 0.4115315651413582 -0.0282611427141082 -1.3332482385321145 2.201035553360383 2.0501011210321587 -0.5200046160127103 1.1399895127138917
3.46504092216 0.4115315651413582 -0.0282611427141082 -1.3332482385321145 2.201035553360383 2.0501011210321587 -0.5200046160127103 1.1399895127138917
3.4751188755 0.4110713648008099 0.0117916269249413 -1.4876607927974044 2.193442247741337 2.0501011210321587 -0.5200046160127103 1.1399895127138917
3.4751188755 0.4110713648008099 0.0117916269249413 -1.4876607927974044 2.193442247741337 2.0501011210321587 -0.5200046160127103 1.1399895127138917
3.48464798927 0.4110713648008099 0.0117916269249413 -1.4876607927974044 2.193442247741337 2.0501011210321587 -0.5200046160127103 1.1399895127138917
3.48464798927 0.4110713648008099 0.0117916269249413 -1.4876607927974044 2.193442247741337 2.0501011210321587 -0.5200046160127103 1.1399895127138917
3.4948759079 0.4110713648008099 0.0117916269249413 -1.4876607927974044 2.193442247741337 2.0501011210321587 -0.5200046160127103 1.1399895127138917
3.4948759079 0.4110713648008099 0.0117916269249413 -1.4876607927974044 2.193442247741337 2.0501011210321587 -0.5200046160127103 1.1399895127138917
3.50477790833 0.4110713648008099 0.0117916269249413 -1.4876607927974044 2.193442247741337 2.0501011210321587 -0.5200046160127103 1.1399895127138917
3.50477790833 0.4110713648008099 0.0117916269249413 -1.4876607927974044 2.193442247741337 2.0501011210321587 -0.5200046160127103 1.1399895127138917
3.51499199867 0.4110100047554034 0.0143227287979567 -1.495238758405099 2.191248626118057 2.0501011210321587 -0.5200046160127103 1.1399895127138917
3.51499199867 0.4110100047554034 0.0143227287979567 -1.495238758405099 2.191248626118057 2.0501011210321587 -0.5200046160127103 1.1399895127138917
3.52509403229 0.4110100047554034 0.0143227287979567 -1.495238758405099 2.191248626118057 2.0501011210321587 -0.5200046160127103 1.1399895127138917
3.52509403229 0.4110100047554034 0.0143227287979567 -1.495238758405099 2.191248626118057 2.0501011210321587 -0.5200046160127103 1.1399895127138917
3.53463983536 0.4104117443126908 0.023634115688383 -1.5176198349670955 2.1829957000108915 2.0501011210321587 -0.5200046160127103 1.1399895127138917
3.53463983536 0.4104117443126908 0.023634115688383 -1.5176198349670955 2.1829957000108915 2.0501011210321587 -0.5200046160127103 1.1399895127138917
3.54488301277 0.4104117443126908 0.023634115688383 -1.5176198349670955 2.1829957000108915 2.0501011210321587 -0.5200046160127103 1.1399895127138917
3.54488301277 0.4104117443126908 0.023634115688383 -1.5176198349670955 2.1829957000108915 2.0501011210321587 -0.5200046160127103 1.1399895127138917
3.55479884148 0.4102583441991747 0.0264413377657273 -1.5246455601661322 2.179728277592999 2.0501011210321587 -0.5200046160127103 1.1399895127138917
3.55479884148 0.4102583441991747 0.0264413377657273 -1.5246455601661322 2.179728277592999 2.0501011210321587 -0.5200046160127103 1.1399895127138917
3.56507086754 0.4102583441991747 0.0264413377657273 -1.5246455601661322 2.179728277592999 2.0501011210321587 -0.5200046160127103 1.1399895127138917
3.56507086754 0.4102583441991747 0.0264413377657273 -1.5246455601661322 2.179728277592999 2.0501011210321587 -0.5200046160127103 1.1399895127138917
3.57500505447 0.4102583441991747 0.0264413377657273 -1.5246455601661322 2.179728277592999 2.0501011210321587 -0.5200046160127103 1.1399895127138917
3.57500505447 0.4102583441991747 0.0264413377657273 -1.5246455601661322 2.179728277592999 2.0501011210321587 -0.5200046160127103 1.1399895127138917
3.5849609375 0.4102583441991747 0.0264413377657273 -1.5246455601661322 2.179728277592999 2.0501011210321587 -0.5200046160127103 1.1399895127138917
3.5849609375 0.4102583441991747 0.0264413377657273 -1.5246455601661322 2.179728277592999 2.0501011210321587 -0.5200046160127103 1.1399895127138917
3.59507393837 0.4102583441991747 0.0264413377657273 -1.5246455601661322 2.179728277592999 2.0501011210321587 -0.5200046160127103 1.1399895127138917
3.59507393837 0.4102583441991747 0.0264413377657273 -1.5246455601661322 2.179728277592999 2.0501011210321587 -0.5200046160127103 1.1399895127138917
3.60488700867 0.4102583441991747 0.0264413377657273 -1.5246455601661322 2.179728277592999 2.0501011210321587 -0.5200046160127103 1.1399895127138917
3.60488700867 0.4102583441991747 0.0264413377657273 -1.5246455601661322 2.179728277592999 2.0501011210321587 -0.5200046160127103 1.1399895127138917
3.61481404305 0.4102583441991747 0.0264413377657273 -1.5246455601661322 2.179728277592999 2.0501011210321587 -0.5200046160127103 1.1399895127138917
3.61481404305 0.4102583441991747 0.0264413377657273 -1.5246455601661322 2.179728277592999 2.0501011210321587 -0.5200046160127103 1.1399895127138917
3.62482786179 0.4102583441991747 0.0264413377657273 -1.5246455601661322 2.179728277592999 2.0501011210321587 -0.5200046160127103 1.1399895127138917
3.62482786179 0.4102583441991747 0.0264413377657273 -1.5246455601661322 2.179728277592999 2.0501011210321587 -0.5200046160127103 1.1399895127138917
3.63488698006 0.4099822239948458 0.0315035415117581 -1.5387430305982603 2.1716747716334046 2.0501011210321587 -0.5200046160127103 1.1399895127138917
3.63488698006 0.4099822239948458 0.0315035415117581 -1.5387430305982603 2.1716747716334046 2.0501011210321587 -0.5200046160127103 1.1399895127138917
3.64486789703 0.4099822239948458 0.0315035415117581 -1.5387430305982603 2.1716747716334046 2.0501011210321587 -0.5200046160127103 1.1399895127138917
3.64486789703 0.4099822239948458 0.0315035415117581 -1.5387430305982603 2.1716747716334046 2.0501011210321587 -0.5200046160127103 1.1399895127138917
3.6547498703 0.4099822239948458 0.0315035415117581 -1.5387430305982603 2.1716747716334046 2.0501011210321587 -0.5200046160127103 1.1399895127138917
3.6547498703 0.4099822239948458 0.0315035415117581 -1.5387430305982603 2.1716747716334046 2.0501011210321587 -0.5200046160127103 1.1399895127138917
3.66462492943 0.4099822239948458 0.0315035415117581 -1.5387430305982603 2.1716747716334046 2.0501011210321587 -0.5200046160127103 1.1399895127138917
3.66462492943 0.4099822239948458 0.0315035415117581 -1.5387430305982603 2.1716747716334046 2.0501011210321587 -0.5200046160127103 1.1399895127138917
3.67466688156 0.4099822239948458 0.0315035415117581 -1.5387430305982603 2.1716747716334046 2.0501011210321587 -0.5200046160127103 1.1399895127138917
3.67466688156 0.4099822239948458 0.0315035415117581 -1.5387430305982603 2.1716747716334046 2.0501011210321587 -0.5200046160127103 1.1399895127138917
3.68466997147 0.4099822239948458 0.0315035415117581 -1.5387430305982603 2.1716747716334046 2.0501011210321587 -0.5200046160127103 1.1399895127138917
3.68466997147 0.4099822239948458 0.0315035415117581 -1.5387430305982603 2.1716747716334046 2.0501011210321587 -0.5200046160127103 1.1399895127138917
3.69467687607 0.4099822239948458 0.0315035415117581 -1.5387430305982603 2.1716747716334046 2.0501011210321587 -0.5200046160127103 1.1399895127138917
3.69467687607 0.4099822239948458 0.0315035415117581 -1.5387430305982603 2.1716747716334046 2.0501011210321587 -0.5200046160127103 1.1399895127138917
3.70469689369 0.4099822239948458 0.0315035415117581 -1.5387430305982603 2.1716747716334046 2.0501011210321587 -0.5200046160127103 1.1399895127138917
3.70469689369 0.4099822239948458 0.0315035415117581 -1.5387430305982603 2.1716747716334046 2.0501011210321587 -0.5200046160127103 1.1399895127138917
3.71471095085 0.4099822239948458 0.0315035415117581 -1.5387430305982603 2.1716747716334046 2.0501011210321587 -0.5200046160127103 1.1399895127138917
3.71471095085 0.4099822239948458 0.0315035415117581 -1.5387430305982603 2.1716747716334046 2.0501011210321587 -0.5200046160127103 1.1399895127138917
3.72465491295 0.4099822239948458 0.0315035415117581 -1.5387430305982603 2.1716747716334046 2.0501011210321587 -0.5200046160127103 1.1399895127138917
3.72465491295 0.4099822239948458 0.0315035415117581 -1.5387430305982603 2.1716747716334046 2.0501011210321587 -0.5200046160127103 1.1399895127138917
3.7347369194 0.4099822239948458 0.0315035415117581 -1.5387430305982603 2.1716747716334046 2.0501011210321587 -0.5200046160127103 1.1399895127138917
3.7347369194 0.4099822239948458 0.0315035415117581 -1.5387430305982603 2.1716747716334046 2.0501011210321587 -0.5200046160127103 1.1399895127138917
3.7446410656 0.4099822239948458 0.0315035415117581 -1.5387430305982603 2.1716747716334046 2.0501011210321587 -0.5200046160127103 1.1399895127138917
3.7446410656 0.4099822239948458 0.0315035415117581 -1.5387430305982603 2.1716747716334046 2.0501011210321587 -0.5200046160127103 1.1399895127138917
3.75470590591 0.4099822239948458 0.0315035415117581 -1.5387430305982603 2.1716747716334046 2.0501011210321587 -0.5200046160127103 1.1399895127138917
3.75470590591 0.4099822239948458 0.0315035415117581 -1.5387430305982603 2.1716747716334046 2.0501011210321587 -0.5200046160127103 1.1399895127138917
3.76469087601 0.4099822239948458 0.0315035415117581 -1.5387430305982603 2.1716747716334046 2.0501011210321587 -0.5200046160127103 1.1399895127138917
3.76469087601 0.4099822239948458 0.0315035415117581 -1.5387430305982603 2.1716747716334046 2.0501011210321587 -0.5200046160127103 1.1399895127138917
3.77469205856 0.4099822239948458 0.0315035415117581 -1.5387430305982603 2.1716747716334046 2.0501011210321587 -0.5200046160127103 1.1399895127138917
3.77469205856 0.4099822239948458 0.0315035415117581 -1.5387430305982603 2.1716747716334046 2.0501011210321587 -0.5200046160127103 1.1399895127138917
3.78499889374 0.4099822239948458 0.0315035415117581 -1.5387430305982603 2.1716747716334046 2.0501011210321587 -0.5200046160127103 1.1399895127138917
3.78499889374 0.4099822239948458 0.0315035415117581 -1.5387430305982603 2.1716747716334046 2.0501011210321587 -0.5200046160127103 1.1399895127138917
3.7950398922 0.4099822239948458 0.0315035415117581 -1.5387430305982603 2.1716747716334046 2.0501011210321587 -0.5200046160127103 1.1399895127138917
3.7950398922 0.4099822239948458 0.0315035415117581 -1.5387430305982603 2.1716747716334046 2.0501011210321587 -0.5200046160127103 1.1399895127138917
3.80497288704 0.4099822239948458 0.0315035415117581 -1.5387430305982603 2.1716747716334046 2.0501011210321587 -0.5200046160127103 1.1399895127138917
3.80497288704 0.4099822239948458 0.0315035415117581 -1.5387430305982603 2.1716747716334046 2.0501011210321587 -0.5200046160127103 1.1399895127138917
3.81497883797 0.4099822239948458 0.0315035415117581 -1.5387430305982603 2.1716747716334046 2.0501011210321587 -0.5200046160127103 1.1399895127138917
3.81497883797 0.4099822239948458 0.0315035415117581 -1.5387430305982603 2.1716747716334046 2.0501011210321587 -0.5200046160127103 1.1399895127138917
3.82489299774 0.4099822239948458 0.0315035415117581 -1.5387430305982603 2.1716747716334046 2.0501011210321587 -0.5200046160127103 1.1399895127138917
3.82489299774 0.4099822239948458 0.0315035415117581 -1.5387430305982603 2.1716747716334046 2.0501011210321587 -0.5200046160127103 1.1399895127138917
3.83492994308 0.4099822239948458 0.0315035415117581 -1.5387430305982603 2.1716747716334046 2.0501011210321587 -0.5200046160127103 1.1399895127138917
3.83492994308 0.4099822239948458 0.0315035415117581 -1.5387430305982603 2.1716747716334046 2.0501011210321587 -0.5200046160127103 1.1399895127138917
3.84483385086 0.4099822239948458 0.0315035415117581 -1.5387430305982603 2.1716747716334046 2.0501011210321587 -0.5200046160127103 1.1399895127138917
3.84483385086 0.4099822239948458 0.0315035415117581 -1.5387430305982603 2.1716747716334046 2.0501011210321587 -0.5200046160127103 1.1399895127138917
3.85503792763 0.4099822239948458 0.0315035415117581 -1.5387430305982603 2.1716747716334046 2.0501011210321587 -0.5200046160127103 1.1399895127138917
3.85503792763 0.4099822239948458 0.0315035415117581 -1.5387430305982603 2.1716747716334046 2.0501011210321587 -0.5200046160127103 1.1399895127138917
3.8649828434 0.4099822239948458 0.0315035415117581 -1.5387430305982603 2.1716747716334046 2.0501011210321587 -0.5200046160127103 1.1399895127138917
3.8649828434 0.4099822239948458 0.0315035415117581 -1.5387430305982603 2.1716747716334046 2.0501011210321587 -0.5200046160127103 1.1399895127138917
3.87504792213 0.4099822239948458 0.0315035415117581 -1.5387430305982603 2.1716747716334046 2.0501011210321587 -0.5200046160127103 1.1399895127138917
