riccardo-csl/Motion-Planning-for-TIAGo-Manipulator/T3_G_7/head_scan/head_scan/tiago_traiettorie_SG/2a-4b/place_4b_rep2.txt
time arm_1_joint arm_2_joint arm_3_joint arm_4_joint arm_5_joint arm_6_joint arm_7_joint
1.34532403946 0.3083853288131432 -0.1892545618492383 -1.0876699968042154 2.1320361823008485 2.050037204598331 -0.5200046160127103 1.1399895127138917
1.34583497047 0.3083853288131432 -0.1892545618492383 -1.0876699968042154 2.1320361823008485 2.050037204598331 -0.5200046160127103 1.1399895127138917
1.34583497047 0.3083853288131432 -0.1892545618492383 -1.0876699968042154 2.1320361823008485 2.050037204598331 -0.5200046160127103 1.1399895127138917
1.35587310791 0.3083853288131432 -0.1892545618492383 -1.0876699968042154 2.1320361823008485 2.050037204598331 -0.5200046160127103 1.1399895127138917
1.35587310791 0.3083853288131432 -0.1892545618492383 -1.0876699968042154 2.1320361823008485 2.050037204598331 -0.5200046160127103 1.1399895127138917
1.36617207527 0.3083853288131432 -0.1892545618492383 -1.0876699968042154 2.1320361823008485 2.050037204598331 -0.5200046160127103 1.1399895127138917
1.36617207527 0.3083853288131432 -0.1892545618492383 -1.0876699968042154 2.1320361823008485 2.050037204598331 -0.5200046160127103 1.1399895127138917
1.37607598305 0.3083853288131432 -0.1892545618492383 -1.0876699968042154 2.1320361823008485 2.050037204598331 -0.5200046160127103 1.1399895127138917
1.37607598305 0.3083853288131432 -0.1892545618492383 -1.0876699968042154 2.1320361823008485 2.050037204598331 -0.5200046160127103 1.1399895127138917
1.3911550045 0.3083853288131432 -0.1892545618492383 -1.0876699968042154 2.1320361823008485 2.050037204598331 -0.5200046160127103 1.1399895127138917
1.3911550045 0.3083853288131432 -0.1892545618492383 -1.0876699968042154 2.1320361823008485 2.050037204598331 -0.5200046160127103 1.1399895127138917
1.39596605301 0.3083853288131432 -0.1892545618492383 -1.0876699968042154 2.1320361823008485 2.050037204598331 -0.5200046160127103 1.1399895127138917
1.39596605301 0.3083853288131432 -0.1892545618492383 -1.0876699968042154 2.1320361823008485 2.050037204598331 -0.5200046160127103 1.1399895127138917
1.40613818169 0.3083853288131432 -0.1892545618492383 -1.0876699968042154 2.1320361823008485 2.050037204598331 -0.5200046160127103 1.1399895127138917
1.40613818169 0.3083853288131432 -0.1892545618492383 -1.0876699968042154 2.1320361823008485 2.050037204598331 -0.5200046160127103 1.1399895127138917
1.41606497765 0.3083853288131432 -0.1892545618492383 -1.0876699968042154 2.1320361823008485 2.050037204598331 -0.5200046160127103 1.1399895127138917
1.41606497765 0.3083853288131432 -0.1892545618492383 -1.0876699968042154 2.1320361823008485 2.050037204598331 -0.5200046160127103 1.1399895127138917
1.42621803284 0.3083853288131432 -0.1892545618492383 -1.0876699968042154 2.1320361823008485 2.050037204598331 -0.5200046160127103 1.1399895127138917
1.42621803284 0.3083853288131432 -0.1892545618492383 -1.0876699968042154 2.1320361823008485 2.050037204598331 -0.5200046160127103 1.1399895127138917
1.43615412712 0.3083853288131432 -0.1892545618492383 -1.0876699968042154 2.1320361823008485 2.050037204598331 -0.5200046160127103 1.1399895127138917
1.43615412712 0.3083853288131432 -0.1892545618492383 -1.0876699968042154 2.1320361823008485 2.050037204598331 -0.5200046160127103 1.1399895127138917
1.4461991787 0.3083853288131432 -0.1892545618492383 -1.0876699968042154 2.1320361823008485 2.050037204598331 -0.5200046160127103 1.1399895127138917
1.4461991787 0.3083853288131432 -0.1892545618492383 -1.0876699968042154 2.1320361823008485 2.050037204598331 -0.5200046160127103 1.1399895127138917
1.45614004135 0.3083853288131432 -0.1892545618492383 -1.0876699968042154 2.1320361823008485 2.050037204598331 -0.5200046160127103 1.1399895127138917
1.45614004135 0.3083853288131432 -0.1892545618492383 -1.0876699968042154 2.1320361823008485 2.050037204598331 -0.5200046160127103 1.1399895127138917
1.46606707573 0.3083853288131432 -0.1892545618492383 -1.0876699968042154 2.1320361823008485 2.050037204598331 -0.5200046160127103 1.1399895127138917
1.46606707573 0.3083853288131432 -0.1892545618492383 -1.0876699968042154 2.1320361823008485 2.050037204598331 -0.5200046160127103 1.1399895127138917
1.47612118721 0.3083853288131432 -0.1892545618492383 -1.0876699968042154 2.1320361823008485 2.050037204598331 -0.5200046160127103 1.1399895127138917
1.47612118721 0.3083853288131432 -0.1892545618492383 -1.0876699968042154 2.1320361823008485 2.050037204598331 -0.5200046160127103 1.1399895127138917
1.48606109619 0.3083853288131432 -0.1892545618492383 -1.0876699968042154 2.1320361823008485 2.050037204598331 -0.5200046160127103 1.1399895127138917
1.48606109619 0.3083853288131432 -0.1892545618492383 -1.0876699968042154 2.1320361823008485 2.050037204598331 -0.5200046160127103 1.1399895127138917
1.49607610703 0.3083853288131432 -0.1892545618492383 -1.0876699968042154 2.1320361823008485 2.050037204598331 -0.5200046160127103 1.1399895127138917
1.49607610703 0.3083853288131432 -0.1892545618492383 -1.0876699968042154 2.1320361823008485 2.050037204598331 -0.5200046160127103 1.1399895127138917
1.50623607635 0.3083853288131432 -0.1892545618492383 -1.0876699968042154 2.1320361823008485 2.050037204598331 -0.5200046160127103 1.1399895127138917
1.50623607635 0.3083853288131432 -0.1892545618492383 -1.0876699968042154 2.1320361823008485 2.050037204598331 -0.5200046160127103 1.1399895127138917
1.51601910591 0.3083853288131432 -0.1892545618492383 -1.0876699968042154 2.1320361823008485 2.050037204598331 -0.5200046160127103 1.1399895127138917
1.51601910591 0.3083853288131432 -0.1892545618492383 -1.0876699968042154 2.1320361823008485 2.050037204598331 -0.5200046160127103 1.1399895127138917
1.52617716789 0.3083853288131432 -0.1892545618492383 -1.0876699968042154 2.1320361823008485 2.050037204598331 -0.5200046160127103 1.1399895127138917
1.52617716789 0.3083853288131432 -0.1892545618492383 -1.0876699968042154 2.1320361823008485 2.050037204598331 -0.5200046160127103 1.1399895127138917
1.53602910042 0.3083853288131432 -0.1892545618492383 -1.0876699968042154 2.1320361823008485 2.050037204598331 -0.5200046160127103 1.1399895127138917
1.53602910042 0.3083853288131432 -0.1892545618492383 -1.0876699968042154 2.1320361823008485 2.050037204598331 -0.5200046160127103 1.1399895127138917
1.54615807533 0.3083853288131432 -0.1892545618492383 -1.0876699968042154 2.1320361823008485 2.050037204598331 -0.5200046160127103 1.1399895127138917
1.54615807533 0.3083853288131432 -0.1892545618492383 -1.0876699968042154 2.1320361823008485 2.050037204598331 -0.5200046160127103 1.1399895127138917
1.55611801147 0.3083853288131432 -0.1892545618492383 -1.0876699968042154 2.1320361823008485 2.050037204598331 -0.5200046160127103 1.1399895127138917
1.55611801147 0.3083853288131432 -0.1892545618492383 -1.0876699968042154 2.1320361823008485 2.050037204598331 -0.5200046160127103 1.1399895127138917
1.56600999832 0.3083853288131432 -0.1892545618492383 -1.0876699968042154 2.1320361823008485 2.050037204598331 -0.5200046160127103 1.1399895127138917
1.56600999832 0.3083853288131432 -0.1892545618492383 -1.0876699968042154 2.1320361823008485 2.050037204598331 -0.5200046160127103 1.1399895127138917
1.5760371685 0.3083853288131432 -0.1892545618492383 -1.0876699968042154 2.1320361823008485 2.050037204598331 -0.5200046160127103 1.1399895127138917
1.5760371685 0.3083853288131432 -0.1892545618492383 -1.0876699968042154 2.1320361823008485 2.050037204598331 -0.5200046160127103 1.1399895127138917
1.58616399765 0.3083853288131432 -0.1892545618492383 -1.0876699968042154 2.1320361823008485 2.050037204598331 -0.5200046160127103 1.1399895127138917
1.58616399765 0.3083853288131432 -0.1892545618492383 -1.0876699968042154 2.1320361823008485 2.050037204598331 -0.5200046160127103 1.1399895127138917
1.59610104561 0.3083853288131432 -0.1892545618492383 -1.0876699968042154 2.1320361823008485 2.050037204598331 -0.5200046160127103 1.1399895127138917
1.59610104561 0.3083853288131432 -0.1892545618492383 -1.0876699968042154 2.1320361823008485 2.050037204598331 -0.5200046160127103 1.1399895127138917
1.60617804527 0.3083853288131432 -0.1892545618492383 -1.0876699968042154 2.1320361823008485 2.050037204598331 -0.5200046160127103 1.1399895127138917
1.60617804527 0.3083853288131432 -0.1892545618492383 -1.0876699968042154 2.1320361823008485 2.050037204598331 -0.5200046160127103 1.1399895127138917
1.61612915993 0.3083853288131432 -0.1892545618492383 -1.0876699968042154 2.1320361823008485 2.050037204598331 -0.5200046160127103 1.1399895127138917
1.61612915993 0.3083853288131432 -0.1892545618492383 -1.0876699968042154 2.1320361823008485 2.050037204598331 -0.5200046160127103 1.1399895127138917
1.62636804581 0.3083853288131432 -0.1892545618492383 -1.0876699968042154 2.1320361823008485 2.050037204598331 -0.5200046160127103 1.1399895127138917
1.62636804581 0.3083853288131432 -0.1892545618492383 -1.0876699968042154 2.1320361823008485 2.050037204598331 -0.5200091814722694 1.1399849472543326
1.63576507568 0.3083853288131432 -0.1892545618492383 -1.0876699968042154 2.132020842289497 2.050037204598331 -0.5200046160127103 1.1399895127138917
1.63576507568 0.3083853288131432 -0.1892545618492383 -1.0876699968042154 2.132020842289497 2.050037204598331 -0.5200046160127103 1.1399895127138917
1.64573907852 0.3083853288131432 -0.1892545618492383 -1.0876699968042154 2.132020842289497 2.050037204598331 -0.5200046160127103 1.1399895127138917
1.64573907852 0.3083853288131432 -0.1892545618492383 -1.0876699968042154 2.132020842289497 2.050037204598331 -0.5200046160127103 1.1399895127138917
1.6559920311 0.3083853288131432 -0.1892545618492383 -1.0876699968042154 2.132020842289497 2.050037204598331 -0.5200046160127103 1.1399895127138917
1.6559920311 0.3083853288131432 -0.1892545618492383 -1.0876699968042154 2.132020842289497 2.050037204598331 -0.5200046160127103 1.1399895127138917
1.66620111465 0.3083853288131432 -0.1892545618492383 -1.0876699968042154 2.132020842289497 2.050037204598331 -0.5200046160127103 1.1399895127138917
1.66620111465 0.3083853288131432 -0.1892545618492383 -1.0876699968042154 2.132020842289497 2.050037204598331 -0.5200046160127103 1.1399895127138917
1.67617917061 0.3083853288131432 -0.1892545618492383 -1.0876699968042154 2.132020842289497 2.050037204598331 -0.5200046160127103 1.1399895127138917
1.67617917061 0.3083853288131432 -0.1892545618492383 -1.0876699968042154 2.132020842289497 2.050037204598331 -0.5200046160127103 1.1399895127138917
1.68603897095 0.3083853288131432 -0.1892545618492383 -1.0876699968042154 2.132020842289497 2.050037204598331 -0.5200046160127103 1.1399895127138917
1.68603897095 0.3083853288131432 -0.1892545618492383 -1.0876699968042154 2.132020842289497 2.050037204598331 -0.5200046160127103 1.1399895127138917
1.69618916512 0.3083853288131432 -0.1892545618492383 -1.0876699968042154 2.132020842289497 2.050037204598331 -0.5200046160127103 1.1399895127138917
1.69618916512 0.3083853288131432 -0.1892545618492383 -1.0876699968042154 2.132020842289497 2.050037204598331 -0.5200046160127103 1.1399895127138917
1.706179142 0.3083853288131432 -0.1892545618492383 -1.0876699968042154 2.132020842289497 2.050037204598331 -0.5200046160127103 1.1399895127138917
1.706179142 0.3083853288131432 -0.1892545618492383 -1.0876699968042154 2.132020842289497 2.050037204598331 -0.5200046160127103 1.1399895127138917
1.71608996391 0.3083853288131432 -0.1892545618492383 -1.0876699968042154 2.132020842289497 2.050037204598331 -0.5200046160127103 1.1399895127138917
1.71608996391 0.3083853288131432 -0.1892545618492383 -1.0876699968042154 2.132020842289497 2.050037204598331 -0.5200046160127103 1.1399895127138917
1.72630119324 0.3083853288131432 -0.1892545618492383 -1.0876699968042154 2.132020842289497 2.050037204598331 -0.5200046160127103 1.1399895127138917
1.72630119324 0.3083853288131432 -0.1892545618492383 -1.0876699968042154 2.132020842289497 2.050037204598331 -0.5200046160127103 1.1399895127138917
1.73612213135 0.3083853288131432 -0.1892545618492383 -1.0876699968042154 2.132020842289497 2.050037204598331 -0.5200046160127103 1.1399895127138917
1.73612213135 0.3083853288131432 -0.1892545618492383 -1.0876699968042154 2.132020842289497 2.050037204598331 -0.5200046160127103 1.1399895127138917
1.74629211426 0.3083853288131432 -0.1892545618492383 -1.0876699968042154 2.132020842289497 2.050037204598331 -0.5200046160127103 1.1399895127138917
1.74629211426 0.3083853288131432 -0.1892545618492383 -1.0876699968042154 2.132020842289497 2.050037204598331 -0.5200046160127103 1.1399895127138917
1.75613999367 0.3083853288131432 -0.1892545618492383 -1.0876699968042154 2.132020842289497 2.050037204598331 -0.5200046160127103 1.1399895127138917
1.75613999367 0.3083853288131432 -0.1892545618492383 -1.0876699968042154 2.132020842289497 2.050037204598331 -0.5200046160127103 1.1399895127138917
1.76622605324 0.3083853288131432 -0.1892545618492383 -1.0876699968042154 2.132020842289497 2.050037204598331 -0.5200046160127103 1.1399895127138917
1.76622605324 0.3083853288131432 -0.1892545618492383 -1.0876699968042154 2.132020842289497 2.050037204598331 -0.5200046160127103 1.1399895127138917
1.77621006966 0.3083853288131432 -0.1892545618492383 -1.0876699968042154 2.132020842289497 2.050037204598331 -0.5200046160127103 1.1399895127138917
1.77621006966 0.3083853288131432 -0.1892545618492383 -1.0876699968042154 2.132020842289497 2.050037204598331 -0.5200046160127103 1.1399895127138917
1.78609919548 0.3083853288131432 -0.1892545618492383 -1.0876699968042154 2.132020842289497 2.050037204598331 -0.5200046160127103 1.1399895127138917
1.78609919548 0.3083853288131432 -0.1892545618492383 -1.0876699968042154 2.132020842289497 2.050037204598331 -0.5200046160127103 1.1399895127138917
1.79598212242 0.3083853288131432 -0.1892545618492383 -1.0876699968042154 2.132020842289497 2.050037204598331 -0.5200046160127103 1.1399895127138917
1.79598212242 0.3083853288131432 -0.1892545618492383 -1.0876699968042154 2.132020842289497 2.050037204598331 -0.5200046160127103 1.1399895127138917
1.80615615845 0.3083853288131432 -0.1892545618492383 -1.0876699968042154 2.132020842289497 2.050037204598331 -0.5200046160127103 1.1399895127138917
1.80615615845 0.3083853288131432 -0.1892545618492383 -1.0876699968042154 2.132020842289497 2.050037204598331 -0.5200046160127103 1.1399895127138917
1.81611704826 0.3083853288131432 -0.1892545618492383 -1.0876699968042154 2.132020842289497 2.050037204598331 -0.5200046160127103 1.1399895127138917
1.81611704826 0.3083853288131432 -0.1892545618492383 -1.0876699968042154 2.132020842289497 2.050037204598331 -0.5200046160127103 1.1399895127138917
1.82617998123 0.3083853288131432 -0.1892545618492383 -1.0876699968042154 2.132020842289497 2.050037204598331 -0.5200046160127103 1.1399895127138917
1.82617998123 0.3083853288131432 -0.1892545618492383 -1.0876699968042154 2.132020842289497 2.050037204598331 -0.5200046160127103 1.1399895127138917
1.83612704277 0.3083853288131432 -0.1892545618492383 -1.0876699968042154 2.132020842289497 2.050037204598331 -0.5200046160127103 1.1399895127138917
1.83612704277 0.3083853288131432 -0.1892545618492383 -1.0876699968042154 2.132020842289497 2.050037204598331 -0.5200046160127103 1.1399895127138917
1.84633898735 0.3083853288131432 -0.1892545618492383 -1.0876699968042154 2.132020842289497 2.050037204598331 -0.5200046160127103 1.1399895127138917
1.84633898735 0.3083853288131432 -0.1892545618492383 -1.0876699968042154 2.132020842289497 2.050037204598331 -0.5200046160127103 1.1399895127138917
1.85613203049 0.3083853288131432 -0.1892545618492383 -1.0876699968042154 2.132020842289497 2.050037204598331 -0.5200046160127103 1.1399895127138917
1.85613203049 0.3083853288131432 -0.1892545618492383 -1.0876699968042154 2.132020842289497 2.050037204598331 -0.5200046160127103 1.1399895127138917
1.86618614197 0.3083853288131432 -0.1892545618492383 -1.0876699968042154 2.132020842289497 2.050037204598331 -0.5200046160127103 1.1399895127138917
1.86618614197 0.3083853288131432 -0.1892545618492383 -1.0876699968042154 2.132020842289497 2.050037204598331 -0.5200046160127103 1.1399895127138917
1.87602806091 0.3083853288131432 -0.1892545618492383 -1.0876699968042154 2.132020842289497 2.050037204598331 -0.5200046160127103 1.1399895127138917
1.87602806091 0.3083853288131432 -0.1892545618492383 -1.0876699968042154 2.132020842289497 2.050037204598331 -0.5200046160127103 1.1399895127138917
1.88619399071 0.3083853288131432 -0.1892545618492383 -1.0876699968042154 2.132020842289497 2.050037204598331 -0.5200046160127103 1.1399895127138917
1.88619399071 0.3083853288131432 -0.1892545618492383 -1.0876699968042154 2.132020842289497 2.050037204598331 -0.5200046160127103 1.1399895127138917
1.8961250782 0.3083853288131432 -0.1892545618492383 -1.0876699968042154 2.132020842289497 2.050037204598331 -0.5200046160127103 1.1399895127138917
1.8961250782 0.3083853288131432 -0.1892545618492383 -1.0876699968042154 2.132020842289497 2.050037204598331 -0.5200046160127103 1.1399895127138917
1.90598106384 0.3083853288131432 -0.1892545618492383 -1.0876699968042154 2.132020842289497 2.050037204598331 -0.5200046160127103 1.1399895127138917
1.90598106384 0.3083853288131432 -0.1892545618492383 -1.0876699968042154 2.132020842289497 2.050037204598331 -0.5200046160127103 1.1399895127138917
1.91615104675 0.3083853288131432 -0.1892545618492383 -1.0876699968042154 2.132020842289497 2.050037204598331 -0.5200046160127103 1.1399895127138917
1.91615104675 0.3083853288131432 -0.1892545618492383 -1.0876699968042154 2.132020842289497 2.050037204598331 -0.5200046160127103 1.1399895127138917
1.92620611191 0.3083853288131432 -0.1892545618492383 -1.0876699968042154 2.132020842289497 2.050037204598331 -0.5200046160127103 1.1399895127138917
1.92620611191 0.3083853288131432 -0.1892545618492383 -1.0876699968042154 2.132020842289497 2.050037204598331 -0.5200046160127103 1.1399895127138917
1.9361140728 0.3083853288131432 -0.1892545618492383 -1.0876699968042154 2.132020842289497 2.050037204598331 -0.5200046160127103 1.1399895127138917
1.9361140728 0.3083853288131432 -0.1892545618492383 -1.0876699968042154 2.132020842289497 2.050037204598331 -0.5200046160127103 1.1399895127138917
1.94621014595 0.3083853288131432 -0.1892545618492383 -1.0876699968042154 2.132020842289497 2.050037204598331 -0.5200046160127103 1.1399895127138917
1.94621014595 0.3083853288131432 -0.1892545618492383 -1.0876699968042154 2.132020842289497 2.050037204598331 -0.5200046160127103 1.1399895127138917
1.95601701736 0.3083853288131432 -0.1892545618492383 -1.0876699968042154 2.132020842289497 2.050037204598331 -0.5200046160127103 1.1399895127138917
1.95601701736 0.3083853288131432 -0.1892545618492383 -1.0876699968042154 2.132020842289497 2.050037204598331 -0.5200046160127103 1.1399895127138917
1.96606111526 0.3083853288131432 -0.1892545618492383 -1.0876699968042154 2.132020842289497 2.050037204598331 -0.5200046160127103 1.1399895127138917
1.96606111526 0.3083853288131432 -0.1892545618492383 -1.0876699968042154 2.132020842289497 2.050037204598331 -0.5200046160127103 1.1399895127138917
1.9759850502 0.3083853288131432 -0.1892545618492383 -1.0876699968042154 2.132020842289497 2.050037204598331 -0.5200046160127103 1.1399895127138917
1.9759850502 0.3083853288131432 -0.1892545618492383 -1.0876699968042154 2.132020842289497 2.050037204598331 -0.5200046160127103 1.1399895127138917
1.9861600399 0.3083853288131432 -0.1892545618492383 -1.0876699968042154 2.132020842289497 2.050037204598331 -0.5200046160127103 1.1399895127138917
1.9861600399 0.3083853288131432 -0.1892545618492383 -1.0876699968042154 2.132020842289497 2.050037204598331 -0.5200046160127103 1.1399895127138917
1.99575996399 0.3083853288131432 -0.1892545618492383 -1.0876699968042154 2.132020842289497 2.050037204598331 -0.5200046160127103 1.1399895127138917
1.99575996399 0.3083853288131432 -0.1892545618492383 -1.0876699968042154 2.132020842289497 2.050037204598331 -0.5200046160127103 1.1399895127138917
2.005890131 0.3083853288131432 -0.1892545618492383 -1.0876699968042154 2.132020842289497 2.050037204598331 -0.5200046160127103 1.1399895127138917
2.005890131 0.3083853288131432 -0.1892545618492383 -1.0876699968042154 2.132020842289497 2.050037204598331 -0.5200046160127103 1.1399895127138917
2.01571512222 0.3083853288131432 -0.1892545618492383 -1.0876699968042154 2.132020842289497 2.050037204598331 -0.5200046160127103 1.1399895127138917
2.01571512222 0.3083853288131432 -0.1892545618492383 -1.0876699968042154 2.132020842289497 2.050037204598331 -0.5200046160127103 1.1399895127138917
2.02579402924 0.3083853288131432 -0.1892545618492383 -1.0876699968042154 2.132020842289497 2.050037204598331 -0.5200046160127103 1.1399895127138917
2.02579402924 0.3083853288131432 -0.1892545618492383 -1.0876699968042154 2.132020842289497 2.050037204598331 -0.5200046160127103 1.1399895127138917
2.03595113754 0.3083853288131432 -0.1892545618492383 -1.0876699968042154 2.132020842289497 2.050037204598331 -0.5200046160127103 1.1399895127138917
2.03595113754 0.3083853288131432 -0.1892545618492383 -1.0876699968042154 2.132020842289497 2.050037204598331 -0.5200046160127103 1.1399895127138917
2.045814991 0.3083853288131432 -0.1892545618492383 -1.0876699968042154 2.132020842289497 2.050037204598331 -0.5200046160127103 1.1399895127138917
2.045814991 0.3083853288131432 -0.1892545618492383 -1.0876699968042154 2.132020842289497 2.050037204598331 -0.5200046160127103 1.1399895127138917
2.05589914322 0.3083853288131432 -0.1892545618492383 -1.0876699968042154 2.132020842289497 2.050037204598331 -0.5200046160127103 1.1399895127138917
2.05589914322 0.3083853288131432 -0.1892545618492383 -1.0876699968042154 2.132020842289497 2.050037204598331 -0.5200046160127103 1.1399895127138917
2.06601214409 0.3083853288131432 -0.1892545618492383 -1.0876699968042154 2.132020842289497 2.050037204598331 -0.5200046160127103 1.1399895127138917
2.06601214409 0.3083853288131432 -0.1892545618492383 -1.0876699968042154 2.132020842289497 2.050037204598331 -0.5200046160127103 1.1399895127138917
2.07598114014 0.3083853288131432 -0.1892545618492383 -1.0876699968042154 2.132020842289497 2.050037204598331 -0.5200046160127103 1.1399895127138917
2.07598114014 0.3083853288131432 -0.1892545618492383 -1.0876699968042154 2.132020842289497 2.050037204598331 -0.5200046160127103 1.1399895127138917
2.08606219292 0.3083853288131432 -0.1892545618492383 -1.0876699968042154 2.132020842289497 2.050037204598331 -0.5200046160127103 1.1399895127138917
2.08606219292 0.3083853288131432 -0.1892545618492383 -1.0876699968042154 2.132020842289497 2.050037204598331 -0.5200046160127103 1.1399895127138917
2.09606599808 0.3083853288131432 -0.1892545618492383 -1.0876699968042154 2.132020842289497 2.050037204598331 -0.5200046160127103 1.1399895127138917
2.09606599808 0.3083853288131432 -0.1892545618492383 -1.0876699968042154 2.132020842289497 2.050037204598331 -0.5200046160127103 1.1399895127138917
2.10610413551 0.3083853288131432 -0.1892545618492383 -1.0876699968042154 2.132020842289497 2.050037204598331 -0.5200046160127103 1.1399895127138917
2.10610413551 0.3083853288131432 -0.1892545618492383 -1.0876699968042154 2.132020842289497 2.050037204598331 -0.5200046160127103 1.1399895127138917
2.11598110199 0.3083853288131432 -0.1892545618492383 -1.0876699968042154 2.132020842289497 2.050037204598331 -0.5200046160127103 1.1399895127138917
2.11598110199 0.3083853288131432 -0.1892545618492383 -1.0876699968042154 2.132020842289497 2.050037204598331 -0.5200046160127103 1.1399895127138917
2.12577104568 0.3083853288131432 -0.1892545618492383 -1.0876699968042154 2.132020842289497 2.050037204598331 -0.5200046160127103 1.1399895127138917
2.12577104568 0.3083853288131432 -0.1892545618492383 -1.0876699968042154 2.132020842289497 2.050037204598331 -0.5200046160127103 1.1399895127138917
2.13570713997 0.3083853288131432 -0.1892545618492383 -1.0876699968042154 2.132020842289497 2.050037204598331 -0.5200046160127103 1.1399895127138917
2.13570713997 0.3083853288131432 -0.1892545618492383 -1.0876699968042154 2.132020842289497 2.050037204598331 -0.5200046160127103 1.1399895127138917
2.14590501785 0.3083853288131432 -0.1892545618492383 -1.0876699968042154 2.132020842289497 2.050037204598331 -0.5200046160127103 1.1399895127138917
2.14590501785 0.3083853288131432 -0.1892545618492383 -1.0876699968042154 2.132020842289497 2.050037204598331 -0.5200046160127103 1.1399895127138917
2.15577602386 0.3083853288131432 -0.1892545618492383 -1.0876699968042154 2.132020842289497 2.050037204598331 -0.5200046160127103 1.1399895127138917
2.15577602386 0.3083853288131432 -0.1892545618492383 -1.0876699968042154 2.132020842289497 2.050037204598331 -0.5200046160127103 1.1399895127138917
2.16580319405 0.3083853288131432 -0.1892545618492383 -1.0876699968042154 2.132020842289497 2.050037204598331 -0.5200046160127103 1.1399895127138917
2.16580319405 0.3083853288131432 -0.1892545618492383 -1.0876699968042154 2.132020842289497 2.050037204598331 -0.5200046160127103 1.1399895127138917
2.17573714256 0.3083853288131432 -0.1892545618492383 -1.0876699968042154 2.132020842289497 2.050037204598331 -0.5200046160127103 1.1399895127138917
2.17573714256 0.3083853288131432 -0.1892545618492383 -1.0876699968042154 2.132020842289497 2.050037204598331 -0.5200046160127103 1.1399895127138917
2.18575000763 0.3083853288131432 -0.1892545618492383 -1.0876699968042154 2.132020842289497 2.050037204598331 -0.5200046160127103 1.1399895127138917
2.18575000763 0.3083853288131432 -0.1892545618492383 -1.0876699968042154 2.132020842289497 2.050037204598331 -0.5200046160127103 1.1399895127138917
2.19571709633 0.3083853288131432 -0.1892545618492383 -1.0876699968042154 2.132020842289497 2.050037204598331 -0.5200046160127103 1.1399895127138917
2.19571709633 0.3083853288131432 -0.1892545618492383 -1.0876699968042154 2.132020842289497 2.050037204598331 -0.5200046160127103 1.1399895127138917
2.20602297783 0.3083853288131432 -0.1892545618492383 -1.0876699968042154 2.132020842289497 2.050037204598331 -0.5200046160127103 1.1399895127138917
2.20602297783 0.3083853288131432 -0.1892545618492383 -1.0876699968042154 2.132020842289497 2.050037204598331 -0.5200046160127103 1.1399895127138917
2.21597409248 0.3083853288131432 -0.1892545618492383 -1.0876699968042154 2.132005502278145 2.050037204598331 -0.5200046160127103 1.1399895127138917
2.21597409248 0.3083853288131432 -0.1892545618492383 -1.0876699968042154 2.132005502278145 2.050037204598331 -0.5200046160127103 1.1399895127138917
2.22596311569 0.3083853288131432 -0.1892545618492383 -1.0876699968042154 2.132005502278145 2.050037204598331 -0.5200046160127103 1.1399895127138917
2.22596311569 0.3083853288131432 -0.1892545618492383 -1.0876699968042154 2.132005502278145 2.050037204598331 -0.5200046160127103 1.1399895127138917
2.23607611656 0.3083853288131432 -0.1892545618492383 -1.0876699968042154 2.132005502278145 2.050037204598331 -0.5200046160127103 1.1399895127138917
2.23607611656 0.3083853288131432 -0.1892545618492383 -1.0876699968042154 2.132005502278145 2.050037204598331 -0.5200046160127103 1.1399895127138917
2.24617505074 0.3083853288131432 -0.1892545618492383 -1.0876699968042154 2.132005502278145 2.050037204598331 -0.5200046160127103 1.1399895127138917
2.24617505074 0.3083853288131432 -0.1892545618492383 -1.0876699968042154 2.132005502278145 2.050037204598331 -0.5200046160127103 1.1399895127138917
2.25607705116 0.3083853288131432 -0.1892545618492383 -1.0876699968042154 2.132005502278145 2.050037204598331 -0.5200046160127103 1.1399895127138917
2.25607705116 0.3083853288131432 -0.1892545618492383 -1.0876699968042154 2.132005502278145 2.050037204598331 -0.5200046160127103 1.1399895127138917
2.26611804962 0.3083853288131432 -0.1892545618492383 -1.0876699968042154 2.132005502278145 2.050037204598331 -0.5200046160127103 1.1399895127138917
2.26611804962 0.3083853288131432 -0.1892545618492383 -1.0876699968042154 2.132005502278145 2.050037204598331 -0.5200046160127103 1.1399895127138917
2.27606916428 0.3083853288131432 -0.1892545618492383 -1.0876699968042154 2.132005502278145 2.050037204598331 -0.5200046160127103 1.1399895127138917
2.27606916428 0.3083853288131432 -0.1892545618492383 -1.0876699968042154 2.132005502278145 2.050037204598331 -0.5200046160127103 1.1399895127138917
2.2861790657 0.3083853288131432 -0.1892545618492383 -1.0876699968042154 2.132005502278145 2.050037204598331 -0.5200046160127103 1.1399895127138917
2.2861790657 0.3083853288131432 -0.1892545618492383 -1.0876699968042154 2.132005502278145 2.050037204598331 -0.5200046160127103 1.1399895127138917
2.29612612724 0.3083853288131432 -0.1892545618492383 -1.0876699968042154 2.132005502278145 2.050037204598331 -0.5200046160127103 1.1399895127138917
2.29612612724 0.3083853288131432 -0.1892545618492383 -1.0876699968042154 2.132005502278145 2.050037204598331 -0.5200046160127103 1.1399895127138917
2.30600309372 0.3083853288131432 -0.1892545618492383 -1.0876699968042154 2.132005502278145 2.050037204598331 -0.5200046160127103 1.1399895127138917
2.30600309372 0.3083853288131432 -0.1892545618492383 -1.0876699968042154 2.132005502278145 2.050037204598331 -0.5200046160127103 1.1399895127138917
2.31607413292 0.3083853288131432 -0.1892545618492383 -1.0876699968042154 2.132005502278145 2.050037204598331 -0.5200046160127103 1.1399895127138917
2.31607413292 0.3083853288131432 -0.1892545618492383 -1.0876699968042154 2.132005502278145 2.050037204598331 -0.5200046160127103 1.1399895127138917
2.32602500916 0.3083853288131432 -0.1892545618492383 -1.0876699968042154 2.132005502278145 2.050037204598331 -0.5200046160127103 1.1399895127138917
2.32602500916 0.3083853288131432 -0.1892545618492383 -1.0876699968042154 2.132005502278145 2.050037204598331 -0.5200046160127103 1.1399895127138917
2.33611106873 0.3083853288131432 -0.1892545618492383 -1.0876699968042154 2.132005502278145 2.050037204598331 -0.5200046160127103 1.1399895127138917
2.33611106873 0.3083853288131432 -0.1892545618492383 -1.0876699968042154 2.132005502278145 2.050037204598331 -0.5200046160127103 1.1399895127138917
2.34621310234 0.3083853288131432 -0.1892545618492383 -1.0876699968042154 2.132005502278145 2.050037204598331 -0.5200046160127103 1.1399895127138917
2.34621310234 0.3083853288131432 -0.1892545618492383 -1.0876699968042154 2.132005502278145 2.050037204598331 -0.5200046160127103 1.1399895127138917
2.35612511635 0.3083853288131432 -0.1892545618492383 -1.0876699968042154 2.132005502278145 2.050037204598331 -0.5200046160127103 1.1399895127138917
2.35612511635 0.3083853288131432 -0.1892545618492383 -1.0876699968042154 2.132005502278145 2.050037204598331 -0.5200046160127103 1.1399895127138917
2.36620402336 0.3083853288131432 -0.1892545618492383 -1.0876699968042154 2.132005502278145 2.050037204598331 -0.5200046160127103 1.1399895127138917
2.36620402336 0.3083853288131432 -0.1892545618492383 -1.0876699968042154 2.132005502278145 2.050037204598331 -0.5200046160127103 1.1399895127138917
2.37610507011 0.3083853288131432 -0.1892545618492383 -1.0876699968042154 2.132005502278145 2.050037204598331 -0.5200046160127103 1.1399895127138917
2.37610507011 0.3083853288131432 -0.1892545618492383 -1.0876699968042154 2.132005502278145 2.050037204598331 -0.5200046160127103 1.1399895127138917
2.38611507416 0.3083853288131432 -0.1892545618492383 -1.0876699968042154 2.132005502278145 2.050037204598331 -0.5200046160127103 1.1399895127138917
2.38611507416 0.3083853288131432 -0.1892545618492383 -1.0876699968042154 2.132005502278145 2.050037204598331 -0.5200046160127103 1.1399895127138917
2.39608597755 0.3083853288131432 -0.1892545618492383 -1.0876699968042154 2.132005502278145 2.050037204598331 -0.5200046160127103 1.1399895127138917
2.39608597755 0.3083853288131432 -0.1892545618492383 -1.0876699968042154 2.132005502278145 2.050037204598331 -0.5200046160127103 1.1399895127138917
2.40584397316 0.3083853288131432 -0.1892545618492383 -1.0876699968042154 2.132005502278145 2.050037204598331 -0.5200046160127103 1.1399895127138917
2.40584397316 0.3083853288131432 -0.1892545618492383 -1.0876699968042154 2.132005502278145 2.050037204598331 -0.5200046160127103 1.1399895127138917
2.41571617126 0.3083853288131432 -0.1892545618492383 -1.0876699968042154 2.132005502278145 2.050037204598331 -0.5200046160127103 1.1399895127138917
2.41571617126 0.3083853288131432 -0.1892545618492383 -1.0876699968042154 2.132005502278145 2.050037204598331 -0.5200046160127103 1.1399895127138917
2.42583417892 0.3083853288131432 -0.1892545618492383 -1.0876699968042154 2.132005502278145 2.050037204598331 -0.5200046160127103 1.1399895127138917
2.42583417892 0.3083853288131432 -0.1892545618492383 -1.0876699968042154 2.132005502278145 2.050037204598331 -0.5200046160127103 1.1399895127138917
2.43597316742 0.3083853288131432 -0.1892545618492383 -1.0876699968042154 2.132005502278145 2.050037204598331 -0.5200046160127103 1.1399895127138917
2.43597316742 0.3083853288131432 -0.1892545618492383 -1.0876699968042154 2.132005502278145 2.050037204598331 -0.5200046160127103 1.1399895127138917
2.44582009315 0.3083853288131432 -0.1892545618492383 -1.0876699968042154 2.132005502278145 2.050037204598331 -0.5200046160127103 1.1399895127138917
2.44582009315 0.3083853288131432 -0.1892545618492383 -1.0876699968042154 2.132005502278145 2.050037204598331 -0.5200046160127103 1.1399895127138917
2.45592617989 0.3083853288131432 -0.1892545618492383 -1.0876699968042154 2.132005502278145 2.050037204598331 -0.5200046160127103 1.1399895127138917
2.45592617989 0.3083853288131432 -0.1892545618492383 -1.0876699968042154 2.132005502278145 2.050037204598331 -0.5200046160127103 1.1399895127138917
2.46579313278 0.3083853288131432 -0.1892545618492383 -1.0876699968042154 2.132005502278145 2.050037204598331 -0.5200046160127103 1.1399895127138917
2.46579313278 0.3083853288131432 -0.1892545618492383 -1.0876699968042154 2.132005502278145 2.050037204598331 -0.5200046160127103 1.1399895127138917
2.47570514679 0.3083853288131432 -0.1892545618492383 -1.0876699968042154 2.132005502278145 2.050037204598331 -0.5200046160127103 1.1399895127138917
2.47570514679 0.3083853288131432 -0.1892545618492383 -1.0876699968042154 2.132005502278145 2.050037204598331 -0.5200046160127103 1.1399895127138917
2.48581600189 0.3083853288131432 -0.1892545618492383 -1.0876699968042154 2.132005502278145 2.050037204598331 -0.5200046160127103 1.1399895127138917
2.48581600189 0.3083853288131432 -0.1892545618492383 -1.0876699968042154 2.132005502278145 2.050037204598331 -0.5200046160127103 1.1399895127138917
2.49570703506 0.3083853288131432 -0.1892545618492383 -1.0876699968042154 2.132005502278145 2.050037204598331 -0.5200046160127103 1.1399895127138917
2.49570703506 0.3083853288131432 -0.1892545618492383 -1.0876699968042154 2.132005502278145 2.050037204598331 -0.5200046160127103 1.1399895127138917
2.50582098961 0.3083853288131432 -0.1892545618492383 -1.0876699968042154 2.132005502278145 2.050037204598331 -0.5200046160127103 1.1399895127138917
2.50582098961 0.3083853288131432 -0.1892545618492383 -1.0876699968042154 2.132005502278145 2.050037204598331 -0.5200046160127103 1.1399895127138917
2.51585698128 0.3083853288131432 -0.1892545618492383 -1.0876699968042154 2.132005502278145 2.050037204598331 -0.5200046160127103 1.1399895127138917
2.51585698128 0.3083853288131432 -0.1892545618492383 -1.0876699968042154 2.132005502278145 2.050037204598331 -0.5200046160127103 1.1399895127138917
2.52580714226 0.3083853288131432 -0.1892545618492383 -1.0876699968042154 2.132005502278145 2.050037204598331 -0.5200046160127103 1.1399895127138917
2.52580714226 0.3083853288131432 -0.1892545618492383 -1.0876699968042154 2.132005502278145 2.050037204598331 -0.5200046160127103 1.1399895127138917
2.53578519821 0.3083853288131432 -0.1892545618492383 -1.0876699968042154 2.132005502278145 2.050037204598331 -0.5200046160127103 1.1399895127138917
2.53578519821 0.3083853288131432 -0.1892545618492383 -1.0876699968042154 2.132005502278145 2.050037204598331 -0.5200046160127103 1.1399895127138917
2.54579901695 0.3083853288131432 -0.1892545618492383 -1.0876699968042154 2.132005502278145 2.050037204598331 -0.5200046160127103 1.1399895127138917
2.54579901695 0.3083853288131432 -0.1892545618492383 -1.0876699968042154 2.132005502278145 2.050037204598331 -0.5200046160127103 1.1399895127138917
2.55573916435 0.3083853288131432 -0.1892545618492383 -1.0876699968042154 2.132005502278145 2.050037204598331 -0.5200046160127103 1.1399895127138917
2.55573916435 0.3083853288131432 -0.1892545618492383 -1.0876699968042154 2.132005502278145 2.050037204598331 -0.5200046160127103 1.1399895127138917
2.56581807137 0.3083853288131432 -0.1892545618492383 -1.0876699968042154 2.132005502278145 2.050037204598331 -0.5200046160127103 1.1399895127138917
2.56581807137 0.3083853288131432 -0.1892545618492383 -1.0876699968042154 2.132005502278145 2.050037204598331 -0.5200046160127103 1.1399895127138917
2.57588410378 0.3083853288131432 -0.1892545618492383 -1.0876699968042154 2.132005502278145 2.050037204598331 -0.5200046160127103 1.1399895127138917
2.57588410378 0.3083853288131432 -0.1892545618492383 -1.0876699968042154 2.132005502278145 2.050037204598331 -0.5200046160127103 1.1399895127138917
2.58581614494 0.3083853288131432 -0.1892545618492383 -1.0876699968042154 2.132005502278145 2.050037204598331 -0.5200046160127103 1.1399895127138917
2.58581614494 0.3083853288131432 -0.1892545618492383 -1.0876699968042154 2.132005502278145 2.050037204598331 -0.5200046160127103 1.1399895127138917
2.59580206871 0.3083853288131432 -0.1892545618492383 -1.0876699968042154 2.132005502278145 2.050037204598331 -0.5200046160127103 1.1399895127138917
2.59580206871 0.3083853288131432 -0.1892545618492383 -1.0876699968042154 2.132005502278145 2.050037204598331 -0.5200046160127103 1.1399895127138917
2.60582017899 0.3083853288131432 -0.1892545618492383 -1.0876699968042154 2.132005502278145 2.050037204598331 -0.5200046160127103 1.1399895127138917
2.60582017899 0.3083853288131432 -0.1892545618492383 -1.0876699968042154 2.132005502278145 2.050037204598331 -0.5200046160127103 1.1399895127138917
2.61572813988 0.3083853288131432 -0.1892545618492383 -1.0876699968042154 2.132005502278145 2.050037204598331 -0.5200046160127103 1.1399895127138917
2.61572813988 0.3083853288131432 -0.1892545618492383 -1.0876699968042154 2.132005502278145 2.050037204598331 -0.5200046160127103 1.1399895127138917
2.62581515312 0.3083853288131432 -0.1892545618492383 -1.0876699968042154 2.132005502278145 2.050037204598331 -0.5200046160127103 1.1399895127138917
2.62581515312 0.3083853288131432 -0.1892545618492383 -1.0876699968042154 2.132005502278145 2.050037204598331 -0.5200046160127103 1.1399895127138917
2.63570618629 0.3083853288131432 -0.1892545618492383 -1.0876699968042154 2.132005502278145 2.050037204598331 -0.5200046160127103 1.1399895127138917
2.63570618629 0.3083853288131432 -0.1892545618492383 -1.0876699968042154 2.132005502278145 2.050037204598331 -0.5200046160127103 1.1399895127138917
2.64583110809 0.3083853288131432 -0.1892545618492383 -1.0876699968042154 2.132005502278145 2.050037204598331 -0.5200046160127103 1.1399895127138917
2.64583110809 0.3083853288131432 -0.1892545618492383 -1.0876699968042154 2.132005502278145 2.050037204598331 -0.5200046160127103 1.1399895127138917
2.65571498871 0.3083853288131432 -0.1892545618492383 -1.0876699968042154 2.132005502278145 2.050037204598331 -0.5200046160127103 1.1399895127138917
2.65571498871 0.3083853288131432 -0.1892545618492383 -1.0876699968042154 2.132005502278145 2.050037204598331 -0.5200046160127103 1.1399895127138917
2.66579508781 0.3083853288131432 -0.1892545618492383 -1.0876699968042154 2.132005502278145 2.050037204598331 -0.5200046160127103 1.1399895127138917
2.66579508781 0.3083853288131432 -0.1892545618492383 -1.0876699968042154 2.132005502278145 2.050037204598331 -0.5200046160127103 1.1399895127138917
2.67572617531 0.3083853288131432 -0.1892545618492383 -1.0876699968042154 2.132005502278145 2.050037204598331 -0.5200046160127103 1.1399895127138917
2.67572617531 0.3083853288131432 -0.1892545618492383 -1.0876699968042154 2.132005502278145 2.050037204598331 -0.5200046160127103 1.1399895127138917
2.68580198288 0.3083853288131432 -0.1892545618492383 -1.0876699968042154 2.132005502278145 2.050037204598331 -0.5200046160127103 1.1399895127138917
2.68580198288 0.3083853288131432 -0.1892545618492383 -1.0876699968042154 2.132005502278145 2.050037204598331 -0.5200046160127103 1.1399895127138917
2.69570398331 0.3083853288131432 -0.1892545618492383 -1.0876699968042154 2.132005502278145 2.050037204598331 -0.5200046160127103 1.1399895127138917
2.69570398331 0.3083853288131432 -0.1892545618492383 -1.0876699968042154 2.132005502278145 2.050037204598331 -0.5200046160127103 1.1399895127138917
2.7058300972 0.3083853288131432 -0.1892545618492383 -1.0876699968042154 2.132005502278145 2.050037204598331 -0.5200046160127103 1.1399895127138917
2.7058300972 0.3083853288131432 -0.1892545618492383 -1.0876699968042154 2.132005502278145 2.050037204598331 -0.5200046160127103 1.1399895127138917
2.71571016312 0.3083853288131432 -0.1892545618492383 -1.0876699968042154 2.132005502278145 2.050037204598331 -0.5200046160127103 1.1399895127138917
2.71571016312 0.3083853288131432 -0.1892545618492383 -1.0876699968042154 2.132005502278145 2.050037204598331 -0.5200046160127103 1.1399895127138917
2.72578215599 0.3083853288131432 -0.1892545618492383 -1.0876699968042154 2.132005502278145 2.050037204598331 -0.5200046160127103 1.1399895127138917
2.72578215599 0.3083853288131432 -0.1892545618492383 -1.0876699968042154 2.132005502278145 2.050037204598331 -0.5200046160127103 1.1399895127138917
2.73573207855 0.3083853288131432 -0.1892545618492383 -1.0876699968042154 2.132005502278145 2.050037204598331 -0.5200046160127103 1.1399895127138917
2.73573207855 0.3083853288131432 -0.1892545618492383 -1.0876699968042154 2.132005502278145 2.050037204598331 -0.5200046160127103 1.1399895127138917
2.7458281517 0.3083853288131432 -0.1892545618492383 -1.0876699968042154 2.132005502278145 2.050037204598331 -0.5200046160127103 1.1399895127138917
2.7458281517 0.3083853288131432 -0.1892545618492383 -1.0876699968042154 2.132005502278145 2.050037204598331 -0.5200046160127103 1.1399895127138917
2.75571799278 0.3083853288131432 -0.1892545618492383 -1.0876699968042154 2.132005502278145 2.050037204598331 -0.5200046160127103 1.1399895127138917
2.75571799278 0.3083853288131432 -0.1892545618492383 -1.0876699968042154 2.132005502278145 2.050037204598331 -0.5200046160127103 1.1399895127138917
2.76577711105 0.3083853288131432 -0.1892545618492383 -1.0876699968042154 2.132005502278145 2.050037204598331 -0.5200046160127103 1.1399895127138917
2.76577711105 0.3083853288131432 -0.1892545618492383 -1.0876699968042154 2.132005502278145 2.050037204598331 -0.5200046160127103 1.1399895127138917
2.77573013306 0.3083853288131432 -0.1892545618492383 -1.0876699968042154 2.132005502278145 2.050037204598331 -0.5200046160127103 1.1399895127138917
2.77573013306 0.3083853288131432 -0.1892545618492383 -1.0876699968042154 2.132005502278145 2.050037204598331 -0.5200046160127103 1.1399895127138917
2.78578996658 0.3083853288131432 -0.1892545618492383 -1.0876699968042154 2.132005502278145 2.050037204598331 -0.5200046160127103 1.1399895127138917
2.78578996658 0.3083853288131432 -0.1892545618492383 -1.0876699968042154 2.132005502278145 2.050037204598331 -0.5200046160127103 1.1399895127138917
2.79570603371 0.3083853288131432 -0.1892545618492383 -1.0876699968042154 2.132005502278145 2.050037204598331 -0.5200046160127103 1.1399895127138917
2.79570603371 0.3083853288131432 -0.1892545618492383 -1.0876699968042154 2.132005502278145 2.050037204598331 -0.5200046160127103 1.1399895127138917
2.80580306053 0.3083853288131432 -0.1892545618492383 -1.0876699968042154 2.132005502278145 2.050037204598331 -0.5200046160127103 1.1399895127138917
2.80580306053 0.3083853288131432 -0.1892545618492383 -1.0876699968042154 2.132005502278145 2.050037204598331 -0.5200046160127103 1.1399895127138917
2.81570696831 0.3083853288131432 -0.1892545618492383 -1.0876699968042154 2.132005502278145 2.050037204598331 -0.5200046160127103 1.1399895127138917
2.81570696831 0.3083853288131432 -0.1892545618492383 -1.0876699968042154 2.132005502278145 2.050037204598331 -0.5200046160127103 1.1399895127138917
2.82576918602 0.3083853288131432 -0.1892545618492383 -1.0876699968042154 2.132005502278145 2.050037204598331 -0.5200046160127103 1.1399895127138917
2.82576918602 0.3083853288131432 -0.1892545618492383 -1.0876699968042154 2.132005502278145 2.050037204598331 -0.5200046160127103 1.1399895127138917
2.83571600914 0.3083853288131432 -0.1892545618492383 -1.0876699968042154 2.132005502278145 2.050037204598331 -0.5200046160127103 1.1399895127138917
2.83571600914 0.3083853288131432 -0.1892545618492383 -1.0876699968042154 2.132005502278145 2.050037204598331 -0.5200046160127103 1.1399895127138917
2.84600901604 0.3083853288131432 -0.1892545618492383 -1.0876699968042154 2.132005502278145 2.050037204598331 -0.5200046160127103 1.1399895127138917
2.84600901604 0.3083853288131432 -0.1892545618492383 -1.0876699968042154 2.132005502278145 2.050037204598331 -0.5200046160127103 1.1399895127138917
2.85574007034 0.3083853288131432 -0.1892545618492383 -1.0876699968042154 2.132005502278145 2.050037204598331 -0.5200046160127103 1.1399895127138917
2.85574007034 0.3083853288131432 -0.1892545618492383 -1.0876699968042154 2.132005502278145 2.050037204598331 -0.5200046160127103 1.1399895127138917
2.86581611633 0.3083853288131432 -0.1892545618492383 -1.0876699968042154 2.132005502278145 2.050037204598331 -0.5200046160127103 1.1399895127138917
2.86581611633 0.3083853288131432 -0.1892545618492383 -1.0876699968042154 2.132005502278145 2.050037204598331 -0.5200046160127103 1.1399895127138917
2.87579202652 0.3083853288131432 -0.1892545618492383 -1.0876699968042154 2.132005502278145 2.050037204598331 -0.5200046160127103 1.1399895127138917
2.87579202652 0.3083853288131432 -0.1892545618492383 -1.0876699968042154 2.132005502278145 2.050037204598331 -0.5200046160127103 1.1399895127138917
2.88582611084 0.3083853288131432 -0.1892545618492383 -1.0876699968042154 2.132005502278145 2.050037204598331 -0.5200046160127103 1.1399895127138917
2.88582611084 0.3083853288131432 -0.1892545618492383 -1.0876699968042154 2.132005502278145 2.050037204598331 -0.5200046160127103 1.1399895127138917
2.89594817162 0.3083853288131432 -0.1892545618492383 -1.0876699968042154 2.132005502278145 2.050037204598331 -0.5200046160127103 1.1399895127138917
2.89594817162 0.3083853288131432 -0.1892545618492383 -1.0876699968042154 2.132005502278145 2.050037204598331 -0.5200046160127103 1.1399895127138917
2.90585207939 0.3083853288131432 -0.1892545618492383 -1.0876699968042154 2.132005502278145 2.050037204598331 -0.5200046160127103 1.1399895127138917
2.90585207939 0.3083853288131432 -0.1892545618492383 -1.0876699968042154 2.132005502278145 2.050037204598331 -0.5200046160127103 1.1399895127138917
2.91571211815 0.3083853288131432 -0.1892545618492383 -1.0876699968042154 2.132005502278145 2.050037204598331 -0.5200046160127103 1.1399895127138917
2.91571211815 0.3083853288131432 -0.1892545618492383 -1.0876699968042154 2.132005502278145 2.050037204598331 -0.5200046160127103 1.1399895127138917
2.92581796646 0.3083853288131432 -0.1892545618492383 -1.0876699968042154 2.132005502278145 2.050037204598331 -0.5200046160127103 1.1399895127138917
2.92581796646 0.3083853288131432 -0.1892545618492383 -1.0876699968042154 2.132005502278145 2.050037204598331 -0.5200046160127103 1.1399895127138917
2.93571209908 0.3083853288131432 -0.1892545618492383 -1.0876699968042154 2.132005502278145 2.050037204598331 -0.5200046160127103 1.1399895127138917
2.93571209908 0.3083853288131432 -0.1892545618492383 -1.0876699968042154 2.132005502278145 2.050037204598331 -0.5200046160127103 1.1399895127138917
2.94577217102 0.3083853288131432 -0.1892545618492383 -1.0876699968042154 2.132005502278145 2.050037204598331 -0.5200046160127103 1.1399895127138917
2.94577217102 0.3083853288131432 -0.1892545618492383 -1.0876699968042154 2.132005502278145 2.050037204598331 -0.5200046160127103 1.1399895127138917
2.95573306084 0.3083853288131432 -0.1892545618492383 -1.0876699968042154 2.132005502278145 2.050037204598331 -0.5200046160127103 1.1399895127138917
2.95573306084 0.3083853288131432 -0.1892545618492383 -1.0876699968042154 2.132005502278145 2.050037204598331 -0.5200046160127103 1.1399895127138917
2.96586704254 0.3083853288131432 -0.1892545618492383 -1.0876699968042154 2.132005502278145 2.050037204598331 -0.5200046160127103 1.1399895127138917
2.96586704254 0.3083853288131432 -0.1892545618492383 -1.0876699968042154 2.132005502278145 2.050037204598331 -0.5200046160127103 1.1399895127138917
2.97570419312 0.3083853288131432 -0.1892545618492383 -1.0876699968042154 2.132005502278145 2.050037204598331 -0.5200046160127103 1.1399895127138917
2.97570419312 0.3083853288131432 -0.1892545618492383 -1.0876699968042154 2.132005502278145 2.050037204598331 -0.5200046160127103 1.1399895127138917
2.98582601547 0.3083853288131432 -0.1892545618492383 -1.0876699968042154 2.132005502278145 2.050037204598331 -0.5200046160127103 1.1399895127138917
2.98582601547 0.3083853288131432 -0.1892545618492383 -1.0876699968042154 2.132005502278145 2.050037204598331 -0.5200046160127103 1.1399895127138917
2.99571299553 0.3083853288131432 -0.1892545618492383 -1.0876699968042154 2.132005502278145 2.050037204598331 -0.5200046160127103 1.1399895127138917
2.99571299553 0.3083853288131432 -0.1892545618492383 -1.0876699968042154 2.132005502278145 2.050037204598331 -0.5200046160127103 1.1399895127138917
3.00580215454 0.3083853288131432 -0.1892545618492383 -1.0876699968042154 2.132005502278145 2.050037204598331 -0.5200046160127103 1.1399895127138917
3.00580215454 0.3083853288131432 -0.1892545618492383 -1.0876699968042154 2.132005502278145 2.050037204598331 -0.5200046160127103 1.1399895127138917
3.01574516296 0.3083853288131432 -0.1892545618492383 -1.0876699968042154 2.132005502278145 2.050037204598331 -0.5200046160127103 1.1399895127138917
3.01574516296 0.3083853288131432 -0.1892545618492383 -1.0876699968042154 2.132005502278145 2.050037204598331 -0.5200046160127103 1.1399895127138917
3.02579498291 0.3083853288131432 -0.1892545618492383 -1.0876699968042154 2.132005502278145 2.050037204598331 -0.5200046160127103 1.1399895127138917
3.02579498291 0.3083853288131432 -0.1892545618492383 -1.0876699968042154 2.132005502278145 2.050037204598331 -0.5200046160127103 1.1399895127138917
3.03571009636 0.3083853288131432 -0.1892545618492383 -1.0876699968042154 2.132005502278145 2.050037204598331 -0.5200046160127103 1.1399895127138917
3.03571009636 0.3083853288131432 -0.1892545618492383 -1.0876699968042154 2.132005502278145 2.050037204598331 -0.5200046160127103 1.1399895127138917
3.04579401016 0.3083853288131432 -0.1892545618492383 -1.0876699968042154 2.132005502278145 2.050037204598331 -0.5200046160127103 1.1399895127138917
3.04579401016 0.3083853288131432 -0.1892545618492383 -1.0876699968042154 2.132005502278145 2.050037204598331 -0.5200046160127103 1.1399895127138917
3.05571198463 0.3083853288131432 -0.1892545618492383 -1.0876699968042154 2.132005502278145 2.050037204598331 -0.5200046160127103 1.1399895127138917
3.05571198463 0.3083853288131432 -0.1892545618492383 -1.0876699968042154 2.132005502278145 2.050037204598331 -0.5200046160127103 1.1399895127138917
3.06580018997 0.3083853288131432 -0.1892545618492383 -1.0876699968042154 2.132005502278145 2.050037204598331 -0.5200046160127103 1.1399895127138917
3.06580018997 0.3083853288131432 -0.1892545618492383 -1.0876699968042154 2.132005502278145 2.050037204598331 -0.5200046160127103 1.1399895127138917
3.0757060051 0.3083853288131432 -0.1892545618492383 -1.0876699968042154 2.132005502278145 2.050037204598331 -0.5200046160127103 1.1399895127138917
3.0757060051 0.3083853288131432 -0.1892545618492383 -1.0876699968042154 2.132005502278145 2.050037204598331 -0.5200046160127103 1.1399895127138917
3.0858771801 0.3083853288131432 -0.1892545618492383 -1.0876699968042154 2.132005502278145 2.050037204598331 -0.5200046160127103 1.1399895127138917
3.0858771801 0.3083853288131432 -0.1892545618492383 -1.0876699968042154 2.132005502278145 2.050037204598331 -0.5200046160127103 1.1399895127138917
3.09570717812 0.3083853288131432 -0.1892545618492383 -1.0876699968042154 2.132005502278145 2.050037204598331 -0.5200046160127103 1.1399895127138917
3.09570717812 0.3083853288131432 -0.1892545618492383 -1.0876699968042154 2.132005502278145 2.050037204598331 -0.5200046160127103 1.1399895127138917
3.10583400726 0.3083853288131432 -0.1892545618492383 -1.0876699968042154 2.132005502278145 2.050037204598331 -0.5200046160127103 1.1399895127138917
3.10583400726 0.3083853288131432 -0.1892545618492383 -1.0876699968042154 2.132005502278145 2.050037204598331 -0.5200046160127103 1.1399895127138917
3.11571311951 0.3083853288131432 -0.1892545618492383 -1.0876699968042154 2.132005502278145 2.050037204598331 -0.5200046160127103 1.1399895127138917
3.11571311951 0.3083853288131432 -0.1892545618492383 -1.0876699968042154 2.132005502278145 2.050037204598331 -0.5200046160127103 1.1399895127138917
3.12583017349 0.3083853288131432 -0.1892545618492383 -1.0876699968042154 2.132005502278145 2.050037204598331 -0.5200046160127103 1.1399895127138917
3.12583017349 0.3083853288131432 -0.1892545618492383 -1.0876699968042154 2.132005502278145 2.050037204598331 -0.5200046160127103 1.1399895127138917
3.13593816757 0.3083853288131432 -0.1892545618492383 -1.0876699968042154 2.132005502278145 2.050037204598331 -0.5200046160127103 1.1399895127138917
3.13593816757 0.3083853288131432 -0.1892545618492383 -1.0876699968042154 2.132005502278145 2.050037204598331 -0.5200046160127103 1.1399895127138917
3.14587402344 0.3083853288131432 -0.1892545618492383 -1.0876699968042154 2.132005502278145 2.050037204598331 -0.5200046160127103 1.1399895127138917
3.14587402344 0.3083853288131432 -0.1892545618492383 -1.0876699968042154 2.132005502278145 2.050037204598331 -0.5200046160127103 1.1399895127138917
3.15586614609 0.3083853288131432 -0.1892545618492383 -1.0876699968042154 2.132005502278145 2.050037204598331 -0.5200046160127103 1.1399895127138917
3.15586614609 0.3083853288131432 -0.1892545618492383 -1.0876699968042154 2.132005502278145 2.050037204598331 -0.5200046160127103 1.1399895127138917
3.16578507423 0.3083853288131432 -0.1892545618492383 -1.0876699968042154 2.132005502278145 2.050037204598331 -0.5200046160127103 1.1399895127138917
3.16578507423 0.3083853288131432 -0.1892545618492383 -1.0876699968042154 2.132005502278145 2.050037204598331 -0.5200046160127103 1.1399895127138917
3.17572116852 0.3083853288131432 -0.1892545618492383 -1.0876699968042154 2.132005502278145 2.050037204598331 -0.5200046160127103 1.1399895127138917
3.17572116852 0.3083853288131432 -0.1892545618492383 -1.0876699968042154 2.132005502278145 2.050037204598331 -0.5200046160127103 1.1399895127138917
3.18570399284 0.3083853288131432 -0.1892545618492383 -1.0876699968042154 2.132005502278145 2.050037204598331 -0.5200046160127103 1.1399895127138917
3.18570399284 0.3083853288131432 -0.1892545618492383 -1.0876699968042154 2.132005502278145 2.050037204598331 -0.5200046160127103 1.1399895127138917
3.19573307037 0.3083853288131432 -0.1892545618492383 -1.0876699968042154 2.132005502278145 2.050037204598331 -0.5200046160127103 1.1399895127138917
3.19573307037 0.3083853288131432 -0.1892545618492383 -1.0876699968042154 2.132005502278145 2.050037204598331 -0.5200046160127103 1.1399895127138917
3.20571398735 0.3083853288131432 -0.1892545618492383 -1.0876699968042154 2.132005502278145 2.050037204598331 -0.5200046160127103 1.1399895127138917
3.20571398735 0.3083853288131432 -0.1892545618492383 -1.0876699968042154 2.132005502278145 2.050037204598331 -0.5200046160127103 1.1399895127138917
3.21572899818 0.3083853288131432 -0.1892545618492383 -1.0876699968042154 2.132005502278145 2.050037204598331 -0.5200046160127103 1.1399895127138917
3.21572899818 0.3083853288131432 -0.1892545618492383 -1.0876699968042154 2.132005502278145 2.050037204598331 -0.5200046160127103 1.1399895127138917
3.22584414482 0.3083853288131432 -0.1892545618492383 -1.0876699968042154 2.132005502278145 2.050037204598331 -0.5200046160127103 1.1399895127138917
3.22584414482 0.3083853288131432 -0.1892545618492383 -1.0876699968042154 2.132005502278145 2.050037204598331 -0.5200046160127103 1.1399895127138917
3.23571896553 0.3083853288131432 -0.1892545618492383 -1.0876699968042154 2.132005502278145 2.050037204598331 -0.5200046160127103 1.1399895127138917
3.23571896553 0.3083853288131432 -0.1892545618492383 -1.0876699968042154 2.132005502278145 2.050037204598331 -0.5200046160127103 1.1399895127138917
3.24583005905 0.3083853288131432 -0.1892545618492383 -1.0876699968042154 2.132005502278145 2.050037204598331 -0.5200046160127103 1.1399895127138917
3.24583005905 0.3083853288131432 -0.1892545618492383 -1.0876699968042154 2.132005502278145 2.050037204598331 -0.5200046160127103 1.1399895127138917
3.25574207306 0.3083853288131432 -0.1892545618492383 -1.0876699968042154 2.132005502278145 2.050037204598331 -0.5200046160127103 1.1399895127138917
3.25574207306 0.3083853288131432 -0.1892545618492383 -1.0876699968042154 2.132005502278145 2.050037204598331 -0.5200046160127103 1.1399895127138917
3.26582407951 0.3083853288131432 -0.1892545618492383 -1.0876699968042154 2.132005502278145 2.050037204598331 -0.5200046160127103 1.1399895127138917
3.26582407951 0.3083853288131432 -0.1892545618492383 -1.0876699968042154 2.132005502278145 2.050037204598331 -0.5200046160127103 1.1399895127138917
3.27577900887 0.3083853288131432 -0.1892545618492383 -1.0876699968042154 2.132005502278145 2.050037204598331 -0.5200046160127103 1.1399895127138917
3.27577900887 0.3083853288131432 -0.1892545618492383 -1.0876699968042154 2.132005502278145 2.050037204598331 -0.5200046160127103 1.1399895127138917
3.28581905365 0.3083853288131432 -0.1892545618492383 -1.0876699968042154 2.132005502278145 2.050037204598331 -0.5200046160127103 1.1399895127138917
3.28581905365 0.3083853288131432 -0.1892545618492383 -1.0876699968042154 2.132005502278145 2.050037204598331 -0.5200046160127103 1.1399895127138917
3.29573512077 0.3083853288131432 -0.1892545618492383 -1.0876699968042154 2.132005502278145 2.050037204598331 -0.5200046160127103 1.1399895127138917
3.29573512077 0.3083853288131432 -0.1892545618492383 -1.0876699968042154 2.132005502278145 2.050037204598331 -0.5200046160127103 1.1399895127138917
3.30577707291 0.3083853288131432 -0.1892545618492383 -1.0876699968042154 2.132005502278145 2.050037204598331 -0.5200046160127103 1.1399895127138917
3.30577707291 0.3083853288131432 -0.1892545618492383 -1.0876699968042154 2.132005502278145 2.050037204598331 -0.5200046160127103 1.1399895127138917
3.31570601463 0.3083853288131432 -0.1892545618492383 -1.0876699968042154 2.132005502278145 2.050037204598331 -0.5200046160127103 1.1399895127138917
3.31570601463 0.3083853288131432 -0.1892545618492383 -1.0876699968042154 2.132005502278145 2.050037204598331 -0.5200046160127103 1.1399895127138917
3.32580208778 0.3083853288131432 -0.1892545618492383 -1.0876699968042154 2.132005502278145 2.050037204598331 -0.5200046160127103 1.1399895127138917
3.32580208778 0.3083853288131432 -0.1892545618492383 -1.0876699968042154 2.132005502278145 2.050037204598331 -0.5200046160127103 1.1399895127138917
3.33570814133 0.3083853288131432 -0.1892545618492383 -1.0876699968042154 2.132005502278145 2.050037204598331 -0.5200046160127103 1.1399895127138917
3.33570814133 0.3083853288131432 -0.1892545618492383 -1.0876699968042154 2.132005502278145 2.050037204598331 -0.5200046160127103 1.1399895127138917
3.34577298164 0.3083853288131432 -0.1892545618492383 -1.0876699968042154 2.132005502278145 2.050037204598331 -0.5200046160127103 1.1399895127138917
3.34577298164 0.3083853288131432 -0.1892545618492383 -1.0876699968042154 2.132005502278145 2.050037204598331 -0.5200046160127103 1.1399895127138917
3.35598015785 0.3083853288131432 -0.1892545618492383 -1.0876699968042154 2.132005502278145 2.050037204598331 -0.5200046160127103 1.1399895127138917
3.35598015785 0.3083853288131432 -0.1892545618492383 -1.0876699968042154 2.132005502278145 2.050037204598331 -0.5200046160127103 1.1399895127138917
3.36580109596 0.3083853288131432 -0.1892545618492383 -1.0876699968042154 2.132005502278145 2.050037204598331 -0.5200046160127103 1.1399895127138917
3.36580109596 0.3083853288131432 -0.1892545618492383 -1.0876699968042154 2.132005502278145 2.050037204598331 -0.5200046160127103 1.1399895127138917
3.37571001053 0.3083853288131432 -0.1892545618492383 -1.0876699968042154 2.132005502278145 2.050037204598331 -0.5200046160127103 1.1399895127138917
3.37571001053 0.3083853288131432 -0.1892545618492383 -1.0876699968042154 2.132005502278145 2.050037204598331 -0.5200046160127103 1.1399895127138917
3.38582015038 0.3083853288131432 -0.1892545618492383 -1.0876699968042154 2.132005502278145 2.050037204598331 -0.5200046160127103 1.1399895127138917
3.38582015038 0.3083853288131432 -0.1892545618492383 -1.0876699968042154 2.132005502278145 2.050037204598331 -0.5200046160127103 1.1399895127138917
3.39576411247 0.3083853288131432 -0.1892545618492383 -1.0876699968042154 2.132005502278145 2.050037204598331 -0.5200046160127103 1.1399895127138917
3.39576411247 0.3083853288131432 -0.1892545618492383 -1.0876699968042154 2.132005502278145 2.050037204598331 -0.5200046160127103 1.1399895127138917
3.40582108498 0.3083853288131432 -0.1892545618492383 -1.0876699968042154 2.132005502278145 2.050037204598331 -0.5200046160127103 1.1399895127138917
3.40582108498 0.3083853288131432 -0.1892545618492383 -1.0876699968042154 2.132005502278145 2.050037204598331 -0.5200046160127103 1.1399895127138917
3.41570806503 0.3083853288131432 -0.1892545618492383 -1.0876699968042154 2.132005502278145 2.050037204598331 -0.5200046160127103 1.1399895127138917
3.41570806503 0.3083853288131432 -0.1892545618492383 -1.0876699968042154 2.132005502278145 2.050037204598331 -0.5200046160127103 1.1399895127138917
3.42580509186 0.3083853288131432 -0.1892545618492383 -1.0876699968042154 2.132005502278145 2.050037204598331 -0.5200046160127103 1.1399895127138917
3.42580509186 0.3083853288131432 -0.1892545618492383 -1.0876699968042154 2.132005502278145 2.050037204598331 -0.5200046160127103 1.1399895127138917
3.43570709229 0.3083853288131432 -0.1892545618492383 -1.0876699968042154 2.132005502278145 2.050037204598331 -0.5200046160127103 1.1399895127138917
3.43570709229 0.3083853288131432 -0.1892545618492383 -1.0876699968042154 2.132005502278145 2.050037204598331 -0.5200046160127103 1.1399895127138917
3.4458501339 0.3083853288131432 -0.1892545618492383 -1.0876699968042154 2.132005502278145 2.050037204598331 -0.5200046160127103 1.1399895127138917
3.4458501339 0.3083853288131432 -0.1892545618492383 -1.0876699968042154 2.132005502278145 2.050037204598331 -0.5200046160127103 1.1399895127138917
3.45573997498 0.3083853288131432 -0.1892545618492383 -1.0876699968042154 2.132005502278145 2.050037204598331 -0.5200046160127103 1.1399895127138917
3.45573997498 0.3083853288131432 -0.1892545618492383 -1.0876699968042154 2.132005502278145 2.050037204598331 -0.5200046160127103 1.1399895127138917
3.4657831192 0.3083853288131432 -0.1892545618492383 -1.0876699968042154 2.132005502278145 2.050037204598331 -0.5200046160127103 1.1399895127138917
3.4657831192 0.3083853288131432 -0.1892545618492383 -1.0876699968042154 2.132005502278145 2.050037204598331 -0.5200046160127103 1.1399895127138917
3.47574210167 0.3083853288131432 -0.1892545618492383 -1.0876699968042154 2.132005502278145 2.050037204598331 -0.5200046160127103 1.1399895127138917
3.47574210167 0.3083853288131432 -0.1892545618492383 -1.0876699968042154 2.132005502278145 2.050037204598331 -0.5200046160127103 1.1399895127138917
3.48582315445 0.3083853288131432 -0.1892545618492383 -1.0876699968042154 2.132005502278145 2.050037204598331 -0.5200046160127103 1.1399895127138917
3.48582315445 0.3083853288131432 -0.1892545618492383 -1.0876699968042154 2.132005502278145 2.050037204598331 -0.5200046160127103 1.1399895127138917
3.49570512772 0.3083853288131432 -0.1892545618492383 -1.0876699968042154 2.132005502278145 2.050037204598331 -0.5200046160127103 1.1399895127138917
3.49570512772 0.3083853288131432 -0.1892545618492383 -1.0876699968042154 2.132005502278145 2.050037204598331 -0.5200046160127103 1.1399895127138917
3.50578904152 0.3083853288131432 -0.1892545618492383 -1.0876699968042154 2.132005502278145 2.050037204598331 -0.5200046160127103 1.1399895127138917
3.50578904152 0.3083853288131432 -0.1892545618492383 -1.0876699968042154 2.132005502278145 2.050037204598331 -0.5200046160127103 1.1399895127138917
3.51571798325 0.3083853288131432 -0.1892545618492383 -1.0876699968042154 2.132005502278145 2.050037204598331 -0.5200046160127103 1.1399895127138917
3.51571798325 0.3083853288131432 -0.1892545618492383 -1.0876699968042154 2.132005502278145 2.050037204598331 -0.5200046160127103 1.1399895127138917
3.52582716942 0.3083853288131432 -0.1892545618492383 -1.0876699968042154 2.132005502278145 2.050037204598331 -0.5200046160127103 1.1399895127138917
3.52582716942 0.3083853288131432 -0.1892545618492383 -1.0876699968042154 2.132005502278145 2.050037204598331 -0.5200046160127103 1.1399895127138917
3.53570508957 0.3083853288131432 -0.1892545618492383 -1.0876699968042154 2.132005502278145 2.050037204598331 -0.5200046160127103 1.1399895127138917
3.53570508957 0.3083853288131432 -0.1892545618492383 -1.0876699968042154 2.132005502278145 2.050037204598331 -0.5200046160127103 1.1399895127138917
3.54579210281 0.3083853288131432 -0.1892545618492383 -1.0876699968042154 2.132005502278145 2.050037204598331 -0.5200046160127103 1.1399895127138917
3.54579210281 0.3083853288131432 -0.1892545618492383 -1.0876699968042154 2.132005502278145 2.050037204598331 -0.5200046160127103 1.1399895127138917
3.55570912361 0.3083853288131432 -0.1892545618492383 -1.0876699968042154 2.132005502278145 2.050037204598331 -0.5200046160127103 1.1399895127138917
3.55570912361 0.3083853288131432 -0.1892545618492383 -1.0876699968042154 2.132005502278145 2.050037204598331 -0.5200046160127103 1.1399895127138917
3.5657889843 0.3083853288131432 -0.1892545618492383 -1.0876699968042154 2.132005502278145 2.050037204598331 -0.5200046160127103 1.1399895127138917
3.5657889843 0.3083853288131432 -0.1892545618492383 -1.0876699968042154 2.132005502278145 2.050037204598331 -0.5200046160127103 1.1399895127138917
3.57572007179 0.3083853288131432 -0.1892545618492383 -1.0876699968042154 2.132005502278145 2.050037204598331 -0.5200046160127103 1.1399895127138917
3.57572007179 0.3083853288131432 -0.1892545618492383 -1.0876699968042154 2.132005502278145 2.050037204598331 -0.5200046160127103 1.1399895127138917
3.58578705788 0.3083853288131432 -0.1892545618492383 -1.0876699968042154 2.132005502278145 2.050037204598331 -0.5200046160127103 1.1399895127138917
3.58578705788 0.3083853288131432 -0.1892545618492383 -1.0876699968042154 2.132005502278145 2.050037204598331 -0.5200046160127103 1.1399895127138917
3.59570598602 0.3083853288131432 -0.1892545618492383 -1.0876699968042154 2.132005502278145 2.050037204598331 -0.5200046160127103 1.1399895127138917
3.59570598602 0.3083853288131432 -0.1892545618492383 -1.0876699968042154 2.132005502278145 2.050037204598331 -0.5200046160127103 1.1399895127138917
3.60570311546 0.3083853288131432 -0.1892545618492383 -1.0876699968042154 2.132005502278145 2.050037204598331 -0.5200046160127103 1.1399895127138917
3.60570311546 0.3083853288131432 -0.1892545618492383 -1.0876699968042154 2.132005502278145 2.050037204598331 -0.5200046160127103 1.1399895127138917
3.61571097374 0.3083853288131432 -0.1892545618492383 -1.0876699968042154 2.132005502278145 2.050037204598331 -0.5200046160127103 1.1399895127138917
3.61571097374 0.3083853288131432 -0.1892545618492383 -1.0876699968042154 2.132005502278145 2.050037204598331 -0.5200046160127103 1.1399895127138917
3.62579703331 0.3083853288131432 -0.1892545618492383 -1.0876699968042154 2.132005502278145 2.050037204598331 -0.5200046160127103 1.1399895127138917
3.62579703331 0.3083853288131432 -0.1892545618492383 -1.0876699968042154 2.132005502278145 2.050037204598331 -0.5200046160127103 1.1399895127138917
3.63570713997 0.3083853288131432 -0.1892545618492383 -1.0876699968042154 2.132005502278145 2.050037204598331 -0.5200046160127103 1.1399895127138917
3.63570713997 0.3083853288131432 -0.1892545618492383 -1.0876699968042154 2.132005502278145 2.050037204598331 -0.5200046160127103 1.1399895127138917
3.6459171772 0.3083853288131432 -0.1892545618492383 -1.0876699968042154 2.132005502278145 2.050037204598331 -0.5200046160127103 1.1399895127138917
3.6459171772 0.3083853288131432 -0.1892545618492383 -1.0876699968042154 2.132005502278145 2.050037204598331 -0.5200046160127103 1.1399895127138917
3.65576219559 0.3083853288131432 -0.1892545618492383 -1.0876699968042154 2.132005502278145 2.050037204598331 -0.5200046160127103 1.1399895127138917
3.65576219559 0.3083853288131432 -0.1892545618492383 -1.0876699968042154 2.132005502278145 2.050037204598331 -0.5200046160127103 1.1399895127138917
3.66579008102 0.3083853288131432 -0.1892545618492383 -1.0876699968042154 2.132005502278145 2.050037204598331 -0.5200046160127103 1.1399895127138917
3.66579008102 0.3083853288131432 -0.1892545618492383 -1.0876699968042154 2.132005502278145 2.050037204598331 -0.5200046160127103 1.1399895127138917
3.67571496964 0.3083853288131432 -0.1892545618492383 -1.0876699968042154 2.132005502278145 2.050037204598331 -0.5200046160127103 1.1399895127138917
3.67571496964 0.3083853288131432 -0.1892545618492383 -1.0876699968042154 2.132005502278145 2.050037204598331 -0.5200046160127103 1.1399895127138917
3.68578004837 0.3083853288131432 -0.1892545618492383 -1.0876699968042154 2.132005502278145 2.050037204598331 -0.5200046160127103 1.1399895127138917
3.68578004837 0.3083853288131432 -0.1892545618492383 -1.0876699968042154 2.132005502278145 2.050037204598331 -0.5200046160127103 1.1399895127138917
3.69570708275 0.3083853288131432 -0.1892545618492383 -1.0876699968042154 2.132005502278145 2.050037204598331 -0.5200046160127103 1.1399895127138917
3.69570708275 0.3083853288131432 -0.1892545618492383 -1.0876699968042154 2.132005502278145 2.050037204598331 -0.5200046160127103 1.1399895127138917
3.7057621479 0.3083853288131432 -0.1892545618492383 -1.0876699968042154 2.132005502278145 2.050037204598331 -0.5200046160127103 1.1399895127138917
3.7057621479 0.3083853288131432 -0.1892545618492383 -1.0876699968042154 2.132005502278145 2.050037204598331 -0.5200046160127103 1.1399895127138917
3.71577310562 0.3083853288131432 -0.1892545618492383 -1.0876699968042154 2.132005502278145 2.050037204598331 -0.5200046160127103 1.1399895127138917
3.71577310562 0.3083853288131432 -0.1892545618492383 -1.0876699968042154 2.132005502278145 2.050037204598331 -0.5200046160127103 1.1399895127138917
3.72590899467 0.3083853288131432 -0.1892545618492383 -1.0876699968042154 2.132005502278145 2.050037204598331 -0.5200046160127103 1.1399895127138917
3.72590899467 0.3083853288131432 -0.1892545618492383 -1.0876699968042154 2.132005502278145 2.050037204598331 -0.5200046160127103 1.1399895127138917
3.73575806618 0.3083853288131432 -0.1892545618492383 -1.0876699968042154 2.132005502278145 2.050037204598331 -0.5200046160127103 1.1399895127138917
3.73575806618 0.3083853288131432 -0.1892545618492383 -1.0876699968042154 2.132005502278145 2.050037204598331 -0.5200046160127103 1.1399895127138917
3.74578905106 0.3083853288131432 -0.1892545618492383 -1.0876699968042154 2.132005502278145 2.050037204598331 -0.5200046160127103 1.1399895127138917
3.74578905106 0.3083853288131432 -0.1892545618492383 -1.0876699968042154 2.132005502278145 2.050037204598331 -0.5200046160127103 1.1399895127138917
3.75575613976 0.3083853288131432 -0.1892545618492383 -1.0876699968042154 2.132005502278145 2.050037204598331 -0.5200046160127103 1.1399895127138917
3.75575613976 0.3083853288131432 -0.1892545618492383 -1.0876699968042154 2.132005502278145 2.050037204598331 -0.5200046160127103 1.1399895127138917
3.76580810547 0.3083853288131432 -0.1892545618492383 -1.0876699968042154 2.132005502278145 2.050037204598331 -0.5200046160127103 1.1399895127138917
3.76580810547 0.3083853288131432 -0.1892545618492383 -1.0876699968042154 2.132005502278145 2.050037204598331 -0.5200046160127103 1.1399895127138917
3.77574515343 0.3083853288131432 -0.1892545618492383 -1.0876699968042154 2.132005502278145 2.050037204598331 -0.5200046160127103 1.1399895127138917
3.77574515343 0.3083853288131432 -0.1892545618492383 -1.0876699968042154 2.132005502278145 2.050037204598331 -0.5200046160127103 1.1399895127138917
3.7857811451 0.3083853288131432 -0.1892545618492383 -1.0876699968042154 2.132005502278145 2.050037204598331 -0.5200046160127103 1.1399895127138917
3.7857811451 0.3083853288131432 -0.1892545618492383 -1.0876699968042154 2.132005502278145 2.050037204598331 -0.5200046160127103 1.1399895127138917
3.79572701454 0.3083853288131432 -0.1892545618492383 -1.0876699968042154 2.132005502278145 2.050037204598331 -0.5200046160127103 1.1399895127138917
3.79572701454 0.3083853288131432 -0.1892545618492383 -1.0876699968042154 2.132005502278145 2.050037204598331 -0.5200046160127103 1.1399895127138917
3.80574798584 0.3083853288131432 -0.1892545618492383 -1.0876699968042154 2.132005502278145 2.050037204598331 -0.5200046160127103 1.1399895127138917
3.80574798584 0.3083853288131432 -0.1892545618492383 -1.0876699968042154 2.132005502278145 2.050037204598331 -0.5200046160127103 1.1399895127138917
3.81572318077 0.3083853288131432 -0.1892545618492383 -1.0876699968042154 2.132005502278145 2.050037204598331 -0.5200046160127103 1.1399895127138917
3.81572318077 0.3083853288131432 -0.1892545618492383 -1.0876699968042154 2.132005502278145 2.050037204598331 -0.5200046160127103 1.1399895127138917
3.82572102547 0.3083853288131432 -0.1892545618492383 -1.0876699968042154 2.132005502278145 2.050037204598331 -0.5200046160127103 1.1399895127138917
3.82572102547 0.3083853288131432 -0.1892545618492383 -1.0876699968042154 2.132005502278145 2.050037204598331 -0.5200046160127103 1.1399895127138917
3.83571696281 0.3083853288131432 -0.1892545618492383 -1.0876699968042154 2.132005502278145 2.050037204598331 -0.5200046160127103 1.1399895127138917
3.83571696281 0.3083853288131432 -0.1892545618492383 -1.0876699968042154 2.132005502278145 2.050037204598331 -0.5200046160127103 1.1399895127138917
3.84570908546 0.3083853288131432 -0.1892545618492383 -1.0876699968042154 2.132005502278145 2.050037204598331 -0.5200046160127103 1.1399895127138917
3.84570908546 0.3083853288131432 -0.1892545618492383 -1.0876699968042154 2.132005502278145 2.050037204598331 -0.5200046160127103 1.1399895127138917
3.85573005676 0.3083853288131432 -0.1892545618492383 -1.0876699968042154 2.132005502278145 2.050037204598331 -0.5200046160127103 1.1399895127138917
3.85573005676 0.3083853288131432 -0.1892545618492383 -1.0876699968042154 2.132005502278145 2.050037204598331 -0.5200046160127103 1.1399895127138917
3.86575913429 0.3083853288131432 -0.1892545618492383 -1.0876699968042154 2.132005502278145 2.050037204598331 -0.5200046160127103 1.1399895127138917
3.86575913429 0.3083853288131432 -0.1892545618492383 -1.0876699968042154 2.132005502278145 2.050037204598331 -0.5200046160127103 1.1399895127138917
3.87598109245 0.3083853288131432 -0.1892545618492383 -1.0876699968042154 2.132005502278145 2.050037204598331 -0.5200046160127103 1.1399895127138917
3.87598109245 0.3083853288131432 -0.1892545618492383 -1.0876699968042154 2.132005502278145 2.050037204598331 -0.5200046160127103 1.1399895127138917
3.88581609726 0.3083853288131432 -0.1892545618492383 -1.0876699968042154 2.132005502278145 2.050037204598331 -0.5200046160127103 1.1399895127138917
3.88581609726 0.3083853288131432 -0.1892545618492383 -1.0876699968042154 2.132005502278145 2.050037204598331 -0.5200046160127103 1.1399895127138917
3.89571714401 0.3083853288131432 -0.1892545618492383 -1.0876699968042154 2.132005502278145 2.050037204598331 -0.5200046160127103 1.1399895127138917
3.89571714401 0.3083853288131432 -0.1892545618492383 -1.0876699968042154 2.132005502278145 2.050037204598331 -0.5200046160127103 1.1399895127138917
3.90580296516 0.3083853288131432 -0.1892545618492383 -1.0876699968042154 2.132005502278145 2.050037204598331 -0.5200046160127103 1.1399895127138917
3.90580296516 0.3083853288131432 -0.1892545618492383 -1.0876699968042154 2.132005502278145 2.050037204598331 -0.5200046160127103 1.1399895127138917
3.91570711136 0.3083853288131432 -0.1892545618492383 -1.0876699968042154 2.132005502278145 2.050037204598331 -0.5200046160127103 1.1399895127138917
3.91570711136 0.3083853288131432 -0.1892545618492383 -1.0876699968042154 2.132005502278145 2.050037204598331 -0.5200046160127103 1.1399895127138917
3.92576313019 0.3083853288131432 -0.1892545618492383 -1.0876699968042154 2.132005502278145 2.050037204598331 -0.5200046160127103 1.1399895127138917
3.92576313019 0.3083853288131432 -0.1892545618492383 -1.0876699968042154 2.132005502278145 2.050037204598331 -0.5200046160127103 1.1399895127138917
3.93570518494 0.3083853288131432 -0.1892545618492383 -1.0876699968042154 2.132005502278145 2.050037204598331 -0.5200046160127103 1.1399895127138917
3.93570518494 0.3083853288131432 -0.1892545618492383 -1.0876699968042154 2.132005502278145 2.050037204598331 -0.5200046160127103 1.1399895127138917
3.94577813148 0.3083853288131432 -0.1892545618492383 -1.0876699968042154 2.132005502278145 2.050037204598331 -0.5200046160127103 1.1399895127138917
3.94577813148 0.3083853288131432 -0.1892545618492383 -1.0876699968042154 2.132005502278145 2.050037204598331 -0.5200046160127103 1.1399895127138917
3.95582103729 0.3083853288131432 -0.1892545618492383 -1.0876699968042154 2.132005502278145 2.050037204598331 -0.5200046160127103 1.1399895127138917
3.95582103729 0.3083853288131432 -0.1892545618492383 -1.0876699968042154 2.132005502278145 2.050037204598331 -0.5200046160127103 1.1399895127138917
3.96585202217 0.3083853288131432 -0.1892545618492383 -1.0876699968042154 2.132005502278145 2.050037204598331 -0.5200046160127103 1.1399895127138917
3.96585202217 0.3083853288131432 -0.1892545618492383 -1.0876699968042154 2.132005502278145 2.050037204598331 -0.5200046160127103 1.1399895127138917
3.97578001022 0.3083853288131432 -0.1892545618492383 -1.0876699968042154 2.132005502278145 2.050037204598331 -0.5200046160127103 1.1399895127138917
3.97578001022 0.3083853288131432 -0.1892545618492383 -1.0876699968042154 2.132005502278145 2.050037204598331 -0.5200046160127103 1.1399895127138917
3.98582911491 0.3083853288131432 -0.1892545618492383 -1.0876699968042154 2.132005502278145 2.050037204598331 -0.5200046160127103 1.1399895127138917
3.98582911491 0.3083853288131432 -0.1892545618492383 -1.0876699968042154 2.132005502278145 2.050037204598331 -0.5200046160127103 1.1399895127138917
3.99570202827 0.3083853288131432 -0.1892545618492383 -1.0876699968042154 2.132005502278145 2.050037204598331 -0.5200046160127103 1.1399895127138917
3.99570202827 0.3083853288131432 -0.1892545618492383 -1.0876699968042154 2.132005502278145 2.050037204598331 -0.5200046160127103 1.1399895127138917
4.00584197044 0.3083853288131432 -0.1892545618492383 -1.0876699968042154 2.132005502278145 2.050037204598331 -0.5200046160127103 1.1399895127138917
4.00584197044 0.3083853288131432 -0.1892545618492383 -1.0876699968042154 2.132005502278145 2.050037204598331 -0.5200046160127103 1.1399895127138917
4.01575803757 0.3083853288131432 -0.1892545618492383 -1.0876699968042154 2.132005502278145 2.050037204598331 -0.5200046160127103 1.1399895127138917
4.01575803757 0.3083853288131432 -0.1892545618492383 -1.0876699968042154 2.132005502278145 2.050037204598331 -0.5200046160127103 1.1399895127138917
4.02578496933 0.3083853288131432 -0.1892545618492383 -1.0876699968042154 2.132005502278145 2.050037204598331 -0.5200046160127103 1.1399895127138917
4.02578496933 0.3083853288131432 -0.1892545618492383 -1.0876699968042154 2.132005502278145 2.050037204598331 -0.5200046160127103 1.1399895127138917
4.03575897217 0.3083853288131432 -0.1892545618492383 -1.0876699968042154 2.132005502278145 2.050037204598331 -0.5200046160127103 1.1399895127138917
4.03575897217 0.3083853288131432 -0.1892545618492383 -1.0876699968042154 2.132005502278145 2.050037204598331 -0.5200046160127103 1.1399895127138917
4.04578304291 0.3083853288131432 -0.1892545618492383 -1.0876699968042154 2.132005502278145 2.050037204598331 -0.5200046160127103 1.1399895127138917
4.04578304291 0.3083853288131432 -0.1892545618492383 -1.0876699968042154 2.132005502278145 2.050037204598331 -0.5200046160127103 1.1399895127138917
4.05570602417 0.3083853288131432 -0.1892545618492383 -1.0876699968042154 2.132005502278145 2.050037204598331 -0.5200046160127103 1.1399895127138917
4.05570602417 0.3083853288131432 -0.1892545618492383 -1.0876699968042154 2.132005502278145 2.050037204598331 -0.5200046160127103 1.1399895127138917
4.06580615044 0.3083853288131432 -0.1892545618492383 -1.0876699968042154 2.132005502278145 2.050037204598331 -0.5200046160127103 1.1399895127138917
4.06580615044 0.3083853288131432 -0.1892545618492383 -1.0876699968042154 2.132005502278145 2.050037204598331 -0.5200046160127103 1.1399895127138917
4.07570409775 0.3083853288131432 -0.1892545618492383 -1.0876699968042154 2.132005502278145 2.050037204598331 -0.5200046160127103 1.1399895127138917
4.07570409775 0.3083853288131432 -0.1892545618492383 -1.0876699968042154 2.132005502278145 2.050037204598331 -0.5200046160127103 1.1399895127138917
4.08585500717 0.3083853288131432 -0.1892545618492383 -1.0876699968042154 2.132005502278145 2.050037204598331 -0.5200046160127103 1.1399895127138917
4.08585500717 0.3083853288131432 -0.1892545618492383 -1.0876699968042154 2.132005502278145 2.050037204598331 -0.5200046160127103 1.1399895127138917
4.09575510025 0.3083853288131432 -0.1892545618492383 -1.0876699968042154 2.132005502278145 2.050037204598331 -0.5200046160127103 1.1399895127138917
4.09575510025 0.3083853288131432 -0.1892545618492383 -1.0876699968042154 2.132005502278145 2.050037204598331 -0.5200046160127103 1.1399895127138917
4.10581612587 0.3083853288131432 -0.1892545618492383 -1.0876699968042154 2.132005502278145 2.050037204598331 -0.5200046160127103 1.1399895127138917
4.10581612587 0.3083853288131432 -0.1892545618492383 -1.0876699968042154 2.132005502278145 2.050037204598331 -0.5200046160127103 1.1399895127138917
4.11574006081 0.3083853288131432 -0.1892545618492383 -1.0876699968042154 2.132005502278145 2.050037204598331 -0.5200046160127103 1.1399895127138917
4.11574006081 0.3083853288131432 -0.1892545618492383 -1.0876699968042154 2.132005502278145 2.050037204598331 -0.5200046160127103 1.1399895127138917
4.12578201294 0.3083853288131432 -0.1892545618492383 -1.0876699968042154 2.132005502278145 2.050037204598331 -0.5200046160127103 1.1399895127138917
4.12578201294 0.3083853288131432 -0.1892545618492383 -1.0876699968042154 2.132005502278145 2.050037204598331 -0.5200046160127103 1.1399895127138917
4.13572311401 0.3083853288131432 -0.1892545618492383 -1.0876699968042154 2.132005502278145 2.050037204598331 -0.5200046160127103 1.1399895127138917
4.13572311401 0.3083853288131432 -0.1892545618492383 -1.0876699968042154 2.132005502278145 2.050037204598331 -0.5200046160127103 1.1399895127138917
4.14580702782 0.3083853288131432 -0.1892545618492383 -1.0876699968042154 2.132005502278145 2.050037204598331 -0.5200046160127103 1.1399895127138917
4.14580702782 0.3083853288131432 -0.1892545618492383 -1.0876699968042154 2.132005502278145 2.050037204598331 -0.5200046160127103 1.1399895127138917
4.15571403503 0.3083853288131432 -0.1892545618492383 -1.0876699968042154 2.132005502278145 2.050037204598331 -0.5200046160127103 1.1399895127138917
4.15571403503 0.3083853288131432 -0.1892545618492383 -1.0876699968042154 2.132005502278145 2.050037204598331 -0.5200046160127103 1.1399895127138917
4.16589999199 0.3083853288131432 -0.1892545618492383 -1.0876699968042154 2.132005502278145 2.050037204598331 -0.5200046160127103 1.1399895127138917
4.16589999199 0.3083853288131432 -0.1892545618492383 -1.0876699968042154 2.132005502278145 2.050037204598331 -0.5200046160127103 1.1399895127138917
4.17607116699 0.3083853288131432 -0.1892545618492383 -1.0876699968042154 2.132005502278145 2.050037204598331 -0.5200046160127103 1.1399895127138917
4.17607116699 0.3083853288131432 -0.1892545618492383 -1.0876699968042154 2.132005502278145 2.050037204598331 -0.5200046160127103 1.1399895127138917
4.18581604958 0.3083853288131432 -0.1892545618492383 -1.0876699968042154 2.132005502278145 2.050037204598331 -0.5200046160127103 1.1399895127138917
4.18581604958 0.3083853288131432 -0.1892545618492383 -1.0876699968042154 2.132005502278145 2.050037204598331 -0.5200046160127103 1.1399895127138917
4.19591999054 0.3083853288131432 -0.1892545618492383 -1.0876699968042154 2.132005502278145 2.050037204598331 -0.5200046160127103 1.1399895127138917
4.19591999054 0.3083853288131432 -0.1892545618492383 -1.0876699968042154 2.132005502278145 2.050037204598331 -0.5200046160127103 1.1399895127138917
4.20584702492 0.3083853288131432 -0.1892545618492383 -1.0876699968042154 2.132005502278145 2.050037204598331 -0.5200046160127103 1.1399895127138917
4.20584702492 0.3083853288131432 -0.1892545618492383 -1.0876699968042154 2.132005502278145 2.050037204598331 -0.5200046160127103 1.1399895127138917
4.21601319313 0.3083853288131432 -0.1892545618492383 -1.0876699968042154 2.132005502278145 2.050037204598331 -0.5200046160127103 1.1399895127138917
4.21601319313 0.3083853288131432 -0.1892545618492383 -1.0876699968042154 2.132005502278145 2.050037204598331 -0.5200046160127103 1.1399895127138917
4.22607111931 0.3083853288131432 -0.1892545618492383 -1.0876699968042154 2.132005502278145 2.050037204598331 -0.5200046160127103 1.1399895127138917
4.22607111931 0.3083853288131432 -0.1892545618492383 -1.0876699968042154 2.132005502278145 2.050037204598331 -0.5200046160127103 1.1399895127138917
4.23609399796 0.3083853288131432 -0.1892545618492383 -1.0876699968042154 2.132005502278145 2.050037204598331 -0.5200046160127103 1.1399895127138917
4.23609399796 0.3083853288131432 -0.1892545618492383 -1.0876699968042154 2.132005502278145 2.050037204598331 -0.5200046160127103 1.1399895127138917
4.24622702599 0.3083853288131432 -0.1892545618492383 -1.0876699968042154 2.132005502278145 2.050037204598331 -0.5200046160127103 1.1399895127138917
4.24622702599 0.3083853288131432 -0.1892545618492383 -1.0876699968042154 2.132005502278145 2.050037204598331 -0.5200046160127103 1.1399895127138917
4.25611805916 0.3083853288131432 -0.1892545618492383 -1.0876699968042154 2.132005502278145 2.050037204598331 -0.5200046160127103 1.1399895127138917
4.25611805916 0.3083853288131432 -0.1892545618492383 -1.0876699968042154 2.132005502278145 2.050037204598331 -0.5200046160127103 1.1399895127138917
4.26623606682 0.3083853288131432 -0.1892545618492383 -1.0876699968042154 2.132005502278145 2.050037204598331 -0.5200046160127103 1.1399895127138917
4.26623606682 0.3083853288131432 -0.1892545618492383 -1.0876699968042154 2.132005502278145 2.050037204598331 -0.5200046160127103 1.1399895127138917
4.27616715431 0.3083853288131432 -0.1892545618492383 -1.0876699968042154 2.132005502278145 2.050037204598331 -0.5200046160127103 1.1399895127138917
4.27616715431 0.3083853288131432 -0.1892545618492383 -1.0876699968042154 2.132005502278145 2.050037204598331 -0.5200046160127103 1.1399895127138917
4.28615903854 0.3083853288131432 -0.1892545618492383 -1.0876699968042154 2.132005502278145 2.050037204598331 -0.5200046160127103 1.1399895127138917
4.28615903854 0.3083853288131432 -0.1892545618492383 -1.0876699968042154 2.132005502278145 2.050037204598331 -0.5200046160127103 1.1399895127138917
4.29613113403 0.3083853288131432 -0.1892545618492383 -1.0876699968042154 2.132005502278145 2.050037204598331 -0.5200046160127103 1.1399895127138917
4.29613113403 0.3083853288131432 -0.1892545618492383 -1.0876699968042154 2.132005502278145 2.050037204598331 -0.5200046160127103 1.1399895127138917
4.30626010895 0.3083853288131432 -0.1892545618492383 -1.0876699968042154 2.132005502278145 2.050037204598331 -0.5200046160127103 1.1399895127138917
4.30626010895 0.3083853288131432 -0.1892545618492383 -1.0876699968042154 2.132005502278145 2.050037204598331 -0.5200046160127103 1.1399895127138917
4.31624412537 0.3083853288131432 -0.1892545618492383 -1.0876699968042154 2.132005502278145 2.050037204598331 -0.5200046160127103 1.1399895127138917
4.31624412537 0.3083853288131432 -0.1892545618492383 -1.0876699968042154 2.132005502278145 2.050037204598331 -0.5200046160127103 1.1399895127138917
4.32627511024 0.3083853288131432 -0.1892545618492383 -1.0876699968042154 2.132005502278145 2.050037204598331 -0.5200046160127103 1.1399895127138917
4.32627511024 0.3083853288131432 -0.1892545618492383 -1.0876699968042154 2.132005502278145 2.050037204598331 -0.5200046160127103 1.1399895127138917
4.33600616455 0.3083853288131432 -0.1892545618492383 -1.0876699968042154 2.132005502278145 2.050037204598331 -0.5200046160127103 1.1399895127138917
4.33600616455 0.3083853288131432 -0.1892545618492383 -1.0876699968042154 2.132005502278145 2.050037204598331 -0.5200046160127103 1.1399895127138917
4.34621596336 0.3083853288131432 -0.1892545618492383 -1.0876699968042154 2.132005502278145 2.050037204598331 -0.5200046160127103 1.1399895127138917
4.34621596336 0.3083853288131432 -0.1892545618492383 -1.0876699968042154 2.132005502278145 2.050037204598331 -0.5200046160127103 1.1399895127138917
4.35600304604 0.3083853288131432 -0.1892545618492383 -1.0876699968042154 2.132005502278145 2.050037204598331 -0.5200046160127103 1.1399895127138917
4.35600304604 0.3083853288131432 -0.1892545618492383 -1.0876699968042154 2.132005502278145 2.050037204598331 -0.5200046160127103 1.1399895127138917
4.36616110802 0.3083853288131432 -0.1892545618492383 -1.0876699968042154 2.132005502278145 2.050037204598331 -0.5200046160127103 1.1399895127138917
4.36616110802 0.3083853288131432 -0.1892545618492383 -1.0876699968042154 2.132005502278145 2.050037204598331 -0.5200046160127103 1.1399895127138917
4.37616205215 0.3083853288131432 -0.1892545618492383 -1.0876699968042154 2.132005502278145 2.050037204598331 -0.5200046160127103 1.1399895127138917
4.37616205215 0.3083853288131432 -0.1892545618492383 -1.0876699968042154 2.132005502278145 2.050037204598331 -0.5200046160127103 1.1399895127138917
4.38600301743 0.3083853288131432 -0.1892545618492383 -1.0876699968042154 2.132005502278145 2.050037204598331 -0.5200046160127103 1.1399895127138917
4.38600301743 0.3083853288131432 -0.1892545618492383 -1.0876699968042154 2.132005502278145 2.050037204598331 -0.5200046160127103 1.1399895127138917
4.39612603188 0.3083853288131432 -0.1892545618492383 -1.0876699968042154 2.132005502278145 2.050037204598331 -0.5200046160127103 1.1399895127138917
4.39612603188 0.3083853288131432 -0.1892545618492383 -1.0876699968042154 2.132005502278145 2.050037204598331 -0.5200046160127103 1.1399895127138917
4.40611314774 0.3083853288131432 -0.1892545618492383 -1.0876699968042154 2.132005502278145 2.050037204598331 -0.5200046160127103 1.1399895127138917
4.40611314774 0.3083853288131432 -0.1892545618492383 -1.0876699968042154 2.132005502278145 2.050037204598331 -0.5200046160127103 1.1399895127138917
4.41614699364 0.3083853288131432 -0.1892545618492383 -1.0876699968042154 2.132005502278145 2.050037204598331 -0.5200046160127103 1.1399895127138917
4.41614699364 0.3083853288131432 -0.1892545618492383 -1.0876699968042154 2.132005502278145 2.050037204598331 -0.5200046160127103 1.1399895127138917
4.42622518539 0.3083853288131432 -0.1892545618492383 -1.0876699968042154 2.132005502278145 2.050037204598331 -0.5200046160127103 1.1399895127138917
4.42622518539 0.3083853288131432 -0.1892545618492383 -1.0876699968042154 2.132005502278145 2.050037204598331 -0.5200046160127103 1.1399895127138917
4.43622303009 0.3083853288131432 -0.1892545618492383 -1.0876699968042154 2.132005502278145 2.050037204598331 -0.5200046160127103 1.1399895127138917
4.43622303009 0.3083853288131432 -0.1892545618492383 -1.0876699968042154 2.132005502278145 2.050037204598331 -0.5200046160127103 1.1399895127138917
4.44613814354 0.3083853288131432 -0.1892545618492383 -1.0876699968042154 2.132005502278145 2.050037204598331 -0.5200046160127103 1.1399895127138917
4.44613814354 0.3083853288131432 -0.1892545618492383 -1.0876699968042154 2.132005502278145 2.050037204598331 -0.5200046160127103 1.1399895127138917
4.4561111927 0.3083853288131432 -0.1892545618492383 -1.0876699968042154 2.132005502278145 2.050037204598331 -0.5200046160127103 1.1399895127138917
4.4561111927 0.3083853288131432 -0.1892545618492383 -1.0876699968042154 2.132005502278145 2.050037204598331 -0.5200046160127103 1.1399895127138917
4.466173172 0.3083853288131432 -0.1892545618492383 -1.0876699968042154 2.132005502278145 2.050037204598331 -0.5200046160127103 1.1399895127138917
4.466173172 0.3083853288131432 -0.1892545618492383 -1.0876699968042154 2.132005502278145 2.050037204598331 -0.5200046160127103 1.1399895127138917
4.47605514526 0.3083853288131432 -0.1892545618492383 -1.0876699968042154 2.132005502278145 2.050037204598331 -0.5200046160127103 1.1399895127138917
4.47605514526 0.3083853288131432 -0.1892545618492383 -1.0876699968042154 2.132005502278145 2.050037204598331 -0.5200046160127103 1.1399895127138917
4.48620915413 0.3083853288131432 -0.1892545618492383 -1.0876699968042154 2.132005502278145 2.050037204598331 -0.5200046160127103 1.1399895127138917
4.48620915413 0.3083853288131432 -0.1892545618492383 -1.0876699968042154 2.132005502278145 2.050037204598331 -0.5200046160127103 1.1399895127138917
4.49633216858 0.3083853288131432 -0.1892545618492383 -1.0876699968042154 2.132005502278145 2.050037204598331 -0.5200046160127103 1.1399895127138917
4.49633216858 0.3083853288131432 -0.1892545618492383 -1.0876699968042154 2.132005502278145 2.050037204598331 -0.5200046160127103 1.1399895127138917
4.50624418259 0.3083853288131432 -0.1892545618492383 -1.0876699968042154 2.132005502278145 2.050037204598331 -0.5200046160127103 1.1399895127138917
4.50624418259 0.3083853288131432 -0.1892545618492383 -1.0876699968042154 2.132005502278145 2.050037204598331 -0.5200046160127103 1.1399895127138917
4.51615715027 0.3083853288131432 -0.1892545618492383 -1.0876699968042154 2.132005502278145 2.050037204598331 -0.5200046160127103 1.1399895127138917
4.51615715027 0.3083853288131432 -0.1892545618492383 -1.0876699968042154 2.132005502278145 2.050037204598331 -0.5200046160127103 1.1399895127138917
4.52640008926 0.3083853288131432 -0.1892545618492383 -1.0876699968042154 2.132005502278145 2.050037204598331 -0.5200046160127103 1.1399895127138917
4.52640008926 0.3083853288131432 -0.1892545618492383 -1.0876699968042154 2.132005502278145 2.050037204598331 -0.5200046160127103 1.1399895127138917
4.53604602814 0.3083853288131432 -0.1892545618492383 -1.0876699968042154 2.132005502278145 2.050037204598331 -0.5200046160127103 1.1399895127138917
4.53604602814 0.3083853288131432 -0.1892545618492383 -1.0876699968042154 2.132005502278145 2.050037204598331 -0.5200046160127103 1.1399895127138917
4.54626917839 0.3083853288131432 -0.1892545618492383 -1.0876699968042154 2.132005502278145 2.050037204598331 -0.5200046160127103 1.1399895127138917
4.54626917839 0.3083853288131432 -0.1892545618492383 -1.0876699968042154 2.132005502278145 2.050037204598331 -0.5200046160127103 1.1399895127138917
4.55600810051 0.3083853288131432 -0.1892545618492383 -1.0876699968042154 2.132005502278145 2.050037204598331 -0.5200046160127103 1.1399895127138917
4.55600810051 0.3083853288131432 -0.1892545618492383 -1.0876699968042154 2.132005502278145 2.050037204598331 -0.5200046160127103 1.1399895127138917
4.56620717049 0.3083853288131432 -0.1892545618492383 -1.0876699968042154 2.132005502278145 2.050037204598331 -0.5200046160127103 1.1399895127138917
4.56620717049 0.3083853288131432 -0.1892545618492383 -1.0876699968042154 2.132005502278145 2.050037204598331 -0.5200046160127103 1.1399895127138917
4.57604002953 0.3083853288131432 -0.1892545618492383 -1.0876699968042154 2.132005502278145 2.050037204598331 -0.5200046160127103 1.1399895127138917
4.57604002953 0.3083853288131432 -0.1892545618492383 -1.0876699968042154 2.132005502278145 2.050037204598331 -0.5200046160127103 1.1399895127138917
4.58617997169 0.3083853288131432 -0.1892545618492383 -1.0876699968042154 2.132005502278145 2.050037204598331 -0.5200046160127103 1.1399895127138917
4.58617997169 0.3083853288131432 -0.1892545618492383 -1.0876699968042154 2.132005502278145 2.050037204598331 -0.5200046160127103 1.1399895127138917
4.59612417221 0.3083853288131432 -0.1892545618492383 -1.0876699968042154 2.132005502278145 2.050037204598331 -0.5200046160127103 1.1399895127138917
4.59612417221 0.3083853288131432 -0.1892545618492383 -1.0876699968042154 2.132005502278145 2.050037204598331 -0.5200046160127103 1.1399895127138917
4.60603713989 0.3083853288131432 -0.1892545618492383 -1.0876699968042154 2.132005502278145 2.050037204598331 -0.5200046160127103 1.1399895127138917
4.60603713989 0.3083853288131432 -0.1892545618492383 -1.0876699968042154 2.132005502278145 2.050037204598331 -0.5200046160127103 1.1399895127138917
4.61614704132 0.3083853288131432 -0.1892545618492383 -1.0876699968042154 2.132005502278145 2.050037204598331 -0.5200046160127103 1.1399895127138917
4.61614704132 0.3083853288131432 -0.1892545618492383 -1.0876699968042154 2.132005502278145 2.050037204598331 -0.5200046160127103 1.1399895127138917
4.62612605095 0.3083853288131432 -0.1892545618492383 -1.0876699968042154 2.132005502278145 2.050037204598331 -0.5200046160127103 1.1399895127138917
4.62612605095 0.3083853288131432 -0.1892545618492383 -1.0876699968042154 2.132005502278145 2.050037204598331 -0.5200046160127103 1.1399895127138917
4.63580918312 0.3083853288131432 -0.1892545618492383 -1.0876699968042154 2.132005502278145 2.050037204598331 -0.5200046160127103 1.1399895127138917
4.63580918312 0.3083853288131432 -0.1892545618492383 -1.0876699968042154 2.132005502278145 2.050037204598331 -0.5200046160127103 1.1399895127138917
4.64613318443 0.3083853288131432 -0.1892545618492383 -1.0876699968042154 2.132005502278145 2.050037204598331 -0.5200046160127103 1.1399895127138917
4.64613318443 0.3083853288131432 -0.1892545618492383 -1.0876699968042154 2.132005502278145 2.050037204598331 -0.5200046160127103 1.1399895127138917
4.65614318848 0.3083853288131432 -0.1892545618492383 -1.0876699968042154 2.132005502278145 2.050037204598331 -0.5200046160127103 1.1399895127138917
4.65614318848 0.3083853288131432 -0.1892545618492383 -1.0876699968042154 2.132005502278145 2.050037204598331 -0.5200046160127103 1.1399895127138917
4.66605401039 0.3083853288131432 -0.1892545618492383 -1.0876699968042154 2.132005502278145 2.050037204598331 -0.5200046160127103 1.1399895127138917
4.66605401039 0.3083853288131432 -0.1892545618492383 -1.0876699968042154 2.132005502278145 2.050037204598331 -0.5200046160127103 1.1399895127138917
4.67577910423 0.3083853288131432 -0.1892545618492383 -1.0876699968042154 2.132005502278145 2.050037204598331 -0.5200091814722694 1.1399849472543326
4.67577910423 0.3083853288131432 -0.1892545618492383 -1.0876699968042154 2.132005502278145 2.050037204598331 -0.5200091814722694 1.1399849472543326
4.68574500084 0.3083853288131432 -0.1892545618492383 -1.0876699968042154 2.132005502278145 2.050037204598331 -0.5200091814722694 1.1399849472543326
