riccardo-csl/Motion-Planning-for-TIAGo-Manipulator/T3_G_7/head_scan/head_scan/tiago_traiettorie_SG/3a-1b/pick_3a_rep2.txt
time arm_1_joint arm_2_joint arm_3_joint arm_4_joint arm_5_joint arm_6_joint arm_7_joint
0.571631908417 0.0695720320913037 0.0863594221051097 -3.099267045386032 1.3636243336760805 2.050046335517449 -0.5200274433105061 1.1400032090925691
0.581588983536 0.0695720320913037 0.0863594221051097 -3.099267045386032 1.3636243336760805 2.050046335517449 -0.5200274433105061 1.1400032090925691
0.581588983536 0.0695720320913037 0.0863594221051097 -3.099267045386032 1.3636243336760805 2.050046335517449 -0.5200274433105061 1.1400032090925691
0.591740846634 0.0695720320913037 0.0863594221051097 -3.099267045386032 1.3636243336760805 2.050046335517449 -0.5200274433105061 1.1400032090925691
0.591740846634 0.0695720320913037 0.0863594221051097 -3.099267045386032 1.3636243336760805 2.050046335517449 -0.5200274433105061 1.1400032090925691
0.601694822311 0.0695720320913037 0.0863594221051097 -3.099267045386032 1.3636243336760805 2.050046335517449 -0.5200274433105061 1.1400032090925691
0.601694822311 0.0695720320913037 0.0863594221051097 -3.099267045386032 1.3636243336760805 2.050046335517449 -0.5200274433105061 1.1400032090925691
0.611733913422 0.0695720320913037 0.0863594221051097 -3.099267045386032 1.3636243336760805 2.050046335517449 -0.5200274433105061 1.1400032090925691
0.611733913422 0.0695720320913037 0.0863594221051097 -3.099267045386032 1.3636243336760805 2.050046335517449 -0.5200274433105061 1.1400032090925691
0.621588945389 0.0695720320913037 0.0863594221051097 -3.099267045386032 1.3636243336760805 2.050046335517449 -0.5200274433105061 1.1400032090925691
0.621588945389 0.0695720320913037 0.0863594221051097 -3.099267045386032 1.3636243336760805 2.050046335517449 -0.5200274433105061 1.1400032090925691
0.63179898262 0.0695720320913037 0.0863594221051097 -3.099267045386032 1.3636243336760805 2.050046335517449 -0.5200274433105061 1.1400032090925691
0.63179898262 0.0695720320913037 0.0863594221051097 -3.099267045386032 1.3636243336760805 2.050046335517449 -0.5200274433105061 1.1400032090925691
0.641728878021 0.0695720320913037 0.0863594221051097 -3.099267045386032 1.3636243336760805 2.050046335517449 -0.5200274433105061 1.1400032090925691
0.641728878021 0.0695720320913037 0.0863594221051097 -3.099267045386032 1.3636243336760805 2.050046335517449 -0.5200274433105061 1.1400032090925691
0.651677846909 0.0695720320913037 0.0863594221051097 -3.099267045386032 1.3636243336760805 2.050046335517449 -0.5200274433105061 1.1400032090925691
0.651677846909 0.0695720320913037 0.0863594221051097 -3.099267045386032 1.3636243336760805 2.050046335517449 -0.5200274433105061 1.1400032090925691
0.661722898483 0.0695720320913037 0.0863594221051097 -3.099267045386032 1.3636243336760805 2.050046335517449 -0.5200274433105061 1.1400032090925691
0.661722898483 0.0695720320913037 0.0863594221051097 -3.099267045386032 1.3636243336760805 2.050046335517449 -0.5200274433105061 1.1400032090925691
0.671825885773 0.0695720320913037 0.0863594221051097 -3.099267045386032 1.3636243336760805 2.050046335517449 -0.5200274433105061 1.1400032090925691
0.671825885773 0.0695720320913037 0.0863594221051097 -3.099267045386032 1.3636243336760805 2.050046335517449 -0.5200274433105061 1.1400032090925691
0.681697845459 0.0695720320913037 0.0863594221051097 -3.099267045386032 1.3636243336760805 2.050046335517449 -0.5200091814722694 1.1399849472543326
0.681697845459 0.0695720320913037 0.0863594221051097 -3.099267045386032 1.3636243336760805 2.050046335517449 -0.5200091814722694 1.1399849472543326
0.691764831543 0.0695720320913037 0.0863594221051097 -3.099267045386032 1.3636243336760805 2.050046335517449 -0.5200091814722694 1.1399849472543326
0.691764831543 0.0695720320913037 0.0863594221051097 -3.099267045386032 1.3636243336760805 2.050046335517449 -0.5200091814722694 1.1399849472543326
0.701674938202 0.0695720320913037 0.0863594221051097 -3.099267045386032 1.3636243336760805 2.050046335517449 -0.5200228778509468 1.13999864363301
0.701674938202 0.0695720320913037 0.0863594221051097 -3.099267045386032 1.3636243336760805 2.050046335517449 -0.5200228778509468 1.13999864363301
0.711423873901 0.0695720320913037 0.0863594221051097 -3.099267045386032 1.3636243336760805 2.050046335517449 -0.5200091814722694 1.1399849472543326
0.711423873901 0.0695720320913037 0.0863594221051097 -3.099267045386032 1.3636243336760805 2.050046335517449 -0.5200091814722694 1.1399849472543326
0.721349000931 0.0695720320913037 0.0863594221051097 -3.09925170537468 1.3636243336760805 2.050046335517449 -0.5200274433105061 1.1400032090925691
0.721349000931 0.0695720320913037 0.0863594221051097 -3.09925170537468 1.3636243336760805 2.050046335517449 -0.5200274433105061 1.1400032090925691
0.73145198822 0.0695720320913037 0.0863594221051097 -3.09925170537468 1.3636243336760805 2.050046335517449 -0.5200274433105061 1.1400032090925691
0.73145198822 0.0695720320913037 0.0863594221051097 -3.09925170537468 1.3636243336760805 2.050046335517449 -0.5200274433105061 1.1400032090925691
0.741323947906 0.0695720320913037 0.0863594221051097 -3.09925170537468 1.3636243336760805 2.050046335517449 -0.5200274433105061 1.1400032090925691
0.741323947906 0.0695720320913037 0.0863594221051097 -3.09925170537468 1.3636243336760805 2.050046335517449 -0.5200274433105061 1.1400032090925691
0.751529932022 0.0695720320913037 0.0863594221051097 -3.09925170537468 1.3636243336760805 2.050046335517449 -0.5200274433105061 1.1400032090925691
0.751529932022 0.0695720320913037 0.0863594221051097 -3.09925170537468 1.3636243336760805 2.050046335517449 -0.5200274433105061 1.1400032090925691
0.761495828629 0.0695720320913037 0.0863594221051097 -3.0992363653633284 1.3636243336760805 2.050046335517449 -0.5200274433105061 1.1400032090925691
0.761495828629 0.0695720320913037 0.0863594221051097 -3.0992363653633284 1.3636243336760805 2.050046335517449 -0.5200274433105061 1.1400032090925691
0.771589994431 0.0695720320913037 0.0863594221051097 -3.0992363653633284 1.3636243336760805 2.050046335517449 -0.5200274433105061 1.1400032090925691
0.771589994431 0.0695720320913037 0.0863594221051097 -3.0992363653633284 1.3636243336760805 2.050046335517449 -0.5200274433105061 1.1400032090925691
0.782007932663 0.0695720320913037 0.0863594221051097 -3.0991289852838677 1.3636243336760805 2.050046335517449 -0.5200274433105061 1.1400032090925691
0.782007932663 0.0695720320913037 0.0863594221051097 -3.0991289852838677 1.3636243336760805 2.050046335517449 -0.5200274433105061 1.1400032090925691
0.791430950165 0.0695720320913037 0.0863594221051097 -3.0991289852838677 1.3636243336760805 2.050046335517449 -0.5200274433105061 1.1400032090925691
0.791430950165 0.0695720320913037 0.0863594221051097 -3.0991289852838677 1.3636243336760805 2.050046335517449 -0.5200274433105061 1.1400032090925691
0.801598787308 0.0695720320913037 0.0863594221051097 -3.0991289852838677 1.3636243336760805 2.050046335517449 -0.5200274433105061 1.1400032090925691
0.801598787308 0.0695720320913037 0.0863594221051097 -3.0991289852838677 1.3636243336760805 2.050046335517449 -0.5200274433105061 1.1400032090925691
0.811426877975 0.0695720320913037 0.0863594221051097 -3.0990062651930543 1.3636243336760805 2.050046335517449 -0.5200228778509468 1.13999864363301
0.811426877975 0.0695720320913037 0.0863594221051097 -3.0990062651930543 1.3636243336760805 2.050046335517449 -0.5200228778509468 1.13999864363301
0.821317911148 0.0695720320913037 0.0863594221051097 -3.0990062651930543 1.3636243336760805 2.050046335517449 -0.5200228778509468 1.13999864363301
0.821317911148 0.0695720320913037 0.0863594221051097 -3.0990062651930543 1.3636243336760805 2.050046335517449 -0.5200228778509468 1.13999864363301
0.831526994705 0.0695720320913037 0.0863594221051097 -3.0990062651930543 1.3636243336760805 2.050046335517449 -0.5200228778509468 1.13999864363301
0.831526994705 0.0695720320913037 0.0863594221051097 -3.0990062651930543 1.3636243336760805 2.050046335517449 -0.5200228778509468 1.13999864363301
0.841518878937 0.0695720320913037 0.0863594221051097 -3.098806845045483 1.3636243336760805 2.050046335517449 -0.5200228778509468 1.13999864363301
0.841518878937 0.0695720320913037 0.0863594221051097 -3.098806845045483 1.3636243336760805 2.050046335517449 -0.5200228778509468 1.13999864363301
0.851723909378 0.0695720320913037 0.0863594221051097 -3.098806845045483 1.3636243336760805 2.050046335517449 -0.5200228778509468 1.13999864363301
0.851723909378 0.0695720320913037 0.0863594221051097 -3.098806845045483 1.3636243336760805 2.050046335517449 -0.5200228778509468 1.13999864363301
0.861692905426 0.0695720320913037 0.0863594221051097 -3.098806845045483 1.3636243336760805 2.050046335517449 -0.5200228778509468 1.13999864363301
0.861692905426 0.0695720320913037 0.0863594221051097 -3.098806845045483 1.3636243336760805 2.050046335517449 -0.5200228778509468 1.13999864363301
0.871718883514 0.0695720320913037 0.0863594221051097 -3.098806845045483 1.3636243336760805 2.050046335517449 -0.5200228778509468 1.13999864363301
0.871718883514 0.0695720320913037 0.0863594221051097 -3.098806845045483 1.3636243336760805 2.050046335517449 -0.5200228778509468 1.13999864363301
0.881672859192 0.0695720320913037 0.0863594221051097 -3.098806845045483 1.3636243336760805 2.050046335517449 -0.5200228778509468 1.13999864363301
0.881672859192 0.0695720320913037 0.0863594221051097 -3.098806845045483 1.3636243336760805 2.050046335517449 -0.5200228778509468 1.13999864363301
0.891615867615 0.0695720320913037 0.0863594221051097 -3.098806845045483 1.3636243336760805 2.050046335517449 -0.5200228778509468 1.13999864363301
0.891615867615 0.0695720320913037 0.0863594221051097 -3.098806845045483 1.3636243336760805 2.050046335517449 -0.5200228778509468 1.13999864363301
0.901652812958 0.0695720320913037 0.0863594221051097 -3.098806845045483 1.3636243336760805 2.050046335517449 -0.5200228778509468 1.13999864363301
0.901652812958 0.0695720320913037 0.0863594221051097 -3.098806845045483 1.3636243336760805 2.050046335517449 -0.5200228778509468 1.13999864363301
0.911659955978 0.0695720320913037 0.0863594221051097 -3.098806845045483 1.3636243336760805 2.050046335517449 -0.5200228778509468 1.13999864363301
0.911659955978 0.0695720320913037 0.0863594221051097 -3.098806845045483 1.3636243336760805 2.050046335517449 -0.5200228778509468 1.13999864363301
0.92169380188 0.0695720320913037 0.0863594221051097 -3.098806845045483 1.3636243336760805 2.050046335517449 -0.5200228778509468 1.13999864363301
0.92169380188 0.0695720320913037 0.0863594221051097 -3.098806845045483 1.3636243336760805 2.050046335517449 -0.5200228778509468 1.13999864363301
0.931455850601 0.0695720320913037 0.0863594221051097 -3.0976563441941125 1.3636243336760805 2.050046335517449 -0.5200274433105061 1.1400032090925691
0.931455850601 0.0695720320913037 0.0863594221051097 -3.0976563441941125 1.3636243336760805 2.050046335517449 -0.5200274433105061 1.1400032090925691
0.941684961319 0.0695720320913037 0.0863594221051097 -3.096597883410852 1.3636243336760805 2.050046335517449 -0.5200274433105061 1.1400032090925691
0.941684961319 0.0695720320913037 0.0863594221051097 -3.096597883410852 1.3636243336760805 2.050046335517449 -0.5200274433105061 1.1400032090925691
0.951762914658 0.0695720320913037 0.0863594221051097 -3.096597883410852 1.3636243336760805 2.050046335517449 -0.5200274433105061 1.1400032090925691
0.951762914658 0.0695720320913037 0.0863594221051097 -3.096597883410852 1.3636243336760805 2.050046335517449 -0.5200274433105061 1.1400032090925691
0.961583852768 0.0695720320913037 0.0863594221051097 -3.0949258221735265 1.3636243336760805 2.050046335517449 -0.5200183123913877 1.1399940781734508
0.961583852768 0.0695720320913037 0.0863594221051097 -3.0949258221735265 1.3636243336760805 2.050046335517449 -0.5200183123913877 1.1399940781734508
0.971781015396 0.0695720320913037 0.0863594221051097 -3.0949258221735265 1.3636243336760805 2.050046335517449 -0.5200183123913877 1.1399940781734508
0.971781015396 0.0695720320913037 0.0863594221051097 -3.0949258221735265 1.3636243336760805 2.050046335517449 -0.5200183123913877 1.1399940781734508
0.981356859207 0.0695873721026553 0.0863594221051097 -3.076855288801332 1.3636243336760805 2.050046335517449 -0.5200274433105061 1.1400032090925691
0.981356859207 0.0695873721026553 0.0863594221051097 -3.076855288801332 1.3636243336760805 2.050046335517449 -0.5200274433105061 1.1400032090925691
0.991325855255 0.0695873721026553 0.0863594221051097 -3.068725082784979 1.3636243336760805 2.050046335517449 -0.5200183123913877 1.1399940781734508
0.991325855255 0.0695873721026553 0.0863594221051097 -3.068725082784979 1.3636243336760805 2.050046335517449 -0.5200183123913877 1.1399940781734508
1.00131392479 0.0695873721026553 0.0863594221051097 -3.068725082784979 1.3636243336760805 2.050046335517449 -0.5200183123913877 1.1399940781734508
1.00131392479 0.0695873721026553 0.0863594221051097 -3.068725082784979 1.3636243336760805 2.050046335517449 -0.5200183123913877 1.1399940781734508
1.01126384735 0.0695873721026553 0.0863594221051097 -3.068725082784979 1.3636243336760805 2.050046335517449 -0.5200183123913877 1.1399940781734508
1.01126384735 0.0695873721026553 0.0863594221051097 -3.068725082784979 1.3636243336760805 2.050046335517449 -0.5200183123913877 1.1399940781734508
1.0216050148 0.0695873721026553 0.0863594221051097 -3.068725082784979 1.3636243336760805 2.050046335517449 -0.5200183123913877 1.1399940781734508
1.0216050148 0.0695873721026553 0.0863594221051097 -3.068725082784979 1.3636243336760805 2.050046335517449 -0.5200183123913877 1.1399940781734508
1.03179478645 0.0695873721026553 0.0863594221051097 -3.068725082784979 1.3636243336760805 2.050046335517449 -0.5200183123913877 1.1399940781734508
1.03179478645 0.0695873721026553 0.0863594221051097 -3.068725082784979 1.3636243336760805 2.050046335517449 -0.5200183123913877 1.1399940781734508
1.04157996178 0.0695873721026553 0.0863594221051097 -3.048598987891669 1.3636243336760805 2.050046335517449 -0.5200274433105061 1.1400032090925691
1.04157996178 0.0695873721026553 0.0863594221051097 -3.048598987891669 1.3636243336760805 2.050046335517449 -0.5200274433105061 1.1400032090925691
1.05167889595 0.0695873721026553 0.0863594221051097 -3.037278059514182 1.3636243336760805 2.050046335517449 -0.5200274433105061 1.1400032090925691
1.05167889595 0.0695873721026553 0.0863594221051097 -3.037278059514182 1.3636243336760805 2.050046335517449 -0.5200274433105061 1.1400032090925691
1.06166100502 0.0695873721026553 0.0863594221051097 -3.037278059514182 1.3636243336760805 2.050046335517449 -0.5200274433105061 1.1400032090925691
1.06166100502 0.0695873721026553 0.0863594221051097 -3.037278059514182 1.3636243336760805 2.050046335517449 -0.5200274433105061 1.1400032090925691
1.07174801826 0.0695873721026553 0.0863594221051097 -3.037278059514182 1.3636243336760805 2.050046335517449 -0.5200274433105061 1.1400032090925691
1.07174801826 0.0695873721026553 0.0863594221051097 -3.037278059514182 1.3636243336760805 2.050046335517449 -0.5200274433105061 1.1400032090925691
1.08166885376 0.0695873721026553 0.0863594221051097 -3.037278059514182 1.3636243336760805 2.050046335517449 -0.5200274433105061 1.1400032090925691
1.08166885376 0.0695873721026553 0.0863594221051097 -3.037278059514182 1.3636243336760805 2.050046335517449 -0.5200274433105061 1.1400032090925691
1.09161496162 0.0695873721026553 0.0863594221051097 -3.0244077899901827 1.3636243336760805 2.050046335517449 -0.5200274433105061 1.1400032090925691
1.09161496162 0.0695873721026553 0.0863594221051097 -3.0244077899901827 1.3636243336760805 2.050046335517449 -0.5200274433105061 1.1400032090925691
1.1016960144 0.0695873721026553 0.0863594221051097 -3.0244077899901827 1.3636243336760805 2.050046335517449 -0.5200274433105061 1.1400032090925691
1.1016960144 0.0695873721026553 0.0863594221051097 -3.0118136406705123 1.3636243336760805 2.050046335517449 -0.5200137469318284 1.1399895127138917
1.11177492142 0.0695873721026553 0.0863594221051097 -3.0118136406705123 1.3636243336760805 2.050046335517449 -0.5200137469318284 1.1399895127138917
1.11177492142 0.0695873721026553 0.0863594221051097 -3.0118136406705123 1.3636243336760805 2.050046335517449 -0.5200137469318284 1.1399895127138917
1.12160992622 0.069602712114007 0.0863594221051097 -2.9853828011116907 1.3636243336760805 2.050046335517449 -0.5200274433105061 1.1400032090925691
1.12160992622 0.069602712114007 0.0863594221051097 -2.9853828011116907 1.3636243336760805 2.050046335517449 -0.5200274433105061 1.1400032090925691
1.13153886795 0.069602712114007 0.0863594221051097 -2.9853828011116907 1.3636243336760805 2.050046335517449 -0.5200274433105061 1.1400032090925691
1.13153886795 0.069602712114007 0.0863594221051097 -2.9853828011116907 1.3636243336760805 2.050046335517449 -0.5200274433105061 1.1400032090925691
1.14164590836 0.069602712114007 0.0863594221051097 -2.9853828011116907 1.3636243336760805 2.050046335517449 -0.5200274433105061 1.1400032090925691
1.14164590836 0.069602712114007 0.0863594221051097 -2.9853828011116907 1.3636243336760805 2.050046335517449 -0.5200274433105061 1.1400032090925691
1.15178894997 0.0696180521253586 0.0863594221051097 -2.971776211042814 1.3636243336760805 2.050046335517449 -0.5200274433105061 1.1400032090925691
1.15178894997 0.0696180521253586 0.0863594221051097 -2.971776211042814 1.3636243336760805 2.050046335517449 -0.5200274433105061 1.1400032090925691
1.16157484055 0.0696180521253586 0.0863594221051097 -2.971776211042814 1.3636243336760805 2.050046335517449 -0.5200274433105061 1.1400032090925691
1.16157484055 0.0696180521253586 0.0863594221051097 -2.971776211042814 1.3636243336760805 2.050046335517449 -0.5200274433105061 1.1400032090925691
1.17187595367 0.0696180521253586 0.0863594221051097 -2.971776211042814 1.3636243336760805 2.050046335517449 -0.5200274433105061 1.1400032090925691
1.17187595367 0.0696180521253586 0.0863594221051097 -2.971776211042814 1.3636243336760805 2.050046335517449 -0.5200274433105061 1.1400032090925691
1.18170499802 0.0696180521253586 0.0863594221051097 -2.971776211042814 1.3636243336760805 2.050046335517449 -0.5200274433105061 1.1400032090925691
1.18170499802 0.0696180521253586 0.0863594221051097 -2.971776211042814 1.3636243336760805 2.050046335517449 -0.5200274433105061 1.1400032090925691
1.19168496132 0.0696947521821167 0.0863594221051097 -2.9443329307347867 1.3636243336760805 2.050046335517449 -0.5200137469318284 1.1399895127138917
1.19168496132 0.0696947521821167 0.0863594221051097 -2.9443329307347867 1.3636243336760805 2.050046335517449 -0.5200137469318284 1.1399895127138917
1.20180082321 0.0697714522388745 0.0863594221051097 -2.930496240495636 1.3636243336760805 2.050046335517449 -0.5200274433105061 1.1400032090925691
1.20180082321 0.0697714522388745 0.0863594221051097 -2.930496240495636 1.3636243336760805 2.050046335517449 -0.5200274433105061 1.1400032090925691
1.21157884598 0.0697714522388745 0.0863594221051097 -2.930496240495636 1.3636243336760805 2.050046335517449 -0.5200274433105061 1.1400032090925691
1.21157884598 0.0697714522388745 0.0863594221051097 -2.930496240495636 1.3636243336760805 2.050046335517449 -0.5200274433105061 1.1400032090925691
1.22217583656 0.0698021322615777 0.0863594221051097 -2.916659550256485 1.3636243336760805 2.050046335517449 -0.5200274433105061 1.1400032090925691
1.22217583656 0.0698021322615777 0.0863594221051097 -2.916659550256485 1.3636243336760805 2.050046335517449 -0.5200274433105061 1.1400032090925691
1.23144698143 0.0698021322615777 0.0863594221051097 -2.916659550256485 1.3636243336760805 2.050046335517449 -0.5200274433105061 1.1400032090925691
1.23144698143 0.0698021322615777 0.0863594221051097 -2.916659550256485 1.3636243336760805 2.050046335517449 -0.5200274433105061 1.1400032090925691
1.24158382416 0.0698021322615777 0.0863594221051097 -2.916659550256485 1.3636243336760805 2.050046335517449 -0.5200274433105061 1.1400032090925691
1.24158382416 0.0698021322615777 0.0863594221051097 -2.916659550256485 1.3636243336760805 2.050046335517449 -0.5200274433105061 1.1400032090925691
1.25171995163 0.0698021322615777 0.0863594221051097 -2.916659550256485 1.3636243336760805 2.050046335517449 -0.5200274433105061 1.1400032090925691
1.25171995163 0.0698021322615777 0.0863594221051097 -2.916659550256485 1.3636243336760805 2.050046335517449 -0.5200274433105061 1.1400032090925691
1.2616918087 0.0698021322615777 0.0863594221051097 -2.916659550256485 1.3636243336760805 2.050046335517449 -0.5200274433105061 1.1400032090925691
1.2616918087 0.0698021322615777 0.0863594221051097 -2.916659550256485 1.3636243336760805 2.050046335517449 -0.5200274433105061 1.1400032090925691
1.27178287506 0.069832812284281 0.0863594221051097 -2.887881688960868 1.3636243336760805 2.050046335517449 -0.5200274433105061 1.1400032090925691
1.27178287506 0.069832812284281 0.0863594221051097 -2.887881688960868 1.3636243336760805 2.050046335517449 -0.5200274433105061 1.1400032090925691
1.28170084953 0.069832812284281 0.0863594221051097 -2.887881688960868 1.3636243336760805 2.050046335517449 -0.5200274433105061 1.1400032090925691
1.28170084953 0.069832812284281 0.0863594221051097 -2.887881688960868 1.3636243336760805 2.050046335517449 -0.5200274433105061 1.1400032090925691
1.29173779488 0.0698788323183358 0.0863594221051097 -2.87378421852874 1.3636243336760805 2.050046335517449 -0.5200137469318284 1.1399895127138917
1.29173779488 0.0698788323183358 0.0863594221051097 -2.87378421852874 1.3636243336760805 2.050046335517449 -0.5200137469318284 1.1399895127138917
1.30162000656 0.0699401923637423 0.0863594221051097 -2.859441307914986 1.3636243336760805 2.050046335517449 -0.5200274433105061 1.1400032090925691
1.30162000656 0.0699401923637423 0.0863594221051097 -2.859441307914986 1.3636243336760805 2.050046335517449 -0.5200274433105061 1.1400032090925691
1.31165385246 0.0699401923637423 0.0863594221051097 -2.859441307914986 1.3636243336760805 2.050046335517449 -0.5200274433105061 1.1400032090925691
1.31165385246 0.0699401923637423 0.0863594221051097 -2.859441307914986 1.3636243336760805 2.050046335517449 -0.5200274433105061 1.1400032090925691
1.32175779343 0.0699401923637423 0.0863594221051097 -2.859441307914986 1.3636243336760805 2.050046335517449 -0.5200274433105061 1.1400032090925691
1.32175779343 0.0699401923637423 0.0863594221051097 -2.859441307914986 1.3636243336760805 2.050046335517449 -0.5200274433105061 1.1400032090925691
1.33167886734 0.0699401923637423 0.0863594221051097 -2.859441307914986 1.3636243336760805 2.050046335517449 -0.5200274433105061 1.1400032090925691
1.33167886734 0.0699401923637423 0.0863594221051097 -2.859441307914986 1.3636243336760805 2.050046335517449 -0.5200274433105061 1.1400032090925691
1.34167981148 0.0699401923637423 0.0863594221051097 -2.859441307914986 1.3636243336760805 2.050046335517449 -0.5200274433105061 1.1400032090925691
1.34167981148 0.0699401923637423 0.0863594221051097 -2.859441307914986 1.3636243336760805 2.050046335517449 -0.5200274433105061 1.1400032090925691
1.35181498528 0.0702163125680712 0.0863594221051097 -2.844730237028793 1.3636243336760805 2.050046335517449 -0.5200274433105061 1.1400032090925691
1.35181498528 0.0702163125680712 0.0863594221051097 -2.844730237028793 1.3636243336760805 2.050046335517449 -0.5200274433105061 1.1400032090925691
1.36170887947 0.0702163125680712 0.0863594221051097 -2.844730237028793 1.3636243336760805 2.050046335517449 -0.5200274433105061 1.1400032090925691
1.36170887947 0.0702163125680712 0.0863594221051097 -2.844730237028793 1.3636243336760805 2.050046335517449 -0.5200274433105061 1.1400032090925691
1.37181901932 0.0702163125680712 0.0863594221051097 -2.844730237028793 1.3636243336760805 2.050046335517449 -0.5200274433105061 1.1400032090925691
1.37181901932 0.0702163125680712 0.0863594221051097 -2.844730237028793 1.3636243336760805 2.050046335517449 -0.5200274433105061 1.1400032090925691
1.3816587925 0.0705537928178065 0.0863594221051097 -2.830003826131249 1.3636243336760805 2.050046335517449 -0.5200274433105061 1.1400032090925691
1.3816587925 0.0705537928178065 0.0863594221051097 -2.830003826131249 1.3636243336760805 2.050046335517449 -0.5200274433105061 1.1400032090925691
1.39226794243 0.0709986531470032 0.0863594221051097 -2.8152313951996506 1.3636243336760805 2.050046335517449 -0.5200274433105061 1.1400032090925691
1.39226794243 0.0709986531470032 0.0863594221051097 -2.8152313951996506 1.3636243336760805 2.050046335517449 -0.5200274433105061 1.1400032090925691
1.40154480934 0.0709986531470032 0.0863594221051097 -2.8152313951996506 1.3636243336760805 2.050046335517449 -0.5200274433105061 1.1400032090925691
1.40154480934 0.0709986531470032 0.0863594221051097 -2.8152313951996506 1.3636243336760805 2.050046335517449 -0.5200274433105061 1.1400032090925691
1.41169095039 0.0715355535443095 0.0863594221051097 -2.800412944233997 1.3636243336760805 2.050046335517449 -0.5200137469318284 1.1399895127138917
1.41169095039 0.0715355535443095 0.0863594221051097 -2.800412944233997 1.3636243336760805 2.050046335517449 -0.5200137469318284 1.1399895127138917
1.42167901993 0.0715355535443095 0.0863594221051097 -2.800412944233997 1.3636243336760805 2.050046335517449 -0.5200137469318284 1.1399895127138917
1.42167901993 0.0715355535443095 0.0863594221051097 -2.800412944233997 1.3636243336760805 2.050046335517449 -0.5200137469318284 1.1399895127138917
1.43177080154 0.0715355535443095 0.0863594221051097 -2.800412944233997 1.3636243336760805 2.050046335517449 -0.5200137469318284 1.1399895127138917
1.43177080154 0.0715355535443095 0.0863594221051097 -2.800412944233997 1.3636243336760805 2.050046335517449 -0.5200137469318284 1.1399895127138917
1.44157981873 0.0715355535443095 0.0863594221051097 -2.800412944233997 1.3636243336760805 2.050046335517449 -0.5200137469318284 1.1399895127138917
1.44157981873 0.0715355535443095 0.0863594221051097 -2.800412944233997 1.3636243336760805 2.050046335517449 -0.5200137469318284 1.1399895127138917
1.45177578926 0.0715355535443095 0.0863594221051097 -2.800412944233997 1.3636243336760805 2.050046335517449 -0.5200137469318284 1.1399895127138917
1.45177578926 0.0715355535443095 0.0863594221051097 -2.800412944233997 1.3636243336760805 2.050046335517449 -0.5200137469318284 1.1399895127138917
1.46155500412 0.0715355535443095 0.0863594221051097 -2.800412944233997 1.3636243336760805 2.050046335517449 -0.5200137469318284 1.1399895127138917
1.46155500412 0.0715355535443095 0.0863594221051097 -2.800412944233997 1.3636243336760805 2.050046335517449 -0.5200137469318284 1.1399895127138917
1.47177791595 0.0715355535443095 0.0863594221051097 -2.800412944233997 1.3636243336760805 2.050046335517449 -0.5200137469318284 1.1399895127138917
1.47177791595 0.0715355535443095 0.0863594221051097 -2.800412944233997 1.3636243336760805 2.050046335517449 -0.5200137469318284 1.1399895127138917
1.48169183731 0.0715355535443095 0.0863594221051097 -2.800412944233997 1.3636243336760805 2.050046335517449 -0.5200137469318284 1.1399895127138917
1.48169183731 0.0715355535443095 0.0863594221051097 -2.800412944233997 1.3636243336760805 2.050046335517449 -0.5200137469318284 1.1399895127138917
1.49159097672 0.072149153998374 0.0863594221051097 -2.785548473234288 1.3636243336760805 2.050046335517449 -0.5200274433105061 1.1400032090925691
1.49159097672 0.072149153998374 0.0863594221051097 -2.785548473234288 1.3636243336760805 2.050046335517449 -0.5200274433105061 1.1400032090925691
1.50155186653 0.0733763549065027 0.0863594221051097 -2.7555587510418937 1.3636243336760805 2.050046335517449 -0.5200274433105061 1.1400032090925691
1.50155186653 0.0733763549065027 0.0863594221051097 -2.7555587510418937 1.3636243336760805 2.050046335517449 -0.5200274433105061 1.1400032090925691
1.51171779633 0.0744348156897635 0.0863594221051097 -2.7249861084181384 1.3636243336760805 2.050046335517449 -0.5200228778509468 1.13999864363301
1.51171779633 0.0744348156897635 0.0863594221051097 -2.7249861084181384 1.3636243336760805 2.050046335517449 -0.5200228778509468 1.13999864363301
1.52152395248 0.0750330761324764 0.0863594221051097 -2.709492696953013 1.3636243336760805 2.050046335517449 -0.5200274433105061 1.1400032090925691
1.52152395248 0.0750330761324764 0.0863594221051097 -2.709492696953013 1.3636243336760805 2.050046335517449 -0.5200274433105061 1.1400032090925691
1.53161597252 0.0757080366319471 0.0863594221051097 -2.6945361858851955 1.3636243336760805 2.050046335517449 -0.5200274433105061 1.1400032090925691
1.53161597252 0.0757080366319471 0.0863594221051097 -2.6945361858851955 1.3636243336760805 2.050046335517449 -0.5200274433105061 1.1400032090925691
1.5415430069 0.0757080366319471 0.0863594221051097 -2.6945361858851955 1.3636243336760805 2.050046335517449 -0.5200274433105061 1.1400032090925691
1.5415430069 0.0757080366319471 0.0863594221051097 -2.6945361858851955 1.3636243336760805 2.050046335517449 -0.5200274433105061 1.1400032090925691
1.55169391632 0.0763369770973629 0.0863594221051097 -2.6795336547833224 1.3636243336760805 2.050046335517449 -0.5200274433105061 1.1400032090925691
1.55169391632 0.0763369770973629 0.0863594221051097 -2.6795336547833224 1.3636243336760805 2.050046335517449 -0.5200274433105061 1.1400032090925691
1.56162691116 0.0763369770973629 0.0863594221051097 -2.6795336547833224 1.3636243336760805 2.050046335517449 -0.5200274433105061 1.1400032090925691
1.56162691116 0.0763369770973629 0.0863594221051097 -2.6795336547833224 1.3636243336760805 2.050046335517449 -0.5200274433105061 1.1400032090925691
1.57172679901 0.0763369770973629 0.0863594221051097 -2.6795336547833224 1.3636243336760805 2.050046335517449 -0.5200274433105061 1.1400032090925691
1.57172679901 0.0763369770973629 0.0863594221051097 -2.6795336547833224 1.3636243336760805 2.050046335517449 -0.5200274433105061 1.1400032090925691
1.58163285255 0.0763369770973629 0.0863594221051097 -2.6795336547833224 1.3636243336760805 2.050046335517449 -0.5200274433105061 1.1400032090925691
1.58163285255 0.0763369770973629 0.0863594221051097 -2.6795336547833224 1.3636243336760805 2.050046335517449 -0.5200274433105061 1.1400032090925691
1.5915749073 0.0778096181871174 0.0863594221051097 -2.649160432307138 1.3636243336760805 2.050046335517449 -0.5200274433105061 1.1400032090925691
1.5915749073 0.0778096181871174 0.0863594221051097 -2.649160432307138 1.3636243336760805 2.050046335517449 -0.5200274433105061 1.1400032090925691
1.60159301758 0.0784538986638849 0.0863594221051097 -2.633452260683091 1.3636243336760805 2.050046335517449 -0.5200274433105061 1.1400032090925691
1.60159301758 0.0784538986638849 0.0863594221051097 -2.633452260683091 1.3636243336760805 2.050046335517449 -0.5200274433105061 1.1400032090925691
1.61144900322 0.0784538986638849 0.0863594221051097 -2.633452260683091 1.3636243336760805 2.050046335517449 -0.5200274433105061 1.1400032090925691
1.61144900322 0.0784538986638849 0.0863594221051097 -2.633452260683091 1.3636243336760805 2.050046335517449 -0.5200274433105061 1.1400032090925691
1.62148690224 0.0784538986638849 0.0863594221051097 -2.633452260683091 1.3636243336760805 2.050046335517449 -0.5200274433105061 1.1400032090925691
1.62148690224 0.0784538986638849 0.0863594221051097 -2.633452260683091 1.3636243336760805 2.050046335517449 -0.5200274433105061 1.1400032090925691
1.63162779808 0.0790368190952461 0.0863594221051097 -2.6187872098309533 1.3636243336760805 2.050046335517449 -0.5200274433105061 1.1400032090925691
1.63162779808 0.0790368190952461 0.0863594221051097 -2.6187872098309533 1.3636243336760805 2.050046335517449 -0.5200274433105061 1.1400032090925691
1.64153289795 0.0790368190952461 0.0863594221051097 -2.6187872098309533 1.3636243336760805 2.050046335517449 -0.5200274433105061 1.1400032090925691
1.64153289795 0.0790368190952461 0.0863594221051097 -2.6187872098309533 1.3636243336760805 2.050046335517449 -0.5200274433105061 1.1400032090925691
1.65164089203 0.0790368190952461 0.0863594221051097 -2.6187872098309533 1.3636243336760805 2.050046335517449 -0.5200274433105061 1.1400032090925691
1.65164089203 0.0790368190952461 0.0863594221051097 -2.6187872098309533 1.3636243336760805 2.050046335517449 -0.5200274433105061 1.1400032090925691
1.66151285172 0.0790368190952461 0.0863594221051097 -2.6187872098309533 1.3636243336760805 2.050046335517449 -0.5200274433105061 1.1400032090925691
1.66151285172 0.0790368190952461 0.0863594221051097 -2.6187872098309533 1.3636243336760805 2.050046335517449 -0.5200274433105061 1.1400032090925691
1.6718249321 0.0790368190952461 0.0863594221051097 -2.6187872098309533 1.3636243336760805 2.050046335517449 -0.5200274433105061 1.1400032090925691
1.6718249321 0.0790368190952461 0.0863594221051097 -2.6187872098309533 1.3636243336760805 2.050046335517449 -0.5200274433105061 1.1400032090925691
1.68159580231 0.0790368190952461 0.0863594221051097 -2.6187872098309533 1.3636243336760805 2.050046335517449 -0.5200274433105061 1.1400032090925691
1.68159580231 0.0790368190952461 0.0863594221051097 -2.6187872098309533 1.3636243336760805 2.050046335517449 -0.5200274433105061 1.1400032090925691
1.69159889221 0.0801566399239134 0.0863594221051097 -2.5879077669801656 1.3636243336760805 2.050046335517449 -0.5200137469318284 1.1399895127138917
1.69159889221 0.0801566399239134 0.0863594221051097 -2.5879077669801656 1.3636243336760805 2.050046335517449 -0.5200137469318284 1.1399895127138917
1.70168995857 0.0801566399239134 0.0863594221051097 -2.5879077669801656 1.3636243336760805 2.050046335517449 -0.5200137469318284 1.1399895127138917
1.70168995857 0.0801566399239134 0.0863594221051097 -2.5879077669801656 1.3636243336760805 2.050046335517449 -0.5200137469318284 1.1399895127138917
1.71156692505 0.0806782003098682 0.0863594221051097 -2.57230697543558 1.3636243336760805 2.050046335517449 -0.5200274433105061 1.1400032090925691
1.71156692505 0.0806782003098682 0.0863594221051097 -2.57230697543558 1.3636243336760805 2.050046335517449 -0.5200274433105061 1.1400032090925691
1.72165489197 0.0810463605823068 0.0863594221051097 -2.556982304095323 1.3636243336760805 2.050046335517449 -0.5200274433105061 1.1400032090925691
1.72165489197 0.0810463605823068 0.0863594221051097 -2.556982304095323 1.3636243336760805 2.050046335517449 -0.5200274433105061 1.1400032090925691
1.73173499107 0.0810463605823068 0.0863594221051097 -2.556982304095323 1.3636243336760805 2.050046335517449 -0.5200274433105061 1.1400032090925691
1.73173499107 0.0810463605823068 0.0863594221051097 -2.556982304095323 1.3636243336760805 2.050046335517449 -0.5200274433105061 1.1400032090925691
1.74169683456 0.0810463605823068 0.0863594221051097 -2.556982304095323 1.3636243336760805 2.050046335517449 -0.5200274433105061 1.1400032090925691
1.74169683456 0.0810463605823068 0.0863594221051097 -2.556982304095323 1.3636243336760805 2.050046335517449 -0.5200274433105061 1.1400032090925691
1.75179791451 0.0810463605823068 0.0863594221051097 -2.556982304095323 1.3636243336760805 2.050046335517449 -0.5200274433105061 1.1400032090925691
1.75179791451 0.0810463605823068 0.0863594221051097 -2.556982304095323 1.3636243336760805 2.050046335517449 -0.5200274433105061 1.1400032090925691
1.76169800758 0.0810463605823068 0.0863594221051097 -2.556982304095323 1.3636243336760805 2.050046335517449 -0.5200274433105061 1.1400032090925691
1.76169800758 0.0810463605823068 0.0863594221051097 -2.556982304095323 1.3636243336760805 2.050046335517449 -0.5200274433105061 1.1400032090925691
1.77169895172 0.0810463605823068 0.0863594221051097 -2.556982304095323 1.3636243336760805 2.050046335517449 -0.5200274433105061 1.1400032090925691
1.77169895172 0.0810463605823068 0.0863594221051097 -2.556982304095323 1.3636243336760805 2.050046335517449 -0.5200274433105061 1.1400032090925691
1.78165578842 0.0810463605823068 0.0863594221051097 -2.556982304095323 1.3636243336760805 2.050046335517449 -0.5200274433105061 1.1400032090925691
1.78165578842 0.0810463605823068 0.0863594221051097 -2.556982304095323 1.3636243336760805 2.050046335517449 -0.5200274433105061 1.1400032090925691
1.79171395302 0.0810463605823068 0.0863594221051097 -2.556982304095323 1.3636243336760805 2.050046335517449 -0.5200274433105061 1.1400032090925691
1.79171395302 0.0810463605823068 0.0863594221051097 -2.556982304095323 1.3636243336760805 2.050046335517449 -0.5200274433105061 1.1400032090925691
1.80181097984 0.0815525809569099 0.0863594221051097 -2.4932292169180386 1.3636243336760805 2.050046335517449 -0.5200274433105061 1.1400032090925691
1.80181097984 0.0815525809569099 0.0863594221051097 -2.4932292169180386 1.3636243336760805 2.050046335517449 -0.5200274433105061 1.1400032090925691
1.81134700775 0.0815679209682615 0.0863594221051097 -2.476861424805872 1.3636243336760805 2.050046335517449 -0.5200274433105061 1.1400032090925691
1.81134700775 0.0815679209682615 0.0863594221051097 -2.476861424805872 1.3636243336760805 2.050046335517449 -0.5200274433105061 1.1400032090925691
1.8216278553 0.0815679209682615 0.0863594221051097 -2.476861424805872 1.3636243336760805 2.050046335517449 -0.5200274433105061 1.1400032090925691
1.8216278553 0.0815679209682615 0.0863594221051097 -2.476861424805872 1.3636243336760805 2.050046335517449 -0.5200274433105061 1.1400032090925691
1.83175587654 0.0815679209682615 0.0863594221051097 -2.476861424805872 1.3636243336760805 2.050046335517449 -0.5200274433105061 1.1400032090925691
1.83175587654 0.0815679209682615 0.0863594221051097 -2.476861424805872 1.3636243336760805 2.050046335517449 -0.5200274433105061 1.1400032090925691
1.84169888496 0.0815679209682615 0.0863594221051097 -2.476861424805872 1.3636243336760805 2.050046335517449 -0.5200274433105061 1.1400032090925691
1.84169888496 0.0815679209682615 0.0863594221051097 -2.476861424805872 1.3636243336760805 2.050046335517449 -0.5200274433105061 1.1400032090925691
1.85173892975 0.0815679209682615 0.0863594221051097 -2.476861424805872 1.3636243336760805 2.050046335517449 -0.5200274433105061 1.1400032090925691
1.85173892975 0.0815679209682615 0.0863594221051097 -2.476861424805872 1.3636243336760805 2.050046335517449 -0.5200274433105061 1.1400032090925691
1.86169600487 0.0815679209682615 0.0863594221051097 -2.476861424805872 1.3636243336760805 2.050046335517449 -0.5200274433105061 1.1400032090925691
1.86169600487 0.0815679209682615 0.0863594221051097 -2.476861424805872 1.3636243336760805 2.050046335517449 -0.5200274433105061 1.1400032090925691
1.87174487114 0.0815679209682615 0.0863594221051097 -2.476861424805872 1.3636243336760805 2.050046335517449 -0.5200274433105061 1.1400032090925691
1.87174487114 0.0815679209682615 0.0863594221051097 -2.476861424805872 1.3636243336760805 2.050046335517449 -0.5200274433105061 1.1400032090925691
1.88158297539 0.0815679209682615 0.0863594221051097 -2.476861424805872 1.3636243336760805 2.050046335517449 -0.5200274433105061 1.1400032090925691
1.88158297539 0.0815679209682615 0.0863594221051097 -2.476861424805872 1.3636243336760805 2.050046335517449 -0.5200274433105061 1.1400032090925691
1.89177393913 0.0815679209682615 0.0863594221051097 -2.476861424805872 1.3636243336760805 2.050046335517449 -0.5200274433105061 1.1400032090925691
1.89177393913 0.0815679209682615 0.0863594221051097 -2.476861424805872 1.3636243336760805 2.050046335517449 -0.5200274433105061 1.1400032090925691
1.90157985687 0.0815679209682615 0.0863594221051097 -2.476861424805872 1.3636243336760805 2.050046335517449 -0.5200274433105061 1.1400032090925691
1.90157985687 0.0815679209682615 0.0863594221051097 -2.476861424805872 1.3636243336760805 2.050046335517449 -0.5200274433105061 1.1400032090925691
1.91183996201 0.0815679209682615 0.0863594221051097 -2.476861424805872 1.3636243336760805 2.050046335517449 -0.5200274433105061 1.1400032090925691
1.91183996201 0.0815679209682615 0.0863594221051097 -2.476861424805872 1.3636243336760805 2.050046335517449 -0.5200274433105061 1.1400032090925691
1.92164897919 0.0815679209682615 0.0863594221051097 -2.476861424805872 1.3636243336760805 2.050046335517449 -0.5200274433105061 1.1400032090925691
1.92164897919 0.0815679209682615 0.0863594221051097 -2.476861424805872 1.3636243336760805 2.050046335517449 -0.5200274433105061 1.1400032090925691
1.93172001839 0.0815679209682615 0.0863594221051097 -2.476861424805872 1.3636243336760805 2.050046335517449 -0.5200274433105061 1.1400032090925691
1.93172001839 0.0815679209682615 0.0863594221051097 -2.476861424805872 1.3636243336760805 2.050046335517449 -0.5200274433105061 1.1400032090925691
1.94168686867 0.0815679209682615 0.0863594221051097 -2.476861424805872 1.3636243336760805 2.050046335517449 -0.5200274433105061 1.1400032090925691
1.94168686867 0.0815679209682615 0.0863594221051097 -2.476861424805872 1.3636243336760805 2.050046335517449 -0.5200274433105061 1.1400032090925691
1.95155692101 0.0815679209682615 0.0863594221051097 -2.476861424805872 1.3636243336760805 2.050046335517449 -0.5200274433105061 1.1400032090925691
1.95155692101 0.0815679209682615 0.0863594221051097 -2.476861424805872 1.3636243336760805 2.050046335517449 -0.5200274433105061 1.1400032090925691
1.96165299416 0.0815679209682615 0.0863594221051097 -2.476861424805872 1.3636243336760805 2.050046335517449 -0.5200274433105061 1.1400032090925691
1.96165299416 0.0815679209682615 0.0863594221051097 -2.476861424805872 1.3636243336760805 2.050046335517449 -0.5200274433105061 1.1400032090925691
1.97176980972 0.0815679209682615 0.0863594221051097 -2.476861424805872 1.3636243336760805 2.050046335517449 -0.5200274433105061 1.1400032090925691
1.97176980972 0.0815679209682615 0.0863594221051097 -2.476861424805872 1.3636243336760805 2.050046335517449 -0.5200274433105061 1.1400032090925691
1.98156094551 0.0815679209682615 0.0863594221051097 -2.476861424805872 1.3636243336760805 2.050046335517449 -0.5200274433105061 1.1400032090925691
1.98156094551 0.0815679209682615 0.0863594221051097 -2.476861424805872 1.3636243336760805 2.050046335517449 -0.5200274433105061 1.1400032090925691
1.99160480499 0.0815679209682615 0.0863594221051097 -2.476861424805872 1.3636243336760805 2.050046335517449 -0.5200274433105061 1.1400032090925691
1.99160480499 0.0815679209682615 0.0863594221051097 -2.476861424805872 1.3636243336760805 2.050046335517449 -0.5200274433105061 1.1400032090925691
2.00165987015 0.0815679209682615 0.0863594221051097 -2.476861424805872 1.3636243336760805 2.050046335517449 -0.5200274433105061 1.1400032090925691
2.00165987015 0.0815679209682615 0.0863594221051097 -2.476861424805872 1.3636243336760805 2.050046335517449 -0.5200274433105061 1.1400032090925691
2.01168084145 0.0815679209682615 0.0863594221051097 -2.476861424805872 1.3636243336760805 2.050046335517449 -0.5200274433105061 1.1400032090925691
2.01168084145 0.0815679209682615 0.0863594221051097 -2.476861424805872 1.3636243336760805 2.050046335517449 -0.5200274433105061 1.1400032090925691
2.02171087265 0.0815679209682615 0.0863594221051097 -2.476861424805872 1.3636243336760805 2.050046335517449 -0.5200274433105061 1.1400032090925691
2.02171087265 0.0815679209682615 0.0863594221051097 -2.476861424805872 1.3636243336760805 2.050046335517449 -0.5200274433105061 1.1400032090925691
2.03144478798 0.0815679209682615 0.0863440820937581 -2.4101170354150243 1.3636243336760805 2.050046335517449 -0.5200274433105061 1.1400032090925691
2.03144478798 0.0815679209682615 0.0863440820937581 -2.4101170354150243 1.3636243336760805 2.050046335517449 -0.5200274433105061 1.1400032090925691
2.04163694382 0.0815679209682615 0.0863440820937581 -2.4101170354150243 1.3636243336760805 2.050046335517449 -0.5200274433105061 1.1400032090925691
2.04163694382 0.0815679209682615 0.0863440820937581 -2.4101170354150243 1.3636243336760805 2.050046335517449 -0.5200274433105061 1.1400032090925691
2.05169892311 0.0815679209682615 0.0863440820937581 -2.376583770600408 1.3636243336760805 2.050046335517449 -0.5200274433105061 1.1400032090925691
2.05169892311 0.0815679209682615 0.0863440820937581 -2.376583770600408 1.3636243336760805 2.050046335517449 -0.5200274433105061 1.1400032090925691
2.06170392036 0.0815679209682615 0.0863440820937581 -2.376583770600408 1.3636243336760805 2.050046335517449 -0.5200274433105061 1.1400032090925691
2.06170392036 0.0815679209682615 0.0863440820937581 -2.376583770600408 1.3636243336760805 2.050046335517449 -0.5200274433105061 1.1400032090925691
2.07177996635 0.0815679209682615 0.0863287420824065 -2.3431885658879565 1.3636243336760805 2.050046335517449 -0.5200183123913877 1.1399940781734508
2.07177996635 0.0815679209682615 0.0863287420824065 -2.3431885658879565 1.3636243336760805 2.050046335517449 -0.5200183123913877 1.1399940781734508
2.0817399025 0.0815679209682615 0.0863287420824065 -2.3431885658879565 1.3636243336760805 2.050046335517449 -0.5200183123913877 1.1399940781734508
2.0817399025 0.0815679209682615 0.0863287420824065 -2.3431885658879565 1.3636243336760805 2.050046335517449 -0.5200183123913877 1.1399940781734508
2.09179592133 0.0815679209682615 0.0863287420824065 -2.3431885658879565 1.3636243336760805 2.050046335517449 -0.5200183123913877 1.1399940781734508
2.09179592133 0.0815679209682615 0.0863287420824065 -2.3431885658879565 1.3636243336760805 2.050046335517449 -0.5200183123913877 1.1399940781734508
2.10159993172 0.0815679209682615 0.0863287420824065 -2.3431885658879565 1.3636243336760805 2.050046335517449 -0.5200183123913877 1.1399940781734508
2.10159993172 0.0815679209682615 0.0863287420824065 -2.3431885658879565 1.3636243336760805 2.050046335517449 -0.5200183123913877 1.1399940781734508
2.11181688309 0.0815679209682615 0.0863287420824065 -2.3431885658879565 1.3636243336760805 2.050046335517449 -0.5200183123913877 1.1399940781734508
2.11181688309 0.0815679209682615 0.0863287420824065 -2.3431885658879565 1.3636243336760805 2.050046335517449 -0.5200183123913877 1.1399940781734508
2.12160396576 0.0815679209682615 0.0863287420824065 -2.3431885658879565 1.3636243336760805 2.050046335517449 -0.5200183123913877 1.1399940781734508
2.12160396576 0.0815679209682615 0.0863287420824065 -2.3431885658879565 1.3636243336760805 2.050046335517449 -0.5200183123913877 1.1399940781734508
2.13179993629 0.0815679209682615 0.0863287420824065 -2.326084453230913 1.3636243336760805 2.050046335517449 -0.5200274433105061 1.1400032090925691
2.13179993629 0.0815679209682615 0.0863287420824065 -2.326084453230913 1.3636243336760805 2.050046335517449 -0.5200274433105061 1.1400032090925691
2.14178991318 0.0815679209682615 0.0863287420824065 -2.326084453230913 1.3636243336760805 2.050046335517449 -0.5200274433105061 1.1400032090925691
2.14178991318 0.0815679209682615 0.0863287420824065 -2.326084453230913 1.3636243336760805 2.050046335517449 -0.5200274433105061 1.1400032090925691
2.15179991722 0.0815679209682615 0.0863287420824065 -2.326084453230913 1.3636243336760805 2.050046335517449 -0.5200274433105061 1.1400032090925691
2.15179991722 0.0815679209682615 0.0863287420824065 -2.326084453230913 1.3636243336760805 2.050046335517449 -0.5200274433105061 1.1400032090925691
2.16181182861 0.0815679209682615 0.0863287420824065 -2.326084453230913 1.3636243336760805 2.050046335517449 -0.5200274433105061 1.1400032090925691
2.16181182861 0.0815679209682615 0.0863287420824065 -2.326084453230913 1.3636243336760805 2.050046335517449 -0.5200274433105061 1.1400032090925691
2.17183089256 0.0815679209682615 0.0863287420824065 -2.326084453230913 1.3636243336760805 2.050046335517449 -0.5200274433105061 1.1400032090925691
2.17183089256 0.0815679209682615 0.0863287420824065 -2.326084453230913 1.3636243336760805 2.050046335517449 -0.5200274433105061 1.1400032090925691
2.1817548275 0.0815679209682615 0.0863287420824065 -2.326084453230913 1.3636243336760805 2.050046335517449 -0.5200274433105061 1.1400032090925691
2.1817548275 0.0815679209682615 0.0863287420824065 -2.326084453230913 1.3636243336760805 2.050046335517449 -0.5200274433105061 1.1400032090925691
2.19172596931 0.0815679209682615 0.0863287420824065 -2.326084453230913 1.3636243336760805 2.050046335517449 -0.5200274433105061 1.1400032090925691
2.19172596931 0.0815679209682615 0.0863287420824065 -2.326084453230913 1.3636243336760805 2.050046335517449 -0.5200274433105061 1.1400032090925691
2.20159292221 0.0815679209682615 0.0863287420824065 -2.326084453230913 1.3636243336760805 2.050046335517449 -0.5200274433105061 1.1400032090925691
2.20159292221 0.0815679209682615 0.0863287420824065 -2.326084453230913 1.3636243336760805 2.050046335517449 -0.5200274433105061 1.1400032090925691
2.21156287193 0.0815679209682615 0.0863287420824065 -2.326084453230913 1.3636243336760805 2.050046335517449 -0.5200274433105061 1.1400032090925691
2.21156287193 0.0815679209682615 0.0863287420824065 -2.326084453230913 1.3636243336760805 2.050046335517449 -0.5200274433105061 1.1400032090925691
2.22174191475 0.0815679209682615 0.0863287420824065 -2.326084453230913 1.3636243336760805 2.050046335517449 -0.5200274433105061 1.1400032090925691
2.22174191475 0.0815679209682615 0.0863287420824065 -2.326084453230913 1.3636243336760805 2.050046335517449 -0.5200274433105061 1.1400032090925691
2.23187088966 0.0815679209682615 0.0863287420824065 -2.326084453230913 1.3636243336760805 2.050046335517449 -0.5200274433105061 1.1400032090925691
2.23187088966 0.0815679209682615 0.0863287420824065 -2.326084453230913 1.3636243336760805 2.050046335517449 -0.5200274433105061 1.1400032090925691
2.24289178848 0.0815679209682615 0.0863287420824065 -2.326084453230913 1.3636243336760805 2.050046335517449 -0.5200274433105061 1.1400032090925691
2.24289178848 0.0815679209682615 0.0863287420824065 -2.326084453230913 1.3636243336760805 2.050046335517449 -0.5200274433105061 1.1400032090925691
2.25148797035 0.0815679209682615 0.0858685417418583 -2.259462783930878 1.3636243336760805 2.050046335517449 -0.5200228778509468 1.13999864363301
2.25148797035 0.0815679209682615 0.0858685417418583 -2.259462783930878 1.3636243336760805 2.050046335517449 -0.5200228778509468 1.13999864363301
2.2616508007 0.0815679209682615 0.0858685417418583 -2.259462783930878 1.3636243336760805 2.050046335517449 -0.5200228778509468 1.13999864363301
2.2616508007 0.0815679209682615 0.0858685417418583 -2.259462783930878 1.3636243336760805 2.050046335517449 -0.5200228778509468 1.13999864363301
2.27181386948 0.0815679209682615 0.0858685417418583 -2.259462783930878 1.3636243336760805 2.050046335517449 -0.5200228778509468 1.13999864363301
2.27181386948 0.0815679209682615 0.0858685417418583 -2.259462783930878 1.3636243336760805 2.050046335517449 -0.5200228778509468 1.13999864363301
2.28171992302 0.0815679209682615 0.0858685417418583 -2.259462783930878 1.3636243336760805 2.050046335517449 -0.5200228778509468 1.13999864363301
2.28171992302 0.0815679209682615 0.0858685417418583 -2.259462783930878 1.3636243336760805 2.050046335517449 -0.5200228778509468 1.13999864363301
2.29166293144 0.0815679209682615 0.0858685417418583 -2.259462783930878 1.3636243336760805 2.050046335517449 -0.5200228778509468 1.13999864363301
2.29166293144 0.0815679209682615 0.0858685417418583 -2.259462783930878 1.3636243336760805 2.050046335517449 -0.5200228778509468 1.13999864363301
2.30170583725 0.0815679209682615 0.0858685417418583 -2.259462783930878 1.3636243336760805 2.050046335517449 -0.5200228778509468 1.13999864363301
2.30170583725 0.0815679209682615 0.0858685417418583 -2.259462783930878 1.3636243336760805 2.050046335517449 -0.5200228778509468 1.13999864363301
2.31177186966 0.0815679209682615 0.0858685417418583 -2.259462783930878 1.3636243336760805 2.050046335517449 -0.5200228778509468 1.13999864363301
2.31177186966 0.0815679209682615 0.0858685417418583 -2.259462783930878 1.3636243336760805 2.050046335517449 -0.5200228778509468 1.13999864363301
2.32154488564 0.081429860866097 0.085837861719155 -2.129839688009787 1.3636243336760805 2.050046335517449 -0.5200274433105061 1.1400032090925691
2.32154488564 0.081429860866097 0.085837861719155 -2.129839688009787 1.3636243336760805 2.050046335517449 -0.5200274433105061 1.1400032090925691
2.33146882057 0.081429860866097 0.085837861719155 -2.129839688009787 1.3636243336760805 2.050046335517449 -0.5200274433105061 1.1400032090925691
2.33146882057 0.081429860866097 0.085837861719155 -2.129839688009787 1.3636243336760805 2.050046335517449 -0.5200274433105061 1.1400032090925691
2.34160900116 0.081429860866097 0.085837861719155 -2.129839688009787 1.3636243336760805 2.050046335517449 -0.5200274433105061 1.1400032090925691
2.34160900116 0.081429860866097 0.085837861719155 -2.129839688009787 1.3636243336760805 2.050046335517449 -0.5200274433105061 1.1400032090925691
2.35179901123 0.081429860866097 0.085837861719155 -2.129839688009787 1.3636243336760805 2.050046335517449 -0.5200274433105061 1.1400032090925691
2.35179901123 0.081429860866097 0.085837861719155 -2.129839688009787 1.3636243336760805 2.050046335517449 -0.5200274433105061 1.1400032090925691
2.36174798012 0.081429860866097 0.085837861719155 -2.129839688009787 1.3636243336760805 2.050046335517449 -0.5200274433105061 1.1400032090925691
2.36174798012 0.081429860866097 0.085837861719155 -2.129839688009787 1.3636243336760805 2.050046335517449 -0.5200274433105061 1.1400032090925691
2.3716468811 0.081429860866097 0.085837861719155 -2.114959876998727 1.3636243336760805 2.050046335517449 -0.5200183123913877 1.1399940781734508
2.3716468811 0.081429860866097 0.085837861719155 -2.114959876998727 1.3636243336760805 2.050046335517449 -0.5200183123913877 1.1399940781734508
2.38171887398 0.081429860866097 0.085837861719155 -2.114959876998727 1.3636243336760805 2.050046335517449 -0.5200183123913877 1.1399940781734508
2.38171887398 0.081429860866097 0.085837861719155 -2.114959876998727 1.3636243336760805 2.050046335517449 -0.5200183123913877 1.1399940781734508
2.39178180695 0.081429860866097 0.085837861719155 -2.114959876998727 1.3636243336760805 2.050046335517449 -0.5200183123913877 1.1399940781734508
2.39178180695 0.081429860866097 0.085837861719155 -2.114959876998727 1.3636243336760805 2.050046335517449 -0.5200183123913877 1.1399940781734508
2.40136885643 0.081429860866097 0.0858071816964518 -2.015848063655985 1.3636243336760805 2.050046335517449 -0.5200274433105061 1.1400032090925691
2.40136885643 0.081429860866097 0.0858071816964518 -2.015848063655985 1.3636243336760805 2.050046335517449 -0.5200274433105061 1.1400032090925691
2.41136693954 0.081429860866097 0.0858071816964518 -2.015848063655985 1.3636243336760805 2.050046335517449 -0.5200274433105061 1.1400032090925691
2.41136693954 0.081429860866097 0.0858071816964518 -2.015848063655985 1.3636243336760805 2.050046335517449 -0.5200274433105061 1.1400032090925691
2.42129302025 0.081429860866097 0.0858071816964518 -2.015848063655985 1.3636243336760805 2.050046335517449 -0.5200274433105061 1.1400032090925691
2.42129302025 0.081429860866097 0.0858071816964518 -2.015848063655985 1.3636243336760805 2.050046335517449 -0.5200274433105061 1.1400032090925691
2.43136692047 0.081429860866097 0.0858071816964518 -2.015848063655985 1.3636243336760805 2.050046335517449 -0.5200274433105061 1.1400032090925691
2.43136692047 0.081429860866097 0.0858071816964518 -2.015848063655985 1.3636243336760805 2.050046335517449 -0.5200274433105061 1.1400032090925691
2.4413318634 0.081429860866097 0.0858071816964518 -2.015848063655985 1.3636243336760805 2.050046335517449 -0.5200274433105061 1.1400032090925691
2.4413318634 0.081429860866097 0.0858071816964518 -2.015848063655985 1.3636243336760805 2.050046335517449 -0.5200274433105061 1.1400032090925691
2.45162892342 0.081429860866097 0.0858071816964518 -2.015848063655985 1.3636243336760805 2.050046335517449 -0.5200274433105061 1.1400032090925691
2.45162892342 0.081429860866097 0.0858071816964518 -2.015848063655985 1.3636243336760805 2.050046335517449 -0.5200274433105061 1.1400032090925691
2.46167182922 0.081429860866097 0.0858071816964518 -2.015848063655985 1.3636243336760805 2.050046335517449 -0.5200274433105061 1.1400032090925691
2.46167182922 0.081429860866097 0.0858071816964518 -2.015848063655985 1.3636243336760805 2.050046335517449 -0.5200274433105061 1.1400032090925691
2.47184491158 0.081429860866097 0.0858071816964518 -2.015848063655985 1.3636243336760805 2.050046335517449 -0.5200274433105061 1.1400032090925691
2.47184491158 0.081429860866097 0.0858071816964518 -2.015848063655985 1.3636243336760805 2.050046335517449 -0.5200274433105061 1.1400032090925691
2.4816968441 0.081429860866097 0.0858071816964518 -2.015848063655985 1.3636243336760805 2.050046335517449 -0.5200274433105061 1.1400032090925691
2.4816968441 0.081429860866097 0.0858071816964518 -2.015848063655985 1.3636243336760805 2.050046335517449 -0.5200274433105061 1.1400032090925691
2.49178981781 0.081429860866097 0.0858071816964518 -2.015848063655985 1.3636243336760805 2.050046335517449 -0.5200274433105061 1.1400032090925691
2.49178981781 0.081429860866097 0.0858071816964518 -2.015848063655985 1.3636243336760805 2.050046335517449 -0.5200274433105061 1.1400032090925691
2.50179386139 0.081429860866097 0.0858071816964518 -2.015848063655985 1.3636243336760805 2.050046335517449 -0.5200274433105061 1.1400032090925691
2.50179386139 0.081429860866097 0.0858071816964518 -2.015848063655985 1.3636243336760805 2.050046335517449 -0.5200274433105061 1.1400032090925691
2.51163482666 0.081429860866097 0.0858071816964518 -1.967143527614628 1.3636243336760805 2.050046335517449 -0.5200274433105061 1.1400032090925691
2.51163482666 0.081429860866097 0.0858071816964518 -1.967143527614628 1.3636243336760805 2.050046335517449 -0.5200274433105061 1.1400032090925691
2.5216729641 0.081429860866097 0.0858071816964518 -1.967143527614628 1.3636243336760805 2.050046335517449 -0.5200274433105061 1.1400032090925691
2.5216729641 0.081429860866097 0.0858071816964518 -1.967143527614628 1.3636243336760805 2.050046335517449 -0.5200274433105061 1.1400032090925691
2.53163480759 0.081429860866097 0.0858071816964518 -1.967143527614628 1.3636243336760805 2.050046335517449 -0.5200274433105061 1.1400032090925691
2.53163480759 0.081429860866097 0.0858071816964518 -1.967143527614628 1.3636243336760805 2.050046335517449 -0.5200274433105061 1.1400032090925691
2.54166579247 0.081429860866097 0.0858071816964518 -1.967143527614628 1.3636243336760805 2.050046335517449 -0.5200274433105061 1.1400032090925691
2.54166579247 0.081429860866097 0.0858071816964518 -1.967143527614628 1.3636243336760805 2.050046335517449 -0.5200274433105061 1.1400032090925691
2.55163002014 0.081429860866097 0.0858071816964518 -1.967143527614628 1.3636243336760805 2.050046335517449 -0.5200274433105061 1.1400032090925691
2.55163002014 0.081429860866097 0.0858071816964518 -1.967143527614628 1.3636243336760805 2.050046335517449 -0.5200274433105061 1.1400032090925691
2.56158185005 0.081429860866097 0.0858071816964518 -1.9218137940706248 1.3636243336760805 2.050046335517449 -0.5200137469318284 1.1399895127138917
2.56158185005 0.081429860866097 0.0858071816964518 -1.9218137940706248 1.3636243336760805 2.050046335517449 -0.5200137469318284 1.1399895127138917
2.57140398026 0.081429860866097 0.0858071816964518 -1.9106155857839515 1.3636243336760805 2.050046335517449 -0.5200228778509468 1.13999864363301
2.57140398026 0.081429860866097 0.0858071816964518 -1.9106155857839515 1.3636243336760805 2.050046335517449 -0.5200228778509468 1.13999864363301
2.58148884773 0.081429860866097 0.0858071816964518 -1.899417377497277 1.3636243336760805 2.050046335517449 -0.5200274433105061 1.1400032090925691
2.58148884773 0.081429860866097 0.0858071816964518 -1.899417377497277 1.3636243336760805 2.050046335517449 -0.5200274433105061 1.1400032090925691
2.59170484543 0.081429860866097 0.0858071816964518 -1.899417377497277 1.3636243336760805 2.050046335517449 -0.5200274433105061 1.1400032090925691
2.59170484543 0.081429860866097 0.0858071816964518 -1.899417377497277 1.3636243336760805 2.050046335517449 -0.5200274433105061 1.1400032090925691
2.60138082504 0.081429860866097 0.0858071816964518 -1.899417377497277 1.3636243336760805 2.050046335517449 -0.5200274433105061 1.1400032090925691
2.60138082504 0.081429860866097 0.0858071816964518 -1.899417377497277 1.3636243336760805 2.050046335517449 -0.5200274433105061 1.1400032090925691
2.61171078682 0.081429860866097 0.0858071816964518 -1.899417377497277 1.3636243336760805 2.050046335517449 -0.5200274433105061 1.1400032090925691
2.61171078682 0.081429860866097 0.0858071816964518 -1.899417377497277 1.3636243336760805 2.050046335517449 -0.5200274433105061 1.1400032090925691
2.62168192863 0.081429860866097 0.0858071816964518 -1.899417377497277 1.3636243336760805 2.050046335517449 -0.5200274433105061 1.1400032090925691
2.62168192863 0.081429860866097 0.0858071816964518 -1.899417377497277 1.3636243336760805 2.050046335517449 -0.5200274433105061 1.1400032090925691
2.63163590431 0.081429860866097 0.0858071816964518 -1.899417377497277 1.3636243336760805 2.050046335517449 -0.5200274433105061 1.1400032090925691
2.63163590431 0.081429860866097 0.0858071816964518 -1.899417377497277 1.3636243336760805 2.050046335517449 -0.5200274433105061 1.1400032090925691
2.64155197144 0.081429860866097 0.0858071816964518 -1.899417377497277 1.3636243336760805 2.050046335517449 -0.5200274433105061 1.1400032090925691
2.64155197144 0.081429860866097 0.0858071816964518 -1.899417377497277 1.3636243336760805 2.050046335517449 -0.5200274433105061 1.1400032090925691
2.65176486969 0.081429860866097 0.0858071816964518 -1.899417377497277 1.3636243336760805 2.050046335517449 -0.5200274433105061 1.1400032090925691
2.65176486969 0.081429860866097 0.0858071816964518 -1.899417377497277 1.3636243336760805 2.050046335517449 -0.5200274433105061 1.1400032090925691
2.66161584854 0.081429860866097 0.0858071816964518 -1.899417377497277 1.3636243336760805 2.050046335517449 -0.5200274433105061 1.1400032090925691
2.66161584854 0.081429860866097 0.0858071816964518 -1.899417377497277 1.3636243336760805 2.050046335517449 -0.5200274433105061 1.1400032090925691
2.67177700996 0.081429860866097 0.0858071816964518 -1.899417377497277 1.3636243336760805 2.050046335517449 -0.5200274433105061 1.1400032090925691
2.67177700996 0.081429860866097 0.0858071816964518 -1.899417377497277 1.3636243336760805 2.050046335517449 -0.5200274433105061 1.1400032090925691
2.68148398399 0.081429860866097 0.0858071816964518 -1.899417377497277 1.3636243336760805 2.050046335517449 -0.5200274433105061 1.1400032090925691
2.68148398399 0.081429860866097 0.0858071816964518 -1.899417377497277 1.3636243336760805 2.050046335517449 -0.5200274433105061 1.1400032090925691
2.6913819313 0.081429860866097 0.0858071816964518 -1.8667738333410544 1.3636243336760805 2.050046335517449 -0.5200137469318284 1.1399895127138917
2.6913819313 0.081429860866097 0.0858071816964518 -1.8667738333410544 1.3636243336760805 2.050046335517449 -0.5200137469318284 1.1399895127138917
2.70152401924 0.081429860866097 0.0858071816964518 -1.8667738333410544 1.3636243336760805 2.050046335517449 -0.5200137469318284 1.1399895127138917
2.70152401924 0.081429860866097 0.0858071816964518 -1.8667738333410544 1.3636243336760805 2.050046335517449 -0.5200137469318284 1.1399895127138917
2.71174001694 0.081429860866097 0.0858071816964518 -1.85605116540628 1.3636243336760805 2.050046335517449 -0.5200274433105061 1.1400032090925691
2.71174001694 0.081429860866097 0.0858071816964518 -1.85605116540628 1.3636243336760805 2.050046335517449 -0.5200274433105061 1.1400032090925691
2.7216989994 0.081429860866097 0.0858071816964518 -1.845251797414748 1.3636243336760805 2.050046335517449 -0.5200274433105061 1.1400032090925691
2.7216989994 0.081429860866097 0.0858071816964518 -1.845251797414748 1.3636243336760805 2.050046335517449 -0.5200274433105061 1.1400032090925691
2.73167991638 0.0814145208547453 0.0858071816964518 -1.8348819497410604 1.3636243336760805 2.050046335517449 -0.5200274433105061 1.1400032090925691
2.73167991638 0.0814145208547453 0.0858071816964518 -1.8348819497410604 1.3636243336760805 2.050046335517449 -0.5200274433105061 1.1400032090925691
2.74178600311 0.0813991808433937 0.0858071816964518 -1.8244660820333185 1.3636243336760805 2.050046335517449 -0.5200274433105061 1.1400032090925691
2.74178600311 0.0813991808433937 0.0858071816964518 -1.8244660820333185 1.3636243336760805 2.050046335517449 -0.5200274433105061 1.1400032090925691
2.75169682503 0.0813838408320421 0.0858071816964518 -1.8143416745412568 1.3636243336760805 2.050046335517449 -0.5200091814722694 1.1399849472543326
2.75169682503 0.0813838408320421 0.0858071816964518 -1.8143416745412568 1.3636243336760805 2.050046335517449 -0.5200091814722694 1.1399849472543326
2.76167988777 0.0813838408320421 0.0858071816964518 -1.8143416745412568 1.3636243336760805 2.050046335517449 -0.5200091814722694 1.1399849472543326
2.76167988777 0.0813838408320421 0.0858071816964518 -1.8143416745412568 1.3636243336760805 2.050046335517449 -0.5200091814722694 1.1399849472543326
2.7716178894 0.0813685008206905 0.0858071816964518 -1.8045547472989307 1.3636243336760805 2.050046335517449 -0.5200274433105061 1.1400032090925691
2.7716178894 0.0813685008206905 0.0858071816964518 -1.8045547472989307 1.3636243336760805 2.050046335517449 -0.5200274433105061 1.1400032090925691
2.78166699409 0.0813685008206905 0.0858071816964518 -1.8045547472989307 1.3636243336760805 2.050046335517449 -0.5200274433105061 1.1400032090925691
2.78166699409 0.0813685008206905 0.0858071816964518 -1.8045547472989307 1.3636243336760805 2.050046335517449 -0.5200274433105061 1.1400032090925691
2.79181289673 0.0813685008206905 0.0858071816964518 -1.8045547472989307 1.3636243336760805 2.050046335517449 -0.5200274433105061 1.1400032090925691
2.79181289673 0.0813685008206905 0.0858071816964518 -1.8045547472989307 1.3636243336760805 2.050046335517449 -0.5200274433105061 1.1400032090925691
2.8013958931 0.0813685008206905 0.0858071816964518 -1.8045547472989307 1.3636243336760805 2.050046335517449 -0.5200274433105061 1.1400032090925691
2.8013958931 0.0813685008206905 0.0858071816964518 -1.8045547472989307 1.3636243336760805 2.050046335517449 -0.5200274433105061 1.1400032090925691
2.81174182892 0.0813685008206905 0.0858071816964518 -1.8045547472989307 1.3636243336760805 2.050046335517449 -0.5200274433105061 1.1400032090925691
2.81174182892 0.0813685008206905 0.0858071816964518 -1.8045547472989307 1.3636243336760805 2.050046335517449 -0.5200274433105061 1.1400032090925691
2.82169485092 0.0813685008206905 0.0858071816964518 -1.8045547472989307 1.3636243336760805 2.050046335517449 -0.5200274433105061 1.1400032090925691
2.82169485092 0.0813685008206905 0.0858071816964518 -1.8045547472989307 1.3636243336760805 2.050046335517449 -0.5200274433105061 1.1400032090925691
2.8317899704 0.0813685008206905 0.0858071816964518 -1.8045547472989307 1.3636243336760805 2.050046335517449 -0.5200274433105061 1.1400032090925691
2.8317899704 0.0813685008206905 0.0858071816964518 -1.8045547472989307 1.3636243336760805 2.050046335517449 -0.5200274433105061 1.1400032090925691
2.84164595604 0.0813685008206905 0.0858071816964518 -1.8045547472989307 1.3636243336760805 2.050046335517449 -0.5200274433105061 1.1400032090925691
2.84164595604 0.0813685008206905 0.0858071816964518 -1.8045547472989307 1.3636243336760805 2.050046335517449 -0.5200274433105061 1.1400032090925691
2.85162186623 0.0812304407185262 0.0858071816964518 -1.7763291264119714 1.3636243336760805 2.050046335517449 -0.5200228778509468 1.13999864363301
2.85162186623 0.0812304407185262 0.0858071816964518 -1.7763291264119714 1.3636243336760805 2.050046335517449 -0.5200228778509468 1.13999864363301
2.86150097847 0.0812304407185262 0.0858071816964518 -1.7763291264119714 1.3636243336760805 2.050046335517449 -0.5200228778509468 1.13999864363301
2.86150097847 0.0812304407185262 0.0858071816964518 -1.7763291264119714 1.3636243336760805 2.050046335517449 -0.5200228778509468 1.13999864363301
2.87173295021 0.0812304407185262 0.0858071816964518 -1.7763291264119714 1.3636243336760805 2.050046335517449 -0.5200228778509468 1.13999864363301
2.87173295021 0.0812304407185262 0.0858071816964518 -1.7763291264119714 1.3636243336760805 2.050046335517449 -0.5200228778509468 1.13999864363301
2.88136601448 0.0810617005936584 0.0858071816964518 -1.7587341333916764 1.3636243336760805 2.050046335517449 -0.5200274433105061 1.1400032090925691
2.88136601448 0.0810617005936584 0.0858071816964518 -1.7587341333916764 1.3636243336760805 2.050046335517449 -0.5200274433105061 1.1400032090925691
2.89170193672 0.0809850005369003 0.0858071816964518 -1.7503431471823467 1.363639673687432 2.050046335517449 -0.5200274433105061 1.1400032090925691
2.89170193672 0.0809850005369003 0.0858071816964518 -1.7503431471823467 1.363639673687432 2.050046335517449 -0.5200274433105061 1.1400032090925691
2.90167880058 0.0809850005369003 0.0858071816964518 -1.7503431471823467 1.363639673687432 2.050046335517449 -0.5200274433105061 1.1400032090925691
2.90167880058 0.0809850005369003 0.0858071816964518 -1.7503431471823467 1.363639673687432 2.050046335517449 -0.5200274433105061 1.1400032090925691
2.91186881065 0.0809850005369003 0.0858071816964518 -1.7503431471823467 1.363639673687432 2.050046335517449 -0.5200274433105061 1.1400032090925691
2.91186881065 0.0809850005369003 0.0858071816964518 -1.7503431471823467 1.363639673687432 2.050046335517449 -0.5200274433105061 1.1400032090925691
2.92170882225 0.0809850005369003 0.0858071816964518 -1.7503431471823467 1.363639673687432 2.050046335517449 -0.5200274433105061 1.1400032090925691
2.92170882225 0.0809850005369003 0.0858071816964518 -1.7503431471823467 1.363639673687432 2.050046335517449 -0.5200274433105061 1.1400032090925691
2.93159389496 0.0808469404347358 0.0858071816964518 -1.733760594911258 1.363639673687432 2.050046335517449 -0.5200183123913877 1.1399940781734508
2.93159389496 0.0808469404347358 0.0858071816964518 -1.733760594911258 1.363639673687432 2.050046335517449 -0.5200183123913877 1.1399940781734508
2.94170880318 0.0808469404347358 0.0858071816964518 -1.733760594911258 1.363639673687432 2.050046335517449 -0.5200183123913877 1.1399940781734508
2.94170880318 0.0808469404347358 0.0858071816964518 -1.733760594911258 1.363639673687432 2.050046335517449 -0.5200183123913877 1.1399940781734508
2.9518198967 0.0808469404347358 0.0858071816964518 -1.733760594911258 1.363639673687432 2.050046335517449 -0.5200183123913877 1.1399940781734508
2.9518198967 0.0808469404347358 0.0858071816964518 -1.733760594911258 1.363639673687432 2.050046335517449 -0.5200183123913877 1.1399940781734508
2.96178293228 0.0808469404347358 0.0858071816964518 -1.733760594911258 1.363639673687432 2.050046335517449 -0.5200183123913877 1.1399940781734508
2.96178293228 0.0808469404347358 0.0858071816964518 -1.733760594911258 1.363639673687432 2.050046335517449 -0.5200183123913877 1.1399940781734508
2.97169399261 0.0808162604120327 0.0858071816964518 -1.7257991290197732 1.363639673687432 2.050046335517449 -0.5200228778509468 1.13999864363301
2.97169399261 0.0808162604120327 0.0858071816964518 -1.7257991290197732 1.363639673687432 2.050046335517449 -0.5200228778509468 1.13999864363301
2.9816699028 0.0808009204006811 0.0858071816964518 -1.71785300313964 1.363639673687432 2.050046335517449 -0.5200274433105061 1.1400032090925691
2.9816699028 0.0808009204006811 0.0858071816964518 -1.71785300313964 1.363639673687432 2.050046335517449 -0.5200274433105061 1.1400032090925691
2.99172282219 0.0808009204006811 0.0858071816964518 -1.71785300313964 1.363639673687432 2.050046335517449 -0.5200274433105061 1.1400032090925691
2.99172282219 0.0808009204006811 0.0858071816964518 -1.71785300313964 1.363639673687432 2.050046335517449 -0.5200274433105061 1.1400032090925691
3.00173997879 0.0808009204006811 0.0858071816964518 -1.71785300313964 1.363639673687432 2.050046335517449 -0.5200274433105061 1.1400032090925691
3.00173997879 0.0808009204006811 0.0858071816964518 -1.71785300313964 1.363639673687432 2.050046335517449 -0.5200274433105061 1.1400032090925691
3.01190590858 0.0807855803893295 0.0858071816964518 -1.7097534771459908 1.363639673687432 2.050046335517449 -0.5200274433105061 1.1400032090925691
3.01190590858 0.0807855803893295 0.0858071816964518 -1.7097534771459908 1.363639673687432 2.050046335517449 -0.5200274433105061 1.1400032090925691
3.0214548111 0.0807855803893295 0.0857765016737486 -1.7019760913907254 1.363639673687432 2.050046335517449 -0.5200274433105061 1.1400032090925691
3.0214548111 0.0807855803893295 0.0857765016737486 -1.7019760913907254 1.363639673687432 2.050046335517449 -0.5200274433105061 1.1400032090925691
3.03190898895 0.0807855803893295 0.0857304816396938 -1.693922585431131 1.363639673687432 2.050046335517449 -0.5200183123913877 1.1399940781734508
3.03190898895 0.0807855803893295 0.0857304816396938 -1.693922585431131 1.363639673687432 2.050046335517449 -0.5200183123913877 1.1399940781734508
3.04166984558 0.0807855803893295 0.0857304816396938 -1.693922585431131 1.363639673687432 2.050046335517449 -0.5200183123913877 1.1399940781734508
3.04166984558 0.0807855803893295 0.0857304816396938 -1.693922585431131 1.363639673687432 2.050046335517449 -0.5200183123913877 1.1399940781734508
3.05179286003 0.0807855803893295 0.0856998016169905 -1.6861912197099205 1.363639673687432 2.050046335517449 -0.5200274433105061 1.1400032090925691
3.05179286003 0.0807855803893295 0.0856998016169905 -1.6861912197099205 1.363639673687432 2.050046335517449 -0.5200274433105061 1.1400032090925691
3.06157183647 0.0807855803893295 0.0856998016169905 -1.6861912197099205 1.363639673687432 2.050046335517449 -0.5200274433105061 1.1400032090925691
3.06157183647 0.0807855803893295 0.0856998016169905 -1.6861912197099205 1.363639673687432 2.050046335517449 -0.5200274433105061 1.1400032090925691
3.07176995277 0.0807855803893295 0.0856998016169905 -1.6861912197099205 1.363639673687432 2.050046335517449 -0.5200274433105061 1.1400032090925691
3.07176995277 0.0807855803893295 0.0856998016169905 -1.6861912197099205 1.363639673687432 2.050046335517449 -0.5200274433105061 1.1400032090925691
3.0815680027 0.0807855803893295 0.0856998016169905 -1.6861912197099205 1.363639673687432 2.050046335517449 -0.5200274433105061 1.1400032090925691
3.0815680027 0.0807855803893295 0.0856998016169905 -1.6861912197099205 1.363639673687432 2.050046335517449 -0.5200274433105061 1.1400032090925691
3.09174180031 0.0807855803893295 0.0856998016169905 -1.6861912197099205 1.363639673687432 2.050046335517449 -0.5200274433105061 1.1400032090925691
3.09174180031 0.0807855803893295 0.0856998016169905 -1.6861912197099205 1.363639673687432 2.050046335517449 -0.5200274433105061 1.1400032090925691
3.1014778614 0.0807855803893295 0.0854697014467164 -1.6783984939433032 1.363639673687432 2.050046335517449 -0.5200274433105061 1.1400032090925691
3.1014778614 0.0807855803893295 0.0854697014467164 -1.6783984939433032 1.363639673687432 2.050046335517449 -0.5200274433105061 1.1400032090925691
3.11171579361 0.0807855803893295 0.0850862011629262 -1.6705597481426313 1.363639673687432 2.050046335517449 -0.5200274433105061 1.1400032090925691
3.11171579361 0.0807855803893295 0.0850862011629262 -1.6705597481426313 1.363639673687432 2.050046335517449 -0.5200274433105061 1.1400032090925691
3.12171292305 0.0807855803893295 0.0845032807315651 -1.6628437224327723 1.3636550136987835 2.050046335517449 -0.5200274433105061 1.1400032090925691
3.12171292305 0.0807855803893295 0.0845032807315651 -1.6628437224327723 1.3636550136987835 2.050046335517449 -0.5200274433105061 1.1400032090925691
3.13180279732 0.0807855803893295 0.0845032807315651 -1.6628437224327723 1.3636550136987835 2.050046335517449 -0.5200274433105061 1.1400032090925691
3.13180279732 0.0807855803893295 0.0845032807315651 -1.6628437224327723 1.3636550136987835 2.050046335517449 -0.5200274433105061 1.1400032090925691
3.14170193672 0.0807855803893295 0.0845032807315651 -1.6628437224327723 1.3636550136987835 2.050046335517449 -0.5200274433105061 1.1400032090925691
3.14170193672 0.0807855803893295 0.0845032807315651 -1.6628437224327723 1.3636550136987835 2.050046335517449 -0.5200274433105061 1.1400032090925691
3.15187501907 0.0807855803893295 0.0845032807315651 -1.6628437224327723 1.3636550136987835 2.050046335517449 -0.5200274433105061 1.1400032090925691
3.15187501907 0.0807855803893295 0.0845032807315651 -1.6628437224327723 1.3636550136987835 2.050046335517449 -0.5200274433105061 1.1400032090925691
3.16167187691 0.0807855803893295 0.0845032807315651 -1.6628437224327723 1.3636550136987835 2.050046335517449 -0.5200274433105061 1.1400032090925691
3.16167187691 0.0807855803893295 0.0845032807315651 -1.6628437224327723 1.3636550136987835 2.050046335517449 -0.5200274433105061 1.1400032090925691
3.17173480988 0.0807855803893295 0.0845032807315651 -1.6628437224327723 1.3636550136987835 2.050046335517449 -0.5200274433105061 1.1400032090925691
3.17173480988 0.0807855803893295 0.0845032807315651 -1.6628437224327723 1.3636550136987835 2.050046335517449 -0.5200274433105061 1.1400032090925691
3.18169498444 0.0807855803893295 0.0845032807315651 -1.6628437224327723 1.3636550136987835 2.050046335517449 -0.5200274433105061 1.1400032090925691
3.18169498444 0.0807855803893295 0.0845032807315651 -1.6628437224327723 1.3636550136987835 2.050046335517449 -0.5200274433105061 1.1400032090925691
3.19162487984 0.0807855803893295 0.0835828800504686 -1.6554651769726487 1.363869773857706 2.050046335517449 -0.5200137469318284 1.1399895127138917
3.19162487984 0.0807855803893295 0.0835828800504686 -1.6554651769726487 1.363869773857706 2.050046335517449 -0.5200137469318284 1.1399895127138917
3.20157194138 0.0807855803893295 0.0835828800504686 -1.6554651769726487 1.363869773857706 2.050046335517449 -0.5200137469318284 1.1399895127138917
3.20157194138 0.0807855803893295 0.0835828800504686 -1.6554651769726487 1.363869773857706 2.050046335517449 -0.5200137469318284 1.1399895127138917
3.21172595024 0.0808162604120327 0.0823710191536915 -1.6486542119325345 1.3644066742550125 2.050046335517449 -0.5200274433105061 1.1400032090925691
3.21172595024 0.0808162604120327 0.0823710191536915 -1.6486542119325345 1.3644066742550125 2.050046335517449 -0.5200274433105061 1.1400032090925691
3.2215898037 0.0808622804460874 0.0805148777801469 -1.6421500471194526 1.3652350348679991 2.050046335517449 -0.5200274433105061 1.1400032090925691
3.2215898037 0.0808622804460874 0.0805148777801469 -1.6421500471194526 1.3652350348679991 2.050046335517449 -0.5200274433105061 1.1400032090925691
3.23165798187 0.0808622804460874 0.0805148777801469 -1.6421500471194526 1.3652350348679991 2.050046335517449 -0.5200274433105061 1.1400032090925691
3.23165798187 0.0808622804460874 0.0805148777801469 -1.6421500471194526 1.3652350348679991 2.050046335517449 -0.5200274433105061 1.1400032090925691
3.24153780937 0.0808622804460874 0.0805148777801469 -1.6421500471194526 1.3652350348679991 2.050046335517449 -0.5200274433105061 1.1400032090925691
3.24153780937 0.0808622804460874 0.0805148777801469 -1.6421500471194526 1.3652350348679991 2.050046335517449 -0.5200274433105061 1.1400032090925691
3.25160288811 0.0808622804460874 0.0805148777801469 -1.6421500471194526 1.3652350348679991 2.050046335517449 -0.5200274433105061 1.1400032090925691
3.25160288811 0.0808622804460874 0.0805148777801469 -1.6421500471194526 1.3652350348679991 2.050046335517449 -0.5200274433105061 1.1400032090925691
3.26168179512 0.0808622804460874 0.0805148777801469 -1.6421500471194526 1.3652350348679991 2.050046335517449 -0.5200274433105061 1.1400032090925691
3.26168179512 0.0808622804460874 0.0805148777801469 -1.6421500471194526 1.3652350348679991 2.050046335517449 -0.5200274433105061 1.1400032090925691
3.27174186707 0.0808622804460874 0.0805148777801469 -1.6421500471194526 1.3652350348679991 2.050046335517449 -0.5200274433105061 1.1400032090925691
3.27174186707 0.0808622804460874 0.0805148777801469 -1.6421500471194526 1.3652350348679991 2.050046335517449 -0.5200274433105061 1.1400032090925691
3.28157782555 0.080877620457439 0.0752379138751936 -1.62438631397429 1.3702818986026783 2.050046335517449 -0.5200137469318284 1.1399895127138917
3.28157782555 0.080877620457439 0.0752379138751936 -1.62438631397429 1.3702818986026783 2.050046335517449 -0.5200137469318284 1.1399895127138917
3.29161000252 0.080877620457439 0.0687490890734633 -1.6098746632356686 1.3771695636995505 2.050046335517449 -0.5200274433105061 1.1400032090925691
3.29161000252 0.080877620457439 0.0687490890734633 -1.6098746632356686 1.3771695636995505 2.050046335517449 -0.5200274433105061 1.1400032090925691
3.30128788948 0.080877620457439 0.0687490890734633 -1.6098746632356686 1.3771695636995505 2.050046335517449 -0.5200274433105061 1.1400032090925691
3.30128788948 0.080877620457439 0.0687490890734633 -1.6098746632356686 1.3771695636995505 2.050046335517449 -0.5200274433105061 1.1400032090925691
3.31158280373 0.080877620457439 0.0658344869166577 -1.6059476203296568 1.3794398853795886 2.050046335517449 -0.5200228778509468 1.13999864363301
3.31158280373 0.080877620457439 0.0658344869166577 -1.6059476203296568 1.3794398853795886 2.050046335517449 -0.5200228778509468 1.13999864363301
3.32166481018 0.080877620457439 0.0658344869166577 -1.6059476203296568 1.3794398853795886 2.050046335517449 -0.5200228778509468 1.13999864363301
3.32166481018 0.080877620457439 0.0658344869166577 -1.6059476203296568 1.3794398853795886 2.050046335517449 -0.5200228778509468 1.13999864363301
3.33175396919 0.080877620457439 0.0658344869166577 -1.6059476203296568 1.3794398853795886 2.050046335517449 -0.5200228778509468 1.13999864363301
3.33175396919 0.080877620457439 0.0658344869166577 -1.6059476203296568 1.3794398853795886 2.050046335517449 -0.5200228778509468 1.13999864363301
3.34153985977 0.080877620457439 0.062336964328491 -1.6021279575031062 1.381679527036923 2.050046335517449 -0.5200137469318284 1.1399895127138917
3.34153985977 0.080877620457439 0.062336964328491 -1.6021279575031062 1.381679527036923 2.050046335517449 -0.5200137469318284 1.1399895127138917
3.35176682472 0.080877620457439 0.062336964328491 -1.6021279575031062 1.381679527036923 2.050046335517449 -0.5200137469318284 1.1399895127138917
3.35176682472 0.080877620457439 0.062336964328491 -1.6021279575031062 1.381679527036923 2.050046335517449 -0.5200137469318284 1.1399895127138917
3.36168980598 0.080877620457439 0.0588394417403242 -1.5983849947333135 1.3841492688645325 2.050046335517449 -0.5200274433105061 1.1400032090925691
3.36168980598 0.080877620457439 0.0588394417403242 -1.5983849947333135 1.3841492688645325 2.050046335517449 -0.5200274433105061 1.1400032090925691
3.37140583992 0.080877620457439 0.0551885190386414 -1.594381251770544 1.386941150930525 2.050046335517449 -0.5200274433105061 1.1400032090925691
3.37140583992 0.080877620457439 0.0551885190386414 -1.594381251770544 1.386941150930525 2.050046335517449 -0.5200274433105061 1.1400032090925691
3.38150596619 0.080877620457439 0.0551885190386414 -1.594381251770544 1.386941150930525 2.050046335517449 -0.5200274433105061 1.1400032090925691
3.38150596619 0.080877620457439 0.0551885190386414 -1.594381251770544 1.386941150930525 2.050046335517449 -0.5200274433105061 1.1400032090925691
3.39176988602 0.080877620457439 0.0513228361780361 -1.5906689690234548 1.3898710930986822 2.050046335517449 -0.5200274433105061 1.1400032090925691
3.39176988602 0.080877620457439 0.0513228361780361 -1.5906689690234548 1.3898710930986822 2.050046335517449 -0.5200274433105061 1.1400032090925691
3.40166091919 0.080877620457439 0.0513228361780361 -1.5906689690234548 1.3898710930986822 2.050046335517449 -0.5200274433105061 1.1400032090925691
3.40166091919 0.080877620457439 0.0513228361780361 -1.5906689690234548 1.3898710930986822 2.050046335517449 -0.5200274433105061 1.1400032090925691
3.41181492805 0.080877620457439 0.0474571533174308 -1.5872328064806944 1.392739675221433 2.050046335517449 -0.5200183123913877 1.1399940781734508
3.41181492805 0.080877620457439 0.0474571533174308 -1.5872328064806944 1.392739675221433 2.050046335517449 -0.5200183123913877 1.1399940781734508
3.42167901993 0.080877620457439 0.0474571533174308 -1.5872328064806944 1.392739675221433 2.050046335517449 -0.5200183123913877 1.1399940781734508
3.42167901993 0.080877620457439 0.0474571533174308 -1.5872328064806944 1.392739675221433 2.050046335517449 -0.5200183123913877 1.1399940781734508
3.43184781075 0.080877620457439 0.0474571533174308 -1.5872328064806944 1.392739675221433 2.050046335517449 -0.5200183123913877 1.1399940781734508
3.43184781075 0.080877620457439 0.0474571533174308 -1.5872328064806944 1.392739675221433 2.050046335517449 -0.5200183123913877 1.1399940781734508
3.44157600403 0.080877620457439 0.0474571533174308 -1.5872328064806944 1.392739675221433 2.050046335517449 -0.5200183123913877 1.1399940781734508
3.44157600403 0.080877620457439 0.0474571533174308 -1.5872328064806944 1.392739675221433 2.050046335517449 -0.5200183123913877 1.1399940781734508
3.45164990425 0.080877620457439 0.0437448705703415 -1.5841341241876696 1.395408837196613 2.050046335517449 -0.5200228778509468 1.13999864363301
3.45164990425 0.080877620457439 0.0437448705703415 -1.5841341241876696 1.395408837196613 2.050046335517449 -0.5200228778509468 1.13999864363301
3.46177601814 0.080877620457439 0.0437448705703415 -1.5841341241876696 1.395408837196613 2.050046335517449 -0.5200228778509468 1.13999864363301
3.46177601814 0.080877620457439 0.0437448705703415 -1.5841341241876696 1.395408837196613 2.050046335517449 -0.5200228778509468 1.13999864363301
3.47178387642 0.080877620457439 0.0437448705703415 -1.5841341241876696 1.395408837196613 2.050046335517449 -0.5200228778509468 1.13999864363301
3.47178387642 0.080877620457439 0.0437448705703415 -1.5841341241876696 1.395408837196613 2.050046335517449 -0.5200228778509468 1.13999864363301
3.48168802261 0.0808009204006811 0.0374401259048305 -1.5770470389432265 1.4003483208518308 2.050046335517449 -0.5200274433105061 1.1400032090925691
3.48168802261 0.0808009204006811 0.0374401259048305 -1.5770470389432265 1.4003483208518308 2.050046335517449 -0.5200274433105061 1.1400032090925691
3.49155497551 0.0807855803893295 0.035108444179386 -1.5732887361620824 1.4029407827702525 2.050046335517449 -0.5200274433105061 1.1400032090925691
3.49155497551 0.0807855803893295 0.035108444179386 -1.5732887361620824 1.4029407827702525 2.050046335517449 -0.5200274433105061 1.1400032090925691
3.50168585777 0.0807855803893295 0.035108444179386 -1.5732887361620824 1.4029407827702525 2.050046335517449 -0.5200274433105061 1.1400032090925691
3.50168585777 0.0807855803893295 0.035108444179386 -1.5732887361620824 1.4029407827702525 2.050046335517449 -0.5200274433105061 1.1400032090925691
3.51154899597 0.0807855803893295 0.035108444179386 -1.5732887361620824 1.4029407827702525 2.050046335517449 -0.5200274433105061 1.1400032090925691
3.51154899597 0.0807855803893295 0.035108444179386 -1.5732887361620824 1.4029407827702525 2.050046335517449 -0.5200274433105061 1.1400032090925691
3.52165198326 0.0807855803893295 0.035108444179386 -1.5732887361620824 1.4029407827702525 2.050046335517449 -0.5200274433105061 1.1400032090925691
3.52165198326 0.0807855803893295 0.035108444179386 -1.5732887361620824 1.4029407827702525 2.050046335517449 -0.5200274433105061 1.1400032090925691
3.53160595894 0.0807855803893295 0.035108444179386 -1.5732887361620824 1.4029407827702525 2.050046335517449 -0.5200274433105061 1.1400032090925691
3.53160595894 0.0807855803893295 0.035108444179386 -1.5732887361620824 1.4029407827702525 2.050046335517449 -0.5200274433105061 1.1400032090925691
3.54165887833 0.0807855803893295 0.035108444179386 -1.5732887361620824 1.4029407827702525 2.050046335517449 -0.5200274433105061 1.1400032090925691
3.54165887833 0.0807855803893295 0.035108444179386 -1.5732887361620824 1.4029407827702525 2.050046335517449 -0.5200274433105061 1.1400032090925691
3.55175495148 0.0807855803893295 0.035108444179386 -1.5732887361620824 1.4029407827702525 2.050046335517449 -0.5200274433105061 1.1400032090925691
3.55175495148 0.0807855803893295 0.035108444179386 -1.5732887361620824 1.4029407827702525 2.050046335517449 -0.5200274433105061 1.1400032090925691
3.5615708828 0.0807395603552747 0.0304144007057939 -1.5595134059683382 1.4094142675606314 2.050046335517449 -0.5200274433105061 1.1400032090925691
3.5615708828 0.0807395603552747 0.0304144007057939 -1.5595134059683382 1.4094142675606314 2.050046335517449 -0.5200274433105061 1.1400032090925691
3.57178783417 0.0807395603552747 0.0304144007057939 -1.5595134059683382 1.4094142675606314 2.050046335517449 -0.5200274433105061 1.1400032090925691
3.57178783417 0.0807395603552747 0.0304144007057939 -1.5595134059683382 1.4094142675606314 2.050046335517449 -0.5200274433105061 1.1400032090925691
3.58173489571 0.0807395603552747 0.029662740149565 -1.5540523619271656 1.411347108990934 2.050046335517449 -0.5200274433105061 1.1400032090925691
3.58173489571 0.0807395603552747 0.029662740149565 -1.5540523619271656 1.411347108990934 2.050046335517449 -0.5200274433105061 1.1400032090925691
3.59176087379 0.0807395603552747 0.029662740149565 -1.5540523619271656 1.411347108990934 2.050046335517449 -0.5200274433105061 1.1400032090925691
3.59176087379 0.0807395603552747 0.029662740149565 -1.5540523619271656 1.411347108990934 2.050046335517449 -0.5200274433105061 1.1400032090925691
3.60362291336 0.0807395603552747 0.0286349593890073 -1.5485146178292348 1.4133259704552914 2.050046335517449 -0.5200274433105061 1.1400032090925691
3.60362291336 0.0807395603552747 0.0286349593890073 -1.5485146178292348 1.4133259704552914 2.050046335517449 -0.5200274433105061 1.1400032090925691
3.61159992218 0.0807395603552747 0.0286349593890073 -1.5485146178292348 1.4133259704552914 2.050046335517449 -0.5200274433105061 1.1400032090925691
3.61159992218 0.0807395603552747 0.0286349593890073 -1.5485146178292348 1.4133259704552914 2.050046335517449 -0.5200274433105061 1.1400032090925691
3.62155890465 0.0807395603552747 0.0280060189235913 -1.5430228937653592 1.4156116321466812 2.050046335517449 -0.5200183123913877 1.1399940781734508
3.62155890465 0.0807395603552747 0.0280060189235913 -1.5430228937653592 1.4156116321466812 2.050046335517449 -0.5200183123913877 1.1399940781734508
3.63164901733 0.0807395603552747 0.0280060189235913 -1.5430228937653592 1.4156116321466812 2.050046335517449 -0.5200183123913877 1.1399940781734508
3.63164901733 0.0807395603552747 0.0280060189235913 -1.5430228937653592 1.4156116321466812 2.050046335517449 -0.5200183123913877 1.1399940781734508
3.64167189598 0.0807395603552747 0.0280060189235913 -1.5430228937653592 1.4156116321466812 2.050046335517449 -0.5200183123913877 1.1399940781734508
3.64167189598 0.0807395603552747 0.0280060189235913 -1.5430228937653592 1.4156116321466812 2.050046335517449 -0.5200183123913877 1.1399940781734508
3.65180397034 0.0807395603552747 0.0280060189235913 -1.5430228937653592 1.4156116321466812 2.050046335517449 -0.5200183123913877 1.1399940781734508
3.65180397034 0.0807395603552747 0.0280060189235913 -1.5430228937653592 1.4156116321466812 2.050046335517449 -0.5200183123913877 1.1399940781734508
3.66169595718 0.0807395603552747 0.027315718412769 -1.536917569247419 1.4181427340196964 2.050046335517449 -0.5200274433105061 1.1400032090925691
3.66169595718 0.0807395603552747 0.027315718412769 -1.536917569247419 1.4181427340196964 2.050046335517449 -0.5200274433105061 1.1400032090925691
3.67174983025 0.0807395603552747 0.027315718412769 -1.536917569247419 1.4181427340196964 2.050046335517449 -0.5200274433105061 1.1400032090925691
3.67174983025 0.0807395603552747 0.027315718412769 -1.536917569247419 1.4181427340196964 2.050046335517449 -0.5200274433105061 1.1400032090925691
3.68156290054 0.0807395603552747 0.0263799777203209 -1.5250750804839772 1.4232816378224853 2.050046335517449 -0.5200274433105061 1.1400032090925691
3.68156290054 0.0807395603552747 0.0263799777203209 -1.5250750804839772 1.4232816378224853 2.050046335517449 -0.5200274433105061 1.1400032090925691
3.69162392616 0.0807395603552747 0.0255055970732792 -1.5201969568741658 1.4260888598998298 2.050046335517449 -0.5200137469318284 1.1399895127138917
3.69162392616 0.0807395603552747 0.0255055970732792 -1.5201969568741658 1.4260888598998298 2.050046335517449 -0.5200137469318284 1.1399895127138917
3.70224690437 0.0807395603552747 0.0239715959381183 -1.5162238939340993 1.4287580218750096 2.050046335517449 -0.5200274433105061 1.1400032090925691
3.70224690437 0.0807395603552747 0.0239715959381183 -1.5162238939340993 1.4287580218750096 2.050046335517449 -0.5200274433105061 1.1400032090925691
3.71149587631 0.0807395603552747 0.0239715959381183 -1.5162238939340993 1.4287580218750096 2.050046335517449 -0.5200274433105061 1.1400032090925691
3.71149587631 0.0807395603552747 0.0239715959381183 -1.5162238939340993 1.4287580218750096 2.050046335517449 -0.5200274433105061 1.1400032090925691
3.72171282768 0.0807395603552747 0.0239715959381183 -1.5162238939340993 1.4287580218750096 2.050046335517449 -0.5200274433105061 1.1400032090925691
3.72171282768 0.0807395603552747 0.0239715959381183 -1.5162238939340993 1.4287580218750096 2.050046335517449 -0.5200274433105061 1.1400032090925691
3.7314748764 0.0807395603552747 0.0239715959381183 -1.5162238939340993 1.4287580218750096 2.050046335517449 -0.5200274433105061 1.1400032090925691
3.7314748764 0.0807395603552747 0.0239715959381183 -1.5162238939340993 1.4287580218750096 2.050046335517449 -0.5200274433105061 1.1400032090925691
3.74161887169 0.0807395603552747 0.0239715959381183 -1.5162238939340993 1.4287580218750096 2.050046335517449 -0.5200274433105061 1.1400032090925691
3.74161887169 0.0807395603552747 0.0239715959381183 -1.5162238939340993 1.4287580218750096 2.050046335517449 -0.5200274433105061 1.1400032090925691
3.75172901154 0.0807395603552747 0.0218393343602448 -1.5132479317318872 1.431994764270199 2.050046335517449 -0.5200274433105061 1.1400032090925691
3.75172901154 0.0807395603552747 0.0218393343602448 -1.5132479317318872 1.431994764270199 2.050046335517449 -0.5200274433105061 1.1400032090925691
3.76182293892 0.0807395603552747 0.0172680109774654 -1.5091368086896562 1.439986910184387 2.050046335517449 -0.5200228778509468 1.13999864363301
3.76182293892 0.0807395603552747 0.0172680109774654 -1.5091368086896562 1.439986910184387 2.050046335517449 -0.5200228778509468 1.13999864363301
3.77161097527 0.0807395603552747 0.0172680109774654 -1.5091368086896562 1.439986910184387 2.050046335517449 -0.5200228778509468 1.13999864363301
3.77161097527 0.0807395603552747 0.0172680109774654 -1.5091368086896562 1.439986910184387 2.050046335517449 -0.5200228778509468 1.13999864363301
3.7816889286 0.0807395603552747 0.0172680109774654 -1.5091368086896562 1.439986910184387 2.050046335517449 -0.5200228778509468 1.13999864363301
3.7816889286 0.0807395603552747 0.0172680109774654 -1.5091368086896562 1.439986910184387 2.050046335517449 -0.5200228778509468 1.13999864363301
3.79178285599 0.0807395603552747 0.0155959497401402 -1.507771547679363 1.4447729937260887 2.050046335517449 -0.5200137469318284 1.1399895127138917
3.79178285599 0.0807395603552747 0.0155959497401402 -1.507771547679363 1.4447729937260887 2.050046335517449 -0.5200137469318284 1.1399895127138917
3.80158782005 0.0807395603552747 0.0155959497401402 -1.507771547679363 1.4447729937260887 2.050046335517449 -0.5200137469318284 1.1399895127138917
3.80158782005 0.0807395603552747 0.0155959497401402 -1.507771547679363 1.4447729937260887 2.050046335517449 -0.5200137469318284 1.1399895127138917
3.81176400185 0.0807395603552747 0.0155959497401402 -1.507771547679363 1.4447729937260887 2.050046335517449 -0.5200137469318284 1.1399895127138917
3.81176400185 0.0807395603552747 0.0155959497401402 -1.507771547679363 1.4447729937260887 2.050046335517449 -0.5200137469318284 1.1399895127138917
3.82168698311 0.0807395603552747 0.0155959497401402 -1.507771547679363 1.4447729937260887 2.050046335517449 -0.5200137469318284 1.1399895127138917
3.82168698311 0.0807395603552747 0.0155959497401402 -1.507771547679363 1.4447729937260887 2.050046335517449 -0.5200137469318284 1.1399895127138917
3.83184099197 0.0807395603552747 0.0155959497401402 -1.507771547679363 1.4447729937260887 2.050046335517449 -0.5200137469318284 1.1399895127138917
3.83184099197 0.0807395603552747 0.0155959497401402 -1.507771547679363 1.4447729937260887 2.050046335517449 -0.5200137469318284 1.1399895127138917
3.84152984619 0.0807395603552747 0.0155959497401402 -1.507771547679363 1.4447729937260887 2.050046335517449 -0.5200137469318284 1.1399895127138917
3.84152984619 0.0807395603552747 0.0155959497401402 -1.507771547679363 1.4447729937260887 2.050046335517449 -0.5200137469318284 1.1399895127138917
3.85162782669 0.0807395603552747 0.0155959497401402 -1.507771547679363 1.4447729937260887 2.050046335517449 -0.5200137469318284 1.1399895127138917
3.85162782669 0.0807395603552747 0.0155959497401402 -1.507771547679363 1.4447729937260887 2.050046335517449 -0.5200137469318284 1.1399895127138917
3.86168193817 0.0807395603552747 0.0155959497401402 -1.507771547679363 1.4447729937260887 2.050046335517449 -0.5200137469318284 1.1399895127138917
3.86168193817 0.0807395603552747 0.0155959497401402 -1.507771547679363 1.4447729937260887 2.050046335517449 -0.5200137469318284 1.1399895127138917
3.87175178528 0.0807395603552747 0.0155959497401402 -1.507771547679363 1.4447729937260887 2.050046335517449 -0.5200137469318284 1.1399895127138917
3.87175178528 0.0807395603552747 0.0155959497401402 -1.507771547679363 1.4447729937260887 2.050046335517449 -0.5200137469318284 1.1399895127138917
3.88179683685 0.0807395603552747 0.0155959497401402 -1.507771547679363 1.4447729937260887 2.050046335517449 -0.5200137469318284 1.1399895127138917
3.88179683685 0.0807395603552747 0.0155959497401402 -1.507771547679363 1.4447729937260887 2.050046335517449 -0.5200137469318284 1.1399895127138917
3.8917889595 0.0807395603552747 0.0155959497401402 -1.507771547679363 1.4447729937260887 2.050046335517449 -0.5200137469318284 1.1399895127138917
3.8917889595 0.0807395603552747 0.0155959497401402 -1.507771547679363 1.4447729937260887 2.050046335517449 -0.5200137469318284 1.1399895127138917
3.90155291557 0.0807395603552747 0.0155959497401402 -1.507771547679363 1.4447729937260887 2.050046335517449 -0.5200137469318284 1.1399895127138917
3.90155291557 0.0807395603552747 0.0155959497401402 -1.507771547679363 1.4447729937260887 2.050046335517449 -0.5200137469318284 1.1399895127138917
3.91177082062 0.0807395603552747 0.014583508990934 -1.5062989065896086 1.450203357744558 2.050046335517449 -0.5200274433105061 1.1400032090925691
3.91177082062 0.0807395603552747 0.014583508990934 -1.5062989065896086 1.450203357744558 2.050046335517449 -0.5200274433105061 1.1400032090925691
3.92169499397 0.0807395603552747 0.014583508990934 -1.5062989065896086 1.450203357744558 2.050046335517449 -0.5200274433105061 1.1400032090925691
3.92169499397 0.0807395603552747 0.014583508990934 -1.5062989065896086 1.450203357744558 2.050046335517449 -0.5200274433105061 1.1400032090925691
3.93162798882 0.0809696605255487 0.0140312685822761 -1.5046728653863382 1.4776466380525854 2.050046335517449 -0.5200228778509468 1.13999864363301
3.93162798882 0.0809696605255487 0.0140312685822761 -1.5046728653863382 1.4776466380525854 2.050046335517449 -0.5200228778509468 1.13999864363301
3.94169282913 0.0809696605255487 0.0140312685822761 -1.5046728653863382 1.4776466380525854 2.050046335517449 -0.5200228778509468 1.13999864363301
3.94169282913 0.0809696605255487 0.0140312685822761 -1.5046728653863382 1.4776466380525854 2.050046335517449 -0.5200228778509468 1.13999864363301
