riccardo-csl/Motion-Planning-for-TIAGo-Manipulator/T3_G_7/head_scan/head_scan/tiago_traiettorie_SG/3a-1b/place_1b_rep2.txt
time arm_1_joint arm_2_joint arm_3_joint arm_4_joint arm_5_joint arm_6_joint arm_7_joint
2.60267806053 0.1431887465676724 -0.0849885046923561 -1.307722459643038 2.0486018605594505 2.050037204598331 -0.5200046160127103 1.1399895127138917
2.61273694038 0.1431887465676724 -0.0849885046923561 -1.307722459643038 2.0486018605594505 2.050037204598331 -0.5200046160127103 1.1399895127138917
2.61273694038 0.1431887465676724 -0.0849885046923561 -1.307722459643038 2.0486018605594505 2.050037204598331 -0.5200046160127103 1.1399895127138917
2.62264609337 0.142851266317937 -0.0833164434550307 -1.314886244944239 2.0486018605594505 2.050037204598331 -0.5200046160127103 1.1399895127138917
2.62264609337 0.142851266317937 -0.0833164434550307 -1.314886244944239 2.0486018605594505 2.050037204598331 -0.5200046160127103 1.1399895127138917
2.63287901878 0.142851266317937 -0.0833164434550307 -1.314886244944239 2.0486018605594505 2.050037204598331 -0.5200046160127103 1.1399895127138917
2.63287901878 0.142851266317937 -0.0833164434550307 -1.314886244944239 2.0486018605594505 2.050037204598331 -0.5200046160127103 1.1399895127138917
2.64268302917 0.142851266317937 -0.0833164434550307 -1.314886244944239 2.0486018605594505 2.050037204598331 -0.5200046160127103 1.1399895127138917
2.64268302917 0.142851266317937 -0.0833164434550307 -1.314886244944239 2.0486018605594505 2.050037204598331 -0.5200046160127103 1.1399895127138917
2.65266895294 0.142421746000092 -0.0813375819906732 -1.321865950109221 2.0486018605594505 2.050037204598331 -0.5200046160127103 1.1399895127138917
2.65266895294 0.142421746000092 -0.0813375819906732 -1.321865950109221 2.0486018605594505 2.050037204598331 -0.5200046160127103 1.1399895127138917
2.66275906563 0.142421746000092 -0.0813375819906732 -1.321865950109221 2.0486018605594505 2.050037204598331 -0.5200046160127103 1.1399895127138917
2.66275906563 0.142421746000092 -0.0813375819906732 -1.321865950109221 2.0486018605594505 2.050037204598331 -0.5200046160127103 1.1399895127138917
2.67275714874 0.142421746000092 -0.0813375819906732 -1.321865950109221 2.0486018605594505 2.050037204598331 -0.5200046160127103 1.1399895127138917
2.67275714874 0.142421746000092 -0.0813375819906732 -1.321865950109221 2.0486018605594505 2.050037204598331 -0.5200046160127103 1.1399895127138917
2.68327212334 0.1413479452054795 -0.0772571389711454 -1.3363776008478423 2.0486018605594505 2.050037204598331 -0.5200046160127103 1.1399895127138917
2.68327212334 0.1413479452054795 -0.0772571389711454 -1.3363776008478423 2.0486018605594505 2.050037204598331 -0.5200046160127103 1.1399895127138917
2.69257092476 0.1413479452054795 -0.0772571389711454 -1.3363776008478423 2.0486018605594505 2.050037204598331 -0.5200046160127103 1.1399895127138917
2.69257092476 0.1413479452054795 -0.0772571389711454 -1.3363776008478423 2.0486018605594505 2.050037204598331 -0.5200046160127103 1.1399895127138917
2.70269608498 0.1413479452054795 -0.0772571389711454 -1.3363776008478423 2.0486018605594505 2.050037204598331 -0.5200046160127103 1.1399895127138917
2.70269608498 0.1413479452054795 -0.0772571389711454 -1.3363776008478423 2.0486018605594505 2.050037204598331 -0.5200046160127103 1.1399895127138917
2.71284294128 0.1413479452054795 -0.0772571389711454 -1.3363776008478423 2.0486018605594505 2.050037204598331 -0.5200046160127103 1.1399895127138917
2.71284294128 0.1413479452054795 -0.0772571389711454 -1.3363776008478423 2.0486018605594505 2.050037204598331 -0.5200046160127103 1.1399895127138917
2.72270798683 0.1396298639340993 -0.0737902964056819 -1.3511653717907928 2.0486018605594505 2.050037204598331 -0.5200046160127103 1.1399895127138917
2.72270798683 0.1396298639340993 -0.0737902964056819 -1.3511653717907928 2.0486018605594505 2.050037204598331 -0.5200046160127103 1.1399895127138917
2.73274803162 0.1387708232984092 -0.072179595213763 -1.3589580975574098 2.0486018605594505 2.050037204598331 -0.5200046160127103 1.1399895127138917
2.73274803162 0.1387708232984092 -0.072179595213763 -1.3589580975574098 2.0486018605594505 2.050037204598331 -0.5200046160127103 1.1399895127138917
2.74277806282 0.1387708232984092 -0.072179595213763 -1.3589580975574098 2.0486018605594505 2.050037204598331 -0.5200046160127103 1.1399895127138917
2.74277806282 0.1387708232984092 -0.072179595213763 -1.3589580975574098 2.0486018605594505 2.050037204598331 -0.5200046160127103 1.1399895127138917
2.75282597542 0.1387708232984092 -0.072179595213763 -1.3589580975574098 2.0486018605594505 2.050037204598331 -0.5200046160127103 1.1399895127138917
2.75282597542 0.1387708232984092 -0.072179595213763 -1.3589580975574098 2.0486018605594505 2.050037204598331 -0.5200046160127103 1.1399895127138917
2.762789011 0.1376970225037965 -0.0709523943056344 -1.366720143301324 2.0486018605594505 2.050037204598331 -0.5200046160127103 1.1399895127138917
2.762789011 0.1376970225037965 -0.0709523943056344 -1.366720143301324 2.0486018605594505 2.050037204598331 -0.5200046160127103 1.1399895127138917
2.77290296555 0.1361323413459325 -0.0697251933975057 -1.3748810293403797 2.0486018605594505 2.050037204598331 -0.5200046160127103 1.1399895127138917
2.77290296555 0.1361323413459325 -0.0697251933975057 -1.3748810293403797 2.0486018605594505 2.050037204598331 -0.5200046160127103 1.1399895127138917
2.78275299072 0.1343682400404977 -0.0682218722850481 -1.3827964751978097 2.0486018605594505 2.050037204598331 -0.5200091814722694 1.1399849472543326
2.78275299072 0.1343682400404977 -0.0682218722850481 -1.3827964751978097 2.0486018605594505 2.050037204598331 -0.5200091814722694 1.1399849472543326
2.79280805588 0.1343682400404977 -0.0682218722850481 -1.3827964751978097 2.0486018605594505 2.050037204598331 -0.5200091814722694 1.1399849472543326
2.79280805588 0.1343682400404977 -0.0682218722850481 -1.3827964751978097 2.0486018605594505 2.050037204598331 -0.5200091814722694 1.1399849472543326
2.80269908905 0.1326194787464142 -0.0664731109909647 -1.390604540975778 2.0486018605594505 2.050037204598331 -0.5200046160127103 1.1399895127138917
2.80269908905 0.1326194787464142 -0.0664731109909647 -1.390604540975778 2.0486018605594505 2.050037204598331 -0.5200046160127103 1.1399895127138917
2.81269598007 0.1326194787464142 -0.0664731109909647 -1.390604540975778 2.0486018605594505 2.050037204598331 -0.5200046160127103 1.1399895127138917
2.81269598007 0.1326194787464142 -0.0664731109909647 -1.390604540975778 2.0486018605594505 2.050037204598331 -0.5200046160127103 1.1399895127138917
2.82272601128 0.130594597248002 -0.0644022094584976 -1.3980751265040114 2.0486018605594505 2.050037204598331 -0.5200046160127103 1.1399895127138917
2.82272601128 0.130594597248002 -0.0644022094584976 -1.3980751265040114 2.0486018605594505 2.050037204598331 -0.5200046160127103 1.1399895127138917
2.83285999298 0.130594597248002 -0.0644022094584976 -1.3980751265040114 2.0486018605594505 2.050037204598331 -0.5200046160127103 1.1399895127138917
2.83285999298 0.130594597248002 -0.0644022094584976 -1.3980751265040114 2.0486018605594505 2.050037204598331 -0.5200046160127103 1.1399895127138917
2.84264802933 0.1287691358971605 -0.0619017876081854 -1.405729792168464 2.0486018605594505 2.050037204598331 -0.5200046160127103 1.1399895127138917
2.84264802933 0.1287691358971605 -0.0619017876081854 -1.405729792168464 2.0486018605594505 2.050037204598331 -0.5200046160127103 1.1399895127138917
2.8528110981 0.1287691358971605 -0.0619017876081854 -1.405729792168464 2.0486018605594505 2.050037204598331 -0.5200046160127103 1.1399895127138917
2.8528110981 0.1287691358971605 -0.0619017876081854 -1.405729792168464 2.0486018605594505 2.050037204598331 -0.5200046160127103 1.1399895127138917
2.86325311661 0.126161333967387 -0.0596621459508506 -1.4129242574923684 2.0485711805367472 2.050037204598331 -0.5200046160127103 1.1399895127138917
2.86325311661 0.126161333967387 -0.0596621459508506 -1.4129242574923684 2.0485711805367472 2.050037204598331 -0.5200046160127103 1.1399895127138917
2.87263798714 0.126161333967387 -0.0596621459508506 -1.4129242574923684 2.0485711805367472 2.050037204598331 -0.5200046160127103 1.1399895127138917
2.87263798714 0.126161333967387 -0.0596621459508506 -1.4129242574923684 2.0485711805367472 2.050037204598331 -0.5200046160127103 1.1399895127138917
2.88284993172 0.1235381920262621 -0.057253764168648 -1.4204868830887112 2.048479140468637 2.050037204598331 -0.5200046160127103 1.1399895127138917
2.88284993172 0.1235381920262621 -0.057253764168648 -1.4204868830887112 2.048479140468637 2.050037204598331 -0.5200046160127103 1.1399895127138917
2.8929040432 0.1235381920262621 -0.057253764168648 -1.4204868830887112 2.048479140468637 2.050037204598331 -0.5200046160127103 1.1399895127138917
2.8929040432 0.1235381920262621 -0.057253764168648 -1.4204868830887112 2.048479140468637 2.050037204598331 -0.5200046160127103 1.1399895127138917
2.9028069973 0.1235381920262621 -0.057253764168648 -1.4204868830887112 2.048479140468637 2.050037204598331 -0.5200046160127103 1.1399895127138917
2.9028069973 0.1235381920262621 -0.057253764168648 -1.4204868830887112 2.048479140468637 2.050037204598331 -0.5200046160127103 1.1399895127138917
2.91309809685 0.1235381920262621 -0.057253764168648 -1.4204868830887112 2.048479140468637 2.050037204598331 -0.5200046160127103 1.1399895127138917
2.91309809685 0.1235381920262621 -0.057253764168648 -1.4204868830887112 2.048479140468637 2.050037204598331 -0.5200046160127103 1.1399895127138917
2.92271900177 0.1235381920262621 -0.057253764168648 -1.4204868830887112 2.048479140468637 2.050037204598331 -0.5200046160127103 1.1399895127138917
2.92271900177 0.1235381920262621 -0.057253764168648 -1.4204868830887112 2.048479140468637 2.050037204598331 -0.5200046160127103 1.1399895127138917
2.93270802498 0.1183686082007699 -0.0525443806837043 -1.434599693532191 2.047911560048628 2.050037204598331 -0.5200046160127103 1.1399895127138917
2.93270802498 0.1183686082007699 -0.0525443806837043 -1.434599693532191 2.047911560048628 2.050037204598331 -0.5200046160127103 1.1399895127138917
2.94299602509 0.1154079860099097 -0.0500746388560953 -1.4409504582317567 2.047589419810244 2.050037204598331 -0.5200046160127103 1.1399895127138917
2.94299602509 0.1154079860099097 -0.0500746388560953 -1.4409504582317567 2.047589419810244 2.050037204598331 -0.5200046160127103 1.1399895127138917
2.95268893242 0.1154079860099097 -0.0500746388560953 -1.4409504582317567 2.047589419810244 2.050037204598331 -0.5200046160127103 1.1399895127138917
2.95268893242 0.1154079860099097 -0.0500746388560953 -1.4409504582317567 2.047589419810244 2.050037204598331 -0.5200046160127103 1.1399895127138917
2.96281099319 0.1154079860099097 -0.0500746388560953 -1.4409504582317567 2.047589419810244 2.050037204598331 -0.5200046160127103 1.1399895127138917
2.96281099319 0.1154079860099097 -0.0500746388560953 -1.4409504582317567 2.047589419810244 2.050037204598331 -0.5200046160127103 1.1399895127138917
2.97272801399 0.1119104634217428 -0.0477276171192993 -1.4469944227042906 2.047282619583212 2.050037204598331 -0.5200046160127103 1.1399895127138917
2.97272801399 0.1119104634217428 -0.0477276171192993 -1.4469944227042906 2.047282619583212 2.050037204598331 -0.5200046160127103 1.1399895127138917
2.98268008232 0.1119104634217428 -0.0477276171192993 -1.4469944227042906 2.047282619583212 2.050037204598331 -0.5200046160127103 1.1399895127138917
2.98268008232 0.1119104634217428 -0.0477276171192993 -1.4469944227042906 2.047282619583212 2.050037204598331 -0.5200046160127103 1.1399895127138917
2.99288010597 0.1119104634217428 -0.0477276171192993 -1.4469944227042906 2.047282619583212 2.050037204598331 -0.5200046160127103 1.1399895127138917
2.99288010597 0.1119104634217428 -0.0477276171192993 -1.4469944227042906 2.047282619583212 2.050037204598331 -0.5200046160127103 1.1399895127138917
3.002835989 0.1119104634217428 -0.0477276171192993 -1.4469944227042906 2.047282619583212 2.050037204598331 -0.5200046160127103 1.1399895127138917
3.002835989 0.1119104634217428 -0.0477276171192993 -1.4469944227042906 2.047282619583212 2.050037204598331 -0.5200046160127103 1.1399895127138917
3.01282596588 0.1119104634217428 -0.0477276171192993 -1.4469944227042906 2.047282619583212 2.050037204598331 -0.5200046160127103 1.1399895127138917
3.01282596588 0.1119104634217428 -0.0477276171192993 -1.4469944227042906 2.047282619583212 2.050037204598331 -0.5200046160127103 1.1399895127138917
3.02281212807 0.1119104634217428 -0.0477276171192993 -1.4469944227042906 2.047282619583212 2.050037204598331 -0.5200046160127103 1.1399895127138917
3.02281212807 0.1119104634217428 -0.0477276171192993 -1.4469944227042906 2.047282619583212 2.050037204598331 -0.5200046160127103 1.1399895127138917
3.03274106979 0.1119104634217428 -0.0477276171192993 -1.4469944227042906 2.047282619583212 2.050037204598331 -0.5200046160127103 1.1399895127138917
3.03274106979 0.1119104634217428 -0.0477276171192993 -1.4469944227042906 2.047282619583212 2.050037204598331 -0.5200046160127103 1.1399895127138917
3.04290699959 0.1119104634217428 -0.0477276171192993 -1.4469944227042906 2.047282619583212 2.050037204598331 -0.5200046160127103 1.1399895127138917
3.04290699959 0.1119104634217428 -0.0477276171192993 -1.4469944227042906 2.047282619583212 2.050037204598331 -0.5200046160127103 1.1399895127138917
3.05274796486 0.1017707159183298 -0.0406558718862077 -1.463469594895918 2.046822419242664 2.050037204598331 -0.5200046160127103 1.1399895127138917
3.05274796486 0.1017707159183298 -0.0406558718862077 -1.463469594895918 2.046822419242664 2.050037204598331 -0.5200046160127103 1.1399895127138917
3.06263303757 0.0980737731825922 -0.0386463303991471 -1.4682249984149165 2.0465462990383347 2.050037204598331 -0.5200046160127103 1.1399895127138917
3.06263303757 0.0980737731825922 -0.0386463303991471 -1.4682249984149165 2.0465462990383347 2.050037204598331 -0.5200046160127103 1.1399895127138917
3.07288408279 0.0980737731825922 -0.0386463303991471 -1.4682249984149165 2.0465462990383347 2.050037204598331 -0.5200046160127103 1.1399895127138917
3.07288408279 0.0980737731825922 -0.0386463303991471 -1.4682249984149165 2.0465462990383347 2.050037204598331 -0.5200046160127103 1.1399895127138917
3.08282208443 0.0980737731825922 -0.0386463303991471 -1.4682249984149165 2.0465462990383347 2.050037204598331 -0.5200046160127103 1.1399895127138917
3.08282208443 0.0980737731825922 -0.0386463303991471 -1.4682249984149165 2.0465462990383347 2.050037204598331 -0.5200046160127103 1.1399895127138917
3.09290409088 0.0980737731825922 -0.0386463303991471 -1.4682249984149165 2.0465462990383347 2.050037204598331 -0.5200046160127103 1.1399895127138917
3.09290409088 0.0980737731825922 -0.0386463303991471 -1.4682249984149165 2.0465462990383347 2.050037204598331 -0.5200046160127103 1.1399895127138917
3.10286808014 0.0980737731825922 -0.0386463303991471 -1.4682249984149165 2.0465462990383347 2.050037204598331 -0.5200046160127103 1.1399895127138917
3.10286808014 0.0980737731825922 -0.0386463303991471 -1.4682249984149165 2.0465462990383347 2.050037204598331 -0.5200046160127103 1.1399895127138917
3.11277699471 0.0980737731825922 -0.0386463303991471 -1.4682249984149165 2.0465462990383347 2.050037204598331 -0.5200046160127103 1.1399895127138917
3.11277699471 0.0980737731825922 -0.0386463303991471 -1.4682249984149165 2.0465462990383347 2.050037204598331 -0.5200046160127103 1.1399895127138917
3.12280297279 0.094039350197119 -0.0368208690483056 -1.473179822081486 2.0461627987545445 2.050037204598331 -0.5200046160127103 1.1399895127138917
3.12280297279 0.094039350197119 -0.0368208690483056 -1.473179822081486 2.0461627987545445 2.050037204598331 -0.5200046160127103 1.1399895127138917
3.13280391693 0.0819054012179969 -0.031206424893617 -1.4858966914919691 2.0457025984139965 2.050037204598331 -0.5200046160127103 1.1399895127138917
3.13280391693 0.0819054012179969 -0.031206424893617 -1.4858966914919691 2.0457025984139965 2.050037204598331 -0.5200046160127103 1.1399895127138917
3.14268803596 0.0819054012179969 -0.031206424893617 -1.4858966914919691 2.0457025984139965 2.050037204598331 -0.5200046160127103 1.1399895127138917
3.14268803596 0.0819054012179969 -0.031206424893617 -1.4858966914919691 2.0457025984139965 2.050037204598331 -0.5200046160127103 1.1399895127138917
3.1525080204 0.0775948580281948 -0.0294576635995336 -1.4892714939893232 2.0457025984139965 2.050037204598331 -0.5200046160127103 1.1399895127138917
3.1525080204 0.0775948580281948 -0.0294576635995336 -1.4892714939893232 2.0457025984139965 2.050037204598331 -0.5200046160127103 1.1399895127138917
3.16262602806 0.0736217950881283 -0.0277089023054503 -1.4926769765093804 2.0457025984139965 2.050037204598331 -0.5200046160127103 1.1399895127138917
3.16262602806 0.0736217950881283 -0.0277089023054503 -1.4926769765093804 2.0457025984139965 2.050037204598331 -0.5200046160127103 1.1399895127138917
3.17286610603 0.0736217950881283 -0.0277089023054503 -1.4926769765093804 2.0457025984139965 2.050037204598331 -0.5200046160127103 1.1399895127138917
3.17286610603 0.0736217950881283 -0.0277089023054503 -1.4926769765093804 2.0457025984139965 2.050037204598331 -0.5200046160127103 1.1399895127138917
3.18280601501 0.0736217950881283 -0.0277089023054503 -1.4926769765093804 2.0457025984139965 2.050037204598331 -0.5200046160127103 1.1399895127138917
3.18280601501 0.0736217950881283 -0.0277089023054503 -1.4926769765093804 2.0457025984139965 2.050037204598331 -0.5200046160127103 1.1399895127138917
3.19303393364 0.0736217950881283 -0.0277089023054503 -1.4926769765093804 2.0457025984139965 2.050037204598331 -0.5200046160127103 1.1399895127138917
3.19303393364 0.0736217950881283 -0.0277089023054503 -1.4926769765093804 2.0457025984139965 2.050037204598331 -0.5200046160127103 1.1399895127138917
3.20285391808 0.0736217950881283 -0.0277089023054503 -1.4926769765093804 2.0457025984139965 2.050037204598331 -0.5200046160127103 1.1399895127138917
3.20285391808 0.0736217950881283 -0.0277089023054503 -1.4926769765093804 2.0457025984139965 2.050037204598331 -0.5200046160127103 1.1399895127138917
3.21290302277 0.0736217950881283 -0.0277089023054503 -1.4926769765093804 2.0457025984139965 2.050037204598331 -0.5200046160127103 1.1399895127138917
3.21290302277 0.0736217950881283 -0.0277089023054503 -1.4926769765093804 2.0457025984139965 2.050037204598331 -0.5200046160127103 1.1399895127138917
3.22333908081 0.0696947521821167 -0.0262362612156958 -1.4958676988705149 2.0456872584026446 2.050037204598331 -0.5200046160127103 1.1399895127138917
3.22333908081 0.0696947521821167 -0.0262362612156958 -1.4958676988705149 2.0456872584026446 2.050037204598331 -0.5200046160127103 1.1399895127138917
3.23291611671 0.0696947521821167 -0.0262362612156958 -1.4958676988705149 2.0456872584026446 2.050037204598331 -0.5200046160127103 1.1399895127138917
3.23291611671 0.0696947521821167 -0.0262362612156958 -1.4958676988705149 2.0456872584026446 2.050037204598331 -0.5200046160127103 1.1399895127138917
3.24295306206 0.0696947521821167 -0.0262362612156958 -1.4958676988705149 2.0456872584026446 2.050037204598331 -0.5200046160127103 1.1399895127138917
3.24295306206 0.0696947521821167 -0.0262362612156958 -1.4958676988705149 2.0456872584026446 2.050037204598331 -0.5200046160127103 1.1399895127138917
3.2528860569 0.0696947521821167 -0.0262362612156958 -1.4958676988705149 2.0456872584026446 2.050037204598331 -0.5200046160127103 1.1399895127138917
3.2528860569 0.0696947521821167 -0.0262362612156958 -1.4958676988705149 2.0456872584026446 2.050037204598331 -0.5200046160127103 1.1399895127138917
3.26268696785 0.0696947521821167 -0.0262362612156958 -1.4958676988705149 2.0456872584026446 2.050037204598331 -0.5200046160127103 1.1399895127138917
3.26268696785 0.0696947521821167 -0.0262362612156958 -1.4958676988705149 2.0456872584026446 2.050037204598331 -0.5200046160127103 1.1399895127138917
3.27252912521 0.0610123057571063 -0.0236131192745708 -1.5019576833771031 2.0456872584026446 2.050037204598331 -0.5200046160127103 1.1399895127138917
3.27252912521 0.0610123057571063 -0.0236131192745708 -1.5019576833771031 2.0456872584026446 2.050037204598331 -0.5200046160127103 1.1399895127138917
3.28241896629 0.0475897958244488 -0.019532676255043 -1.5090754486442497 2.0456719183912933 2.050037204598331 -0.5200046160127103 1.1399895127138917
3.28241896629 0.0475897958244488 -0.019532676255043 -1.5090754486442497 2.0456719183912933 2.050037204598331 -0.5200046160127103 1.1399895127138917
3.29250001907 0.0475897958244488 -0.019532676255043 -1.5090754486442497 2.0456719183912933 2.050037204598331 -0.5200046160127103 1.1399895127138917
3.29250001907 0.0475897958244488 -0.019532676255043 -1.5090754486442497 2.0456719183912933 2.050037204598331 -0.5200046160127103 1.1399895127138917
3.30269694328 0.0475897958244488 -0.019532676255043 -1.5090754486442497 2.0456719183912933 2.050037204598331 -0.5200046160127103 1.1399895127138917
3.30269694328 0.0475897958244488 -0.019532676255043 -1.5090754486442497 2.0456719183912933 2.050037204598331 -0.5200046160127103 1.1399895127138917
3.31282997131 0.0475897958244488 -0.019532676255043 -1.5090754486442497 2.0456719183912933 2.050037204598331 -0.5200046160127103 1.1399895127138917
3.31282997131 0.0475897958244488 -0.019532676255043 -1.5090754486442497 2.0456719183912933 2.050037204598331 -0.5200046160127103 1.1399895127138917
3.32265996933 0.0475897958244488 -0.019532676255043 -1.5090754486442497 2.0456719183912933 2.050037204598331 -0.5200046160127103 1.1399895127138917
3.32265996933 0.0475897958244488 -0.019532676255043 -1.5090754486442497 2.0456719183912933 2.050037204598331 -0.5200046160127103 1.1399895127138917
3.33288097382 0.0475897958244488 -0.019532676255043 -1.5090754486442497 2.0456719183912933 2.050037204598331 -0.5200046160127103 1.1399895127138917
3.33288097382 0.0475897958244488 -0.019532676255043 -1.5090754486442497 2.0456719183912933 2.050037204598331 -0.5200046160127103 1.1399895127138917
3.34280014038 0.0475897958244488 -0.019532676255043 -1.5090754486442497 2.0456719183912933 2.050037204598331 -0.5200046160127103 1.1399895127138917
3.34280014038 0.0475897958244488 -0.019532676255043 -1.5090754486442497 2.0456719183912933 2.050037204598331 -0.5200046160127103 1.1399895127138917
3.35293793678 0.0475897958244488 -0.019532676255043 -1.5090754486442497 2.0456719183912933 2.050037204598331 -0.5200046160127103 1.1399895127138917
3.35293793678 0.0475897958244488 -0.019532676255043 -1.5090754486442497 2.0456719183912933 2.050037204598331 -0.5200046160127103 1.1399895127138917
3.36282396317 0.0475897958244488 -0.019532676255043 -1.5090754486442497 2.0456719183912933 2.050037204598331 -0.5200046160127103 1.1399895127138917
3.36282396317 0.0475897958244488 -0.019532676255043 -1.5090754486442497 2.0456719183912933 2.050037204598331 -0.5200046160127103 1.1399895127138917
3.37287592888 0.0475897958244488 -0.019532676255043 -1.5090754486442497 2.0456719183912933 2.050037204598331 -0.5200046160127103 1.1399895127138917
3.37287592888 0.0475897958244488 -0.019532676255043 -1.5090754486442497 2.0456719183912933 2.050037204598331 -0.5200046160127103 1.1399895127138917
3.38290905952 0.0475897958244488 -0.019532676255043 -1.5090754486442497 2.0456719183912933 2.050037204598331 -0.5200046160127103 1.1399895127138917
3.38290905952 0.0475897958244488 -0.019532676255043 -1.5090754486442497 2.0456719183912933 2.050037204598331 -0.5200046160127103 1.1399895127138917
3.39288496971 0.0475897958244488 -0.019532676255043 -1.5090754486442497 2.0456719183912933 2.050037204598331 -0.5200046160127103 1.1399895127138917
3.39288496971 0.0475897958244488 -0.019532676255043 -1.5090754486442497 2.0456719183912933 2.050037204598331 -0.5200046160127103 1.1399895127138917
3.40278792381 0.0475897958244488 -0.019532676255043 -1.5090754486442497 2.0456719183912933 2.050037204598331 -0.5200046160127103 1.1399895127138917
3.40278792381 0.0475897958244488 -0.019532676255043 -1.5090754486442497 2.0456719183912933 2.050037204598331 -0.5200046160127103 1.1399895127138917
3.41285014153 0.0475897958244488 -0.019532676255043 -1.5090754486442497 2.0456719183912933 2.050037204598331 -0.5200046160127103 1.1399895127138917
3.41285014153 0.0475897958244488 -0.019532676255043 -1.5090754486442497 2.0456719183912933 2.050037204598331 -0.5200046160127103 1.1399895127138917
3.42272496223 0.0475897958244488 -0.019532676255043 -1.5090754486442497 2.0456719183912933 2.050037204598331 -0.5200046160127103 1.1399895127138917
3.42272496223 0.0475897958244488 -0.019532676255043 -1.5090754486442497 2.0456719183912933 2.050037204598331 -0.5200046160127103 1.1399895127138917
3.43290901184 0.0475897958244488 -0.019532676255043 -1.5090754486442497 2.0456719183912933 2.050037204598331 -0.5200046160127103 1.1399895127138917
3.43290901184 0.0475897958244488 -0.019532676255043 -1.5090754486442497 2.0456719183912933 2.050037204598331 -0.5200046160127103 1.1399895127138917
3.44280314445 0.0475897958244488 -0.019532676255043 -1.5090754486442497 2.0456719183912933 2.050037204598331 -0.5200046160127103 1.1399895127138917
3.44280314445 0.0475897958244488 -0.019532676255043 -1.5090754486442497 2.0456719183912933 2.050037204598331 -0.5200046160127103 1.1399895127138917
3.45286893845 0.0475897958244488 -0.019532676255043 -1.5090754486442497 2.0456719183912933 2.050037204598331 -0.5200046160127103 1.1399895127138917
3.45286893845 0.0475897958244488 -0.019532676255043 -1.5090754486442497 2.0456719183912933 2.050037204598331 -0.5200046160127103 1.1399895127138917
3.46278715134 0.0475897958244488 -0.019532676255043 -1.5090754486442497 2.0456719183912933 2.050037204598331 -0.5200046160127103 1.1399895127138917
3.46278715134 0.0475897958244488 -0.019532676255043 -1.5090754486442497 2.0456719183912933 2.050037204598331 -0.5200046160127103 1.1399895127138917
3.47291207314 0.0475897958244488 -0.019532676255043 -1.5090754486442497 2.0456719183912933 2.050037204598331 -0.5200046160127103 1.1399895127138917
3.47291207314 0.0475897958244488 -0.019532676255043 -1.5090754486442497 2.0456719183912933 2.050037204598331 -0.5200046160127103 1.1399895127138917
3.48277497292 0.0475897958244488 -0.019532676255043 -1.5090754486442497 2.0456719183912933 2.050037204598331 -0.5200046160127103 1.1399895127138917
3.48277497292 0.0475897958244488 -0.019532676255043 -1.5090754486442497 2.0456719183912933 2.050037204598331 -0.5200046160127103 1.1399895127138917
3.49287199974 0.0475897958244488 -0.019532676255043 -1.5090754486442497 2.0456719183912933 2.050037204598331 -0.5200046160127103 1.1399895127138917
3.49287199974 0.0475897958244488 -0.019532676255043 -1.5090754486442497 2.0456719183912933 2.050037204598331 -0.5200046160127103 1.1399895127138917
3.50280404091 0.0475897958244488 -0.019532676255043 -1.5090754486442497 2.0456719183912933 2.050037204598331 -0.5200046160127103 1.1399895127138917
3.50280404091 0.0475897958244488 -0.019532676255043 -1.5090754486442497 2.0456719183912933 2.050037204598331 -0.5200046160127103 1.1399895127138917
3.51279807091 0.0475897958244488 -0.019532676255043 -1.5090754486442497 2.0456719183912933 2.050037204598331 -0.5200046160127103 1.1399895127138917
3.51279807091 0.0475897958244488 -0.019532676255043 -1.5090754486442497 2.0456719183912933 2.050037204598331 -0.5200046160127103 1.1399895127138917
3.52278804779 0.0475897958244488 -0.019532676255043 -1.5090754486442497 2.0456719183912933 2.050037204598331 -0.5200046160127103 1.1399895127138917
3.52278804779 0.0475897958244488 -0.019532676255043 -1.5090754486442497 2.0456719183912933 2.050037204598331 -0.5200046160127103 1.1399895127138917
3.53288412094 0.0475897958244488 -0.019532676255043 -1.5090754486442497 2.0456719183912933 2.050037204598331 -0.5200046160127103 1.1399895127138917
3.53288412094 0.0475897958244488 -0.019532676255043 -1.5090754486442497 2.0456719183912933 2.050037204598331 -0.5200046160127103 1.1399895127138917
3.54270195961 0.0475897958244488 -0.019532676255043 -1.5090754486442497 2.0456719183912933 2.050037204598331 -0.5200046160127103 1.1399895127138917
3.54270195961 0.0475897958244488 -0.019532676255043 -1.5090754486442497 2.0456719183912933 2.050037204598331 -0.5200046160127103 1.1399895127138917
3.55290293694 0.0475897958244488 -0.019532676255043 -1.5090754486442497 2.0456719183912933 2.050037204598331 -0.5200046160127103 1.1399895127138917
3.55290293694 0.0475897958244488 -0.019532676255043 -1.5090754486442497 2.0456719183912933 2.050037204598331 -0.5200046160127103 1.1399895127138917
3.56281113625 0.0475897958244488 -0.019532676255043 -1.5090754486442497 2.0456719183912933 2.050037204598331 -0.5200046160127103 1.1399895127138917
3.56281113625 0.0475897958244488 -0.019532676255043 -1.5090754486442497 2.0456719183912933 2.050037204598331 -0.5200046160127103 1.1399895127138917
3.57278800011 0.0475897958244488 -0.019532676255043 -1.5090754486442497 2.0456719183912933 2.050037204598331 -0.5200046160127103 1.1399895127138917
3.57278800011 0.0475897958244488 -0.019532676255043 -1.5090754486442497 2.0456719183912933 2.050037204598331 -0.5200046160127103 1.1399895127138917
3.5827870369 0.0475897958244488 -0.019532676255043 -1.5090754486442497 2.0456719183912933 2.050037204598331 -0.5200046160127103 1.1399895127138917
3.5827870369 0.0475897958244488 -0.019532676255043 -1.5090754486442497 2.0456719183912933 2.050037204598331 -0.5200046160127103 1.1399895127138917
3.59291195869 0.0475897958244488 -0.019532676255043 -1.5090754486442497 2.0456719183912933 2.050037204598331 -0.5200046160127103 1.1399895127138917
3.59291195869 0.0475897958244488 -0.019532676255043 -1.5090754486442497 2.0456719183912933 2.050037204598331 -0.5200046160127103 1.1399895127138917
3.60275793076 0.0475897958244488 -0.019532676255043 -1.5090754486442497 2.0456719183912933 2.050037204598331 -0.5200046160127103 1.1399895127138917
3.60275793076 0.0475897958244488 -0.019532676255043 -1.5090754486442497 2.0456719183912933 2.050037204598331 -0.5200046160127103 1.1399895127138917
3.61286401749 0.0475897958244488 -0.019532676255043 -1.5090754486442497 2.0456719183912933 2.050037204598331 -0.5200046160127103 1.1399895127138917
3.61286401749 0.0475897958244488 -0.019532676255043 -1.5090754486442497 2.0456719183912933 2.050037204598331 -0.5200046160127103 1.1399895127138917
3.62279105186 0.0475897958244488 -0.019532676255043 -1.5090754486442497 2.0456719183912933 2.050037204598331 -0.5200046160127103 1.1399895127138917
3.62279105186 0.0475897958244488 -0.019532676255043 -1.5090754486442497 2.0456719183912933 2.050037204598331 -0.5200046160127103 1.1399895127138917
3.63281702995 0.0475897958244488 -0.019532676255043 -1.5090754486442497 2.0456719183912933 2.050037204598331 -0.5200046160127103 1.1399895127138917
3.63281702995 0.0475897958244488 -0.019532676255043 -1.5090754486442497 2.0456719183912933 2.050037204598331 -0.5200046160127103 1.1399895127138917
3.64278912544 0.0475897958244488 -0.019532676255043 -1.5090754486442497 2.0456719183912933 2.050037204598331 -0.5200046160127103 1.1399895127138917
3.64278912544 0.0475897958244488 -0.019532676255043 -1.5090754486442497 2.0456719183912933 2.050037204598331 -0.5200046160127103 1.1399895127138917
3.65290808678 0.0475897958244488 -0.019532676255043 -1.5090754486442497 2.0456719183912933 2.050037204598331 -0.5200046160127103 1.1399895127138917
3.65290808678 0.0475897958244488 -0.019532676255043 -1.5090754486442497 2.0456719183912933 2.050037204598331 -0.5200046160127103 1.1399895127138917
3.66292214394 0.0475897958244488 -0.019532676255043 -1.5090754486442497 2.0456719183912933 2.050037204598331 -0.5200046160127103 1.1399895127138917
3.66292214394 0.0475897958244488 -0.019532676255043 -1.5090754486442497 2.0456719183912933 2.050037204598331 -0.5200046160127103 1.1399895127138917
3.67288398743 0.0475897958244488 -0.019532676255043 -1.5090754486442497 2.0456719183912933 2.050037204598331 -0.5200046160127103 1.1399895127138917
3.67288398743 0.0475897958244488 -0.019532676255043 -1.5090754486442497 2.0456719183912933 2.050037204598331 -0.5200046160127103 1.1399895127138917
3.68265295029 0.0475897958244488 -0.019532676255043 -1.5090754486442497 2.0456719183912933 2.050037204598331 -0.5200046160127103 1.1399895127138917
3.68265295029 0.0475897958244488 -0.019532676255043 -1.5090754486442497 2.0456719183912933 2.050037204598331 -0.5200046160127103 1.1399895127138917
3.69278693199 0.0475897958244488 -0.019532676255043 -1.5090754486442497 2.0456719183912933 2.050037204598331 -0.5200046160127103 1.1399895127138917
3.69278693199 0.0475897958244488 -0.019532676255043 -1.5090754486442497 2.0456719183912933 2.050037204598331 -0.5200046160127103 1.1399895127138917
3.70278096199 0.0475897958244488 -0.019532676255043 -1.5090754486442497 2.0456719183912933 2.050037204598331 -0.5200046160127103 1.1399895127138917
3.70278096199 0.0475897958244488 -0.019532676255043 -1.5090754486442497 2.0456719183912933 2.050037204598331 -0.5200046160127103 1.1399895127138917
3.71286392212 0.0475897958244488 -0.019532676255043 -1.5090754486442497 2.0456719183912933 2.050037204598331 -0.5200046160127103 1.1399895127138917
3.71286392212 0.0475897958244488 -0.019532676255043 -1.5090754486442497 2.0456719183912933 2.050037204598331 -0.5200046160127103 1.1399895127138917
3.72281312943 0.0475897958244488 -0.019532676255043 -1.5090754486442497 2.0456719183912933 2.050037204598331 -0.5200046160127103 1.1399895127138917
3.72281312943 0.0475897958244488 -0.019532676255043 -1.5090754486442497 2.0456719183912933 2.050037204598331 -0.5200046160127103 1.1399895127138917
3.73290205002 0.0475897958244488 -0.019532676255043 -1.5090754486442497 2.0456719183912933 2.050037204598331 -0.5200046160127103 1.1399895127138917
3.73290205002 0.0475897958244488 -0.019532676255043 -1.5090754486442497 2.0456719183912933 2.050037204598331 -0.5200046160127103 1.1399895127138917
3.74274301529 0.0467307551887587 -0.0182747953242111 -1.5109315900177944 2.0454724982437225 2.050037204598331 -0.5200046160127103 1.1399895127138917
3.74274301529 0.0467307551887587 -0.0182747953242111 -1.5109315900177944 2.0454724982437225 2.050037204598331 -0.5200046160127103 1.1399895127138917
3.75265312195 0.0466540551320006 -0.0158357335193054 -1.5140916323562257 2.041959635644204 2.050037204598331 -0.5200046160127103 1.1399895127138917
3.75265312195 0.0466540551320006 -0.0158357335193054 -1.5140916323562257 2.041959635644204 2.050037204598331 -0.5200046160127103 1.1399895127138917
3.76274895668 0.0466540551320006 -0.0158357335193054 -1.5140916323562257 2.041959635644204 2.050037204598331 -0.5200046160127103 1.1399895127138917
3.76274895668 0.0466540551320006 -0.0158357335193054 -1.5140916323562257 2.041959635644204 2.050037204598331 -0.5200046160127103 1.1399895127138917
3.77272415161 0.0466540551320006 -0.0143477524181994 -1.5153955333211124 2.039305813680376 2.050037204598331 -0.5200046160127103 1.1399895127138917
3.77272415161 0.0466540551320006 -0.0143477524181994 -1.5153955333211124 2.039305813680376 2.050037204598331 -0.5200046160127103 1.1399895127138917
3.7826731205 0.0466540551320006 -0.0143477524181994 -1.5153955333211124 2.039305813680376 2.050037204598331 -0.5200046160127103 1.1399895127138917
3.7826731205 0.0466540551320006 -0.0143477524181994 -1.5153955333211124 2.039305813680376 2.050037204598331 -0.5200046160127103 1.1399895127138917
3.79271292686 0.0466540551320006 -0.0143477524181994 -1.5153955333211124 2.039305813680376 2.050037204598331 -0.5200046160127103 1.1399895127138917
3.79271292686 0.0466540551320006 -0.0143477524181994 -1.5153955333211124 2.039305813680376 2.050037204598331 -0.5200046160127103 1.1399895127138917
3.80276298523 0.0466540551320006 -0.0143477524181994 -1.5153955333211124 2.039305813680376 2.050037204598331 -0.5200046160127103 1.1399895127138917
3.80276298523 0.0466540551320006 -0.0143477524181994 -1.5153955333211124 2.039305813680376 2.050037204598331 -0.5200046160127103 1.1399895127138917
3.81284713745 0.0466540551320006 -0.0143477524181994 -1.5153955333211124 2.039305813680376 2.050037204598331 -0.5200046160127103 1.1399895127138917
3.81284713745 0.0466540551320006 -0.0143477524181994 -1.5153955333211124 2.039305813680376 2.050037204598331 -0.5200046160127103 1.1399895127138917
3.82279205322 0.0466540551320006 -0.0143477524181994 -1.5153955333211124 2.039305813680376 2.050037204598331 -0.5200046160127103 1.1399895127138917
3.82279205322 0.0466540551320006 -0.0143477524181994 -1.5153955333211124 2.039305813680376 2.050037204598331 -0.5200046160127103 1.1399895127138917
3.8328769207 0.0466540551320006 -0.0143477524181994 -1.5153955333211124 2.039305813680376 2.050037204598331 -0.5200046160127103 1.1399895127138917
3.8328769207 0.0466540551320006 -0.0143477524181994 -1.5153955333211124 2.039305813680376 2.050037204598331 -0.5200046160127103 1.1399895127138917
3.8428030014 0.0466540551320006 -0.0143477524181994 -1.5153955333211124 2.039305813680376 2.050037204598331 -0.5200046160127103 1.1399895127138917
3.8428030014 0.0466540551320006 -0.0143477524181994 -1.5153955333211124 2.039305813680376 2.050037204598331 -0.5200046160127103 1.1399895127138917
3.85287094116 0.0466540551320006 -0.0143477524181994 -1.5153955333211124 2.039305813680376 2.050037204598331 -0.5200046160127103 1.1399895127138917
3.85287094116 0.0466540551320006 -0.0143477524181994 -1.5153955333211124 2.039305813680376 2.050037204598331 -0.5200046160127103 1.1399895127138917
3.86282491684 0.0466540551320006 -0.0143477524181994 -1.5153955333211124 2.039305813680376 2.050037204598331 -0.5200046160127103 1.1399895127138917
3.86282491684 0.0466540551320006 -0.0143477524181994 -1.5153955333211124 2.039305813680376 2.050037204598331 -0.5200046160127103 1.1399895127138917
3.87289500237 0.0466540551320006 -0.0143477524181994 -1.5153955333211124 2.039305813680376 2.050037204598331 -0.5200046160127103 1.1399895127138917
3.87289500237 0.0466540551320006 -0.0143477524181994 -1.5153955333211124 2.039305813680376 2.050037204598331 -0.5200046160127103 1.1399895127138917
3.88271403313 0.0466540551320006 -0.0143477524181994 -1.5153955333211124 2.039305813680376 2.050037204598331 -0.5200046160127103 1.1399895127138917
3.88271403313 0.0466540551320006 -0.0143477524181994 -1.5153955333211124 2.039305813680376 2.050037204598331 -0.5200046160127103 1.1399895127138917
3.89286613464 0.0466540551320006 -0.0143477524181994 -1.5153955333211124 2.039305813680376 2.050037204598331 -0.5200046160127103 1.1399895127138917
3.89286613464 0.0466540551320006 -0.0143477524181994 -1.5153955333211124 2.039305813680376 2.050037204598331 -0.5200046160127103 1.1399895127138917
3.90265107155 0.0466540551320006 -0.0143477524181994 -1.5153955333211124 2.039305813680376 2.050037204598331 -0.5200046160127103 1.1399895127138917
3.90265107155 0.0466540551320006 -0.0143477524181994 -1.5153955333211124 2.039305813680376 2.050037204598331 -0.5200046160127103 1.1399895127138917
3.91268205643 0.0466540551320006 -0.0143477524181994 -1.5153955333211124 2.039305813680376 2.050037204598331 -0.5200046160127103 1.1399895127138917
3.91268205643 0.0466540551320006 -0.0143477524181994 -1.5153955333211124 2.039305813680376 2.050037204598331 -0.5200046160127103 1.1399895127138917
3.92276501656 0.0466540551320006 -0.0143477524181994 -1.5153955333211124 2.039305813680376 2.050037204598331 -0.5200046160127103 1.1399895127138917
3.92276501656 0.0466540551320006 -0.0143477524181994 -1.5153955333211124 2.039305813680376 2.050037204598331 -0.5200046160127103 1.1399895127138917
3.93291902542 0.0466540551320006 -0.0143477524181994 -1.5153955333211124 2.039305813680376 2.050037204598331 -0.5200046160127103 1.1399895127138917
3.93291902542 0.0466540551320006 -0.0143477524181994 -1.5153955333211124 2.039305813680376 2.050037204598331 -0.5200046160127103 1.1399895127138917
3.94272303581 0.0466540551320006 -0.0143477524181994 -1.5153955333211124 2.039305813680376 2.050037204598331 -0.5200046160127103 1.1399895127138917
3.94272303581 0.0466540551320006 -0.0143477524181994 -1.5153955333211124 2.039305813680376 2.050037204598331 -0.5200046160127103 1.1399895127138917
3.95285892487 0.0466540551320006 -0.0143477524181994 -1.5153955333211124 2.039305813680376 2.050037204598331 -0.5200046160127103 1.1399895127138917
3.95285892487 0.0466540551320006 -0.0143477524181994 -1.5153955333211124 2.039305813680376 2.050037204598331 -0.5200046160127103 1.1399895127138917
3.96281599998 0.0466540551320006 -0.0143477524181994 -1.5153955333211124 2.039305813680376 2.050037204598331 -0.5200046160127103 1.1399895127138917
3.96281599998 0.0466540551320006 -0.0143477524181994 -1.5153955333211124 2.039305813680376 2.050037204598331 -0.5200046160127103 1.1399895127138917
3.97279500961 0.0466540551320006 -0.0143477524181994 -1.5153955333211124 2.039305813680376 2.050037204598331 -0.5200046160127103 1.1399895127138917
3.97279500961 0.0466540551320006 -0.0143477524181994 -1.5153955333211124 2.039305813680376 2.050037204598331 -0.5200046160127103 1.1399895127138917
3.98279094696 0.0466540551320006 -0.0143477524181994 -1.5153955333211124 2.039305813680376 2.050037204598331 -0.5200046160127103 1.1399895127138917
3.98279094696 0.0466540551320006 -0.0143477524181994 -1.5153955333211124 2.039305813680376 2.050037204598331 -0.5200046160127103 1.1399895127138917
3.99292397499 0.0466540551320006 -0.0143477524181994 -1.5153955333211124 2.039305813680376 2.050037204598331 -0.5200046160127103 1.1399895127138917
3.99292397499 0.0466540551320006 -0.0143477524181994 -1.5153955333211124 2.039305813680376 2.050037204598331 -0.5200046160127103 1.1399895127138917
4.0029759407 0.0466540551320006 -0.0143477524181994 -1.5153955333211124 2.039305813680376 2.050037204598331 -0.5200046160127103 1.1399895127138917
4.0029759407 0.0466540551320006 -0.0143477524181994 -1.5153955333211124 2.039305813680376 2.050037204598331 -0.5200046160127103 1.1399895127138917
4.01287007332 0.0466540551320006 -0.0143477524181994 -1.5153955333211124 2.039305813680376 2.050037204598331 -0.5200046160127103 1.1399895127138917
4.01287007332 0.0466540551320006 -0.0143477524181994 -1.5153955333211124 2.039305813680376 2.050037204598331 -0.5200046160127103 1.1399895127138917
4.02278900146 0.0466540551320006 -0.0143477524181994 -1.5153955333211124 2.039305813680376 2.050037204598331 -0.5200046160127103 1.1399895127138917
4.02278900146 0.0466540551320006 -0.0143477524181994 -1.5153955333211124 2.039305813680376 2.050037204598331 -0.5200046160127103 1.1399895127138917
4.03292512894 0.0466540551320006 -0.0143477524181994 -1.5153955333211124 2.039305813680376 2.050037204598331 -0.5200046160127103 1.1399895127138917
4.03292512894 0.0466540551320006 -0.0143477524181994 -1.5153955333211124 2.039305813680376 2.050037204598331 -0.5200046160127103 1.1399895127138917
4.04278206825 0.0466540551320006 -0.0143477524181994 -1.5153955333211124 2.039305813680376 2.050037204598331 -0.5200046160127103 1.1399895127138917
4.04278206825 0.0466540551320006 -0.0143477524181994 -1.5153955333211124 2.039305813680376 2.050037204598331 -0.5200046160127103 1.1399895127138917
4.0528819561 0.0466540551320006 -0.0143477524181994 -1.5153955333211124 2.039305813680376 2.050037204598331 -0.5200046160127103 1.1399895127138917
4.0528819561 0.0466540551320006 -0.0143477524181994 -1.5153955333211124 2.039305813680376 2.050037204598331 -0.5200046160127103 1.1399895127138917
4.06279110909 0.0466540551320006 -0.0143477524181994 -1.5153955333211124 2.039305813680376 2.050037204598331 -0.5200046160127103 1.1399895127138917
4.06279110909 0.0466540551320006 -0.0143477524181994 -1.5153955333211124 2.039305813680376 2.050037204598331 -0.5200046160127103 1.1399895127138917
4.07275295258 0.0466540551320006 -0.0143477524181994 -1.5153955333211124 2.039305813680376 2.050037204598331 -0.5200046160127103 1.1399895127138917
4.07275295258 0.0466540551320006 -0.0143477524181994 -1.5153955333211124 2.039305813680376 2.050037204598331 -0.5200046160127103 1.1399895127138917
4.08278393745 0.0466540551320006 -0.0143477524181994 -1.5153955333211124 2.039305813680376 2.050037204598331 -0.5200046160127103 1.1399895127138917
4.08278393745 0.0466540551320006 -0.0143477524181994 -1.5153955333211124 2.039305813680376 2.050037204598331 -0.5200046160127103 1.1399895127138917
4.09280204773 0.0466540551320006 -0.0143477524181994 -1.5153955333211124 2.039305813680376 2.050037204598331 -0.5200046160127103 1.1399895127138917
4.09280204773 0.0466540551320006 -0.0143477524181994 -1.5153955333211124 2.039305813680376 2.050037204598331 -0.5200046160127103 1.1399895127138917
4.10279798508 0.0466540551320006 -0.0143477524181994 -1.5153955333211124 2.039305813680376 2.050037204598331 -0.5200046160127103 1.1399895127138917
4.10279798508 0.0466540551320006 -0.0143477524181994 -1.5153955333211124 2.039305813680376 2.050037204598331 -0.5200046160127103 1.1399895127138917
4.11296510696 0.0466540551320006 -0.0143477524181994 -1.5153955333211124 2.039305813680376 2.050037204598331 -0.5200046160127103 1.1399895127138917
4.11296510696 0.0466540551320006 -0.0143477524181994 -1.5153955333211124 2.039305813680376 2.050037204598331 -0.5200046160127103 1.1399895127138917
4.12283396721 0.0466540551320006 -0.0143477524181994 -1.5153955333211124 2.039305813680376 2.050037204598331 -0.5200046160127103 1.1399895127138917
4.12283396721 0.0466540551320006 -0.0143477524181994 -1.5153955333211124 2.039305813680376 2.050037204598331 -0.5200046160127103 1.1399895127138917
4.13287210464 0.0466540551320006 -0.0143477524181994 -1.5153955333211124 2.039305813680376 2.050037204598331 -0.5200046160127103 1.1399895127138917
4.13287210464 0.0466540551320006 -0.0143477524181994 -1.5153955333211124 2.039305813680376 2.050037204598331 -0.5200046160127103 1.1399895127138917
4.14278507233 0.0466540551320006 -0.0143477524181994 -1.5153955333211124 2.039305813680376 2.050037204598331 -0.5200046160127103 1.1399895127138917
4.14278507233 0.0466540551320006 -0.0143477524181994 -1.5153955333211124 2.039305813680376 2.050037204598331 -0.5200046160127103 1.1399895127138917
4.15284395218 0.0466540551320006 -0.0143477524181994 -1.5153955333211124 2.039305813680376 2.050037204598331 -0.5200046160127103 1.1399895127138917
4.15284395218 0.0466540551320006 -0.0143477524181994 -1.5153955333211124 2.039305813680376 2.050037204598331 -0.5200046160127103 1.1399895127138917
4.16288805008 0.0466540551320006 -0.0101139092851554 -1.517604494955744 2.0318352281521426 2.050037204598331 -0.5200046160127103 1.1399895127138917
4.16288805008 0.0466540551320006 -0.0101139092851554 -1.517604494955744 2.0318352281521426 2.050037204598331 -0.5200046160127103 1.1399895127138917
4.17267513275 0.0466540551320006 -0.0101139092851554 -1.517604494955744 2.0318352281521426 2.050037204598331 -0.5200046160127103 1.1399895127138917
4.17267513275 0.0466540551320006 -0.0101139092851554 -1.517604494955744 2.0318352281521426 2.050037204598331 -0.5200046160127103 1.1399895127138917
4.18262696266 0.0466540551320006 -0.0101139092851554 -1.517604494955744 2.0318352281521426 2.050037204598331 -0.5200046160127103 1.1399895127138917
4.18262696266 0.0466540551320006 -0.0101139092851554 -1.517604494955744 2.0318352281521426 2.050037204598331 -0.5200046160127103 1.1399895127138917
4.19284200668 0.0466540551320006 -0.0101139092851554 -1.517604494955744 2.0318352281521426 2.050037204598331 -0.5200046160127103 1.1399895127138917
4.19284200668 0.0466540551320006 -0.0101139092851554 -1.517604494955744 2.0318352281521426 2.050037204598331 -0.5200046160127103 1.1399895127138917
4.20279812813 0.0466540551320006 -0.0101139092851554 -1.517604494955744 2.0318352281521426 2.050037204598331 -0.5200046160127103 1.1399895127138917
4.20279812813 0.0466540551320006 -0.0101139092851554 -1.517604494955744 2.0318352281521426 2.050037204598331 -0.5200046160127103 1.1399895127138917
4.21288394928 0.0466540551320006 -0.0101139092851554 -1.517604494955744 2.0318352281521426 2.050037204598331 -0.5200046160127103 1.1399895127138917
4.21288394928 0.0466540551320006 -0.0101139092851554 -1.517604494955744 2.0318352281521426 2.050037204598331 -0.5200046160127103 1.1399895127138917
4.22273492813 0.0466540551320006 -0.0101139092851554 -1.517604494955744 2.0318352281521426 2.050037204598331 -0.5200046160127103 1.1399895127138917
4.22273492813 0.0466540551320006 -0.0101139092851554 -1.517604494955744 2.0318352281521426 2.050037204598331 -0.5200046160127103 1.1399895127138917
4.23286795616 0.0466540551320006 -0.0101139092851554 -1.517604494955744 2.0318352281521426 2.050037204598331 -0.5200046160127103 1.1399895127138917
4.23286795616 0.0466540551320006 -0.0101139092851554 -1.517604494955744 2.0318352281521426 2.050037204598331 -0.5200046160127103 1.1399895127138917
4.24283313751 0.0466540551320006 -0.0101139092851554 -1.517604494955744 2.0318352281521426 2.050037204598331 -0.5200046160127103 1.1399895127138917
4.24283313751 0.0466540551320006 -0.0101139092851554 -1.517604494955744 2.0318352281521426 2.050037204598331 -0.5200046160127103 1.1399895127138917
4.25278496742 0.0466540551320006 -0.0101139092851554 -1.517604494955744 2.0318352281521426 2.050037204598331 -0.5200046160127103 1.1399895127138917
4.25278496742 0.0466540551320006 -0.0101139092851554 -1.517604494955744 2.0318352281521426 2.050037204598331 -0.5200046160127103 1.1399895127138917
4.26279711723 0.0466540551320006 -0.0101139092851554 -1.517604494955744 2.0318352281521426 2.050037204598331 -0.5200046160127103 1.1399895127138917
4.26279711723 0.0466540551320006 -0.0101139092851554 -1.517604494955744 2.0318352281521426 2.050037204598331 -0.5200046160127103 1.1399895127138917
4.27288913727 0.0466540551320006 -0.0101139092851554 -1.517604494955744 2.0318352281521426 2.050037204598331 -0.5200046160127103 1.1399895127138917
4.27288913727 0.0466540551320006 -0.0101139092851554 -1.517604494955744 2.0318352281521426 2.050037204598331 -0.5200046160127103 1.1399895127138917
4.2826859951 0.0466540551320006 -0.0101139092851554 -1.517604494955744 2.0318352281521426 2.050037204598331 -0.5200046160127103 1.1399895127138917
4.2826859951 0.0466540551320006 -0.0101139092851554 -1.517604494955744 2.0318352281521426 2.050037204598331 -0.5200046160127103 1.1399895127138917
4.29287910461 0.0466540551320006 -0.0101139092851554 -1.517604494955744 2.0318352281521426 2.050037204598331 -0.5200046160127103 1.1399895127138917
4.29287910461 0.0466540551320006 -0.0101139092851554 -1.517604494955744 2.0318352281521426 2.050037204598331 -0.5200046160127103 1.1399895127138917
4.3028049469 0.0466540551320006 -0.0101139092851554 -1.517604494955744 2.0318352281521426 2.050037204598331 -0.5200046160127103 1.1399895127138917
4.3028049469 0.0466540551320006 -0.0101139092851554 -1.517604494955744 2.0318352281521426 2.050037204598331 -0.5200046160127103 1.1399895127138917
4.31271195412 0.0466540551320006 -0.0101139092851554 -1.517604494955744 2.0318352281521426 2.050037204598331 -0.5200046160127103 1.1399895127138917
4.31271195412 0.0466540551320006 -0.0101139092851554 -1.517604494955744 2.0318352281521426 2.050037204598331 -0.5200046160127103 1.1399895127138917
4.32278513908 0.0466540551320006 -0.0101139092851554 -1.517604494955744 2.0318352281521426 2.050037204598331 -0.5200046160127103 1.1399895127138917
4.32278513908 0.0466540551320006 -0.0101139092851554 -1.517604494955744 2.0318352281521426 2.050037204598331 -0.5200046160127103 1.1399895127138917
4.33288002014 0.0466540551320006 -0.0101139092851554 -1.517604494955744 2.0318352281521426 2.050037204598331 -0.5200046160127103 1.1399895127138917
4.33288002014 0.0466540551320006 -0.0101139092851554 -1.517604494955744 2.0318352281521426 2.050037204598331 -0.5200046160127103 1.1399895127138917
4.34288311005 0.0466540551320006 -0.0101139092851554 -1.517604494955744 2.0318352281521426 2.050037204598331 -0.5200046160127103 1.1399895127138917
4.34288311005 0.0466540551320006 -0.0101139092851554 -1.517604494955744 2.0318352281521426 2.050037204598331 -0.5200046160127103 1.1399895127138917
4.35287904739 0.0466540551320006 -0.0101139092851554 -1.517604494955744 2.0318352281521426 2.050037204598331 -0.5200046160127103 1.1399895127138917
4.35287904739 0.0466540551320006 -0.0101139092851554 -1.517604494955744 2.0318352281521426 2.050037204598331 -0.5200046160127103 1.1399895127138917
4.36278891563 0.0466540551320006 -0.0101139092851554 -1.517604494955744 2.0318352281521426 2.050037204598331 -0.5200046160127103 1.1399895127138917
4.36278891563 0.0466540551320006 -0.0101139092851554 -1.517604494955744 2.0318352281521426 2.050037204598331 -0.5200046160127103 1.1399895127138917
4.37290000916 0.0466540551320006 -0.0101139092851554 -1.517604494955744 2.0318352281521426 2.050037204598331 -0.5200046160127103 1.1399895127138917
4.37290000916 0.0466540551320006 -0.0101139092851554 -1.517604494955744 2.0318352281521426 2.050037204598331 -0.5200046160127103 1.1399895127138917
4.38281011581 0.0466540551320006 -0.0101139092851554 -1.517604494955744 2.0318352281521426 2.050037204598331 -0.5200046160127103 1.1399895127138917
4.38281011581 0.0466540551320006 -0.0101139092851554 -1.517604494955744 2.0318352281521426 2.050037204598331 -0.5200046160127103 1.1399895127138917
4.39291214943 0.0466540551320006 -0.0101139092851554 -1.517604494955744 2.0318352281521426 2.050037204598331 -0.5200046160127103 1.1399895127138917
4.39291214943 0.0466540551320006 -0.0101139092851554 -1.517604494955744 2.0318352281521426 2.050037204598331 -0.5200046160127103 1.1399895127138917
4.40279507637 0.0466540551320006 -0.0101139092851554 -1.517604494955744 2.0318352281521426 2.050037204598331 -0.5200046160127103 1.1399895127138917
4.40279507637 0.0466540551320006 -0.0101139092851554 -1.517604494955744 2.0318352281521426 2.050037204598331 -0.5200046160127103 1.1399895127138917
4.41291713715 0.0466540551320006 -0.0101139092851554 -1.517604494955744 2.0318352281521426 2.050037204598331 -0.5200046160127103 1.1399895127138917
4.41291713715 0.0466540551320006 -0.0101139092851554 -1.517604494955744 2.0318352281521426 2.050037204598331 -0.5200046160127103 1.1399895127138917
4.4228041172 0.0466540551320006 -0.0101139092851554 -1.517604494955744 2.0318352281521426 2.050037204598331 -0.5200046160127103 1.1399895127138917
4.4228041172 0.0466540551320006 -0.0101139092851554 -1.517604494955744 2.0318352281521426 2.050037204598331 -0.5200046160127103 1.1399895127138917
4.43292593956 0.0466540551320006 -0.0101139092851554 -1.517604494955744 2.0318352281521426 2.050037204598331 -0.5200046160127103 1.1399895127138917
4.43292593956 0.0466540551320006 -0.0101139092851554 -1.517604494955744 2.0318352281521426 2.050037204598331 -0.5200046160127103 1.1399895127138917
4.44272208214 0.0466540551320006 -0.0101139092851554 -1.517604494955744 2.0318352281521426 2.050037204598331 -0.5200046160127103 1.1399895127138917
4.44272208214 0.0466540551320006 -0.0101139092851554 -1.517604494955744 2.0318352281521426 2.050037204598331 -0.5200046160127103 1.1399895127138917
4.45288300514 0.0466540551320006 -0.0101139092851554 -1.517604494955744 2.0318352281521426 2.050037204598331 -0.5200046160127103 1.1399895127138917
4.45288300514 0.0466540551320006 -0.0101139092851554 -1.517604494955744 2.0318352281521426 2.050037204598331 -0.5200046160127103 1.1399895127138917
4.46282100677 0.0466540551320006 -0.0101139092851554 -1.517604494955744 2.0318352281521426 2.050037204598331 -0.5200046160127103 1.1399895127138917
4.46282100677 0.0466540551320006 -0.0101139092851554 -1.517604494955744 2.0318352281521426 2.050037204598331 -0.5200046160127103 1.1399895127138917
4.47287392616 0.0466540551320006 -0.0101139092851554 -1.517604494955744 2.0318352281521426 2.050037204598331 -0.5200046160127103 1.1399895127138917
4.47287392616 0.0466540551320006 -0.0101139092851554 -1.517604494955744 2.0318352281521426 2.050037204598331 -0.5200046160127103 1.1399895127138917
4.48279213905 0.0466540551320006 -0.0101139092851554 -1.517604494955744 2.0318352281521426 2.050037204598331 -0.5200046160127103 1.1399895127138917
4.48279213905 0.0466540551320006 -0.0101139092851554 -1.517604494955744 2.0318352281521426 2.050037204598331 -0.5200046160127103 1.1399895127138917
4.49286699295 0.0466540551320006 -0.0101139092851554 -1.517604494955744 2.0318352281521426 2.050037204598331 -0.5200046160127103 1.1399895127138917
4.49286699295 0.0466540551320006 -0.0101139092851554 -1.517604494955744 2.0318352281521426 2.050037204598331 -0.5200046160127103 1.1399895127138917
4.50267314911 0.0466540551320006 -0.0101139092851554 -1.517604494955744 2.0318352281521426 2.050037204598331 -0.5200046160127103 1.1399895127138917
4.50267314911 0.0466540551320006 -0.0101139092851554 -1.517604494955744 2.0318352281521426 2.050037204598331 -0.5200046160127103 1.1399895127138917
4.51289892197 0.0466540551320006 -0.0101139092851554 -1.517604494955744 2.0318352281521426 2.050037204598331 -0.5200046160127103 1.1399895127138917
4.51289892197 0.0466540551320006 -0.0101139092851554 -1.517604494955744 2.0318352281521426 2.050037204598331 -0.5200046160127103 1.1399895127138917
4.52282500267 0.0466540551320006 -0.0101139092851554 -1.517604494955744 2.0318352281521426 2.050037204598331 -0.5200046160127103 1.1399895127138917
4.52282500267 0.0466540551320006 -0.0101139092851554 -1.517604494955744 2.0318352281521426 2.050037204598331 -0.5200046160127103 1.1399895127138917
4.53274798393 0.0466540551320006 -0.0101139092851554 -1.517604494955744 2.0318352281521426 2.050037204598331 -0.5200046160127103 1.1399895127138917
4.53274798393 0.0466540551320006 -0.0101139092851554 -1.517604494955744 2.0318352281521426 2.050037204598331 -0.5200046160127103 1.1399895127138917
4.5428340435 0.0466540551320006 -0.0101139092851554 -1.517604494955744 2.0318352281521426 2.050037204598331 -0.5200046160127103 1.1399895127138917
4.5428340435 0.0466540551320006 -0.0101139092851554 -1.517604494955744 2.0318352281521426 2.050037204598331 -0.5200046160127103 1.1399895127138917
4.55287504196 0.0466540551320006 -0.0101139092851554 -1.517604494955744 2.0318352281521426 2.050037204598331 -0.5200046160127103 1.1399895127138917
4.55287504196 0.0466540551320006 -0.0101139092851554 -1.517604494955744 2.0318352281521426 2.050037204598331 -0.5200046160127103 1.1399895127138917
4.56266999245 0.0466540551320006 -0.0101139092851554 -1.517604494955744 2.0318352281521426 2.050037204598331 -0.5200046160127103 1.1399895127138917
4.56266999245 0.0466540551320006 -0.0101139092851554 -1.517604494955744 2.0318352281521426 2.050037204598331 -0.5200046160127103 1.1399895127138917
4.57287406921 0.0466540551320006 -0.0101139092851554 -1.517604494955744 2.0318352281521426 2.050037204598331 -0.5200046160127103 1.1399895127138917
4.57287406921 0.0466540551320006 -0.0101139092851554 -1.517604494955744 2.0318352281521426 2.050037204598331 -0.5200046160127103 1.1399895127138917
4.58283114433 0.0466540551320006 -0.0101139092851554 -1.517604494955744 2.0318352281521426 2.050037204598331 -0.5200046160127103 1.1399895127138917
4.58283114433 0.0466540551320006 -0.0101139092851554 -1.517604494955744 2.0318352281521426 2.050037204598331 -0.5200046160127103 1.1399895127138917
4.59270095825 0.0466540551320006 -0.0101139092851554 -1.517604494955744 2.0318352281521426 2.050037204598331 -0.5200046160127103 1.1399895127138917
4.59270095825 0.0466540551320006 -0.0101139092851554 -1.517604494955744 2.0318352281521426 2.050037204598331 -0.5200046160127103 1.1399895127138917
4.6027970314 0.0466540551320006 -0.0101139092851554 -1.517604494955744 2.0318352281521426 2.050037204598331 -0.5200046160127103 1.1399895127138917
4.6027970314 0.0466540551320006 -0.0101139092851554 -1.517604494955744 2.0318352281521426 2.050037204598331 -0.5200046160127103 1.1399895127138917
4.61288499832 0.0466540551320006 -0.0101139092851554 -1.517604494955744 2.0318352281521426 2.050037204598331 -0.5200046160127103 1.1399895127138917
4.61288499832 0.0466540551320006 -0.0101139092851554 -1.517604494955744 2.0318352281521426 2.050037204598331 -0.5200046160127103 1.1399895127138917
4.6228120327 0.0466540551320006 -0.0101139092851554 -1.517604494955744 2.0318352281521426 2.050037204598331 -0.5200046160127103 1.1399895127138917
4.6228120327 0.0466540551320006 -0.0101139092851554 -1.517604494955744 2.0318352281521426 2.050037204598331 -0.5200046160127103 1.1399895127138917
4.6329100132 0.0466540551320006 -0.0101139092851554 -1.517604494955744 2.0318352281521426 2.050037204598331 -0.5200046160127103 1.1399895127138917
4.6329100132 0.0466540551320006 -0.0101139092851554 -1.517604494955744 2.0318352281521426 2.050037204598331 -0.5200046160127103 1.1399895127138917
4.64282608032 0.0466540551320006 -0.0101139092851554 -1.517604494955744 2.0318352281521426 2.050037204598331 -0.5200046160127103 1.1399895127138917
4.64282608032 0.0466540551320006 -0.0101139092851554 -1.517604494955744 2.0318352281521426 2.050037204598331 -0.5200046160127103 1.1399895127138917
4.65295505524 0.0466540551320006 -0.0101139092851554 -1.517604494955744 2.0318352281521426 2.050037204598331 -0.5200046160127103 1.1399895127138917
4.65295505524 0.0466540551320006 -0.0101139092851554 -1.517604494955744 2.0318352281521426 2.050037204598331 -0.5200046160127103 1.1399895127138917
4.66281795502 0.0466540551320006 -0.0101139092851554 -1.517604494955744 2.0318352281521426 2.050037204598331 -0.5200046160127103 1.1399895127138917
4.66281795502 0.0466540551320006 -0.0101139092851554 -1.517604494955744 2.0318352281521426 2.050037204598331 -0.5200046160127103 1.1399895127138917
4.6728849411 0.0466540551320006 -0.0101139092851554 -1.517604494955744 2.0318352281521426 2.050037204598331 -0.5200046160127103 1.1399895127138917
4.6728849411 0.0466540551320006 -0.0101139092851554 -1.517604494955744 2.0318352281521426 2.050037204598331 -0.5200046160127103 1.1399895127138917
4.68290805817 0.0466540551320006 -0.0101139092851554 -1.517604494955744 2.0318352281521426 2.050037204598331 -0.5200046160127103 1.1399895127138917
4.68290805817 0.0466540551320006 -0.0101139092851554 -1.517604494955744 2.0318352281521426 2.050037204598331 -0.5200046160127103 1.1399895127138917
4.69288706779 0.0466540551320006 -0.0101139092851554 -1.517604494955744 2.0318352281521426 2.050037204598331 -0.5200046160127103 1.1399895127138917
4.69288706779 0.0466540551320006 -0.0101139092851554 -1.517604494955744 2.0318352281521426 2.050037204598331 -0.5200046160127103 1.1399895127138917
4.70280003548 0.0466540551320006 -0.0101139092851554 -1.517604494955744 2.0318352281521426 2.050037204598331 -0.5200046160127103 1.1399895127138917
4.70280003548 0.0466540551320006 -0.0101139092851554 -1.517604494955744 2.0318352281521426 2.050037204598331 -0.5200046160127103 1.1399895127138917
4.71301102638 0.0466540551320006 -0.0101139092851554 -1.517604494955744 2.0318352281521426 2.050037204598331 -0.5200046160127103 1.1399895127138917
4.71301102638 0.0466540551320006 -0.0101139092851554 -1.517604494955744 2.0318352281521426 2.050037204598331 -0.5200046160127103 1.1399895127138917
4.72282004356 0.0466540551320006 -0.0101139092851554 -1.517604494955744 2.0318352281521426 2.050037204598331 -0.5200046160127103 1.1399895127138917
4.72282004356 0.0466540551320006 -0.0101139092851554 -1.517604494955744 2.0318352281521426 2.050037204598331 -0.5200046160127103 1.1399895127138917
4.73292613029 0.0466540551320006 -0.0101139092851554 -1.517604494955744 2.0318352281521426 2.050037204598331 -0.5200046160127103 1.1399895127138917
4.73292613029 0.0466540551320006 -0.0101139092851554 -1.517604494955744 2.0318352281521426 2.050037204598331 -0.5200046160127103 1.1399895127138917
4.74280500412 0.0466540551320006 -0.0101139092851554 -1.517604494955744 2.0318352281521426 2.050037204598331 -0.5200046160127103 1.1399895127138917
4.74280500412 0.0466540551320006 -0.0101139092851554 -1.517604494955744 2.0318352281521426 2.050037204598331 -0.5200046160127103 1.1399895127138917
4.7528719902 0.0466540551320006 -0.0101139092851554 -1.517604494955744 2.0318352281521426 2.050037204598331 -0.5200046160127103 1.1399895127138917
4.7528719902 0.0466540551320006 -0.0101139092851554 -1.517604494955744 2.0318352281521426 2.050037204598331 -0.5200046160127103 1.1399895127138917
4.7628569603 0.0466540551320006 -0.0101139092851554 -1.517604494955744 2.0318352281521426 2.050037204598331 -0.5200046160127103 1.1399895127138917
4.7628569603 0.0466540551320006 -0.0101139092851554 -1.517604494955744 2.0318352281521426 2.050037204598331 -0.5200046160127103 1.1399895127138917
4.77296113968 0.0466540551320006 -0.0101139092851554 -1.517604494955744 2.0318352281521426 2.050037204598331 -0.5200046160127103 1.1399895127138917
4.77296113968 0.0466540551320006 -0.0101139092851554 -1.517604494955744 2.0318352281521426 2.050037204598331 -0.5200046160127103 1.1399895127138917
4.78265309334 0.0466540551320006 -0.0101139092851554 -1.517604494955744 2.0318352281521426 2.050037204598331 -0.5200046160127103 1.1399895127138917
4.78265309334 0.0466540551320006 -0.0101139092851554 -1.517604494955744 2.0318352281521426 2.050037204598331 -0.5200046160127103 1.1399895127138917
4.79272794724 0.0466540551320006 -0.0101139092851554 -1.517604494955744 2.0318352281521426 2.050037204598331 -0.5200046160127103 1.1399895127138917
4.79272794724 0.0466540551320006 -0.0101139092851554 -1.517604494955744 2.0318352281521426 2.050037204598331 -0.5200046160127103 1.1399895127138917
4.80279707909 0.0466540551320006 -0.0074447473099756 -1.5181720753757535 2.027463324916934 2.050037204598331 -0.5200046160127103 1.1399895127138917
4.80279707909 0.0466540551320006 -0.0074447473099756 -1.5181720753757535 2.027463324916934 2.050037204598331 -0.5200046160127103 1.1399895127138917
4.81248807907 0.0466540551320006 -0.0074447473099756 -1.5181720753757535 2.027463324916934 2.050037204598331 -0.5200046160127103 1.1399895127138917
4.81248807907 0.0466540551320006 -0.0074447473099756 -1.5181720753757535 2.027463324916934 2.050037204598331 -0.5200046160127103 1.1399895127138917
4.82270097733 0.0466540551320006 -0.0074447473099756 -1.5181720753757535 2.027463324916934 2.050037204598331 -0.5200046160127103 1.1399895127138917
4.82270097733 0.0466540551320006 -0.0074447473099756 -1.5181720753757535 2.027463324916934 2.050037204598331 -0.5200046160127103 1.1399895127138917
4.83286094666 0.0466540551320006 -0.0074447473099756 -1.5181720753757535 2.027463324916934 2.050037204598331 -0.5200046160127103 1.1399895127138917
4.83286094666 0.0466540551320006 -0.0074447473099756 -1.5181720753757535 2.027463324916934 2.050037204598331 -0.5200046160127103 1.1399895127138917
4.84280991554 0.0466540551320006 -0.0074447473099756 -1.5181720753757535 2.027463324916934 2.050037204598331 -0.5200046160127103 1.1399895127138917
4.84280991554 0.0466540551320006 -0.0074447473099756 -1.5181720753757535 2.027463324916934 2.050037204598331 -0.5200046160127103 1.1399895127138917
4.85289502144 0.0466540551320006 -0.0074447473099756 -1.5181720753757535 2.027463324916934 2.050037204598331 -0.5200046160127103 1.1399895127138917
4.85289502144 0.0466540551320006 -0.0074447473099756 -1.5181720753757535 2.027463324916934 2.050037204598331 -0.5200046160127103 1.1399895127138917
4.86282801628 0.0466540551320006 -0.0074447473099756 -1.5181720753757535 2.027463324916934 2.050037204598331 -0.5200046160127103 1.1399895127138917
4.86282801628 0.0466540551320006 -0.0074447473099756 -1.5181720753757535 2.027463324916934 2.050037204598331 -0.5200046160127103 1.1399895127138917
4.87278199196 0.0466540551320006 -0.0074447473099756 -1.5181720753757535 2.027463324916934 2.050037204598331 -0.5200046160127103 1.1399895127138917
4.87278199196 0.0466540551320006 -0.0074447473099756 -1.5181720753757535 2.027463324916934 2.050037204598331 -0.5200046160127103 1.1399895127138917
4.88280892372 0.0466540551320006 -0.0074447473099756 -1.5181720753757535 2.027463324916934 2.050037204598331 -0.5200046160127103 1.1399895127138917
4.88280892372 0.0466540551320006 -0.0074447473099756 -1.5181720753757535 2.027463324916934 2.050037204598331 -0.5200046160127103 1.1399895127138917
4.89292311668 0.0466540551320006 -0.0074447473099756 -1.5181720753757535 2.027463324916934 2.050037204598331 -0.5200046160127103 1.1399895127138917
4.89292311668 0.0466540551320006 -0.0074447473099756 -1.5181720753757535 2.027463324916934 2.050037204598331 -0.5200046160127103 1.1399895127138917
4.90278196335 0.0466540551320006 -0.0074447473099756 -1.5181720753757535 2.027463324916934 2.050037204598331 -0.5200046160127103 1.1399895127138917
4.90278196335 0.0466540551320006 -0.0074447473099756 -1.5181720753757535 2.027463324916934 2.050037204598331 -0.5200046160127103 1.1399895127138917
4.91292095184 0.0466540551320006 -0.0074447473099756 -1.5181720753757535 2.027463324916934 2.050037204598331 -0.5200046160127103 1.1399895127138917
4.91292095184 0.0466540551320006 -0.0074447473099756 -1.5181720753757535 2.027463324916934 2.050037204598331 -0.5200046160127103 1.1399895127138917
4.92295312881 0.0466540551320006 -0.0074447473099756 -1.5181720753757535 2.027463324916934 2.050037204598331 -0.5200046160127103 1.1399895127138917
4.92295312881 0.0466540551320006 -0.0074447473099756 -1.5181720753757535 2.027463324916934 2.050037204598331 -0.5200046160127103 1.1399895127138917
4.93243503571 0.0466540551320006 0.0230972152910767 -1.518386835534676 1.9509780283178144 2.050037204598331 -0.5200046160127103 1.1399895127138917
4.93243503571 0.0466540551320006 0.0230972152910767 -1.518386835534676 1.9509780283178144 2.050037204598331 -0.5200046160127103 1.1399895127138917
4.94243097305 0.0466540551320006 0.0230972152910767 -1.518386835534676 1.9509780283178144 2.050037204598331 -0.5200046160127103 1.1399895127138917
4.94243097305 0.0466540551320006 0.0230972152910767 -1.518386835534676 1.9509780283178144 2.050037204598331 -0.5200046160127103 1.1399895127138917
4.95283102989 0.0466540551320006 0.0230972152910767 -1.518386835534676 1.9509780283178144 2.050037204598331 -0.5200046160127103 1.1399895127138917
4.95283102989 0.0466540551320006 0.0230972152910767 -1.518386835534676 1.9509780283178144 2.050037204598331 -0.5200046160127103 1.1399895127138917
4.96288609505 0.0466540551320006 0.0230972152910767 -1.518386835534676 1.9509780283178144 2.050037204598331 -0.5200046160127103 1.1399895127138917
4.96288609505 0.0466540551320006 0.0230972152910767 -1.518386835534676 1.9509780283178144 2.050037204598331 -0.5200046160127103 1.1399895127138917
4.97288203239 0.0466540551320006 0.0230972152910767 -1.518386835534676 1.9509780283178144 2.050037204598331 -0.5200046160127103 1.1399895127138917
4.97288203239 0.0466540551320006 0.0230972152910767 -1.518386835534676 1.9509780283178144 2.050037204598331 -0.5200046160127103 1.1399895127138917
4.98288607597 0.0466540551320006 0.0230972152910767 -1.518386835534676 1.9509780283178144 2.050037204598331 -0.5200046160127103 1.1399895127138917
4.98288607597 0.0466540551320006 0.0230972152910767 -1.518386835534676 1.9509780283178144 2.050037204598331 -0.5200046160127103 1.1399895127138917
4.99276304245 0.0466540551320006 0.0230972152910767 -1.518386835534676 1.9509780283178144 2.050037204598331 -0.5200046160127103 1.1399895127138917
4.99276304245 0.0466540551320006 0.0230972152910767 -1.518386835534676 1.9509780283178144 2.050037204598331 -0.5200046160127103 1.1399895127138917
5.00265002251 0.0466540551320006 0.0230972152910767 -1.518386835534676 1.9509780283178144 2.050037204598331 -0.5200046160127103 1.1399895127138917
5.00265002251 0.0466540551320006 0.0230972152910767 -1.518386835534676 1.9509780283178144 2.050037204598331 -0.5200046160127103 1.1399895127138917
5.01288294792 0.0466540551320006 0.0230972152910767 -1.518386835534676 1.9509780283178144 2.050037204598331 -0.5200046160127103 1.1399895127138917
5.01288294792 0.0466540551320006 0.0230972152910767 -1.518386835534676 1.9509780283178144 2.050037204598331 -0.5200046160127103 1.1399895127138917
5.02282309532 0.0466540551320006 0.0230972152910767 -1.518386835534676 1.9509780283178144 2.050037204598331 -0.5200046160127103 1.1399895127138917
5.02282309532 0.0466540551320006 0.0230972152910767 -1.518386835534676 1.9509780283178144 2.050037204598331 -0.5200046160127103 1.1399895127138917
5.03289604187 0.0466540551320006 0.0230972152910767 -1.518386835534676 1.9509780283178144 2.050037204598331 -0.5200046160127103 1.1399895127138917
5.03289604187 0.0466540551320006 0.0230972152910767 -1.518386835534676 1.9509780283178144 2.050037204598331 -0.5200046160127103 1.1399895127138917
5.0428109169 0.0466540551320006 0.0230972152910767 -1.518386835534676 1.9509780283178144 2.050037204598331 -0.5200046160127103 1.1399895127138917
5.0428109169 0.0466540551320006 0.0230972152910767 -1.518386835534676 1.9509780283178144 2.050037204598331 -0.5200046160127103 1.1399895127138917
5.05280804634 0.0466540551320006 0.0230972152910767 -1.518386835534676 1.9509780283178144 2.050037204598331 -0.5200046160127103 1.1399895127138917
5.05280804634 0.0466540551320006 0.0230972152910767 -1.518386835534676 1.9509780283178144 2.050037204598331 -0.5200046160127103 1.1399895127138917
5.06281304359 0.0466540551320006 0.0230972152910767 -1.518386835534676 1.9509780283178144 2.050037204598331 -0.5200046160127103 1.1399895127138917
5.06281304359 0.0466540551320006 0.0230972152910767 -1.518386835534676 1.9509780283178144 2.050037204598331 -0.5200046160127103 1.1399895127138917
5.07293605804 0.0466540551320006 0.0230972152910767 -1.518386835534676 1.9509780283178144 2.050037204598331 -0.5200046160127103 1.1399895127138917
5.07293605804 0.0466540551320006 0.0230972152910767 -1.518386835534676 1.9509780283178144 2.050037204598331 -0.5200046160127103 1.1399895127138917
5.08288002014 0.0466540551320006 0.0230972152910767 -1.518386835534676 1.9509780283178144 2.050037204598331 -0.5200046160127103 1.1399895127138917
5.08288002014 0.0466540551320006 0.0230972152910767 -1.518386835534676 1.9509780283178144 2.050037204598331 -0.5200046160127103 1.1399895127138917
5.092908144 0.0466540551320006 0.0230972152910767 -1.518386835534676 1.9509780283178144 2.050037204598331 -0.5200046160127103 1.1399895127138917
5.092908144 0.0466540551320006 0.0230972152910767 -1.518386835534676 1.9509780283178144 2.050037204598331 -0.5200046160127103 1.1399895127138917
5.10280609131 0.0466540551320006 0.0230972152910767 -1.518386835534676 1.9509780283178144 2.050037204598331 -0.5200046160127103 1.1399895127138917
5.10280609131 0.0466540551320006 0.0230972152910767 -1.518386835534676 1.9509780283178144 2.050037204598331 -0.5200046160127103 1.1399895127138917
5.11293196678 0.0466540551320006 0.0230972152910767 -1.518386835534676 1.9509780283178144 2.050037204598331 -0.5200046160127103 1.1399895127138917
5.11293196678 0.0466540551320006 0.0230972152910767 -1.518386835534676 1.9509780283178144 2.050037204598331 -0.5200046160127103 1.1399895127138917
5.12280702591 0.0466540551320006 0.0230972152910767 -1.518386835534676 1.9509780283178144 2.050037204598331 -0.5200046160127103 1.1399895127138917
5.12280702591 0.0466540551320006 0.0230972152910767 -1.518386835534676 1.9509780283178144 2.050037204598331 -0.5200046160127103 1.1399895127138917
5.13292002678 0.0466540551320006 0.0230972152910767 -1.518386835534676 1.9509780283178144 2.050037204598331 -0.5200046160127103 1.1399895127138917
5.13292002678 0.0466540551320006 0.0230972152910767 -1.518386835534676 1.9509780283178144 2.050037204598331 -0.5200046160127103 1.1399895127138917
5.14283394814 0.0466540551320006 0.0230972152910767 -1.518386835534676 1.9509780283178144 2.050037204598331 -0.5200046160127103 1.1399895127138917
5.14283394814 0.0466540551320006 0.0230972152910767 -1.518386835534676 1.9509780283178144 2.050037204598331 -0.5200046160127103 1.1399895127138917
5.15294313431 0.0466540551320006 0.0230972152910767 -1.518386835534676 1.9509780283178144 2.050037204598331 -0.5200046160127103 1.1399895127138917
5.15294313431 0.0466540551320006 0.0230972152910767 -1.518386835534676 1.9509780283178144 2.050037204598331 -0.5200046160127103 1.1399895127138917
5.16283893585 0.0466540551320006 0.0230972152910767 -1.518386835534676 1.9509780283178144 2.050037204598331 -0.5200046160127103 1.1399895127138917
5.16283893585 0.0466540551320006 0.0230972152910767 -1.518386835534676 1.9509780283178144 2.050037204598331 -0.5200046160127103 1.1399895127138917
5.1728990078 0.0466540551320006 0.0230972152910767 -1.518386835534676 1.9509780283178144 2.050037204598331 -0.5200046160127103 1.1399895127138917
5.1728990078 0.0466540551320006 0.0230972152910767 -1.518386835534676 1.9509780283178144 2.050037204598331 -0.5200046160127103 1.1399895127138917
5.18272805214 0.0466540551320006 0.0230972152910767 -1.518386835534676 1.9509780283178144 2.050037204598331 -0.5200046160127103 1.1399895127138917
5.18272805214 0.0466540551320006 0.0230972152910767 -1.518386835534676 1.9509780283178144 2.050037204598331 -0.5200046160127103 1.1399895127138917
5.19296908379 0.0466540551320006 0.0230972152910767 -1.518386835534676 1.9509780283178144 2.050037204598331 -0.5200046160127103 1.1399895127138917
5.19296908379 0.0466540551320006 0.0230972152910767 -1.518386835534676 1.9509780283178144 2.050037204598331 -0.5200046160127103 1.1399895127138917
5.20282506943 0.0466540551320006 0.0230972152910767 -1.518386835534676 1.9509780283178144 2.050037204598331 -0.5200046160127103 1.1399895127138917
5.20282506943 0.0466540551320006 0.0230972152910767 -1.518386835534676 1.9509780283178144 2.050037204598331 -0.5200046160127103 1.1399895127138917
5.21278595924 0.0466540551320006 0.0230972152910767 -1.518386835534676 1.9509780283178144 2.050037204598331 -0.5200046160127103 1.1399895127138917
5.21278595924 0.0466540551320006 0.0230972152910767 -1.518386835534676 1.9509780283178144 2.050037204598331 -0.5200046160127103 1.1399895127138917
5.22281098366 0.0466540551320006 0.0230972152910767 -1.518386835534676 1.9509780283178144 2.050037204598331 -0.5200046160127103 1.1399895127138917
5.22281098366 0.0466540551320006 0.0230972152910767 -1.518386835534676 1.9509780283178144 2.050037204598331 -0.5200046160127103 1.1399895127138917
5.23290205002 0.0466540551320006 0.0230972152910767 -1.518386835534676 1.9509780283178144 2.050037204598331 -0.5200046160127103 1.1399895127138917
5.23290205002 0.0466540551320006 0.0230972152910767 -1.518386835534676 1.9509780283178144 2.050037204598331 -0.5200046160127103 1.1399895127138917
5.24277710915 0.0466540551320006 0.0230972152910767 -1.518386835534676 1.9509780283178144 2.050037204598331 -0.5200046160127103 1.1399895127138917
5.24277710915 0.0466540551320006 0.0230972152910767 -1.518386835534676 1.9509780283178144 2.050037204598331 -0.5200046160127103 1.1399895127138917
5.25288295746 0.0466540551320006 0.0230972152910767 -1.518386835534676 1.9509780283178144 2.050037204598331 -0.5200046160127103 1.1399895127138917
5.25288295746 0.0466540551320006 0.0230972152910767 -1.518386835534676 1.9509780283178144 2.050037204598331 -0.5200046160127103 1.1399895127138917
5.26284098625 0.0466540551320006 0.0230972152910767 -1.518386835534676 1.9509780283178144 2.050037204598331 -0.5200046160127103 1.1399895127138917
5.26284098625 0.0466540551320006 0.0230972152910767 -1.518386835534676 1.9509780283178144 2.050037204598331 -0.5200046160127103 1.1399895127138917
5.27294111252 0.0466540551320006 0.0230972152910767 -1.518386835534676 1.9509780283178144 2.050037204598331 -0.5200046160127103 1.1399895127138917
5.27294111252 0.0466540551320006 0.0230972152910767 -1.518386835534676 1.9509780283178144 2.050037204598331 -0.5200046160127103 1.1399895127138917
5.28282904625 0.0466540551320006 0.0230972152910767 -1.518386835534676 1.9509780283178144 2.050037204598331 -0.5200046160127103 1.1399895127138917
5.28282904625 0.0466540551320006 0.0230972152910767 -1.518386835534676 1.9509780283178144 2.050037204598331 -0.5200046160127103 1.1399895127138917
5.29292702675 0.0466540551320006 0.0230972152910767 -1.518386835534676 1.9509780283178144 2.050037204598331 -0.5200046160127103 1.1399895127138917
5.29292702675 0.0466540551320006 0.0230972152910767 -1.518386835534676 1.9509780283178144 2.050037204598331 -0.5200046160127103 1.1399895127138917
5.30286407471 0.0466540551320006 0.0230972152910767 -1.518386835534676 1.9509780283178144 2.050037204598331 -0.5200046160127103 1.1399895127138917
5.30286407471 0.0466540551320006 0.0230972152910767 -1.518386835534676 1.9509780283178144 2.050037204598331 -0.5200046160127103 1.1399895127138917
5.31291294098 0.0466540551320006 0.0230972152910767 -1.518386835534676 1.9384298990321984 2.050037204598331 -0.5200046160127103 1.1399895127138917
5.31291294098 0.0466540551320006 0.0230972152910767 -1.518386835534676 1.9384298990321984 2.050037204598331 -0.5200046160127103 1.1399895127138917
5.32282805443 0.0466540551320006 0.0230972152910767 -1.518386835534676 1.9384298990321984 2.050037204598331 -0.5200046160127103 1.1399895127138917
5.32282805443 0.0466540551320006 0.0230972152910767 -1.518386835534676 1.9384298990321984 2.050037204598331 -0.5200046160127103 1.1399895127138917
5.33283615112 0.0466540551320006 0.0230972152910767 -1.518386835534676 1.9384298990321984 2.050037204598331 -0.5200046160127103 1.1399895127138917
5.33283615112 0.0466540551320006 0.0230972152910767 -1.518386835534676 1.9384298990321984 2.050037204598331 -0.5200046160127103 1.1399895127138917
5.3428299427 0.0466540551320006 0.0230972152910767 -1.518386835534676 1.9384298990321984 2.050037204598331 -0.5200046160127103 1.1399895127138917
5.3428299427 0.0466540551320006 0.0230972152910767 -1.518386835534676 1.9384298990321984 2.050037204598331 -0.5200046160127103 1.1399895127138917
5.35291409492 0.0466540551320006 0.0230972152910767 -1.518386835534676 1.9384298990321984 2.050037204598331 -0.5200046160127103 1.1399895127138917
5.35291409492 0.0466540551320006 0.0230972152910767 -1.518386835534676 1.9384298990321984 2.050037204598331 -0.5200046160127103 1.1399895127138917
5.36279392242 0.0466540551320006 0.0230972152910767 -1.518386835534676 1.9384298990321984 2.050037204598331 -0.5200046160127103 1.1399895127138917
5.36279392242 0.0466540551320006 0.0230972152910767 -1.518386835534676 1.9384298990321984 2.050037204598331 -0.5200046160127103 1.1399895127138917
5.37288808823 0.0466540551320006 0.0230972152910767 -1.518386835534676 1.9384298990321984 2.050037204598331 -0.5200046160127103 1.1399895127138917
5.37288808823 0.0466540551320006 0.0230972152910767 -1.518386835534676 1.9384298990321984 2.050037204598331 -0.5200046160127103 1.1399895127138917
5.38283514977 0.0466540551320006 0.0230972152910767 -1.518386835534676 1.9384298990321984 2.050037204598331 -0.5200046160127103 1.1399895127138917
5.38283514977 0.0466540551320006 0.0230972152910767 -1.518386835534676 1.9384298990321984 2.050037204598331 -0.5200046160127103 1.1399895127138917
5.39294600487 0.0466540551320006 0.0230972152910767 -1.518386835534676 1.9384298990321984 2.050037204598331 -0.5200046160127103 1.1399895127138917
5.39294600487 0.0466540551320006 0.0230972152910767 -1.518386835534676 1.9384298990321984 2.050037204598331 -0.5200046160127103 1.1399895127138917
5.40282797813 0.0466540551320006 0.0230972152910767 -1.518386835534676 1.9384298990321984 2.050037204598331 -0.5200046160127103 1.1399895127138917
5.40282797813 0.0466540551320006 0.0230972152910767 -1.518386835534676 1.9384298990321984 2.050037204598331 -0.5200046160127103 1.1399895127138917
5.41288995743 0.0466540551320006 0.0230972152910767 -1.518386835534676 1.9384298990321984 2.050037204598331 -0.5200046160127103 1.1399895127138917
5.41288995743 0.0466540551320006 0.0230972152910767 -1.518386835534676 1.9384298990321984 2.050037204598331 -0.5200046160127103 1.1399895127138917
5.42280507088 0.0466540551320006 0.0230972152910767 -1.518386835534676 1.9384298990321984 2.050037204598331 -0.5200046160127103 1.1399895127138917
5.42280507088 0.0466540551320006 0.0230972152910767 -1.518386835534676 1.9384298990321984 2.050037204598331 -0.5200046160127103 1.1399895127138917
5.43286800385 0.0466540551320006 0.0230972152910767 -1.518386835534676 1.9384298990321984 2.050037204598331 -0.5200046160127103 1.1399895127138917
5.43286800385 0.0466540551320006 0.0230972152910767 -1.518386835534676 1.9384298990321984 2.050037204598331 -0.5200046160127103 1.1399895127138917
5.44283699989 0.0466540551320006 0.0230972152910767 -1.518386835534676 1.9384298990321984 2.050037204598331 -0.5200046160127103 1.1399895127138917
5.44283699989 0.0466540551320006 0.0230972152910767 -1.518386835534676 1.9384298990321984 2.050037204598331 -0.5200046160127103 1.1399895127138917
5.45295000076 0.0466540551320006 0.0230972152910767 -1.518386835534676 1.9384298990321984 2.050037204598331 -0.5200046160127103 1.1399895127138917
5.45295000076 0.0466540551320006 0.0230972152910767 -1.518386835534676 1.9384298990321984 2.050037204598331 -0.5200046160127103 1.1399895127138917
5.46269392967 0.0466540551320006 0.0230972152910767 -1.518386835534676 1.9384298990321984 2.050037204598331 -0.5200046160127103 1.1399895127138917
5.46269392967 0.0466540551320006 0.0230972152910767 -1.518386835534676 1.9384298990321984 2.050037204598331 -0.5200046160127103 1.1399895127138917
5.47292995453 0.0466540551320006 0.0230972152910767 -1.518386835534676 1.9384298990321984 2.050037204598331 -0.5200046160127103 1.1399895127138917
5.47292995453 0.0466540551320006 0.0230972152910767 -1.518386835534676 1.9384298990321984 2.050037204598331 -0.5200046160127103 1.1399895127138917
5.48282814026 0.0466540551320006 0.0230972152910767 -1.518386835534676 1.9384298990321984 2.050037204598331 -0.5200046160127103 1.1399895127138917
5.48282814026 0.0466540551320006 0.0230972152910767 -1.518386835534676 1.9384298990321984 2.050037204598331 -0.5200046160127103 1.1399895127138917
5.49278593063 0.0466540551320006 0.0230972152910767 -1.518386835534676 1.9384298990321984 2.050037204598331 -0.5200046160127103 1.1399895127138917
5.49278593063 0.0466540551320006 0.0230972152910767 -1.518386835534676 1.9384298990321984 2.050037204598331 -0.5200046160127103 1.1399895127138917
5.50281596184 0.0466540551320006 0.0230972152910767 -1.518386835534676 1.9384298990321984 2.050037204598331 -0.5200046160127103 1.1399895127138917
5.50281596184 0.0466540551320006 0.0230972152910767 -1.518386835534676 1.9384298990321984 2.050037204598331 -0.5200046160127103 1.1399895127138917
5.51293206215 0.0466540551320006 0.0230972152910767 -1.518386835534676 1.9384298990321984 2.050037204598331 -0.5200046160127103 1.1399895127138917
5.51293206215 0.0466540551320006 0.0230972152910767 -1.518386835534676 1.9384298990321984 2.050037204598331 -0.5200046160127103 1.1399895127138917
5.52286100388 0.0466540551320006 0.0230972152910767 -1.518386835534676 1.9384298990321984 2.050037204598331 -0.5200046160127103 1.1399895127138917
5.52286100388 0.0466540551320006 0.0230972152910767 -1.518386835534676 1.9384298990321984 2.050037204598331 -0.5200046160127103 1.1399895127138917
5.53292107582 0.0466540551320006 0.0230972152910767 -1.518386835534676 1.9384298990321984 2.050037204598331 -0.5200046160127103 1.1399895127138917
5.53292107582 0.0466540551320006 0.0230972152910767 -1.518386835534676 1.9384298990321984 2.050037204598331 -0.5200046160127103 1.1399895127138917
5.54283714294 0.0466540551320006 0.0230972152910767 -1.518386835534676 1.9384298990321984 2.050037204598331 -0.5200046160127103 1.1399895127138917
5.54283714294 0.0466540551320006 0.0230972152910767 -1.518386835534676 1.9384298990321984 2.050037204598331 -0.5200046160127103 1.1399895127138917
5.55274105072 0.0466540551320006 0.0230972152910767 -1.518386835534676 1.9384298990321984 2.050037204598331 -0.5200046160127103 1.1399895127138917
5.55274105072 0.0466540551320006 0.0230972152910767 -1.518386835534676 1.9384298990321984 2.050037204598331 -0.5200046160127103 1.1399895127138917
5.56279802322 0.0466540551320006 0.0230972152910767 -1.518386835534676 1.9384298990321984 2.050037204598331 -0.5200046160127103 1.1399895127138917
5.56279802322 0.0466540551320006 0.0230972152910767 -1.518386835534676 1.9384298990321984 2.050037204598331 -0.5200046160127103 1.1399895127138917
5.57288694382 0.0466540551320006 0.0230972152910767 -1.518386835534676 1.9384298990321984 2.050037204598331 -0.5200046160127103 1.1399895127138917
5.57288694382 0.0466540551320006 0.0230972152910767 -1.518386835534676 1.9384298990321984 2.050037204598331 -0.5200046160127103 1.1399895127138917
5.58290600777 0.0466540551320006 0.0230972152910767 -1.518386835534676 1.9384298990321984 2.050037204598331 -0.5200046160127103 1.1399895127138917
5.58290600777 0.0466540551320006 0.0230972152910767 -1.518386835534676 1.9384298990321984 2.050037204598331 -0.5200046160127103 1.1399895127138917
5.59284901619 0.0466540551320006 0.0230972152910767 -1.518386835534676 1.9384298990321984 2.050037204598331 -0.5200046160127103 1.1399895127138917
5.59284901619 0.0466540551320006 0.0230972152910767 -1.518386835534676 1.9384298990321984 2.050037204598331 -0.5200046160127103 1.1399895127138917
5.60283708572 0.0466540551320006 0.0230972152910767 -1.518386835534676 1.9384298990321984 2.050037204598331 -0.5200046160127103 1.1399895127138917
5.60283708572 0.0466540551320006 0.0230972152910767 -1.518386835534676 1.9384298990321984 2.050037204598331 -0.5200046160127103 1.1399895127138917
5.6129591465 0.0466540551320006 0.0230972152910767 -1.518386835534676 1.9384298990321984 2.050037204598331 -0.5200046160127103 1.1399895127138917
5.6129591465 0.0466540551320006 0.0230972152910767 -1.518386835534676 1.9384298990321984 2.050037204598331 -0.5200046160127103 1.1399895127138917
5.62281894684 0.0466540551320006 0.0230972152910767 -1.518386835534676 1.9384298990321984 2.050037204598331 -0.5200046160127103 1.1399895127138917
5.62281894684 0.0466540551320006 0.0230972152910767 -1.518386835534676 1.9384298990321984 2.050037204598331 -0.5200046160127103 1.1399895127138917
5.63260412216 0.0466540551320006 0.0231125553024283 -1.518386835534676 1.866914766111 2.050037204598331 -0.5200046160127103 1.1399895127138917
5.63260412216 0.0466540551320006 0.0231125553024283 -1.518386835534676 1.866914766111 2.050037204598331 -0.5200046160127103 1.1399895127138917
5.64264011383 0.0466540551320006 0.0231125553024283 -1.518386835534676 1.866914766111 2.050037204598331 -0.5200046160127103 1.1399895127138917
5.64264011383 0.0466540551320006 0.0231125553024283 -1.518386835534676 1.866914766111 2.050037204598331 -0.5200046160127103 1.1399895127138917
5.65247893333 0.0466540551320006 0.0231125553024283 -1.518386835534676 1.8396862459618957 2.050037204598331 -0.5200046160127103 1.1399895127138917
5.65247893333 0.0466540551320006 0.0231125553024283 -1.518386835534676 1.8396862459618957 2.050037204598331 -0.5200046160127103 1.1399895127138917
5.66238307953 0.0466540551320006 0.0231125553024283 -1.518386835534676 1.827598317016828 2.050037204598331 -0.5200046160127103 1.1399895127138917
5.66238307953 0.0466540551320006 0.0231125553024283 -1.518386835534676 1.827598317016828 2.050037204598331 -0.5200046160127103 1.1399895127138917
5.67268300056 0.0466540551320006 0.0231125553024283 -1.518386835534676 1.827598317016828 2.050037204598331 -0.5200046160127103 1.1399895127138917
5.67268300056 0.0466540551320006 0.0231125553024283 -1.518386835534676 1.827598317016828 2.050037204598331 -0.5200046160127103 1.1399895127138917
5.68263697624 0.0466540551320006 0.0231125553024283 -1.518386835534676 1.827598317016828 2.050037204598331 -0.5200046160127103 1.1399895127138917
5.68263697624 0.0466540551320006 0.0231125553024283 -1.518386835534676 1.827598317016828 2.050037204598331 -0.5200046160127103 1.1399895127138917
5.69284415245 0.0466540551320006 0.0231125553024283 -1.518386835534676 1.827598317016828 2.050037204598331 -0.5200046160127103 1.1399895127138917
5.69284415245 0.0466540551320006 0.0231125553024283 -1.518386835534676 1.827598317016828 2.050037204598331 -0.5200046160127103 1.1399895127138917
5.70276403427 0.0466540551320006 0.0231125553024283 -1.518386835534676 1.827598317016828 2.050037204598331 -0.5200046160127103 1.1399895127138917
5.70276403427 0.0466540551320006 0.0231125553024283 -1.518386835534676 1.827598317016828 2.050037204598331 -0.5200046160127103 1.1399895127138917
5.71283698082 0.0466540551320006 0.0231125553024283 -1.518386835534676 1.827598317016828 2.050037204598331 -0.5200046160127103 1.1399895127138917
5.71283698082 0.0466540551320006 0.0231125553024283 -1.518386835534676 1.827598317016828 2.050037204598331 -0.5200046160127103 1.1399895127138917
5.72279596329 0.0466540551320006 0.0231125553024283 -1.518386835534676 1.827598317016828 2.050037204598331 -0.5200046160127103 1.1399895127138917
5.72279596329 0.0466540551320006 0.0231125553024283 -1.518386835534676 1.827598317016828 2.050037204598331 -0.5200046160127103 1.1399895127138917
5.73294591904 0.0466540551320006 0.0231125553024283 -1.518386835534676 1.827598317016828 2.050037204598331 -0.5200046160127103 1.1399895127138917
5.73294591904 0.0466540551320006 0.0231125553024283 -1.518386835534676 1.827598317016828 2.050037204598331 -0.5200046160127103 1.1399895127138917
5.74268198013 0.0466540551320006 0.0231125553024283 -1.518386835534676 1.827598317016828 2.050037204598331 -0.5200046160127103 1.1399895127138917
5.74268198013 0.0466540551320006 0.0231125553024283 -1.518386835534676 1.827598317016828 2.050037204598331 -0.5200046160127103 1.1399895127138917
5.7528860569 0.0466540551320006 0.0231125553024283 -1.518386835534676 1.827598317016828 2.050037204598331 -0.5200046160127103 1.1399895127138917
5.7528860569 0.0466540551320006 0.0231125553024283 -1.518386835534676 1.827598317016828 2.050037204598331 -0.5200046160127103 1.1399895127138917
5.76280498505 0.0466540551320006 0.0231125553024283 -1.518386835534676 1.827598317016828 2.050037204598331 -0.5200046160127103 1.1399895127138917
5.76280498505 0.0466540551320006 0.0231125553024283 -1.518386835534676 1.827598317016828 2.050037204598331 -0.5200046160127103 1.1399895127138917
5.77288007736 0.0466540551320006 0.0231125553024283 -1.518386835534676 1.827598317016828 2.050037204598331 -0.5200046160127103 1.1399895127138917
5.77288007736 0.0466540551320006 0.0231125553024283 -1.518386835534676 1.827598317016828 2.050037204598331 -0.5200046160127103 1.1399895127138917
5.7828271389 0.0466540551320006 0.0231125553024283 -1.518386835534676 1.827598317016828 2.050037204598331 -0.5200046160127103 1.1399895127138917
5.7828271389 0.0466540551320006 0.0231125553024283 -1.518386835534676 1.827598317016828 2.050037204598331 -0.5200046160127103 1.1399895127138917
5.7929110527 0.0466540551320006 0.0231125553024283 -1.518386835534676 1.827598317016828 2.050037204598331 -0.5200046160127103 1.1399895127138917
5.7929110527 0.0466540551320006 0.0231125553024283 -1.518386835534676 1.827598317016828 2.050037204598331 -0.5200046160127103 1.1399895127138917
5.80269908905 0.0466540551320006 0.0231125553024283 -1.518386835534676 1.827598317016828 2.050037204598331 -0.5200046160127103 1.1399895127138917
5.80269908905 0.0466540551320006 0.0231125553024283 -1.518386835534676 1.827598317016828 2.050037204598331 -0.5200046160127103 1.1399895127138917
5.81292295456 0.0466540551320006 0.0231125553024283 -1.518386835534676 1.827598317016828 2.050037204598331 -0.5200046160127103 1.1399895127138917
5.81292295456 0.0466540551320006 0.0231125553024283 -1.518386835534676 1.827598317016828 2.050037204598331 -0.5200046160127103 1.1399895127138917
5.82282209396 0.0466540551320006 0.0231125553024283 -1.518386835534676 1.827598317016828 2.050037204598331 -0.5200046160127103 1.1399895127138917
5.82282209396 0.0466540551320006 0.0231125553024283 -1.518386835534676 1.827598317016828 2.050037204598331 -0.5200046160127103 1.1399895127138917
5.83270597458 0.0466540551320006 0.0231125553024283 -1.518386835534676 1.827598317016828 2.050037204598331 -0.5200046160127103 1.1399895127138917
5.83270597458 0.0466540551320006 0.0231125553024283 -1.518386835534676 1.827598317016828 2.050037204598331 -0.5200046160127103 1.1399895127138917
5.8427901268 0.0466540551320006 0.0231125553024283 -1.518386835534676 1.827598317016828 2.050037204598331 -0.5200046160127103 1.1399895127138917
5.8427901268 0.0466540551320006 0.0231125553024283 -1.518386835534676 1.827598317016828 2.050037204598331 -0.5200046160127103 1.1399895127138917
5.85271501541 0.0466540551320006 0.0231125553024283 -1.518386835534676 1.827598317016828 2.050037204598331 -0.5200046160127103 1.1399895127138917
5.85271501541 0.0466540551320006 0.0231125553024283 -1.518386835534676 1.827598317016828 2.050037204598331 -0.5200046160127103 1.1399895127138917
5.86264896393 0.0466540551320006 0.0231125553024283 -1.518386835534676 1.827598317016828 2.050037204598331 -0.5200046160127103 1.1399895127138917
5.86264896393 0.0466540551320006 0.0231125553024283 -1.518386835534676 1.827598317016828 2.050037204598331 -0.5200046160127103 1.1399895127138917
5.87282013893 0.0466540551320006 0.0231125553024283 -1.518386835534676 1.827598317016828 2.050037204598331 -0.5200046160127103 1.1399895127138917
5.87282013893 0.0466540551320006 0.0231125553024283 -1.518386835534676 1.827598317016828 2.050037204598331 -0.5200046160127103 1.1399895127138917
5.88277411461 0.0466540551320006 0.0231125553024283 -1.518386835534676 1.827598317016828 2.050037204598331 -0.5200046160127103 1.1399895127138917
5.88277411461 0.0466540551320006 0.0231125553024283 -1.518386835534676 1.827598317016828 2.050037204598331 -0.5200046160127103 1.1399895127138917
5.89271211624 0.0466540551320006 0.0231125553024283 -1.518386835534676 1.827598317016828 2.050037204598331 -0.5200046160127103 1.1399895127138917
5.89271211624 0.0466540551320006 0.0231125553024283 -1.518386835534676 1.827598317016828 2.050037204598331 -0.5200046160127103 1.1399895127138917
5.90278792381 0.0466540551320006 0.0231125553024283 -1.518386835534676 1.827598317016828 2.050037204598331 -0.5200046160127103 1.1399895127138917
5.90278792381 0.0466540551320006 0.0231125553024283 -1.518386835534676 1.827598317016828 2.050037204598331 -0.5200046160127103 1.1399895127138917
5.91291308403 0.0466540551320006 0.0231125553024283 -1.518386835534676 1.827598317016828 2.050037204598331 -0.5200046160127103 1.1399895127138917
5.91291308403 0.0466540551320006 0.0231125553024283 -1.518386835534676 1.827598317016828 2.050037204598331 -0.5200046160127103 1.1399895127138917
5.92290711403 0.0466540551320006 0.0231125553024283 -1.518386835534676 1.827598317016828 2.050037204598331 -0.5200046160127103 1.1399895127138917
5.92290711403 0.0466540551320006 0.0231125553024283 -1.518386835534676 1.827598317016828 2.050037204598331 -0.5200046160127103 1.1399895127138917
5.93288803101 0.0466540551320006 0.0231125553024283 -1.518386835534676 1.827598317016828 2.050037204598331 -0.5200046160127103 1.1399895127138917
5.93288803101 0.0466540551320006 0.0231125553024283 -1.518386835534676 1.827598317016828 2.050037204598331 -0.5200046160127103 1.1399895127138917
5.94282197952 0.0466540551320006 0.0231125553024283 -1.518386835534676 1.827598317016828 2.050037204598331 -0.5200046160127103 1.1399895127138917
5.94282197952 0.0466540551320006 0.0231125553024283 -1.518386835534676 1.827598317016828 2.050037204598331 -0.5200046160127103 1.1399895127138917
5.95291495323 0.0466540551320006 0.0231125553024283 -1.518386835534676 1.827598317016828 2.050037204598331 -0.5200046160127103 1.1399895127138917
5.95291495323 0.0466540551320006 0.0231125553024283 -1.518386835534676 1.827598317016828 2.050037204598331 -0.5200046160127103 1.1399895127138917
5.96268010139 0.0466540551320006 0.0231125553024283 -1.518386835534676 1.827598317016828 2.050037204598331 -0.5200046160127103 1.1399895127138917
