riccardo-csl/Motion-Planning-for-TIAGo-Manipulator/T3_G_7/head_scan/head_scan/tiago_traiettorie_SG/3a-1b/place_1b_rep1.txt
time arm_1_joint arm_2_joint arm_3_joint arm_4_joint arm_5_joint arm_6_joint arm_7_joint
1.65097308159 0.0978743530350211 -0.1965717472639556 -1.146790400553314 2.0436316968815293 2.050037204598331 -0.5200046160127103 1.1399895127138917
1.66100502014 0.0978743530350211 -0.1965717472639556 -1.146790400553314 2.0436316968815293 2.050037204598331 -0.5200046160127103 1.1399895127138917
1.66100502014 0.0978743530350211 -0.1965717472639556 -1.146790400553314 2.0436316968815293 2.050037204598331 -0.5200046160127103 1.1399895127138917
1.67093300819 0.0978743530350211 -0.1965717472639556 -1.146790400553314 2.0436316968815293 2.050037204598331 -0.5200046160127103 1.1399895127138917
1.67093300819 0.0978743530350211 -0.1965717472639556 -1.146790400553314 2.0436316968815293 2.050037204598331 -0.5200046160127103 1.1399895127138917
1.68095898628 0.0978743530350211 -0.1965717472639556 -1.146790400553314 2.0436316968815293 2.050037204598331 -0.5200046160127103 1.1399895127138917
1.68095898628 0.0978743530350211 -0.1965717472639556 -1.146790400553314 2.0436316968815293 2.050037204598331 -0.5200046160127103 1.1399895127138917
1.69123411179 0.0978743530350211 -0.1965717472639556 -1.146790400553314 2.0436316968815293 2.050037204598331 -0.5200046160127103 1.1399895127138917
1.69123411179 0.0978743530350211 -0.1965717472639556 -1.146790400553314 2.0436316968815293 2.050037204598331 -0.5200046160127103 1.1399895127138917
1.7009499073 0.0978743530350211 -0.1965717472639556 -1.146790400553314 2.0436316968815293 2.050037204598331 -0.5200046160127103 1.1399895127138917
1.7009499073 0.0978743530350211 -0.1965717472639556 -1.146790400553314 2.0436316968815293 2.050037204598331 -0.5200046160127103 1.1399895127138917
1.71123695374 0.0978743530350211 -0.1965717472639556 -1.146790400553314 2.0436316968815293 2.050037204598331 -0.5200046160127103 1.1399895127138917
1.71123695374 0.0978743530350211 -0.1965717472639556 -1.146790400553314 2.0436316968815293 2.050037204598331 -0.5200046160127103 1.1399895127138917
1.72118496895 0.0978743530350211 -0.1965717472639556 -1.146790400553314 2.0436316968815293 2.050037204598331 -0.5200046160127103 1.1399895127138917
1.72118496895 0.0978743530350211 -0.1965717472639556 -1.146790400553314 2.0436316968815293 2.050037204598331 -0.5200046160127103 1.1399895127138917
1.73113203049 0.0978743530350211 -0.1965717472639556 -1.146790400553314 2.0436316968815293 2.050037204598331 -0.5200046160127103 1.1399895127138917
1.73113203049 0.0978743530350211 -0.1965717472639556 -1.146790400553314 2.0436316968815293 2.050037204598331 -0.5200046160127103 1.1399895127138917
1.74119997025 0.0978743530350211 -0.1965717472639556 -1.146790400553314 2.0436316968815293 2.050037204598331 -0.5200046160127103 1.1399895127138917
1.74119997025 0.0978743530350211 -0.1965717472639556 -1.146790400553314 2.0436316968815293 2.050037204598331 -0.5200046160127103 1.1399895127138917
1.75125098228 0.0978743530350211 -0.1965717472639556 -1.146790400553314 2.0436316968815293 2.050037204598331 -0.5200046160127103 1.1399895127138917
1.75125098228 0.0978743530350211 -0.1965717472639556 -1.146790400553314 2.0436316968815293 2.050037204598331 -0.5200046160127103 1.1399895127138917
1.76123309135 0.0978743530350211 -0.1965717472639556 -1.146790400553314 2.0436316968815293 2.050037204598331 -0.5200046160127103 1.1399895127138917
1.76123309135 0.0978743530350211 -0.1965717472639556 -1.146790400553314 2.0436316968815293 2.050037204598331 -0.5200046160127103 1.1399895127138917
1.77126693726 0.0978743530350211 -0.1965717472639556 -1.146790400553314 2.0436316968815293 2.050037204598331 -0.5200046160127103 1.1399895127138917
1.77126693726 0.0978743530350211 -0.1965717472639556 -1.146790400553314 2.0436316968815293 2.050037204598331 -0.5200046160127103 1.1399895127138917
1.78119397163 0.0978743530350211 -0.1965717472639556 -1.146790400553314 2.0436316968815293 2.050037204598331 -0.5200046160127103 1.1399895127138917
1.78119397163 0.0978743530350211 -0.1965717472639556 -1.146790400553314 2.0436316968815293 2.050037204598331 -0.5200046160127103 1.1399895127138917
1.79122400284 0.0978743530350211 -0.1965717472639556 -1.146790400553314 2.0436316968815293 2.050037204598331 -0.5200046160127103 1.1399895127138917
1.79122400284 0.0978743530350211 -0.1965717472639556 -1.146790400553314 2.0436316968815293 2.050037204598331 -0.5200046160127103 1.1399895127138917
1.80126690865 0.0978743530350211 -0.1965717472639556 -1.146790400553314 2.0436316968815293 2.050037204598331 -0.5200046160127103 1.1399895127138917
1.80126690865 0.0978743530350211 -0.1965717472639556 -1.146790400553314 2.0436316968815293 2.050037204598331 -0.5200046160127103 1.1399895127138917
1.8113090992 0.0978743530350211 -0.1965717472639556 -1.146790400553314 2.0436316968815293 2.050037204598331 -0.5200046160127103 1.1399895127138917
1.8113090992 0.0978743530350211 -0.1965717472639556 -1.146790400553314 2.0436316968815293 2.050037204598331 -0.5200046160127103 1.1399895127138917
1.82128310204 0.0978743530350211 -0.1965717472639556 -1.146790400553314 2.0436316968815293 2.050037204598331 -0.5200046160127103 1.1399895127138917
1.82128310204 0.0978743530350211 -0.1965717472639556 -1.146790400553314 2.0436316968815293 2.050037204598331 -0.5200046160127103 1.1399895127138917
1.83114910126 0.0978743530350211 -0.1965717472639556 -1.146790400553314 2.0436316968815293 2.050037204598331 -0.5200046160127103 1.1399895127138917
1.83114910126 0.0978743530350211 -0.1965717472639556 -1.146790400553314 2.0436316968815293 2.050037204598331 -0.5200046160127103 1.1399895127138917
1.84096193314 0.0978743530350211 -0.1965717472639556 -1.146790400553314 2.0436316968815293 2.050037204598331 -0.5200046160127103 1.1399895127138917
1.84096193314 0.0978743530350211 -0.1965717472639556 -1.146790400553314 2.0436316968815293 2.050037204598331 -0.5200046160127103 1.1399895127138917
1.85115909576 0.0978743530350211 -0.1965717472639556 -1.146790400553314 2.0436316968815293 2.050046335517449 -0.5200046160127103 1.1399895127138917
1.85115909576 0.0978743530350211 -0.1965717472639556 -1.146790400553314 2.0436316968815293 2.050046335517449 -0.5200046160127103 1.1399895127138917
1.86134195328 0.0978743530350211 -0.1965717472639556 -1.146790400553314 2.0436316968815293 2.050046335517449 -0.5200046160127103 1.1399895127138917
1.86134195328 0.0978743530350211 -0.1965717472639556 -1.146790400553314 2.0436316968815293 2.050046335517449 -0.5200046160127103 1.1399895127138917
1.87121796608 0.0978743530350211 -0.1965717472639556 -1.146790400553314 2.0436316968815293 2.050037204598331 -0.5200046160127103 1.1399895127138917
1.87121796608 0.0978743530350211 -0.1965717472639556 -1.146790400553314 2.0436316968815293 2.050037204598331 -0.5200046160127103 1.1399895127138917
1.88129806519 0.0978743530350211 -0.1965717472639556 -1.146790400553314 2.0436316968815293 2.050037204598331 -0.5200046160127103 1.1399895127138917
1.88129806519 0.0978743530350211 -0.1965717472639556 -1.146790400553314 2.0436316968815293 2.050037204598331 -0.5200046160127103 1.1399895127138917
1.89125299454 0.0978743530350211 -0.1965717472639556 -1.146790400553314 2.0436316968815293 2.050037204598331 -0.5200046160127103 1.1399895127138917
1.89125299454 0.0978743530350211 -0.1965717472639556 -1.146790400553314 2.0436316968815293 2.050037204598331 -0.5200046160127103 1.1399895127138917
1.90133810043 0.0978743530350211 -0.1965717472639556 -1.146790400553314 2.0436316968815293 2.050037204598331 -0.5200046160127103 1.1399895127138917
1.90133810043 0.0978743530350211 -0.1965717472639556 -1.146790400553314 2.0436316968815293 2.050037204598331 -0.5200046160127103 1.1399895127138917
1.91135811806 0.0978743530350211 -0.1965717472639556 -1.146790400553314 2.0436316968815293 2.050037204598331 -0.5200091814722694 1.1399849472543326
1.91135811806 0.0978743530350211 -0.1965717472639556 -1.146790400553314 2.0436316968815293 2.050037204598331 -0.5200091814722694 1.1399849472543326
1.92123198509 0.0978743530350211 -0.1965717472639556 -1.146790400553314 2.0436316968815293 2.050037204598331 -0.5200091814722694 1.1399849472543326
1.92123198509 0.0978743530350211 -0.1965717472639556 -1.146790400553314 2.0436316968815293 2.050037204598331 -0.5200091814722694 1.1399849472543326
1.93128108978 0.0978743530350211 -0.1965717472639556 -1.146790400553314 2.0436316968815293 2.050037204598331 -0.5200091814722694 1.1399849472543326
1.93128108978 0.0978743530350211 -0.1965717472639556 -1.146790400553314 2.0436316968815293 2.050037204598331 -0.5200091814722694 1.1399849472543326
1.94137001038 0.0978743530350211 -0.1965717472639556 -1.146790400553314 2.0436316968815293 2.050037204598331 -0.5200091814722694 1.1399849472543326
1.94137001038 0.0978743530350211 -0.1965717472639556 -1.146790400553314 2.0436316968815293 2.050037204598331 -0.5200091814722694 1.1399849472543326
1.95128798485 0.0978743530350211 -0.1965717472639556 -1.146790400553314 2.0436316968815293 2.050037204598331 -0.5200091814722694 1.1399849472543326
1.95128798485 0.0978743530350211 -0.1965717472639556 -1.146790400553314 2.0436316968815293 2.050037204598331 -0.5200091814722694 1.1399849472543326
1.96172189713 0.0978743530350211 -0.1965717472639556 -1.1468057405646657 2.0436316968815293 2.050037204598331 -0.5200046160127103 1.1399895127138917
1.96172189713 0.0978743530350211 -0.1965717472639556 -1.1468057405646657 2.0436316968815293 2.050037204598331 -0.5200046160127103 1.1399895127138917
1.97110104561 0.0978743530350211 -0.1965717472639556 -1.1468057405646657 2.0436316968815293 2.050037204598331 -0.5200046160127103 1.1399895127138917
1.97110104561 0.0978743530350211 -0.1965717472639556 -1.1468057405646657 2.0436316968815293 2.050037204598331 -0.5200046160127103 1.1399895127138917
1.98114705086 0.0978743530350211 -0.1965717472639556 -1.1468057405646657 2.0436316968815293 2.050037204598331 -0.5200046160127103 1.1399895127138917
1.98114705086 0.0978743530350211 -0.1965717472639556 -1.1468057405646657 2.0436316968815293 2.050037204598331 -0.5200046160127103 1.1399895127138917
1.99127912521 0.0978743530350211 -0.1965717472639556 -1.1468057405646657 2.0436316968815293 2.050037204598331 -0.5200046160127103 1.1399895127138917
1.99127912521 0.0978743530350211 -0.1965717472639556 -1.1468057405646657 2.0436316968815293 2.050037204598331 -0.5200046160127103 1.1399895127138917
2.00133991241 0.0978743530350211 -0.1965717472639556 -1.146836420587369 2.0436316968815293 2.050037204598331 -0.5200046160127103 1.1399895127138917
2.00133991241 0.0978743530350211 -0.1965717472639556 -1.146836420587369 2.0436316968815293 2.050037204598331 -0.5200046160127103 1.1399895127138917
2.01120305061 0.0978743530350211 -0.1965717472639556 -1.146836420587369 2.0436316968815293 2.050037204598331 -0.5200046160127103 1.1399895127138917
2.01120305061 0.0978743530350211 -0.1965717472639556 -1.146836420587369 2.0436316968815293 2.050037204598331 -0.5200046160127103 1.1399895127138917
2.02137112617 0.0978743530350211 -0.1965717472639556 -1.146836420587369 2.0436316968815293 2.050037204598331 -0.5200046160127103 1.1399895127138917
2.02137112617 0.0978743530350211 -0.1965717472639556 -1.146836420587369 2.0436316968815293 2.050037204598331 -0.5200046160127103 1.1399895127138917
2.03131604195 0.0978743530350211 -0.1965717472639556 -1.146836420587369 2.0436316968815293 2.050037204598331 -0.5200046160127103 1.1399895127138917
2.03131604195 0.0978743530350211 -0.1965717472639556 -1.146836420587369 2.0436316968815293 2.050037204598331 -0.5200046160127103 1.1399895127138917
2.04128193855 0.0978743530350211 -0.1965717472639556 -1.1477108012344106 2.0436316968815293 2.050037204598331 -0.5200046160127103 1.1399895127138917
2.04128193855 0.0978743530350211 -0.1965717472639556 -1.1477108012344106 2.0436316968815293 2.050037204598331 -0.5200046160127103 1.1399895127138917
2.05125594139 0.0978743530350211 -0.1965717472639556 -1.1485084818246942 2.0436316968815293 2.050037204598331 -0.5200046160127103 1.1399895127138917
2.05125594139 0.0978743530350211 -0.1965717472639556 -1.1485084818246942 2.0436316968815293 2.050037204598331 -0.5200046160127103 1.1399895127138917
2.06138896942 0.0978743530350211 -0.1965717472639556 -1.1485084818246942 2.0436316968815293 2.050037204598331 -0.5200046160127103 1.1399895127138917
2.06138896942 0.0978743530350211 -0.1965717472639556 -1.1485084818246942 2.0436316968815293 2.050037204598331 -0.5200046160127103 1.1399895127138917
2.07131195068 0.0978743530350211 -0.1965717472639556 -1.1497510227441743 2.0436316968815293 2.050037204598331 -0.5200046160127103 1.1399895127138917
2.07131195068 0.0978743530350211 -0.1965717472639556 -1.1497510227441743 2.0436316968815293 2.050037204598331 -0.5200046160127103 1.1399895127138917
2.08120799065 0.0978743530350211 -0.1965717472639556 -1.1497510227441743 2.0436316968815293 2.050037204598331 -0.5200046160127103 1.1399895127138917
2.08120799065 0.0978743530350211 -0.1965717472639556 -1.1497510227441743 2.0436316968815293 2.050037204598331 -0.5200046160127103 1.1399895127138917
2.0912771225 0.0978743530350211 -0.1965717472639556 -1.1497510227441743 2.0436316968815293 2.050037204598331 -0.5200046160127103 1.1399895127138917
2.0912771225 0.0978743530350211 -0.1965717472639556 -1.1497510227441743 2.0436316968815293 2.050037204598331 -0.5200046160127103 1.1399895127138917
2.10126304626 0.0978743530350211 -0.1965717472639556 -1.1497510227441743 2.0436316968815293 2.050037204598331 -0.5200046160127103 1.1399895127138917
2.10126304626 0.0978743530350211 -0.1965717472639556 -1.1497510227441743 2.0436316968815293 2.050037204598331 -0.5200046160127103 1.1399895127138917
2.11123609543 0.0978743530350211 -0.1965717472639556 -1.1497510227441743 2.0436316968815293 2.050037204598331 -0.5200046160127103 1.1399895127138917
2.11123609543 0.0978743530350211 -0.1965717472639556 -1.1497510227441743 2.0436316968815293 2.050037204598331 -0.5200046160127103 1.1399895127138917
2.12136006355 0.0978743530350211 -0.1965717472639556 -1.1514230839814998 2.0436316968815293 2.050037204598331 -0.5200046160127103 1.1399895127138917
2.12136006355 0.0978743530350211 -0.1965717472639556 -1.1514230839814998 2.0436316968815293 2.050037204598331 -0.5200046160127103 1.1399895127138917
2.13115000725 0.0978743530350211 -0.1965717472639556 -1.1514230839814998 2.0436316968815293 2.050037204598331 -0.5200046160127103 1.1399895127138917
2.13115000725 0.0978743530350211 -0.1965717472639556 -1.1514230839814998 2.0436316968815293 2.050037204598331 -0.5200046160127103 1.1399895127138917
2.14136505127 0.0978743530350211 -0.1965717472639556 -1.1514230839814998 2.0436316968815293 2.050037204598331 -0.5200046160127103 1.1399895127138917
2.14136505127 0.0978743530350211 -0.1965717472639556 -1.1514230839814998 2.0436316968815293 2.050037204598331 -0.5200046160127103 1.1399895127138917
2.15129995346 0.0978743530350211 -0.1965717472639556 -1.1514230839814998 2.0436316968815293 2.050037204598331 -0.5200046160127103 1.1399895127138917
2.15129995346 0.0978743530350211 -0.1965717472639556 -1.1514230839814998 2.0436316968815293 2.050037204598331 -0.5200046160127103 1.1399895127138917
2.16314291954 0.0978743530350211 -0.1965564072526039 -1.1535246655366702 2.0436316968815293 2.050037204598331 -0.5200046160127103 1.1399895127138917
2.16314291954 0.0978743530350211 -0.1965564072526039 -1.1535246655366702 2.0436316968815293 2.050037204598331 -0.5200046160127103 1.1399895127138917
2.17111492157 0.0978743530350211 -0.1965564072526039 -1.1535246655366702 2.0436316968815293 2.050037204598331 -0.5200046160127103 1.1399895127138917
2.17111492157 0.0978743530350211 -0.1965564072526039 -1.1535246655366702 2.0436316968815293 2.050037204598331 -0.5200046160127103 1.1399895127138917
2.18093204498 0.0978743530350211 -0.196280287048275 -1.1625292522000643 2.0442452973355936 2.050037204598331 -0.5200046160127103 1.1399895127138917
2.18093204498 0.0978743530350211 -0.196280287048275 -1.1625292522000643 2.0442452973355936 2.050037204598331 -0.5200046160127103 1.1399895127138917
2.19118690491 0.0978743530350211 -0.196280287048275 -1.1625292522000643 2.0442452973355936 2.050037204598331 -0.5200046160127103 1.1399895127138917
2.19118690491 0.0978743530350211 -0.196280287048275 -1.1625292522000643 2.0442452973355936 2.050037204598331 -0.5200046160127103 1.1399895127138917
2.20103406906 0.0978743530350211 -0.1961882469801654 -1.1659193947087698 2.044644137630736 2.050037204598331 -0.5200046160127103 1.1399895127138917
2.20103406906 0.0978743530350211 -0.1961882469801654 -1.1659193947087698 2.044644137630736 2.050037204598331 -0.5200046160127103 1.1399895127138917
2.21119403839 0.0978743530350211 -0.1960962069120557 -1.1695703174104526 2.045058317937229 2.050046335517449 -0.5200046160127103 1.1399895127138917
2.21119403839 0.0978743530350211 -0.1960962069120557 -1.1695703174104526 2.045058317937229 2.050046335517449 -0.5200046160127103 1.1399895127138917
2.22132396698 0.0978743530350211 -0.1960962069120557 -1.1695703174104526 2.045058317937229 2.050046335517449 -0.5200046160127103 1.1399895127138917
2.22132396698 0.0978743530350211 -0.1960962069120557 -1.1695703174104526 2.045058317937229 2.050046335517449 -0.5200046160127103 1.1399895127138917
2.23114109039 0.0978743530350211 -0.1960962069120557 -1.1695703174104526 2.045058317937229 2.050046335517449 -0.5200046160127103 1.1399895127138917
2.23114109039 0.0978743530350211 -0.1960962069120557 -1.1695703174104526 2.045058317937229 2.050046335517449 -0.5200046160127103 1.1399895127138917
2.24132490158 0.0978743530350211 -0.1960962069120557 -1.1695703174104526 2.045058317937229 2.050046335517449 -0.5200046160127103 1.1399895127138917
2.24132490158 0.0978743530350211 -0.1960962069120557 -1.1695703174104526 2.045058317937229 2.050046335517449 -0.5200046160127103 1.1399895127138917
2.25127291679 0.0978743530350211 -0.1960962069120557 -1.1695703174104526 2.045058317937229 2.050046335517449 -0.5200046160127103 1.1399895127138917
2.25127291679 0.0978743530350211 -0.1960962069120557 -1.1695703174104526 2.045058317937229 2.050046335517449 -0.5200046160127103 1.1399895127138917
2.26135492325 0.0978743530350211 -0.1960348468666492 -1.1730985200213226 2.045273078096151 2.050037204598331 -0.5200046160127103 1.1399895127138917
2.26135492325 0.0978743530350211 -0.1960348468666492 -1.1730985200213226 2.045273078096151 2.050037204598331 -0.5200046160127103 1.1399895127138917
2.27127099037 0.0978743530350211 -0.1959428067985396 -1.176488662530028 2.0455031782664257 2.050037204598331 -0.5200046160127103 1.1399895127138917
2.27127099037 0.0978743530350211 -0.1959428067985396 -1.176488662530028 2.0455031782664257 2.050037204598331 -0.5200046160127103 1.1399895127138917
2.28133010864 0.0978743530350211 -0.1956053265488042 -1.179771424959272 2.045886678550216 2.050037204598331 -0.5200046160127103 1.1399895127138917
2.28133010864 0.0978743530350211 -0.1956053265488042 -1.179771424959272 2.045886678550216 2.050037204598331 -0.5200046160127103 1.1399895127138917
2.29115200043 0.0978743530350211 -0.1956053265488042 -1.179771424959272 2.045886678550216 2.050037204598331 -0.5200046160127103 1.1399895127138917
2.29115200043 0.0978743530350211 -0.1956053265488042 -1.179771424959272 2.045886678550216 2.050037204598331 -0.5200046160127103 1.1399895127138917
2.30134105682 0.0978743530350211 -0.1956053265488042 -1.179771424959272 2.045886678550216 2.050037204598331 -0.5200046160127103 1.1399895127138917
2.30134105682 0.0978743530350211 -0.1956053265488042 -1.179771424959272 2.045886678550216 2.050037204598331 -0.5200046160127103 1.1399895127138917
2.31124401093 0.0978743530350211 -0.1951758062309592 -1.1829007872750004 2.046346878890764 2.050037204598331 -0.5200046160127103 1.1399895127138917
2.31124401093 0.0978743530350211 -0.1951758062309592 -1.1829007872750004 2.046346878890764 2.050037204598331 -0.5200046160127103 1.1399895127138917
2.32117390633 0.0978743530350211 -0.1951758062309592 -1.1829007872750004 2.046346878890764 2.050037204598331 -0.5200046160127103 1.1399895127138917
2.32117390633 0.0978743530350211 -0.1951758062309592 -1.1829007872750004 2.046346878890764 2.050037204598331 -0.5200046160127103 1.1399895127138917
2.33128499985 0.0978743530350211 -0.1940099653682369 -1.1858767494772124 2.0466536791177963 2.050037204598331 -0.5200046160127103 1.1399895127138917
2.33128499985 0.0978743530350211 -0.1940099653682369 -1.1858767494772124 2.0466536791177963 2.050037204598331 -0.5200046160127103 1.1399895127138917
2.34136199951 0.0978743530350211 -0.1940099653682369 -1.1858767494772124 2.0466536791177963 2.050037204598331 -0.5200046160127103 1.1399895127138917
2.34136199951 0.0978743530350211 -0.1940099653682369 -1.1858767494772124 2.0466536791177963 2.050037204598331 -0.5200046160127103 1.1399895127138917
2.3512070179 0.0978743530350211 -0.1940099653682369 -1.1858767494772124 2.0466536791177963 2.050037204598331 -0.5200046160127103 1.1399895127138917
2.3512070179 0.0978743530350211 -0.1940099653682369 -1.1858767494772124 2.0466536791177963 2.050037204598331 -0.5200046160127103 1.1399895127138917
2.36137604713 0.0978743530350211 -0.1940099653682369 -1.1858767494772124 2.0466536791177963 2.050037204598331 -0.5200046160127103 1.1399895127138917
2.36137604713 0.0978743530350211 -0.1940099653682369 -1.1858767494772124 2.0466536791177963 2.050037204598331 -0.5200046160127103 1.1399895127138917
2.37128305435 0.0978743530350211 -0.1940099653682369 -1.1858767494772124 2.0466536791177963 2.050037204598331 -0.5200046160127103 1.1399895127138917
2.37128305435 0.0978743530350211 -0.1940099653682369 -1.1858767494772124 2.0466536791177963 2.050037204598331 -0.5200046160127103 1.1399895127138917
2.38128399849 0.0978743530350211 -0.1940099653682369 -1.1858767494772124 2.0466536791177963 2.050037204598331 -0.5200046160127103 1.1399895127138917
2.38128399849 0.0978743530350211 -0.1940099653682369 -1.1858767494772124 2.0466536791177963 2.050037204598331 -0.5200046160127103 1.1399895127138917
2.39130401611 0.0978743530350211 -0.1940099653682369 -1.1858767494772124 2.0466536791177963 2.050037204598331 -0.5200046160127103 1.1399895127138917
2.39130401611 0.0978743530350211 -0.1940099653682369 -1.1858767494772124 2.0466536791177963 2.050037204598331 -0.5200046160127103 1.1399895127138917
2.40134906769 0.0978743530350211 -0.1940099653682369 -1.1858767494772124 2.0466536791177963 2.050037204598331 -0.5200046160127103 1.1399895127138917
2.40134906769 0.0978743530350211 -0.1940099653682369 -1.1858767494772124 2.0466536791177963 2.050037204598331 -0.5200046160127103 1.1399895127138917
2.41121792793 0.0978743530350211 -0.1940099653682369 -1.1858767494772124 2.0466536791177963 2.050037204598331 -0.5200046160127103 1.1399895127138917
2.41121792793 0.0978743530350211 -0.1940099653682369 -1.1858767494772124 2.0466536791177963 2.050037204598331 -0.5200046160127103 1.1399895127138917
2.42136597633 0.0978743530350211 -0.1940099653682369 -1.1858767494772124 2.0466536791177963 2.050037204598331 -0.5200046160127103 1.1399895127138917
2.42136597633 0.0978743530350211 -0.1940099653682369 -1.1858767494772124 2.0466536791177963 2.050037204598331 -0.5200046160127103 1.1399895127138917
2.43130898476 0.0978743530350211 -0.1940099653682369 -1.1858767494772124 2.0466536791177963 2.050037204598331 -0.5200046160127103 1.1399895127138917
2.43130898476 0.0978743530350211 -0.1940099653682369 -1.1858767494772124 2.0466536791177963 2.050037204598331 -0.5200046160127103 1.1399895127138917
2.44141101837 0.0978743530350211 -0.1940099653682369 -1.1858767494772124 2.0466536791177963 2.050037204598331 -0.5200046160127103 1.1399895127138917
2.44141101837 0.0978743530350211 -0.1940099653682369 -1.1858767494772124 2.0466536791177963 2.050037204598331 -0.5200046160127103 1.1399895127138917
2.45125102997 0.0978743530350211 -0.1940099653682369 -1.1858767494772124 2.0466536791177963 2.050037204598331 -0.5200046160127103 1.1399895127138917
2.45125102997 0.0978743530350211 -0.1940099653682369 -1.1858767494772124 2.0466536791177963 2.050037204598331 -0.5200046160127103 1.1399895127138917
2.46134305 0.0978743530350211 -0.1940099653682369 -1.1858767494772124 2.0466536791177963 2.050037204598331 -0.5200046160127103 1.1399895127138917
2.46134305 0.0978743530350211 -0.1940099653682369 -1.1858767494772124 2.0466536791177963 2.050037204598331 -0.5200046160127103 1.1399895127138917
2.47135210037 0.0978743530350211 -0.1940099653682369 -1.1858767494772124 2.0466536791177963 2.050037204598331 -0.5200046160127103 1.1399895127138917
2.47135210037 0.0978743530350211 -0.1940099653682369 -1.1858767494772124 2.0466536791177963 2.050037204598331 -0.5200046160127103 1.1399895127138917
2.4813580513 0.0978743530350211 -0.1940099653682369 -1.1858767494772124 2.0466536791177963 2.050037204598331 -0.5200046160127103 1.1399895127138917
2.4813580513 0.0978743530350211 -0.1940099653682369 -1.1858767494772124 2.0466536791177963 2.050037204598331 -0.5200046160127103 1.1399895127138917
2.49130511284 0.0978743530350211 -0.1940099653682369 -1.1858767494772124 2.0466536791177963 2.050037204598331 -0.5200046160127103 1.1399895127138917
2.49130511284 0.0978743530350211 -0.1940099653682369 -1.1858767494772124 2.0466536791177963 2.050037204598331 -0.5200046160127103 1.1399895127138917
2.50114893913 0.0978743530350211 -0.1940099653682369 -1.1858767494772124 2.0466536791177963 2.050037204598331 -0.5200046160127103 1.1399895127138917
2.50114893913 0.0978743530350211 -0.1940099653682369 -1.1858767494772124 2.0466536791177963 2.050037204598331 -0.5200046160127103 1.1399895127138917
2.51128411293 0.0978743530350211 -0.1940099653682369 -1.1858767494772124 2.0466536791177963 2.050037204598331 -0.5200046160127103 1.1399895127138917
2.51128411293 0.0978743530350211 -0.1940099653682369 -1.1858767494772124 2.0466536791177963 2.050037204598331 -0.5200046160127103 1.1399895127138917
2.52134490013 0.0978743530350211 -0.1940099653682369 -1.1858767494772124 2.0466536791177963 2.050037204598331 -0.5200046160127103 1.1399895127138917
2.52134490013 0.0978743530350211 -0.1940099653682369 -1.1858767494772124 2.0466536791177963 2.050037204598331 -0.5200046160127103 1.1399895127138917
2.53135204315 0.0978743530350211 -0.1940099653682369 -1.1858767494772124 2.0466536791177963 2.050037204598331 -0.5200046160127103 1.1399895127138917
2.53135204315 0.0978743530350211 -0.1940099653682369 -1.1858767494772124 2.0466536791177963 2.050037204598331 -0.5200046160127103 1.1399895127138917
2.54135608673 0.0978743530350211 -0.1940099653682369 -1.1858767494772124 2.0466536791177963 2.050037204598331 -0.5200046160127103 1.1399895127138917
2.54135608673 0.0978743530350211 -0.1940099653682369 -1.1858767494772124 2.0466536791177963 2.050037204598331 -0.5200046160127103 1.1399895127138917
2.55131697655 0.0978743530350211 -0.1940099653682369 -1.1858767494772124 2.0466536791177963 2.050037204598331 -0.5200046160127103 1.1399895127138917
2.55131697655 0.0978743530350211 -0.1940099653682369 -1.1858767494772124 2.0466536791177963 2.050037204598331 -0.5200046160127103 1.1399895127138917
2.56137490273 0.0978743530350211 -0.1940099653682369 -1.1858767494772124 2.0466536791177963 2.050037204598331 -0.5200046160127103 1.1399895127138917
2.56137490273 0.0978743530350211 -0.1940099653682369 -1.1858767494772124 2.0466536791177963 2.050037204598331 -0.5200046160127103 1.1399895127138917
2.57115292549 0.0978743530350211 -0.1940099653682369 -1.1858767494772124 2.0466536791177963 2.050037204598331 -0.5200046160127103 1.1399895127138917
2.57115292549 0.0978743530350211 -0.1940099653682369 -1.1858767494772124 2.0466536791177963 2.050037204598331 -0.5200046160127103 1.1399895127138917
2.58131098747 0.0978743530350211 -0.1940099653682369 -1.1858767494772124 2.0466536791177963 2.050037204598331 -0.5200046160127103 1.1399895127138917
2.58131098747 0.0978743530350211 -0.1940099653682369 -1.1858767494772124 2.0466536791177963 2.050037204598331 -0.5200046160127103 1.1399895127138917
2.59112596512 0.0978743530350211 -0.1940099653682369 -1.1858767494772124 2.0466536791177963 2.050037204598331 -0.5200046160127103 1.1399895127138917
2.59112596512 0.0978743530350211 -0.1940099653682369 -1.1858767494772124 2.0466536791177963 2.050037204598331 -0.5200046160127103 1.1399895127138917
2.60133099556 0.0978743530350211 -0.1940099653682369 -1.1858767494772124 2.0466536791177963 2.050037204598331 -0.5200046160127103 1.1399895127138917
2.60133099556 0.0978743530350211 -0.1940099653682369 -1.1858767494772124 2.0466536791177963 2.050037204598331 -0.5200046160127103 1.1399895127138917
2.61125802994 0.0978743530350211 -0.1940099653682369 -1.1858767494772124 2.0466536791177963 2.050037204598331 -0.5200046160127103 1.1399895127138917
2.61125802994 0.0978743530350211 -0.1940099653682369 -1.1858767494772124 2.0466536791177963 2.050037204598331 -0.5200046160127103 1.1399895127138917
2.62132501602 0.0978743530350211 -0.1940099653682369 -1.1858767494772124 2.0466536791177963 2.050037204598331 -0.5200046160127103 1.1399895127138917
2.62132501602 0.0978743530350211 -0.1940099653682369 -1.1858767494772124 2.0466536791177963 2.050037204598331 -0.5200046160127103 1.1399895127138917
2.63117098808 0.0978743530350211 -0.1940099653682369 -1.1858767494772124 2.0466536791177963 2.050037204598331 -0.5200046160127103 1.1399895127138917
2.63117098808 0.0978743530350211 -0.1940099653682369 -1.1858767494772124 2.0466536791177963 2.050037204598331 -0.5200046160127103 1.1399895127138917
2.64134812355 0.0978743530350211 -0.1940099653682369 -1.1858767494772124 2.0466536791177963 2.050037204598331 -0.5200046160127103 1.1399895127138917
2.64134812355 0.0978743530350211 -0.1940099653682369 -1.1858767494772124 2.0466536791177963 2.050037204598331 -0.5200046160127103 1.1399895127138917
2.65129113197 0.0978743530350211 -0.1940099653682369 -1.1858767494772124 2.0466536791177963 2.050037204598331 -0.5200046160127103 1.1399895127138917
2.65129113197 0.0978743530350211 -0.1940099653682369 -1.1858767494772124 2.0466536791177963 2.050037204598331 -0.5200046160127103 1.1399895127138917
2.66123390198 0.0978743530350211 -0.1940099653682369 -1.1858767494772124 2.0466536791177963 2.050037204598331 -0.5200046160127103 1.1399895127138917
2.66123390198 0.0978743530350211 -0.1940099653682369 -1.1858767494772124 2.0466536791177963 2.050037204598331 -0.5200046160127103 1.1399895127138917
2.67128300667 0.0978743530350211 -0.1940099653682369 -1.1858767494772124 2.0466536791177963 2.050037204598331 -0.5200046160127103 1.1399895127138917
2.67128300667 0.0978743530350211 -0.1940099653682369 -1.1858767494772124 2.0466536791177963 2.050037204598331 -0.5200046160127103 1.1399895127138917
2.68138408661 0.0978743530350211 -0.1940099653682369 -1.1858767494772124 2.0466536791177963 2.050037204598331 -0.5200046160127103 1.1399895127138917
2.68138408661 0.0978743530350211 -0.1940099653682369 -1.1858767494772124 2.0466536791177963 2.050037204598331 -0.5200046160127103 1.1399895127138917
2.69127297401 0.0978743530350211 -0.1940099653682369 -1.1858767494772124 2.0466536791177963 2.050037204598331 -0.5200046160127103 1.1399895127138917
2.69127297401 0.0978743530350211 -0.1940099653682369 -1.1858767494772124 2.0466536791177963 2.050037204598331 -0.5200046160127103 1.1399895127138917
2.70134210587 0.0978743530350211 -0.1940099653682369 -1.1858767494772124 2.0466536791177963 2.050037204598331 -0.5200046160127103 1.1399895127138917
2.70134210587 0.0978743530350211 -0.1940099653682369 -1.1858767494772124 2.0466536791177963 2.050037204598331 -0.5200046160127103 1.1399895127138917
2.71128511429 0.0978743530350211 -0.1940099653682369 -1.1858767494772124 2.0466536791177963 2.050037204598331 -0.5200046160127103 1.1399895127138917
2.71128511429 0.0978743530350211 -0.1940099653682369 -1.1858767494772124 2.0466536791177963 2.050037204598331 -0.5200046160127103 1.1399895127138917
2.72124409676 0.0978743530350211 -0.1940099653682369 -1.1858767494772124 2.0466536791177963 2.050037204598331 -0.5200046160127103 1.1399895127138917
2.72124409676 0.0978743530350211 -0.1940099653682369 -1.1858767494772124 2.0466536791177963 2.050037204598331 -0.5200046160127103 1.1399895127138917
2.73125290871 0.0978743530350211 -0.1940099653682369 -1.1858767494772124 2.0466536791177963 2.050037204598331 -0.5200046160127103 1.1399895127138917
2.73125290871 0.0978743530350211 -0.1940099653682369 -1.1858767494772124 2.0466536791177963 2.050037204598331 -0.5200046160127103 1.1399895127138917
2.74137401581 0.0978743530350211 -0.1940099653682369 -1.1858767494772124 2.0466536791177963 2.050037204598331 -0.5200046160127103 1.1399895127138917
2.74137401581 0.0978743530350211 -0.1940099653682369 -1.1858767494772124 2.0466536791177963 2.050037204598331 -0.5200046160127103 1.1399895127138917
2.75137805939 0.0978743530350211 -0.1940099653682369 -1.1858767494772124 2.0466536791177963 2.050037204598331 -0.5200046160127103 1.1399895127138917
2.75137805939 0.0978743530350211 -0.1940099653682369 -1.1858767494772124 2.0466536791177963 2.050037204598331 -0.5200046160127103 1.1399895127138917
2.76136398315 0.0978743530350211 -0.1940099653682369 -1.1858767494772124 2.0466536791177963 2.050037204598331 -0.5200046160127103 1.1399895127138917
2.76136398315 0.0978743530350211 -0.1940099653682369 -1.1858767494772124 2.0466536791177963 2.050037204598331 -0.5200046160127103 1.1399895127138917
2.77129912376 0.0978743530350211 -0.1940099653682369 -1.1858767494772124 2.0466536791177963 2.050037204598331 -0.5200046160127103 1.1399895127138917
2.77129912376 0.0978743530350211 -0.1940099653682369 -1.1858767494772124 2.0466536791177963 2.050037204598331 -0.5200046160127103 1.1399895127138917
2.78137803078 0.0978743530350211 -0.1940099653682369 -1.1858767494772124 2.0466536791177963 2.050037204598331 -0.5200046160127103 1.1399895127138917
2.78137803078 0.0978743530350211 -0.1940099653682369 -1.1858767494772124 2.0466536791177963 2.050037204598331 -0.5200046160127103 1.1399895127138917
2.79129910469 0.0978743530350211 -0.1940099653682369 -1.1858767494772124 2.0466536791177963 2.050037204598331 -0.5200046160127103 1.1399895127138917
2.79129910469 0.0978743530350211 -0.1940099653682369 -1.1858767494772124 2.0466536791177963 2.050037204598331 -0.5200046160127103 1.1399895127138917
2.80139613152 0.0978743530350211 -0.1940099653682369 -1.1858767494772124 2.0466536791177963 2.050037204598331 -0.5200046160127103 1.1399895127138917
2.80139613152 0.0978743530350211 -0.1940099653682369 -1.1858767494772124 2.0466536791177963 2.050037204598331 -0.5200046160127103 1.1399895127138917
2.81126213074 0.0978743530350211 -0.1940099653682369 -1.1858767494772124 2.0466536791177963 2.050037204598331 -0.5200046160127103 1.1399895127138917
2.81126213074 0.0978743530350211 -0.1940099653682369 -1.1858767494772124 2.0466536791177963 2.050037204598331 -0.5200046160127103 1.1399895127138917
2.8212389946 0.0978743530350211 -0.1940099653682369 -1.1858767494772124 2.0466536791177963 2.050037204598331 -0.5200046160127103 1.1399895127138917
2.8212389946 0.0978743530350211 -0.1940099653682369 -1.1858767494772124 2.0466536791177963 2.050037204598331 -0.5200046160127103 1.1399895127138917
2.83124709129 0.0978743530350211 -0.1940099653682369 -1.1858767494772124 2.0466536791177963 2.050037204598331 -0.5200046160127103 1.1399895127138917
2.83124709129 0.0978743530350211 -0.1940099653682369 -1.1858767494772124 2.0466536791177963 2.050037204598331 -0.5200046160127103 1.1399895127138917
2.84143996239 0.0978743530350211 -0.1940099653682369 -1.1858767494772124 2.0466536791177963 2.050037204598331 -0.5200046160127103 1.1399895127138917
2.84143996239 0.0978743530350211 -0.1940099653682369 -1.1858767494772124 2.0466536791177963 2.050037204598331 -0.5200046160127103 1.1399895127138917
2.8512609005 0.0978743530350211 -0.1940099653682369 -1.1858767494772124 2.0466536791177963 2.050037204598331 -0.5200046160127103 1.1399895127138917
2.8512609005 0.0978743530350211 -0.1940099653682369 -1.1858767494772124 2.0466536791177963 2.050037204598331 -0.5200046160127103 1.1399895127138917
2.86134910583 0.0978743530350211 -0.1940099653682369 -1.1858767494772124 2.0466536791177963 2.050037204598331 -0.5200046160127103 1.1399895127138917
2.86134910583 0.0978743530350211 -0.1940099653682369 -1.1858767494772124 2.0466536791177963 2.050037204598331 -0.5200046160127103 1.1399895127138917
2.8713259697 0.0978743530350211 -0.1940099653682369 -1.1858767494772124 2.0466536791177963 2.050037204598331 -0.5200046160127103 1.1399895127138917
2.8713259697 0.0978743530350211 -0.1940099653682369 -1.1858767494772124 2.0466536791177963 2.050037204598331 -0.5200046160127103 1.1399895127138917
2.88136696815 0.0978743530350211 -0.1940099653682369 -1.1858767494772124 2.0466536791177963 2.050037204598331 -0.5200046160127103 1.1399895127138917
2.88136696815 0.0978743530350211 -0.1940099653682369 -1.1858767494772124 2.0466536791177963 2.050037204598331 -0.5200046160127103 1.1399895127138917
2.89127206802 0.0978743530350211 -0.1940099653682369 -1.1858767494772124 2.0466536791177963 2.050037204598331 -0.5200046160127103 1.1399895127138917
2.89127206802 0.0978743530350211 -0.1940099653682369 -1.1858767494772124 2.0466536791177963 2.050037204598331 -0.5200046160127103 1.1399895127138917
2.90136599541 0.0978743530350211 -0.1940099653682369 -1.1858767494772124 2.0466536791177963 2.050037204598331 -0.5200046160127103 1.1399895127138917
2.90136599541 0.0978743530350211 -0.1940099653682369 -1.1858767494772124 2.0466536791177963 2.050037204598331 -0.5200046160127103 1.1399895127138917
2.91128611565 0.0978743530350211 -0.1940099653682369 -1.1858767494772124 2.0466536791177963 2.050037204598331 -0.5200046160127103 1.1399895127138917
2.91128611565 0.0978743530350211 -0.1940099653682369 -1.1858767494772124 2.0466536791177963 2.050037204598331 -0.5200046160127103 1.1399895127138917
2.92144012451 0.0978743530350211 -0.1940099653682369 -1.1858767494772124 2.0466536791177963 2.050037204598331 -0.5200046160127103 1.1399895127138917
2.92144012451 0.0978743530350211 -0.1940099653682369 -1.1858767494772124 2.0466536791177963 2.050037204598331 -0.5200046160127103 1.1399895127138917
2.93128800392 0.0978743530350211 -0.1940099653682369 -1.1858767494772124 2.0466536791177963 2.050037204598331 -0.5200046160127103 1.1399895127138917
2.93128800392 0.0978743530350211 -0.1940099653682369 -1.1858767494772124 2.0466536791177963 2.050037204598331 -0.5200046160127103 1.1399895127138917
2.94116401672 0.0978743530350211 -0.1940099653682369 -1.1858767494772124 2.0466536791177963 2.050037204598331 -0.5200046160127103 1.1399895127138917
2.94116401672 0.0978743530350211 -0.1940099653682369 -1.1858767494772124 2.0466536791177963 2.050037204598331 -0.5200046160127103 1.1399895127138917
2.95128512383 0.0978743530350211 -0.1940099653682369 -1.1858767494772124 2.0466536791177963 2.050037204598331 -0.5200046160127103 1.1399895127138917
2.95128512383 0.0978743530350211 -0.1940099653682369 -1.1858767494772124 2.0466536791177963 2.050037204598331 -0.5200046160127103 1.1399895127138917
2.96134805679 0.0978743530350211 -0.1940099653682369 -1.1858767494772124 2.0466536791177963 2.050037204598331 -0.5200046160127103 1.1399895127138917
2.96134805679 0.0978743530350211 -0.1940099653682369 -1.1858767494772124 2.0466536791177963 2.050037204598331 -0.5200046160127103 1.1399895127138917
2.97124409676 0.0978743530350211 -0.1940099653682369 -1.1858767494772124 2.0466536791177963 2.050037204598331 -0.5200046160127103 1.1399895127138917
2.97124409676 0.0978743530350211 -0.1940099653682369 -1.1858767494772124 2.0466536791177963 2.050037204598331 -0.5200046160127103 1.1399895127138917
2.98132991791 0.0978743530350211 -0.1940099653682369 -1.1858767494772124 2.0466536791177963 2.050037204598331 -0.5200046160127103 1.1399895127138917
2.98132991791 0.0978743530350211 -0.1940099653682369 -1.1858767494772124 2.0466536791177963 2.050037204598331 -0.5200046160127103 1.1399895127138917
2.99131298065 0.0978743530350211 -0.1940099653682369 -1.1858767494772124 2.0466536791177963 2.050037204598331 -0.5200046160127103 1.1399895127138917
2.99131298065 0.0978743530350211 -0.1940099653682369 -1.1858767494772124 2.0466536791177963 2.050037204598331 -0.5200046160127103 1.1399895127138917
3.00128006935 0.0978743530350211 -0.1940099653682369 -1.1858767494772124 2.0466536791177963 2.050037204598331 -0.5200046160127103 1.1399895127138917
3.00128006935 0.0978743530350211 -0.1940099653682369 -1.1858767494772124 2.0466536791177963 2.050037204598331 -0.5200046160127103 1.1399895127138917
3.01127910614 0.0978743530350211 -0.1940099653682369 -1.1858767494772124 2.0466536791177963 2.050037204598331 -0.5200046160127103 1.1399895127138917
3.01127910614 0.0978743530350211 -0.1940099653682369 -1.1858767494772124 2.0466536791177963 2.050037204598331 -0.5200046160127103 1.1399895127138917
3.02139592171 0.0978743530350211 -0.1940099653682369 -1.1858767494772124 2.0466536791177963 2.050037204598331 -0.5200046160127103 1.1399895127138917
3.02139592171 0.0978743530350211 -0.1940099653682369 -1.1858767494772124 2.0466536791177963 2.050037204598331 -0.5200046160127103 1.1399895127138917
3.03126192093 0.0978743530350211 -0.1940099653682369 -1.1858767494772124 2.0466536791177963 2.050037204598331 -0.5200046160127103 1.1399895127138917
3.03126192093 0.0978743530350211 -0.1940099653682369 -1.1858767494772124 2.0466536791177963 2.050037204598331 -0.5200046160127103 1.1399895127138917
3.0413620472 0.0978743530350211 -0.1940099653682369 -1.1858767494772124 2.0466536791177963 2.050037204598331 -0.5200046160127103 1.1399895127138917
3.0413620472 0.0978743530350211 -0.1940099653682369 -1.1858767494772124 2.0466536791177963 2.050037204598331 -0.5200046160127103 1.1399895127138917
3.05132508278 0.0978743530350211 -0.1940099653682369 -1.1858767494772124 2.0466536791177963 2.050037204598331 -0.5200046160127103 1.1399895127138917
3.05132508278 0.0978743530350211 -0.1940099653682369 -1.1858767494772124 2.0466536791177963 2.050037204598331 -0.5200046160127103 1.1399895127138917
3.06138706207 0.0978743530350211 -0.1940099653682369 -1.1858767494772124 2.0466536791177963 2.050037204598331 -0.5200046160127103 1.1399895127138917
3.06138706207 0.0978743530350211 -0.1940099653682369 -1.1858767494772124 2.0466536791177963 2.050037204598331 -0.5200046160127103 1.1399895127138917
3.07112908363 0.0978743530350211 -0.1940099653682369 -1.1858767494772124 2.0466536791177963 2.050037204598331 -0.5200046160127103 1.1399895127138917
3.07112908363 0.0978743530350211 -0.1940099653682369 -1.1858767494772124 2.0466536791177963 2.050037204598331 -0.5200046160127103 1.1399895127138917
3.08133792877 0.0978743530350211 -0.1940099653682369 -1.1858767494772124 2.0466536791177963 2.050037204598331 -0.5200046160127103 1.1399895127138917
3.08133792877 0.0978743530350211 -0.1940099653682369 -1.1858767494772124 2.0466536791177963 2.050037204598331 -0.5200046160127103 1.1399895127138917
3.09124112129 0.0978743530350211 -0.1940099653682369 -1.1858767494772124 2.0466536791177963 2.050037204598331 -0.5200046160127103 1.1399895127138917
3.09124112129 0.0978743530350211 -0.1940099653682369 -1.1858767494772124 2.0466536791177963 2.050037204598331 -0.5200046160127103 1.1399895127138917
3.10122895241 0.0978743530350211 -0.1940099653682369 -1.1858767494772124 2.0466536791177963 2.050037204598331 -0.5200046160127103 1.1399895127138917
3.10122895241 0.0978743530350211 -0.1940099653682369 -1.1858767494772124 2.0466536791177963 2.050037204598331 -0.5200046160127103 1.1399895127138917
3.11124110222 0.0978743530350211 -0.1940099653682369 -1.1858767494772124 2.0466536791177963 2.050037204598331 -0.5200046160127103 1.1399895127138917
3.11124110222 0.0978743530350211 -0.1940099653682369 -1.1858767494772124 2.0466536791177963 2.050037204598331 -0.5200046160127103 1.1399895127138917
3.12126493454 0.0978743530350211 -0.1940099653682369 -1.1858767494772124 2.0466536791177963 2.050037204598331 -0.5200046160127103 1.1399895127138917
3.12126493454 0.0978743530350211 -0.1940099653682369 -1.1858767494772124 2.0466536791177963 2.050037204598331 -0.5200046160127103 1.1399895127138917
3.13118505478 0.0978743530350211 -0.1940099653682369 -1.1858767494772124 2.0466536791177963 2.050037204598331 -0.5200046160127103 1.1399895127138917
3.13118505478 0.0978743530350211 -0.1940099653682369 -1.1858767494772124 2.0466536791177963 2.050037204598331 -0.5200046160127103 1.1399895127138917
3.14129400253 0.0978743530350211 -0.1940099653682369 -1.1858767494772124 2.0466536791177963 2.050037204598331 -0.5200046160127103 1.1399895127138917
3.14129400253 0.0978743530350211 -0.1940099653682369 -1.1858767494772124 2.0466536791177963 2.050037204598331 -0.5200046160127103 1.1399895127138917
3.15132904053 0.0978743530350211 -0.1940099653682369 -1.1858767494772124 2.0466536791177963 2.050037204598331 -0.5200046160127103 1.1399895127138917
3.15132904053 0.0978743530350211 -0.1940099653682369 -1.1858767494772124 2.0466536791177963 2.050037204598331 -0.5200046160127103 1.1399895127138917
3.16134810448 0.0978743530350211 -0.1940099653682369 -1.1858767494772124 2.0466536791177963 2.050037204598331 -0.5200046160127103 1.1399895127138917
3.16134810448 0.0978743530350211 -0.1940099653682369 -1.1858767494772124 2.0466536791177963 2.050037204598331 -0.5200046160127103 1.1399895127138917
3.17131209373 0.0978743530350211 -0.1940099653682369 -1.1858767494772124 2.0466536791177963 2.050037204598331 -0.5200046160127103 1.1399895127138917
3.17131209373 0.0978743530350211 -0.1940099653682369 -1.1858767494772124 2.0466536791177963 2.050037204598331 -0.5200046160127103 1.1399895127138917
3.18136000633 0.0978743530350211 -0.1940099653682369 -1.1858767494772124 2.0466536791177963 2.050037204598331 -0.5200046160127103 1.1399895127138917
3.18136000633 0.0978743530350211 -0.1940099653682369 -1.1858767494772124 2.0466536791177963 2.050037204598331 -0.5200046160127103 1.1399895127138917
3.19113898277 0.0978743530350211 -0.1940099653682369 -1.1858767494772124 2.0466536791177963 2.050037204598331 -0.5200046160127103 1.1399895127138917
3.19113898277 0.0978743530350211 -0.1940099653682369 -1.1858767494772124 2.0466536791177963 2.050037204598331 -0.5200046160127103 1.1399895127138917
3.2013669014 0.0978743530350211 -0.1940099653682369 -1.1858767494772124 2.0466536791177963 2.050037204598331 -0.5200046160127103 1.1399895127138917
3.2013669014 0.0978743530350211 -0.1940099653682369 -1.1858767494772124 2.0466536791177963 2.050037204598331 -0.5200046160127103 1.1399895127138917
3.21130394936 0.0978743530350211 -0.1940099653682369 -1.1858767494772124 2.0466536791177963 2.050037204598331 -0.5200046160127103 1.1399895127138917
3.21130394936 0.0978743530350211 -0.1940099653682369 -1.1858767494772124 2.0466536791177963 2.050037204598331 -0.5200046160127103 1.1399895127138917
3.22133994102 0.0978743530350211 -0.1940099653682369 -1.1858767494772124 2.0466536791177963 2.050037204598331 -0.5200046160127103 1.1399895127138917
3.22133994102 0.0978743530350211 -0.1940099653682369 -1.1858767494772124 2.0466536791177963 2.050037204598331 -0.5200046160127103 1.1399895127138917
3.23127198219 0.0978743530350211 -0.1940099653682369 -1.1858767494772124 2.0466536791177963 2.050037204598331 -0.5200046160127103 1.1399895127138917
3.23127198219 0.0978743530350211 -0.1940099653682369 -1.1858767494772124 2.0466536791177963 2.050037204598331 -0.5200046160127103 1.1399895127138917
3.24135398865 0.0978743530350211 -0.1940099653682369 -1.1858767494772124 2.0466536791177963 2.050037204598331 -0.5200046160127103 1.1399895127138917
3.24135398865 0.0978743530350211 -0.1940099653682369 -1.1858767494772124 2.0466536791177963 2.050037204598331 -0.5200046160127103 1.1399895127138917
3.25115990639 0.0978743530350211 -0.1940099653682369 -1.1858767494772124 2.0466536791177963 2.050037204598331 -0.5200046160127103 1.1399895127138917
3.25115990639 0.0978743530350211 -0.1940099653682369 -1.1858767494772124 2.0466536791177963 2.050037204598331 -0.5200046160127103 1.1399895127138917
3.26134300232 0.0978743530350211 -0.1940099653682369 -1.1858767494772124 2.0466536791177963 2.050037204598331 -0.5200046160127103 1.1399895127138917
3.26134300232 0.0978743530350211 -0.1940099653682369 -1.1858767494772124 2.0466536791177963 2.050037204598331 -0.5200046160127103 1.1399895127138917
3.27130889893 0.0978743530350211 -0.1940099653682369 -1.1858767494772124 2.0466536791177963 2.050037204598331 -0.5200046160127103 1.1399895127138917
3.27130889893 0.0978743530350211 -0.1940099653682369 -1.1858767494772124 2.0466536791177963 2.050037204598331 -0.5200046160127103 1.1399895127138917
3.28125190735 0.0978743530350211 -0.1940099653682369 -1.1858767494772124 2.0466536791177963 2.050037204598331 -0.5200046160127103 1.1399895127138917
3.28125190735 0.0978743530350211 -0.1940099653682369 -1.1858767494772124 2.0466536791177963 2.050037204598331 -0.5200046160127103 1.1399895127138917
3.29127502441 0.0978743530350211 -0.1940099653682369 -1.1858767494772124 2.0466536791177963 2.050037204598331 -0.5200046160127103 1.1399895127138917
3.29127502441 0.0978743530350211 -0.1940099653682369 -1.1858767494772124 2.0466536791177963 2.050037204598331 -0.5200046160127103 1.1399895127138917
3.30139493942 0.0978743530350211 -0.1940099653682369 -1.1858767494772124 2.0466536791177963 2.050037204598331 -0.5200046160127103 1.1399895127138917
3.30139493942 0.0978743530350211 -0.1940099653682369 -1.1858767494772124 2.0466536791177963 2.050037204598331 -0.5200046160127103 1.1399895127138917
3.31128907204 0.0978743530350211 -0.1940099653682369 -1.1858767494772124 2.0466536791177963 2.050037204598331 -0.5200046160127103 1.1399895127138917
3.31128907204 0.0978743530350211 -0.1940099653682369 -1.1858767494772124 2.0466536791177963 2.050037204598331 -0.5200046160127103 1.1399895127138917
3.32239198685 0.0978743530350211 -0.1860791794994554 -1.196507377343877 2.046960479344828 2.050037204598331 -0.5200091814722694 1.1399849472543326
3.32239198685 0.0978743530350211 -0.1860791794994554 -1.196507377343877 2.046960479344828 2.050037204598331 -0.5200091814722694 1.1399849472543326
3.33090090752 0.0978896930463728 -0.1798818149134056 -1.2061102244499835 2.046960479344828 2.050037204598331 -0.5200046160127103 1.1399895127138917
3.33090090752 0.0978896930463728 -0.1798818149134056 -1.2061102244499835 2.046960479344828 2.050037204598331 -0.5200046160127103 1.1399895127138917
3.34093093872 0.0978896930463728 -0.1798818149134056 -1.2061102244499835 2.046960479344828 2.050037204598331 -0.5200046160127103 1.1399895127138917
3.34093093872 0.0978896930463728 -0.1798818149134056 -1.2061102244499835 2.046960479344828 2.050037204598331 -0.5200046160127103 1.1399895127138917
3.35125494003 0.0979050330577244 -0.177749553335532 -1.2096997871062602 2.046960479344828 2.050037204598331 -0.5200091814722694 1.1399849472543326
3.35125494003 0.0979050330577244 -0.177749553335532 -1.2096997871062602 2.046960479344828 2.050037204598331 -0.5200091814722694 1.1399849472543326
3.36133790016 0.0979050330577244 -0.177749553335532 -1.2096997871062602 2.046960479344828 2.050037204598331 -0.5200091814722694 1.1399849472543326
3.36133790016 0.0979050330577244 -0.177749553335532 -1.2096997871062602 2.046960479344828 2.050037204598331 -0.5200091814722694 1.1399849472543326
3.37135410309 0.0979050330577244 -0.177749553335532 -1.2096997871062602 2.046960479344828 2.050037204598331 -0.5200091814722694 1.1399849472543326
3.37135410309 0.0979050330577244 -0.177749553335532 -1.2096997871062602 2.046960479344828 2.050037204598331 -0.5200091814722694 1.1399849472543326
3.38132691383 0.0979050330577244 -0.177749553335532 -1.2096997871062602 2.046960479344828 2.050037204598331 -0.5200091814722694 1.1399849472543326
3.38132691383 0.0979050330577244 -0.177749553335532 -1.2096997871062602 2.046960479344828 2.050037204598331 -0.5200091814722694 1.1399849472543326
3.39126706123 0.0979050330577244 -0.177749553335532 -1.2096997871062602 2.046960479344828 2.050037204598331 -0.5200091814722694 1.1399849472543326
3.39126706123 0.0979050330577244 -0.177749553335532 -1.2096997871062602 2.046960479344828 2.050037204598331 -0.5200091814722694 1.1399849472543326
3.4013030529 0.0979050330577244 -0.177749553335532 -1.2096997871062602 2.046960479344828 2.050037204598331 -0.5200091814722694 1.1399849472543326
3.4013030529 0.0979050330577244 -0.177749553335532 -1.2096997871062602 2.046960479344828 2.050037204598331 -0.5200091814722694 1.1399849472543326
3.41128611565 0.0979050330577244 -0.177749553335532 -1.2096997871062602 2.046960479344828 2.050037204598331 -0.5200091814722694 1.1399849472543326
3.41128611565 0.0979050330577244 -0.177749553335532 -1.2096997871062602 2.046960479344828 2.050037204598331 -0.5200091814722694 1.1399849472543326
3.42134404182 0.0979050330577244 -0.177749553335532 -1.2096997871062602 2.046960479344828 2.050037204598331 -0.5200091814722694 1.1399849472543326
3.42134404182 0.0979050330577244 -0.177749553335532 -1.2096997871062602 2.046960479344828 2.050037204598331 -0.5200091814722694 1.1399849472543326
3.43124008179 0.0979050330577244 -0.177749553335532 -1.2096997871062602 2.046960479344828 2.050037204598331 -0.5200091814722694 1.1399849472543326
3.43124008179 0.0979050330577244 -0.177749553335532 -1.2096997871062602 2.046960479344828 2.050037204598331 -0.5200091814722694 1.1399849472543326
3.44134712219 0.0979050330577244 -0.177749553335532 -1.2096997871062602 2.046960479344828 2.050037204598331 -0.5200091814722694 1.1399849472543326
3.44134712219 0.0979050330577244 -0.177749553335532 -1.2096997871062602 2.046960479344828 2.050037204598331 -0.5200091814722694 1.1399849472543326
3.45127701759 0.0979050330577244 -0.177749553335532 -1.2096997871062602 2.046960479344828 2.050037204598331 -0.5200091814722694 1.1399849472543326
3.45127701759 0.0979050330577244 -0.177749553335532 -1.2096997871062602 2.046960479344828 2.050037204598331 -0.5200091814722694 1.1399849472543326
3.46140098572 0.0979050330577244 -0.177749553335532 -1.2096997871062602 2.046960479344828 2.050037204598331 -0.5200091814722694 1.1399849472543326
3.46140098572 0.0979050330577244 -0.177749553335532 -1.2096997871062602 2.046960479344828 2.050037204598331 -0.5200091814722694 1.1399849472543326
3.47128295898 0.0979050330577244 -0.177749553335532 -1.2096997871062602 2.046960479344828 2.050037204598331 -0.5200091814722694 1.1399849472543326
3.47128295898 0.0979050330577244 -0.177749553335532 -1.2096997871062602 2.046960479344828 2.050037204598331 -0.5200091814722694 1.1399849472543326
3.4813439846 0.0979050330577244 -0.177749553335532 -1.2096997871062602 2.046960479344828 2.050037204598331 -0.5200091814722694 1.1399849472543326
3.4813439846 0.0979050330577244 -0.177749553335532 -1.2096997871062602 2.046960479344828 2.050037204598331 -0.5200091814722694 1.1399849472543326
3.4913020134 0.0979050330577244 -0.177749553335532 -1.2096997871062602 2.046960479344828 2.050037204598331 -0.5200091814722694 1.1399849472543326
3.4913020134 0.0979050330577244 -0.177749553335532 -1.2096997871062602 2.046960479344828 2.050037204598331 -0.5200091814722694 1.1399849472543326
3.50135397911 0.0979050330577244 -0.177749553335532 -1.2096997871062602 2.046960479344828 2.050037204598331 -0.5200091814722694 1.1399849472543326
3.50135397911 0.0979050330577244 -0.177749553335532 -1.2096997871062602 2.046960479344828 2.050037204598331 -0.5200091814722694 1.1399849472543326
3.51129198074 0.0979050330577244 -0.177749553335532 -1.2096997871062602 2.046960479344828 2.050037204598331 -0.5200091814722694 1.1399849472543326
3.51129198074 0.0979050330577244 -0.177749553335532 -1.2096997871062602 2.046960479344828 2.050037204598331 -0.5200091814722694 1.1399849472543326
3.52138090134 0.0979050330577244 -0.177749553335532 -1.2096997871062602 2.046960479344828 2.050037204598331 -0.5200091814722694 1.1399849472543326
3.52138090134 0.0979050330577244 -0.177749553335532 -1.2096997871062602 2.046960479344828 2.050037204598331 -0.5200091814722694 1.1399849472543326
3.53113794327 0.0979050330577244 -0.177749553335532 -1.2096997871062602 2.046960479344828 2.050037204598331 -0.5200091814722694 1.1399849472543326
3.53113794327 0.0979050330577244 -0.177749553335532 -1.2096997871062602 2.046960479344828 2.050037204598331 -0.5200091814722694 1.1399849472543326
3.5413479805 0.0979050330577244 -0.177749553335532 -1.2096997871062602 2.046960479344828 2.050037204598331 -0.5200091814722694 1.1399849472543326
3.5413479805 0.0979050330577244 -0.177749553335532 -1.2096997871062602 2.046960479344828 2.050037204598331 -0.5200091814722694 1.1399849472543326
3.55131006241 0.0979050330577244 -0.177749553335532 -1.2096997871062602 2.046960479344828 2.050037204598331 -0.5200091814722694 1.1399849472543326
3.55131006241 0.0979050330577244 -0.177749553335532 -1.2096997871062602 2.046960479344828 2.050037204598331 -0.5200091814722694 1.1399849472543326
3.56128001213 0.0979050330577244 -0.177749553335532 -1.2096997871062602 2.046960479344828 2.050037204598331 -0.5200091814722694 1.1399849472543326
3.56128001213 0.0979050330577244 -0.177749553335532 -1.2096997871062602 2.046960479344828 2.050037204598331 -0.5200091814722694 1.1399849472543326
3.57126092911 0.0979050330577244 -0.177749553335532 -1.2096997871062602 2.046960479344828 2.050037204598331 -0.5200091814722694 1.1399849472543326
3.57126092911 0.0979050330577244 -0.177749553335532 -1.2096997871062602 2.046960479344828 2.050037204598331 -0.5200091814722694 1.1399849472543326
3.58137106895 0.0979050330577244 -0.177749553335532 -1.2096997871062602 2.046960479344828 2.050037204598331 -0.5200091814722694 1.1399849472543326
3.58137106895 0.0979050330577244 -0.177749553335532 -1.2096997871062602 2.046960479344828 2.050037204598331 -0.5200091814722694 1.1399849472543326
3.59121799469 0.0979050330577244 -0.177749553335532 -1.2096997871062602 2.046960479344828 2.050037204598331 -0.5200091814722694 1.1399849472543326
3.59121799469 0.0979050330577244 -0.177749553335532 -1.2096997871062602 2.046960479344828 2.050037204598331 -0.5200091814722694 1.1399849472543326
3.60138106346 0.0979050330577244 -0.177749553335532 -1.2096997871062602 2.046960479344828 2.050037204598331 -0.5200091814722694 1.1399849472543326
3.60138106346 0.0979050330577244 -0.177749553335532 -1.2096997871062602 2.046960479344828 2.050037204598331 -0.5200091814722694 1.1399849472543326
3.61130309105 0.0979050330577244 -0.177749553335532 -1.2096997871062602 2.046960479344828 2.050037204598331 -0.5200091814722694 1.1399849472543326
3.61130309105 0.0979050330577244 -0.177749553335532 -1.2096997871062602 2.046960479344828 2.050037204598331 -0.5200091814722694 1.1399849472543326
3.62128400803 0.0979050330577244 -0.177749553335532 -1.2096997871062602 2.046960479344828 2.050037204598331 -0.5200091814722694 1.1399849472543326
3.62128400803 0.0979050330577244 -0.177749553335532 -1.2096997871062602 2.046960479344828 2.050037204598331 -0.5200091814722694 1.1399849472543326
3.63128209114 0.0979050330577244 -0.177749553335532 -1.2096997871062602 2.046960479344828 2.050037204598331 -0.5200091814722694 1.1399849472543326
3.63128209114 0.0979050330577244 -0.177749553335532 -1.2096997871062602 2.046960479344828 2.050037204598331 -0.5200091814722694 1.1399849472543326
3.64140892029 0.0979050330577244 -0.177749553335532 -1.2096997871062602 2.046960479344828 2.050037204598331 -0.5200091814722694 1.1399849472543326
3.64140892029 0.0979050330577244 -0.177749553335532 -1.2096997871062602 2.046960479344828 2.050037204598331 -0.5200091814722694 1.1399849472543326
3.65126395226 0.0979050330577244 -0.177749553335532 -1.2096997871062602 2.046960479344828 2.050037204598331 -0.5200091814722694 1.1399849472543326
3.65126395226 0.0979050330577244 -0.177749553335532 -1.2096997871062602 2.046960479344828 2.050037204598331 -0.5200091814722694 1.1399849472543326
3.6612830162 0.0979050330577244 -0.177749553335532 -1.2096997871062602 2.046960479344828 2.050037204598331 -0.5200091814722694 1.1399849472543326
3.6612830162 0.0979050330577244 -0.177749553335532 -1.2096997871062602 2.046960479344828 2.050037204598331 -0.5200091814722694 1.1399849472543326
3.67127394676 0.0979050330577244 -0.177749553335532 -1.2096997871062602 2.046960479344828 2.050037204598331 -0.5200091814722694 1.1399849472543326
3.67127394676 0.0979050330577244 -0.177749553335532 -1.2096997871062602 2.046960479344828 2.050037204598331 -0.5200091814722694 1.1399849472543326
3.68135499954 0.0979050330577244 -0.177749553335532 -1.2096997871062602 2.046960479344828 2.050037204598331 -0.5200091814722694 1.1399849472543326
3.68135499954 0.0979050330577244 -0.177749553335532 -1.2096997871062602 2.046960479344828 2.050037204598331 -0.5200091814722694 1.1399849472543326
3.69128608704 0.0979050330577244 -0.177749553335532 -1.2096997871062602 2.046960479344828 2.050037204598331 -0.5200091814722694 1.1399849472543326
3.69128608704 0.0979050330577244 -0.177749553335532 -1.2096997871062602 2.046960479344828 2.050037204598331 -0.5200091814722694 1.1399849472543326
3.70143508911 0.0979050330577244 -0.177749553335532 -1.2096997871062602 2.046960479344828 2.050037204598331 -0.5200091814722694 1.1399849472543326
3.70143508911 0.0979050330577244 -0.177749553335532 -1.2096997871062602 2.046960479344828 2.050037204598331 -0.5200091814722694 1.1399849472543326
3.71129512787 0.0979050330577244 -0.177749553335532 -1.2096997871062602 2.046960479344828 2.050037204598331 -0.5200091814722694 1.1399849472543326
3.71129512787 0.0979050330577244 -0.177749553335532 -1.2096997871062602 2.046960479344828 2.050037204598331 -0.5200091814722694 1.1399849472543326
3.72137999535 0.0979050330577244 -0.177749553335532 -1.2096997871062602 2.046960479344828 2.050037204598331 -0.5200091814722694 1.1399849472543326
3.72137999535 0.0979050330577244 -0.177749553335532 -1.2096997871062602 2.046960479344828 2.050037204598331 -0.5200091814722694 1.1399849472543326
3.73132205009 0.0979050330577244 -0.177749553335532 -1.2096997871062602 2.046960479344828 2.050037204598331 -0.5200091814722694 1.1399849472543326
3.73132205009 0.0979050330577244 -0.177749553335532 -1.2096997871062602 2.046960479344828 2.050037204598331 -0.5200091814722694 1.1399849472543326
3.7412750721 0.0979050330577244 -0.177749553335532 -1.2096997871062602 2.046960479344828 2.050037204598331 -0.5200091814722694 1.1399849472543326
3.7412750721 0.0979050330577244 -0.177749553335532 -1.2096997871062602 2.046960479344828 2.050037204598331 -0.5200091814722694 1.1399849472543326
3.75128602982 0.0979050330577244 -0.177749553335532 -1.2096997871062602 2.046960479344828 2.050037204598331 -0.5200091814722694 1.1399849472543326
3.75128602982 0.0979050330577244 -0.177749553335532 -1.2096997871062602 2.046960479344828 2.050037204598331 -0.5200091814722694 1.1399849472543326
3.76138591766 0.0979050330577244 -0.177749553335532 -1.2096997871062602 2.046960479344828 2.050037204598331 -0.5200091814722694 1.1399849472543326
3.76138591766 0.0979050330577244 -0.177749553335532 -1.2096997871062602 2.046960479344828 2.050037204598331 -0.5200091814722694 1.1399849472543326
3.77126193047 0.0979050330577244 -0.177749553335532 -1.2096997871062602 2.046960479344828 2.050037204598331 -0.5200091814722694 1.1399849472543326
3.77126193047 0.0979050330577244 -0.177749553335532 -1.2096997871062602 2.046960479344828 2.050037204598331 -0.5200091814722694 1.1399849472543326
3.78135204315 0.0979050330577244 -0.177749553335532 -1.2096997871062602 2.046960479344828 2.050037204598331 -0.5200091814722694 1.1399849472543326
3.78135204315 0.0979050330577244 -0.177749553335532 -1.2096997871062602 2.046960479344828 2.050037204598331 -0.5200091814722694 1.1399849472543326
3.79130101204 0.0979050330577244 -0.177749553335532 -1.2096997871062602 2.046960479344828 2.050037204598331 -0.5200091814722694 1.1399849472543326
3.79130101204 0.0979050330577244 -0.177749553335532 -1.2096997871062602 2.046960479344828 2.050037204598331 -0.5200091814722694 1.1399849472543326
3.80144500732 0.0979050330577244 -0.177749553335532 -1.2096997871062602 2.046960479344828 2.050037204598331 -0.5200091814722694 1.1399849472543326
3.80144500732 0.0979050330577244 -0.177749553335532 -1.2096997871062602 2.046960479344828 2.050037204598331 -0.5200091814722694 1.1399849472543326
3.8112950325 0.0979050330577244 -0.177749553335532 -1.2096997871062602 2.046960479344828 2.050037204598331 -0.5200091814722694 1.1399849472543326
3.8112950325 0.0979050330577244 -0.177749553335532 -1.2096997871062602 2.046960479344828 2.050037204598331 -0.5200091814722694 1.1399849472543326
3.82138109207 0.0979050330577244 -0.177749553335532 -1.2096997871062602 2.046960479344828 2.050037204598331 -0.5200091814722694 1.1399849472543326
3.82138109207 0.0979050330577244 -0.177749553335532 -1.2096997871062602 2.046960479344828 2.050037204598331 -0.5200091814722694 1.1399849472543326
3.831346035 0.0979050330577244 -0.177749553335532 -1.2096997871062602 2.046960479344828 2.050037204598331 -0.5200091814722694 1.1399849472543326
3.831346035 0.0979050330577244 -0.177749553335532 -1.2096997871062602 2.046960479344828 2.050037204598331 -0.5200091814722694 1.1399849472543326
3.84138512611 0.0979050330577244 -0.177749553335532 -1.2096997871062602 2.046960479344828 2.050037204598331 -0.5200091814722694 1.1399849472543326
3.84138512611 0.0979050330577244 -0.177749553335532 -1.2096997871062602 2.046960479344828 2.050037204598331 -0.5200091814722694 1.1399849472543326
3.85119605064 0.0979050330577244 -0.177749553335532 -1.2096997871062602 2.046960479344828 2.050037204598331 -0.5200091814722694 1.1399849472543326
3.85119605064 0.0979050330577244 -0.177749553335532 -1.2096997871062602 2.046960479344828 2.050037204598331 -0.5200091814722694 1.1399849472543326
3.86135101318 0.0979050330577244 -0.177749553335532 -1.2096997871062602 2.046960479344828 2.050037204598331 -0.5200091814722694 1.1399849472543326
3.86135101318 0.0979050330577244 -0.177749553335532 -1.2096997871062602 2.046960479344828 2.050037204598331 -0.5200091814722694 1.1399849472543326
3.87117505074 0.0979050330577244 -0.177749553335532 -1.2096997871062602 2.046960479344828 2.050037204598331 -0.5200091814722694 1.1399849472543326
3.87117505074 0.0979050330577244 -0.177749553335532 -1.2096997871062602 2.046960479344828 2.050037204598331 -0.5200091814722694 1.1399849472543326
3.881305933 0.0979050330577244 -0.177749553335532 -1.2096997871062602 2.046960479344828 2.050037204598331 -0.5200091814722694 1.1399849472543326
3.881305933 0.0979050330577244 -0.177749553335532 -1.2096997871062602 2.046960479344828 2.050037204598331 -0.5200091814722694 1.1399849472543326
3.89126491547 0.0979050330577244 -0.177749553335532 -1.2096997871062602 2.046960479344828 2.050037204598331 -0.5200091814722694 1.1399849472543326
3.89126491547 0.0979050330577244 -0.177749553335532 -1.2096997871062602 2.046960479344828 2.050037204598331 -0.5200091814722694 1.1399849472543326
3.90122509003 0.0979050330577244 -0.177749553335532 -1.2096997871062602 2.046960479344828 2.050037204598331 -0.5200091814722694 1.1399849472543326
3.90122509003 0.0979050330577244 -0.177749553335532 -1.2096997871062602 2.046960479344828 2.050037204598331 -0.5200091814722694 1.1399849472543326
3.91128110886 0.0979050330577244 -0.177749553335532 -1.2096997871062602 2.046960479344828 2.050037204598331 -0.5200091814722694 1.1399849472543326
3.91128110886 0.0979050330577244 -0.177749553335532 -1.2096997871062602 2.046960479344828 2.050037204598331 -0.5200091814722694 1.1399849472543326
3.9213540554 0.0979050330577244 -0.177749553335532 -1.2096997871062602 2.046960479344828 2.050037204598331 -0.5200091814722694 1.1399849472543326
3.9213540554 0.0979050330577244 -0.177749553335532 -1.2096997871062602 2.046960479344828 2.050037204598331 -0.5200091814722694 1.1399849472543326
3.93124508858 0.0979050330577244 -0.177749553335532 -1.2096997871062602 2.046960479344828 2.050037204598331 -0.5200091814722694 1.1399849472543326
3.93124508858 0.0979050330577244 -0.177749553335532 -1.2096997871062602 2.046960479344828 2.050037204598331 -0.5200091814722694 1.1399849472543326
3.94133806229 0.0979050330577244 -0.177749553335532 -1.2096997871062602 2.046960479344828 2.050037204598331 -0.5200091814722694 1.1399849472543326
3.94133806229 0.0979050330577244 -0.177749553335532 -1.2096997871062602 2.046960479344828 2.050037204598331 -0.5200091814722694 1.1399849472543326
3.95130896568 0.0979050330577244 -0.177749553335532 -1.2096997871062602 2.046960479344828 2.050037204598331 -0.5200091814722694 1.1399849472543326
3.95130896568 0.0979050330577244 -0.177749553335532 -1.2096997871062602 2.046960479344828 2.050037204598331 -0.5200091814722694 1.1399849472543326
3.96141290665 0.0979050330577244 -0.177749553335532 -1.2096997871062602 2.046960479344828 2.050037204598331 -0.5200091814722694 1.1399849472543326
3.96141290665 0.0979050330577244 -0.177749553335532 -1.2096997871062602 2.046960479344828 2.050037204598331 -0.5200091814722694 1.1399849472543326
3.97127509117 0.0979050330577244 -0.177749553335532 -1.2096997871062602 2.046960479344828 2.050037204598331 -0.5200091814722694 1.1399849472543326
3.97127509117 0.0979050330577244 -0.177749553335532 -1.2096997871062602 2.046960479344828 2.050037204598331 -0.5200091814722694 1.1399849472543326
3.98118400574 0.0979050330577244 -0.177749553335532 -1.2096997871062602 2.046960479344828 2.050037204598331 -0.5200091814722694 1.1399849472543326
3.98118400574 0.0979050330577244 -0.177749553335532 -1.2096997871062602 2.046960479344828 2.050037204598331 -0.5200091814722694 1.1399849472543326
3.99134111404 0.0979050330577244 -0.177749553335532 -1.2096997871062602 2.046960479344828 2.050037204598331 -0.5200091814722694 1.1399849472543326
3.99134111404 0.0979050330577244 -0.177749553335532 -1.2096997871062602 2.046960479344828 2.050037204598331 -0.5200091814722694 1.1399849472543326
4.00132989883 0.0979050330577244 -0.177749553335532 -1.2096997871062602 2.046960479344828 2.050037204598331 -0.5200091814722694 1.1399849472543326
4.00132989883 0.0979050330577244 -0.177749553335532 -1.2096997871062602 2.046960479344828 2.050037204598331 -0.5200091814722694 1.1399849472543326
4.01126599312 0.0979050330577244 -0.177749553335532 -1.2096997871062602 2.046960479344828 2.050037204598331 -0.5200091814722694 1.1399849472543326
4.01126599312 0.0979050330577244 -0.177749553335532 -1.2096997871062602 2.046960479344828 2.050037204598331 -0.5200091814722694 1.1399849472543326
4.02139091492 0.0979050330577244 -0.177749553335532 -1.2096997871062602 2.046960479344828 2.050037204598331 -0.5200091814722694 1.1399849472543326
4.02139091492 0.0979050330577244 -0.177749553335532 -1.2096997871062602 2.046960479344828 2.050037204598331 -0.5200091814722694 1.1399849472543326
4.03128600121 0.0979050330577244 -0.177749553335532 -1.2096997871062602 2.046960479344828 2.050037204598331 -0.5200091814722694 1.1399849472543326
4.03128600121 0.0979050330577244 -0.177749553335532 -1.2096997871062602 2.046960479344828 2.050037204598331 -0.5200091814722694 1.1399849472543326
4.04133892059 0.0979050330577244 -0.177749553335532 -1.2096997871062602 2.046960479344828 2.050037204598331 -0.5200091814722694 1.1399849472543326
4.04133892059 0.0979050330577244 -0.177749553335532 -1.2096997871062602 2.046960479344828 2.050037204598331 -0.5200091814722694 1.1399849472543326
4.05129504204 0.0979050330577244 -0.177749553335532 -1.2096997871062602 2.046960479344828 2.050037204598331 -0.5200091814722694 1.1399849472543326
4.05129504204 0.0979050330577244 -0.177749553335532 -1.2096997871062602 2.046960479344828 2.050037204598331 -0.5200091814722694 1.1399849472543326
4.0613219738 0.0979050330577244 -0.177749553335532 -1.2096997871062602 2.046960479344828 2.050037204598331 -0.5200091814722694 1.1399849472543326
4.0613219738 0.0979050330577244 -0.177749553335532 -1.2096997871062602 2.046960479344828 2.050037204598331 -0.5200091814722694 1.1399849472543326
4.07127308846 0.0979050330577244 -0.177749553335532 -1.2096997871062602 2.046960479344828 2.050037204598331 -0.5200091814722694 1.1399849472543326
4.07127308846 0.0979050330577244 -0.177749553335532 -1.2096997871062602 2.046960479344828 2.050037204598331 -0.5200091814722694 1.1399849472543326
4.08142805099 0.0979050330577244 -0.177749553335532 -1.2096997871062602 2.046960479344828 2.050037204598331 -0.5200091814722694 1.1399849472543326
4.08142805099 0.0979050330577244 -0.177749553335532 -1.2096997871062602 2.046960479344828 2.050037204598331 -0.5200091814722694 1.1399849472543326
4.09115290642 0.0979050330577244 -0.177749553335532 -1.2096997871062602 2.046960479344828 2.050037204598331 -0.5200091814722694 1.1399849472543326
4.09115290642 0.0979050330577244 -0.177749553335532 -1.2096997871062602 2.046960479344828 2.050037204598331 -0.5200091814722694 1.1399849472543326
4.10133695602 0.0979050330577244 -0.177749553335532 -1.2096997871062602 2.046960479344828 2.050037204598331 -0.5200091814722694 1.1399849472543326
4.10133695602 0.0979050330577244 -0.177749553335532 -1.2096997871062602 2.046960479344828 2.050037204598331 -0.5200091814722694 1.1399849472543326
4.11142396927 0.0979050330577244 -0.177749553335532 -1.2096997871062602 2.046960479344828 2.050037204598331 -0.5200091814722694 1.1399849472543326
4.11142396927 0.0979050330577244 -0.177749553335532 -1.2096997871062602 2.046960479344828 2.050037204598331 -0.5200091814722694 1.1399849472543326
4.12125492096 0.0979050330577244 -0.177749553335532 -1.2096997871062602 2.046960479344828 2.050037204598331 -0.5200091814722694 1.1399849472543326
4.12125492096 0.0979050330577244 -0.177749553335532 -1.2096997871062602 2.046960479344828 2.050037204598331 -0.5200091814722694 1.1399849472543326
4.13120698929 0.0979050330577244 -0.177749553335532 -1.2096997871062602 2.046960479344828 2.050037204598331 -0.5200091814722694 1.1399849472543326
4.13120698929 0.0979050330577244 -0.177749553335532 -1.2096997871062602 2.046960479344828 2.050037204598331 -0.5200091814722694 1.1399849472543326
4.1413629055 0.0979050330577244 -0.177749553335532 -1.2096997871062602 2.046960479344828 2.050037204598331 -0.5200091814722694 1.1399849472543326
4.1413629055 0.0979050330577244 -0.177749553335532 -1.2096997871062602 2.046960479344828 2.050037204598331 -0.5200091814722694 1.1399849472543326
4.1511631012 0.0979050330577244 -0.177749553335532 -1.2096997871062602 2.046960479344828 2.050037204598331 -0.5200091814722694 1.1399849472543326
4.1511631012 0.0979050330577244 -0.177749553335532 -1.2096997871062602 2.046960479344828 2.050037204598331 -0.5200091814722694 1.1399849472543326
4.16134500504 0.0979050330577244 -0.177749553335532 -1.2096997871062602 2.046960479344828 2.050037204598331 -0.5200091814722694 1.1399849472543326
4.16134500504 0.0979050330577244 -0.177749553335532 -1.2096997871062602 2.046960479344828 2.050037204598331 -0.5200091814722694 1.1399849472543326
4.17125606537 0.0979050330577244 -0.177749553335532 -1.2096997871062602 2.046960479344828 2.050037204598331 -0.5200091814722694 1.1399849472543326
4.17125606537 0.0979050330577244 -0.177749553335532 -1.2096997871062602 2.046960479344828 2.050037204598331 -0.5200091814722694 1.1399849472543326
4.18122196198 0.0979050330577244 -0.177749553335532 -1.2096997871062602 2.046960479344828 2.050037204598331 -0.5200091814722694 1.1399849472543326
4.18122196198 0.0979050330577244 -0.177749553335532 -1.2096997871062602 2.046960479344828 2.050037204598331 -0.5200091814722694 1.1399849472543326
4.1912689209 0.0979050330577244 -0.177749553335532 -1.2096997871062602 2.046960479344828 2.050037204598331 -0.5200091814722694 1.1399849472543326
4.1912689209 0.0979050330577244 -0.177749553335532 -1.2096997871062602 2.046960479344828 2.050037204598331 -0.5200091814722694 1.1399849472543326
4.20132493973 0.0979050330577244 -0.177749553335532 -1.2096997871062602 2.046960479344828 2.050037204598331 -0.5200091814722694 1.1399849472543326
4.20132493973 0.0979050330577244 -0.177749553335532 -1.2096997871062602 2.046960479344828 2.050037204598331 -0.5200091814722694 1.1399849472543326
4.21113801003 0.0979050330577244 -0.177749553335532 -1.2096997871062602 2.046960479344828 2.050037204598331 -0.5200091814722694 1.1399849472543326
4.21113801003 0.0979050330577244 -0.177749553335532 -1.2096997871062602 2.046960479344828 2.050037204598331 -0.5200091814722694 1.1399849472543326
4.2213549614 0.0979050330577244 -0.177749553335532 -1.2096997871062602 2.046960479344828 2.050037204598331 -0.5200091814722694 1.1399849472543326
4.2213549614 0.0979050330577244 -0.177749553335532 -1.2096997871062602 2.046960479344828 2.050037204598331 -0.5200091814722694 1.1399849472543326
4.23131394386 0.0979050330577244 -0.177749553335532 -1.2096997871062602 2.046960479344828 2.050037204598331 -0.5200091814722694 1.1399849472543326
4.23131394386 0.0979050330577244 -0.177749553335532 -1.2096997871062602 2.046960479344828 2.050037204598331 -0.5200091814722694 1.1399849472543326
4.24120211601 0.0979050330577244 -0.177749553335532 -1.2096997871062602 2.046960479344828 2.050037204598331 -0.5200091814722694 1.1399849472543326
4.24120211601 0.0979050330577244 -0.177749553335532 -1.2096997871062602 2.046960479344828 2.050037204598331 -0.5200091814722694 1.1399849472543326
4.25128602982 0.0979050330577244 -0.177749553335532 -1.2096997871062602 2.046960479344828 2.050037204598331 -0.5200091814722694 1.1399849472543326
4.25128602982 0.0979050330577244 -0.177749553335532 -1.2096997871062602 2.046960479344828 2.050037204598331 -0.5200091814722694 1.1399849472543326
4.26140809059 0.0979050330577244 -0.177749553335532 -1.2096997871062602 2.046960479344828 2.050037204598331 -0.5200091814722694 1.1399849472543326
4.26140809059 0.0979050330577244 -0.177749553335532 -1.2096997871062602 2.046960479344828 2.050037204598331 -0.5200091814722694 1.1399849472543326
4.2713971138 0.0979050330577244 -0.177749553335532 -1.2096997871062602 2.046960479344828 2.050037204598331 -0.5200091814722694 1.1399849472543326
4.2713971138 0.0979050330577244 -0.177749553335532 -1.2096997871062602 2.046960479344828 2.050037204598331 -0.5200091814722694 1.1399849472543326
4.28142809868 0.0979050330577244 -0.177749553335532 -1.2096997871062602 2.046960479344828 2.050037204598331 -0.5200091814722694 1.1399849472543326
4.28142809868 0.0979050330577244 -0.177749553335532 -1.2096997871062602 2.046960479344828 2.050037204598331 -0.5200091814722694 1.1399849472543326
4.29092597961 0.0979050330577244 -0.1757706918711746 -1.2137342100917332 2.04697581935618 2.050037204598331 -0.5200046160127103 1.1399895127138917
4.29092597961 0.0979050330577244 -0.1757706918711746 -1.2137342100917332 2.04697581935618 2.050037204598331 -0.5200046160127103 1.1399895127138917
4.30100607872 0.0979050330577244 -0.1757706918711746 -1.2137342100917332 2.04697581935618 2.050037204598331 -0.5200046160127103 1.1399895127138917
4.30100607872 0.0979050330577244 -0.1757706918711746 -1.2137342100917332 2.04697581935618 2.050037204598331 -0.5200046160127103 1.1399895127138917
4.31118392944 0.0979050330577244 -0.1757706918711746 -1.2137342100917332 2.04697581935618 2.050037204598331 -0.5200046160127103 1.1399895127138917
4.31118392944 0.0979050330577244 -0.1757706918711746 -1.2137342100917332 2.04697581935618 2.050037204598331 -0.5200046160127103 1.1399895127138917
4.32137298584 0.0979050330577244 -0.1757706918711746 -1.2137342100917332 2.04697581935618 2.050037204598331 -0.5200046160127103 1.1399895127138917
4.32137298584 0.0979050330577244 -0.1757706918711746 -1.2137342100917332 2.04697581935618 2.050037204598331 -0.5200046160127103 1.1399895127138917
4.33125209808 0.0979050330577244 -0.1757706918711746 -1.2137342100917332 2.04697581935618 2.050037204598331 -0.5200046160127103 1.1399895127138917
4.33125209808 0.0979050330577244 -0.1757706918711746 -1.2137342100917332 2.04697581935618 2.050037204598331 -0.5200046160127103 1.1399895127138917
4.34136795998 0.0979050330577244 -0.1757706918711746 -1.2137342100917332 2.04697581935618 2.050037204598331 -0.5200046160127103 1.1399895127138917
4.34136795998 0.0979050330577244 -0.1757706918711746 -1.2137342100917332 2.04697581935618 2.050037204598331 -0.5200046160127103 1.1399895127138917
4.35127401352 0.0979050330577244 -0.1757706918711746 -1.2137342100917332 2.04697581935618 2.050037204598331 -0.5200046160127103 1.1399895127138917
4.35127401352 0.0979050330577244 -0.1757706918711746 -1.2137342100917332 2.04697581935618 2.050037204598331 -0.5200046160127103 1.1399895127138917
4.36129808426 0.0979050330577244 -0.1757706918711746 -1.2137342100917332 2.04697581935618 2.050037204598331 -0.5200046160127103 1.1399895127138917
4.36129808426 0.0979050330577244 -0.1757706918711746 -1.2137342100917332 2.04697581935618 2.050037204598331 -0.5200046160127103 1.1399895127138917
4.37132501602 0.0979050330577244 -0.1757706918711746 -1.2137342100917332 2.04697581935618 2.050037204598331 -0.5200046160127103 1.1399895127138917
4.37132501602 0.0979050330577244 -0.1757706918711746 -1.2137342100917332 2.04697581935618 2.050037204598331 -0.5200046160127103 1.1399895127138917
4.38136911392 0.0979050330577244 -0.1757706918711746 -1.2137342100917332 2.04697581935618 2.050037204598331 -0.5200046160127103 1.1399895127138917
4.38136911392 0.0979050330577244 -0.1757706918711746 -1.2137342100917332 2.04697581935618 2.050037204598331 -0.5200046160127103 1.1399895127138917
4.39137005806 0.0979050330577244 -0.1757706918711746 -1.2137342100917332 2.04697581935618 2.050037204598331 -0.5200046160127103 1.1399895127138917
4.39137005806 0.0979050330577244 -0.1757706918711746 -1.2137342100917332 2.04697581935618 2.050037204598331 -0.5200046160127103 1.1399895127138917
4.40131592751 0.0979050330577244 -0.1757706918711746 -1.2137342100917332 2.04697581935618 2.050037204598331 -0.5200046160127103 1.1399895127138917
4.40131592751 0.0979050330577244 -0.1757706918711746 -1.2137342100917332 2.04697581935618 2.050037204598331 -0.5200046160127103 1.1399895127138917
4.41112589836 0.0979050330577244 -0.1757706918711746 -1.2137342100917332 2.04697581935618 2.050037204598331 -0.5200046160127103 1.1399895127138917
4.41112589836 0.0979050330577244 -0.1757706918711746 -1.2137342100917332 2.04697581935618 2.050037204598331 -0.5200046160127103 1.1399895127138917
4.42130494118 0.0979050330577244 -0.1757706918711746 -1.2137342100917332 2.04697581935618 2.050037204598331 -0.5200046160127103 1.1399895127138917
4.42130494118 0.0979050330577244 -0.1757706918711746 -1.2137342100917332 2.04697581935618 2.050037204598331 -0.5200046160127103 1.1399895127138917
4.43129205704 0.0979050330577244 -0.1757706918711746 -1.2137342100917332 2.04697581935618 2.050037204598331 -0.5200046160127103 1.1399895127138917
4.43129205704 0.0979050330577244 -0.1757706918711746 -1.2137342100917332 2.04697581935618 2.050037204598331 -0.5200046160127103 1.1399895127138917
4.4413459301 0.0979050330577244 -0.1757706918711746 -1.2137342100917332 2.04697581935618 2.050037204598331 -0.5200046160127103 1.1399895127138917
4.4413459301 0.0979050330577244 -0.1757706918711746 -1.2137342100917332 2.04697581935618 2.050037204598331 -0.5200046160127103 1.1399895127138917
4.45128798485 0.0979050330577244 -0.1757706918711746 -1.2137342100917332 2.04697581935618 2.050037204598331 -0.5200046160127103 1.1399895127138917
4.45128798485 0.0979050330577244 -0.1757706918711746 -1.2137342100917332 2.04697581935618 2.050037204598331 -0.5200046160127103 1.1399895127138917
4.46118402481 0.0979050330577244 -0.1757706918711746 -1.2137342100917332 2.04697581935618 2.050037204598331 -0.5200046160127103 1.1399895127138917
4.46118402481 0.0979050330577244 -0.1757706918711746 -1.2137342100917332 2.04697581935618 2.050037204598331 -0.5200046160127103 1.1399895127138917
4.47093892097 0.0979050330577244 -0.1601699003265888 -1.2660283087893662 2.04697581935618 2.050037204598331 -0.5200046160127103 1.1399895127138917
4.47093892097 0.0979050330577244 -0.1601699003265888 -1.2660283087893662 2.04697581935618 2.050037204598331 -0.5200046160127103 1.1399895127138917
4.48094391823 0.0979050330577244 -0.1601699003265888 -1.2660283087893662 2.04697581935618 2.050037204598331 -0.5200046160127103 1.1399895127138917
4.48094391823 0.0979050330577244 -0.1601699003265888 -1.2660283087893662 2.04697581935618 2.050037204598331 -0.5200046160127103 1.1399895127138917
4.49117612839 0.0979050330577244 -0.1546474962400097 -1.2781315777457851 2.04697581935618 2.050037204598331 -0.5200046160127103 1.1399895127138917
4.49117612839 0.0979050330577244 -0.1546474962400097 -1.2781315777457851 2.04697581935618 2.050037204598331 -0.5200046160127103 1.1399895127138917
4.50098609924 0.0979050330577244 -0.1546474962400097 -1.2781315777457851 2.04697581935618 2.050037204598331 -0.5200046160127103 1.1399895127138917
4.50098609924 0.0979050330577244 -0.1546474962400097 -1.2781315777457851 2.04697581935618 2.050037204598331 -0.5200046160127103 1.1399895127138917
4.51123094559 0.0979050330577244 -0.1530367950480909 -1.2822887208220712 2.04697581935618 2.050037204598331 -0.5200046160127103 1.1399895127138917
4.51123094559 0.0979050330577244 -0.1530367950480909 -1.2822887208220712 2.04697581935618 2.050037204598331 -0.5200046160127103 1.1399895127138917
4.52113509178 0.0979050330577244 -0.1530367950480909 -1.2822887208220712 2.04697581935618 2.050037204598331 -0.5200046160127103 1.1399895127138917
4.52113509178 0.0979050330577244 -0.1530367950480909 -1.2822887208220712 2.04697581935618 2.050037204598331 -0.5200046160127103 1.1399895127138917
4.53124809265 0.0979050330577244 -0.1530367950480909 -1.2822887208220712 2.04697581935618 2.050037204598331 -0.5200046160127103 1.1399895127138917
4.53124809265 0.0979050330577244 -0.1530367950480909 -1.2822887208220712 2.04697581935618 2.050037204598331 -0.5200046160127103 1.1399895127138917
4.54133892059 0.0979050330577244 -0.1530367950480909 -1.2822887208220712 2.04697581935618 2.050037204598331 -0.5200046160127103 1.1399895127138917
4.54133892059 0.0979050330577244 -0.1530367950480909 -1.2822887208220712 2.04697581935618 2.050037204598331 -0.5200046160127103 1.1399895127138917
4.55117297173 0.0978743530350211 -0.149661992550737 -1.2904496068611269 2.04697581935618 2.050037204598331 -0.5200046160127103 1.1399895127138917
4.55117297173 0.0978743530350211 -0.149661992550737 -1.2904496068611269 2.04697581935618 2.050037204598331 -0.5200046160127103 1.1399895127138917
4.56135010719 0.0978743530350211 -0.149661992550737 -1.2904496068611269 2.04697581935618 2.050037204598331 -0.5200046160127103 1.1399895127138917
4.56135010719 0.0978743530350211 -0.149661992550737 -1.2904496068611269 2.04697581935618 2.050037204598331 -0.5200046160127103 1.1399895127138917
4.57129907608 0.0978743530350211 -0.149661992550737 -1.2904496068611269 2.04697581935618 2.050037204598331 -0.5200046160127103 1.1399895127138917
4.57129907608 0.0978743530350211 -0.149661992550737 -1.2904496068611269 2.04697581935618 2.050037204598331 -0.5200046160127103 1.1399895127138917
4.58134889603 0.0978743530350211 -0.149661992550737 -1.2904496068611269 2.04697581935618 2.050037204598331 -0.5200046160127103 1.1399895127138917
4.58134889603 0.0978743530350211 -0.149661992550737 -1.2904496068611269 2.04697581935618 2.050037204598331 -0.5200046160127103 1.1399895127138917
4.59127497673 0.0978743530350211 -0.149661992550737 -1.2904496068611269 2.04697581935618 2.050037204598331 -0.5200046160127103 1.1399895127138917
4.59127497673 0.0978743530350211 -0.149661992550737 -1.2904496068611269 2.04697581935618 2.050037204598331 -0.5200046160127103 1.1399895127138917
4.60138201714 0.0978743530350211 -0.149661992550737 -1.2904496068611269 2.04697581935618 2.050037204598331 -0.5200046160127103 1.1399895127138917
4.60138201714 0.0978743530350211 -0.149661992550737 -1.2904496068611269 2.04697581935618 2.050037204598331 -0.5200046160127103 1.1399895127138917
4.61139202118 0.0978743530350211 -0.149661992550737 -1.2904496068611269 2.04697581935618 2.050037204598331 -0.5200046160127103 1.1399895127138917
4.61139202118 0.0978743530350211 -0.149661992550737 -1.2904496068611269 2.04697581935618 2.050037204598331 -0.5200046160127103 1.1399895127138917
4.62136697769 0.0978743530350211 -0.149661992550737 -1.2904496068611269 2.04697581935618 2.050037204598331 -0.5200046160127103 1.1399895127138917
4.62136697769 0.0978743530350211 -0.149661992550737 -1.2904496068611269 2.04697581935618 2.050037204598331 -0.5200046160127103 1.1399895127138917
4.63131403923 0.0978743530350211 -0.149661992550737 -1.2904496068611269 2.04697581935618 2.050037204598331 -0.5200046160127103 1.1399895127138917
4.63131403923 0.0978743530350211 -0.149661992550737 -1.2904496068611269 2.04697581935618 2.050037204598331 -0.5200046160127103 1.1399895127138917
4.64139008522 0.0978743530350211 -0.149661992550737 -1.2904496068611269 2.04697581935618 2.050037204598331 -0.5200046160127103 1.1399895127138917
4.64139008522 0.0978743530350211 -0.149661992550737 -1.2904496068611269 2.04697581935618 2.050037204598331 -0.5200046160127103 1.1399895127138917
4.65131306648 0.0978743530350211 -0.149661992550737 -1.2904496068611269 2.04697581935618 2.050037204598331 -0.5200046160127103 1.1399895127138917
4.65131306648 0.0978743530350211 -0.149661992550737 -1.2904496068611269 2.04697581935618 2.050037204598331 -0.5200046160127103 1.1399895127138917
4.66138505936 0.0978743530350211 -0.149661992550737 -1.2904496068611269 2.04697581935618 2.050037204598331 -0.5200046160127103 1.1399895127138917
4.66138505936 0.0978743530350211 -0.149661992550737 -1.2904496068611269 2.04697581935618 2.050037204598331 -0.5200046160127103 1.1399895127138917
4.67132711411 0.0978743530350211 -0.149661992550737 -1.2904496068611269 2.04697581935618 2.050037204598331 -0.5200046160127103 1.1399895127138917
4.67132711411 0.0978743530350211 -0.149661992550737 -1.2904496068611269 2.04697581935618 2.050037204598331 -0.5200046160127103 1.1399895127138917
4.6812069416 0.0978743530350211 -0.149661992550737 -1.2904496068611269 2.04697581935618 2.050037204598331 -0.5200046160127103 1.1399895127138917
4.6812069416 0.0978743530350211 -0.149661992550737 -1.2904496068611269 2.04697581935618 2.050037204598331 -0.5200046160127103 1.1399895127138917
4.69126200676 0.0978743530350211 -0.149661992550737 -1.2904496068611269 2.04697581935618 2.050037204598331 -0.5200046160127103 1.1399895127138917
4.69126200676 0.0978743530350211 -0.149661992550737 -1.2904496068611269 2.04697581935618 2.050037204598331 -0.5200046160127103 1.1399895127138917
4.70145392418 0.0978743530350211 -0.149661992550737 -1.2904496068611269 2.04697581935618 2.050037204598331 -0.5200046160127103 1.1399895127138917
4.70145392418 0.0978743530350211 -0.149661992550737 -1.2904496068611269 2.04697581935618 2.050037204598331 -0.5200046160127103 1.1399895127138917
4.71127009392 0.0978743530350211 -0.149661992550737 -1.2904496068611269 2.04697581935618 2.050037204598331 -0.5200046160127103 1.1399895127138917
4.71127009392 0.0978743530350211 -0.149661992550737 -1.2904496068611269 2.04697581935618 2.050037204598331 -0.5200046160127103 1.1399895127138917
4.72130298615 0.0978743530350211 -0.149661992550737 -1.2904496068611269 2.04697581935618 2.050037204598331 -0.5200046160127103 1.1399895127138917
4.72130298615 0.0978743530350211 -0.149661992550737 -1.2904496068611269 2.04697581935618 2.050037204598331 -0.5200046160127103 1.1399895127138917
4.73129296303 0.0978743530350211 -0.149661992550737 -1.2904496068611269 2.04697581935618 2.050037204598331 -0.5200046160127103 1.1399895127138917
4.73129296303 0.0978743530350211 -0.149661992550737 -1.2904496068611269 2.04697581935618 2.050037204598331 -0.5200046160127103 1.1399895127138917
4.74119210243 0.0978743530350211 -0.149661992550737 -1.2904496068611269 2.04697581935618 2.050037204598331 -0.5200046160127103 1.1399895127138917
4.74119210243 0.0978743530350211 -0.149661992550737 -1.2904496068611269 2.04697581935618 2.050037204598331 -0.5200046160127103 1.1399895127138917
4.75124907494 0.0978743530350211 -0.149661992550737 -1.2904496068611269 2.04697581935618 2.050037204598331 -0.5200046160127103 1.1399895127138917
4.75124907494 0.0978743530350211 -0.149661992550737 -1.2904496068611269 2.04697581935618 2.050037204598331 -0.5200046160127103 1.1399895127138917
4.76135897636 0.0978743530350211 -0.149661992550737 -1.2904496068611269 2.04697581935618 2.050037204598331 -0.5200046160127103 1.1399895127138917
4.76135897636 0.0978743530350211 -0.149661992550737 -1.2904496068611269 2.04697581935618 2.050037204598331 -0.5200046160127103 1.1399895127138917
4.77127790451 0.0978743530350211 -0.149661992550737 -1.2904496068611269 2.04697581935618 2.050037204598331 -0.5200046160127103 1.1399895127138917
4.77127790451 0.0978743530350211 -0.149661992550737 -1.2904496068611269 2.04697581935618 2.050037204598331 -0.5200046160127103 1.1399895127138917
4.78126597404 0.0978743530350211 -0.149661992550737 -1.2904496068611269 2.04697581935618 2.050037204598331 -0.5200046160127103 1.1399895127138917
4.78126597404 0.0978743530350211 -0.149661992550737 -1.2904496068611269 2.04697581935618 2.050037204598331 -0.5200046160127103 1.1399895127138917
4.79127693176 0.0978743530350211 -0.149661992550737 -1.2904496068611269 2.04697581935618 2.050037204598331 -0.5200046160127103 1.1399895127138917
4.79127693176 0.0978743530350211 -0.149661992550737 -1.2904496068611269 2.04697581935618 2.050037204598331 -0.5200046160127103 1.1399895127138917
4.80123591423 0.0978743530350211 -0.149661992550737 -1.2904496068611269 2.04697581935618 2.050037204598331 -0.5200046160127103 1.1399895127138917
4.80123591423 0.0978743530350211 -0.149661992550737 -1.2904496068611269 2.04697581935618 2.050037204598331 -0.5200046160127103 1.1399895127138917
4.8112719059 0.0978743530350211 -0.149661992550737 -1.2904496068611269 2.04697581935618 2.050037204598331 -0.5200046160127103 1.1399895127138917
4.8112719059 0.0978743530350211 -0.149661992550737 -1.2904496068611269 2.04697581935618 2.050037204598331 -0.5200046160127103 1.1399895127138917
4.82142400742 0.0978743530350211 -0.149661992550737 -1.2904496068611269 2.04697581935618 2.050037204598331 -0.5200046160127103 1.1399895127138917
4.82142400742 0.0978743530350211 -0.149661992550737 -1.2904496068611269 2.04697581935618 2.050037204598331 -0.5200046160127103 1.1399895127138917
4.83119702339 0.0978743530350211 -0.149661992550737 -1.2904496068611269 2.04697581935618 2.050037204598331 -0.5200046160127103 1.1399895127138917
4.83119702339 0.0978743530350211 -0.149661992550737 -1.2904496068611269 2.04697581935618 2.050037204598331 -0.5200046160127103 1.1399895127138917
4.84120202065 0.0978743530350211 -0.149661992550737 -1.2904496068611269 2.04697581935618 2.050037204598331 -0.5200046160127103 1.1399895127138917
4.84120202065 0.0978743530350211 -0.149661992550737 -1.2904496068611269 2.04697581935618 2.050037204598331 -0.5200046160127103 1.1399895127138917
4.85092401505 0.0976135728420439 -0.1217585119021614 -1.3592035377390357 2.0453037581188545 2.050037204598331 -0.5200046160127103 1.1399895127138917
4.85092401505 0.0976135728420439 -0.1217585119021614 -1.3592035377390357 2.0453037581188545 2.050037204598331 -0.5200046160127103 1.1399895127138917
4.86095499992 0.0976135728420439 -0.1217585119021614 -1.3592035377390357 2.0453037581188545 2.050037204598331 -0.5200046160127103 1.1399895127138917
4.86095499992 0.0976135728420439 -0.1217585119021614 -1.3592035377390357 2.0453037581188545 2.050037204598331 -0.5200046160127103 1.1399895127138917
4.87109589577 0.0976135728420439 -0.1217585119021614 -1.3592035377390357 2.0453037581188545 2.050037204598331 -0.5200046160127103 1.1399895127138917
4.87109589577 0.0976135728420439 -0.1217585119021614 -1.3592035377390357 2.0453037581188545 2.050037204598331 -0.5200046160127103 1.1399895127138917
4.88134598732 0.0976135728420439 -0.1217585119021614 -1.3592035377390357 2.0453037581188545 2.050037204598331 -0.5200046160127103 1.1399895127138917
4.88134598732 0.0976135728420439 -0.1217585119021614 -1.3592035377390357 2.0453037581188545 2.050037204598331 -0.5200046160127103 1.1399895127138917
4.89121413231 0.0976135728420439 -0.1217585119021614 -1.3592035377390357 2.0453037581188545 2.050037204598331 -0.5200046160127103 1.1399895127138917
4.89121413231 0.0976135728420439 -0.1217585119021614 -1.3592035377390357 2.0453037581188545 2.050037204598331 -0.5200046160127103 1.1399895127138917
4.90134310722 0.0976135728420439 -0.1217585119021614 -1.3592035377390357 2.0453037581188545 2.050037204598331 -0.5200046160127103 1.1399895127138917
4.90134310722 0.0976135728420439 -0.1217585119021614 -1.3592035377390357 2.0453037581188545 2.050037204598331 -0.5200046160127103 1.1399895127138917
4.91128396988 0.0976135728420439 -0.1217585119021614 -1.3592035377390357 2.0453037581188545 2.050037204598331 -0.5200046160127103 1.1399895127138917
4.91128396988 0.0976135728420439 -0.1217585119021614 -1.3592035377390357 2.0453037581188545 2.050037204598331 -0.5200046160127103 1.1399895127138917
4.92140507698 0.0976135728420439 -0.1217585119021614 -1.3592035377390357 2.0453037581188545 2.050037204598331 -0.5200046160127103 1.1399895127138917
4.92140507698 0.0976135728420439 -0.1217585119021614 -1.3592035377390357 2.0453037581188545 2.050037204598331 -0.5200046160127103 1.1399895127138917
4.93125605583 0.0976135728420439 -0.1217585119021614 -1.3592035377390357 2.0453037581188545 2.050037204598331 -0.5200046160127103 1.1399895127138917
4.93125605583 0.0976135728420439 -0.1217585119021614 -1.3592035377390357 2.0453037581188545 2.050037204598331 -0.5200046160127103 1.1399895127138917
4.94135308266 0.0976135728420439 -0.1217585119021614 -1.3592035377390357 2.0453037581188545 2.050037204598331 -0.5200046160127103 1.1399895127138917
4.94135308266 0.0976135728420439 -0.1217585119021614 -1.3592035377390357 2.0453037581188545 2.050037204598331 -0.5200046160127103 1.1399895127138917
4.95127010345 0.0976135728420439 -0.1217585119021614 -1.3592035377390357 2.0453037581188545 2.050037204598331 -0.5200046160127103 1.1399895127138917
4.95127010345 0.0976135728420439 -0.1217585119021614 -1.3592035377390357 2.0453037581188545 2.050037204598331 -0.5200046160127103 1.1399895127138917
4.96127104759 0.0975522127966374 -0.116328147883692 -1.3749577293971376 2.0417448754852816 2.050037204598331 -0.5200046160127103 1.1399895127138917
4.96127104759 0.0975522127966374 -0.116328147883692 -1.3749577293971376 2.0417448754852816 2.050037204598331 -0.5200046160127103 1.1399895127138917
4.97121310234 0.0934257497430548 -0.1001904559418 -1.4166672202621606 2.023198801761187 2.050037204598331 -0.5200046160127103 1.1399895127138917
4.97121310234 0.0934257497430548 -0.1001904559418 -1.4166672202621606 2.023198801761187 2.050037204598331 -0.5200046160127103 1.1399895127138917
4.98090291023 0.0934257497430548 -0.1001904559418 -1.4166672202621606 2.023198801761187 2.050037204598331 -0.5200046160127103 1.1399895127138917
4.98090291023 0.0934257497430548 -0.1001904559418 -1.4166672202621606 2.023198801761187 2.050037204598331 -0.5200046160127103 1.1399895127138917
4.99129104614 0.0934257497430548 -0.1001904559418 -1.4166672202621606 2.023198801761187 2.050037204598331 -0.5200046160127103 1.1399895127138917
4.99129104614 0.0934257497430548 -0.1001904559418 -1.4166672202621606 2.023198801761187 2.050037204598331 -0.5200046160127103 1.1399895127138917
5.0013461113 0.0934257497430548 -0.1001904559418 -1.4166672202621606 2.023198801761187 2.050037204598331 -0.5200046160127103 1.1399895127138917
5.0013461113 0.0934257497430548 -0.1001904559418 -1.4166672202621606 2.023198801761187 2.050037204598331 -0.5200046160127103 1.1399895127138917
