riccardo-csl/Motion-Planning-for-TIAGo-Manipulator/T3_G_7/head_scan/head_scan/tiago_traiettorie_SG/1a-1b/pick_1a_rep2.txt
time arm_1_joint arm_2_joint arm_3_joint arm_4_joint arm_5_joint arm_6_joint arm_7_joint
0.971347808838 0.0734070349292059 0.099781932037767 -3.0976256641714093 1.3608784716441422 2.050055466436567 -0.5199772232553553 1.139971250875655
0.981457948685 0.0734070349292059 0.099781932037767 -3.0976256641714093 1.3608784716441422 2.050055466436567 -0.5199772232553553 1.139971250875655
0.981457948685 0.0734070349292059 0.099781932037767 -3.0976256641714093 1.3608784716441422 2.050055466436567 -0.5199772232553553 1.139971250875655
0.991518974304 0.0734070349292059 0.099781932037767 -3.0976256641714093 1.3608784716441422 2.050055466436567 -0.5199772232553553 1.139971250875655
0.991518974304 0.0734070349292059 0.099781932037767 -3.0976256641714093 1.3608784716441422 2.050055466436567 -0.5199772232553553 1.139971250875655
1.00158500671 0.0736064550767767 0.099781932037767 -3.096628563433555 1.3608784716441422 2.050055466436567 -0.5199772232553553 1.139971250875655
1.00158500671 0.0736064550767767 0.099781932037767 -3.096628563433555 1.3608784716441422 2.050055466436567 -0.5199772232553553 1.139971250875655
1.0115339756 0.0736064550767767 0.099781932037767 -3.096628563433555 1.3608784716441422 2.050055466436567 -0.5199772232553553 1.139971250875655
1.0115339756 0.0736064550767767 0.099781932037767 -3.096628563433555 1.3608784716441422 2.050055466436567 -0.5199772232553553 1.139971250875655
1.02160692215 0.0736064550767767 0.099781932037767 -3.096628563433555 1.3608784716441422 2.050055466436567 -0.5199772232553553 1.139971250875655
1.02160692215 0.0736064550767767 0.099781932037767 -3.096628563433555 1.3608784716441422 2.050055466436567 -0.5199772232553553 1.139971250875655
1.03141379356 0.0736064550767767 0.099781932037767 -3.096628563433555 1.3608784716441422 2.050055466436567 -0.5199772232553553 1.139971250875655
1.03141379356 0.0736064550767767 0.099781932037767 -3.096628563433555 1.3608784716441422 2.050055466436567 -0.5199772232553553 1.139971250875655
1.04159998894 0.0736064550767767 0.099781932037767 -3.096628563433555 1.3608784716441422 2.050055466436567 -0.5199772232553553 1.139971250875655
1.04159998894 0.0736064550767767 0.099781932037767 -3.096628563433555 1.3608784716441422 2.050055466436567 -0.5199772232553553 1.139971250875655
1.05156493187 0.0736064550767767 0.099781932037767 -3.096628563433555 1.3608784716441422 2.050055466436567 -0.5199772232553553 1.139971250875655
1.05156493187 0.0736064550767767 0.099781932037767 -3.096628563433555 1.3608784716441422 2.050055466436567 -0.5199772232553553 1.139971250875655
1.06157779694 0.0743887956557087 0.099781932037767 -3.094434941810275 1.3608784716441422 2.050055466436567 -0.5199772232553553 1.139971250875655
1.06157779694 0.0743887956557087 0.099781932037767 -3.094434941810275 1.3608784716441422 2.050055466436567 -0.5199772232553553 1.139971250875655
1.07154488564 0.0743887956557087 0.099781932037767 -3.094434941810275 1.3608784716441422 2.050055466436567 -0.5199772232553553 1.139971250875655
1.07154488564 0.0743887956557087 0.099781932037767 -3.094434941810275 1.3608784716441422 2.050055466436567 -0.5199772232553553 1.139971250875655
1.08144688606 0.0743887956557087 0.099781932037767 -3.094434941810275 1.3608784716441422 2.050055466436567 -0.5199772232553553 1.139971250875655
1.08144688606 0.0743887956557087 0.099781932037767 -3.094434941810275 1.3608784716441422 2.050055466436567 -0.5199772232553553 1.139971250875655
1.09153294563 0.0743887956557087 0.099781932037767 -3.094434941810275 1.3608784716441422 2.050055466436567 -0.5199772232553553 1.139971250875655
1.09153294563 0.0743887956557087 0.099781932037767 -3.094434941810275 1.3608784716441422 2.050055466436567 -0.5199772232553553 1.139971250875655
1.10139083862 0.0743887956557087 0.099781932037767 -3.094434941810275 1.3608784716441422 2.050055466436567 -0.5199772232553553 1.139971250875655
1.10139083862 0.0743887956557087 0.099781932037767 -3.094434941810275 1.3608784716441422 2.050055466436567 -0.5199772232553553 1.139971250875655
1.11156392097 0.0743887956557087 0.099781932037767 -3.094434941810275 1.3608784716441422 2.050055466436567 -0.5199772232553553 1.139971250875655
1.11156392097 0.0743887956557087 0.099781932037767 -3.094434941810275 1.3608784716441422 2.050055466436567 -0.5199772232553553 1.139971250875655
1.12156391144 0.0743887956557087 0.099781932037767 -3.094434941810275 1.3608784716441422 2.050055466436567 -0.5199772232553553 1.139971250875655
1.12156391144 0.0743887956557087 0.099781932037767 -3.094434941810275 1.3608784716441422 2.050055466436567 -0.5199772232553553 1.139971250875655
1.13154792786 0.0743887956557087 0.099781932037767 -3.094434941810275 1.3608784716441422 2.050055466436567 -0.5199772232553553 1.139971250875655
1.13154792786 0.0743887956557087 0.099781932037767 -3.094434941810275 1.3608784716441422 2.050055466436567 -0.5199772232553553 1.139971250875655
1.14141201973 0.0743887956557087 0.099781932037767 -3.094434941810275 1.3608784716441422 2.050055466436567 -0.5199772232553553 1.139971250875655
1.14141201973 0.0743887956557087 0.099781932037767 -3.094434941810275 1.3608784716441422 2.050055466436567 -0.5199772232553553 1.139971250875655
1.15154886246 0.0743887956557087 0.099781932037767 -3.094434941810275 1.3608784716441422 2.050055466436567 -0.5199772232553553 1.139971250875655
1.15154886246 0.0743887956557087 0.099781932037767 -3.094434941810275 1.3608784716441422 2.050055466436567 -0.5199772232553553 1.139971250875655
1.16161084175 0.0743887956557087 0.099781932037767 -3.094434941810275 1.3608784716441422 2.050055466436567 -0.5199772232553553 1.139971250875655
1.16161084175 0.0743887956557087 0.099781932037767 -3.094434941810275 1.3608784716441422 2.050055466436567 -0.5199772232553553 1.139971250875655
1.17157697678 0.0743887956557087 0.099781932037767 -3.094434941810275 1.3608784716441422 2.050055466436567 -0.5199772232553553 1.139971250875655
1.17157697678 0.0743887956557087 0.099781932037767 -3.094434941810275 1.3608784716441422 2.050055466436567 -0.5199772232553553 1.139971250875655
1.18156886101 0.0743887956557087 0.099781932037767 -3.094434941810275 1.3608784716441422 2.050055466436567 -0.5199772232553553 1.139971250875655
1.18156886101 0.0743887956557087 0.099781932037767 -3.094434941810275 1.3608784716441422 2.050055466436567 -0.5199772232553553 1.139971250875655
1.19118094444 0.0743887956557087 0.099781932037767 -3.094434941810275 1.3608784716441422 2.050055466436567 -0.5199772232553553 1.139971250875655
1.19118094444 0.0743887956557087 0.099781932037767 -3.094434941810275 1.3608784716441422 2.050055466436567 -0.5199772232553553 1.139971250875655
1.20132493973 0.0743887956557087 0.099781932037767 -3.094434941810275 1.3608784716441422 2.050055466436567 -0.5199772232553553 1.139971250875655
1.20132493973 0.0743887956557087 0.099781932037767 -3.094434941810275 1.3608784716441422 2.050055466436567 -0.5199772232553553 1.139971250875655
1.21153402328 0.0743887956557087 0.099781932037767 -3.094434941810275 1.3608784716441422 2.050055466436567 -0.5199772232553553 1.139971250875655
1.21153402328 0.0743887956557087 0.099781932037767 -3.094434941810275 1.3608784716441422 2.050055466436567 -0.5199772232553553 1.139971250875655
1.22157597542 0.0743887956557087 0.099781932037767 -3.094434941810275 1.3608784716441422 2.050055466436567 -0.5199772232553553 1.139971250875655
1.22157597542 0.0743887956557087 0.099781932037767 -3.094434941810275 1.3608784716441422 2.050055466436567 -0.5199772232553553 1.139971250875655
1.23155498505 0.0743887956557087 0.099781932037767 -3.094434941810275 1.3608784716441422 2.050055466436567 -0.5199772232553553 1.139971250875655
1.23155498505 0.0743887956557087 0.099781932037767 -3.094434941810275 1.3608784716441422 2.050055466436567 -0.5199772232553553 1.139971250875655
1.24141597748 0.0743887956557087 0.099781932037767 -3.094434941810275 1.3608784716441422 2.050055466436567 -0.5199772232553553 1.139971250875655
1.24141597748 0.0743887956557087 0.099781932037767 -3.094434941810275 1.3608784716441422 2.050055466436567 -0.5199772232553553 1.139971250875655
1.25155496597 0.0743887956557087 0.099781932037767 -3.094434941810275 1.3608784716441422 2.050055466436567 -0.5199772232553553 1.139971250875655
1.25155496597 0.0743887956557087 0.099781932037767 -3.094434941810275 1.3608784716441422 2.050055466436567 -0.5199772232553553 1.139971250875655
1.26160478592 0.0743887956557087 0.099781932037767 -3.094434941810275 1.3608784716441422 2.050055466436567 -0.5199772232553553 1.139971250875655
1.26160478592 0.0743887956557087 0.099781932037767 -3.094434941810275 1.3608784716441422 2.050055466436567 -0.5199772232553553 1.139971250875655
1.27158093452 0.0743887956557087 0.099781932037767 -3.094434941810275 1.3608784716441422 2.050055466436567 -0.5199772232553553 1.139971250875655
1.27158093452 0.0743887956557087 0.099781932037767 -3.094434941810275 1.3608784716441422 2.050055466436567 -0.5199772232553553 1.139971250875655
1.28157997131 0.0743887956557087 0.099781932037767 -3.094434941810275 1.3608784716441422 2.050055466436567 -0.5199772232553553 1.139971250875655
1.28157997131 0.0743887956557087 0.099781932037767 -3.094434941810275 1.3608784716441422 2.050055466436567 -0.5199772232553553 1.139971250875655
1.29151797295 0.0743887956557087 0.099781932037767 -3.094434941810275 1.3608784716441422 2.050055466436567 -0.5199772232553553 1.139971250875655
1.29151797295 0.0743887956557087 0.099781932037767 -3.094434941810275 1.3608784716441422 2.050055466436567 -0.5199772232553553 1.139971250875655
1.30143094063 0.0743887956557087 0.099781932037767 -3.094434941810275 1.3608784716441422 2.050055466436567 -0.5199772232553553 1.139971250875655
1.30143094063 0.0743887956557087 0.099781932037767 -3.094434941810275 1.3608784716441422 2.050055466436567 -0.5199772232553553 1.139971250875655
1.31154799461 0.0743887956557087 0.099781932037767 -3.094434941810275 1.3608784716441422 2.050055466436567 -0.5199772232553553 1.139971250875655
1.31154799461 0.0743887956557087 0.099781932037767 -3.094434941810275 1.3608784716441422 2.050055466436567 -0.5199772232553553 1.139971250875655
1.32154083252 0.0743887956557087 0.099781932037767 -3.094434941810275 1.3608784716441422 2.050055466436567 -0.5199772232553553 1.139971250875655
1.32154083252 0.0743887956557087 0.099781932037767 -3.094434941810275 1.3608784716441422 2.050055466436567 -0.5199772232553553 1.139971250875655
1.33143997192 0.0743887956557087 0.099781932037767 -3.094434941810275 1.3608784716441422 2.050055466436567 -0.5199772232553553 1.139971250875655
1.33143997192 0.0743887956557087 0.099781932037767 -3.094434941810275 1.3608784716441422 2.050055466436567 -0.5199772232553553 1.139971250875655
1.34161186218 0.0743887956557087 0.099781932037767 -3.094434941810275 1.3608784716441422 2.050055466436567 -0.5199772232553553 1.139971250875655
1.34161186218 0.0743887956557087 0.099781932037767 -3.094434941810275 1.3608784716441422 2.050055466436567 -0.5199772232553553 1.139971250875655
1.35155892372 0.0743887956557087 0.099781932037767 -3.094434941810275 1.3608784716441422 2.050055466436567 -0.5199772232553553 1.139971250875655
1.35155892372 0.0743887956557087 0.099781932037767 -3.094434941810275 1.3608784716441422 2.050055466436567 -0.5199772232553553 1.139971250875655
1.36159992218 0.0743887956557087 0.099781932037767 -3.094434941810275 1.3608784716441422 2.050055466436567 -0.5199772232553553 1.139971250875655
1.36159992218 0.0743887956557087 0.099781932037767 -3.094434941810275 1.3608784716441422 2.050055466436567 -0.5199772232553553 1.139971250875655
1.37157297134 0.0743887956557087 0.099781932037767 -3.094434941810275 1.3608784716441422 2.050055466436567 -0.5199772232553553 1.139971250875655
1.37157297134 0.0743887956557087 0.099781932037767 -3.094434941810275 1.3608784716441422 2.050055466436567 -0.5199772232553553 1.139971250875655
1.38161087036 0.0743887956557087 0.099781932037767 -3.094434941810275 1.3608784716441422 2.050055466436567 -0.5199772232553553 1.139971250875655
1.38161087036 0.0743887956557087 0.099781932037767 -3.094434941810275 1.3608784716441422 2.050055466436567 -0.5199772232553553 1.139971250875655
1.39135098457 0.0743887956557087 0.099781932037767 -3.094434941810275 1.3608784716441422 2.050055466436567 -0.5199772232553553 1.139971250875655
1.39135098457 0.0743887956557087 0.099781932037767 -3.094434941810275 1.3608784716441422 2.050055466436567 -0.5199772232553553 1.139971250875655
1.4015610218 0.0743887956557087 0.099781932037767 -3.094434941810275 1.3608784716441422 2.050055466436567 -0.5199772232553553 1.139971250875655
1.4015610218 0.0743887956557087 0.099781932037767 -3.094434941810275 1.3608784716441422 2.050055466436567 -0.5199772232553553 1.139971250875655
1.41117501259 0.0743887956557087 0.099781932037767 -3.094434941810275 1.3608784716441422 2.050055466436567 -0.5199772232553553 1.139971250875655
1.41117501259 0.0743887956557087 0.099781932037767 -3.094434941810275 1.3608784716441422 2.050055466436567 -0.5199772232553553 1.139971250875655
1.42140579224 0.0743887956557087 0.099781932037767 -3.094434941810275 1.3608784716441422 2.050055466436567 -0.5199772232553553 1.139971250875655
1.42140579224 0.0743887956557087 0.099781932037767 -3.094434941810275 1.3608784716441422 2.050055466436567 -0.5199772232553553 1.139971250875655
1.43151688576 0.0743887956557087 0.099781932037767 -3.094434941810275 1.3608784716441422 2.050055466436567 -0.5199772232553553 1.139971250875655
1.43151688576 0.0743887956557087 0.099781932037767 -3.094434941810275 1.3608784716441422 2.050055466436567 -0.5199772232553553 1.139971250875655
1.44154787064 0.0743887956557087 0.099781932037767 -3.094434941810275 1.3608784716441422 2.050055466436567 -0.5199772232553553 1.139971250875655
1.44154787064 0.0743887956557087 0.099781932037767 -3.094434941810275 1.3608784716441422 2.050055466436567 -0.5199772232553553 1.139971250875655
1.45150780678 0.0743887956557087 0.099781932037767 -3.094434941810275 1.3608784716441422 2.050055466436567 -0.5199772232553553 1.139971250875655
1.45150780678 0.0743887956557087 0.099781932037767 -3.094434941810275 1.3608784716441422 2.050055466436567 -0.5199772232553553 1.139971250875655
1.46158599854 0.0743887956557087 0.099781932037767 -3.094434941810275 1.3608784716441422 2.050055466436567 -0.5199772232553553 1.139971250875655
1.46158599854 0.0743887956557087 0.099781932037767 -3.094434941810275 1.3608784716441422 2.050055466436567 -0.5199772232553553 1.139971250875655
1.47155785561 0.0743887956557087 0.099781932037767 -3.094434941810275 1.3608784716441422 2.050055466436567 -0.5199772232553553 1.139971250875655
1.47155785561 0.0743887956557087 0.099781932037767 -3.094434941810275 1.3608784716441422 2.050055466436567 -0.5199772232553553 1.139971250875655
1.48148083687 0.0743887956557087 0.099781932037767 -3.094434941810275 1.3608784716441422 2.050055466436567 -0.5199772232553553 1.139971250875655
1.48148083687 0.0743887956557087 0.099781932037767 -3.094434941810275 1.3608784716441422 2.050055466436567 -0.5199772232553553 1.139971250875655
1.49155688286 0.0743887956557087 0.099781932037767 -3.094434941810275 1.3608784716441422 2.050055466436567 -0.5199772232553553 1.139971250875655
1.49155688286 0.0743887956557087 0.099781932037767 -3.094434941810275 1.3608784716441422 2.050055466436567 -0.5199772232553553 1.139971250875655
1.50160980225 0.0743887956557087 0.099781932037767 -3.094434941810275 1.3608784716441422 2.050055466436567 -0.5199772232553553 1.139971250875655
1.50160980225 0.0743887956557087 0.099781932037767 -3.094434941810275 1.3608784716441422 2.050055466436567 -0.5199772232553553 1.139971250875655
1.51161599159 0.0743887956557087 0.099781932037767 -3.094434941810275 1.3608784716441422 2.050055466436567 -0.5199772232553553 1.139971250875655
1.51161599159 0.0743887956557087 0.099781932037767 -3.094434941810275 1.3608784716441422 2.050055466436567 -0.5199772232553553 1.139971250875655
1.52143001556 0.0743887956557087 0.099781932037767 -3.094434941810275 1.3608784716441422 2.050055466436567 -0.5199772232553553 1.139971250875655
1.52143001556 0.0743887956557087 0.099781932037767 -3.094434941810275 1.3608784716441422 2.050055466436567 -0.5199772232553553 1.139971250875655
1.53154397011 0.0743887956557087 0.099781932037767 -3.094434941810275 1.3608784716441422 2.050055466436567 -0.5199772232553553 1.139971250875655
1.53154397011 0.0743887956557087 0.099781932037767 -3.094434941810275 1.3608784716441422 2.050055466436567 -0.5199772232553553 1.139971250875655
1.54165887833 0.0743887956557087 0.099781932037767 -3.094434941810275 1.3608784716441422 2.050055466436567 -0.5199772232553553 1.139971250875655
1.54165887833 0.0743887956557087 0.099781932037767 -3.094434941810275 1.3608784716441422 2.050055466436567 -0.5199772232553553 1.139971250875655
1.55153489113 0.0743887956557087 0.099781932037767 -3.094434941810275 1.3608784716441422 2.050055466436567 -0.5199772232553553 1.139971250875655
1.55153489113 0.0743887956557087 0.099781932037767 -3.094434941810275 1.3608784716441422 2.050055466436567 -0.5199772232553553 1.139971250875655
1.56156301498 0.0743887956557087 0.099781932037767 -3.094434941810275 1.3608784716441422 2.050055466436567 -0.5199772232553553 1.139971250875655
1.56156301498 0.0743887956557087 0.099781932037767 -3.094434941810275 1.3608784716441422 2.050055466436567 -0.5199772232553553 1.139971250875655
1.57161688805 0.0743887956557087 0.099781932037767 -3.094434941810275 1.3608784716441422 2.050055466436567 -0.5199772232553553 1.139971250875655
1.57161688805 0.0743887956557087 0.099781932037767 -3.094434941810275 1.3608784716441422 2.050055466436567 -0.5199772232553553 1.139971250875655
1.58160400391 0.0743887956557087 0.099781932037767 -3.094434941810275 1.3608784716441422 2.050055466436567 -0.5199772232553553 1.139971250875655
1.58160400391 0.0743887956557087 0.099781932037767 -3.094434941810275 1.3608784716441422 2.050055466436567 -0.5199772232553553 1.139971250875655
1.59156394005 0.0743887956557087 0.099781932037767 -3.094434941810275 1.3608784716441422 2.050055466436567 -0.5199772232553553 1.139971250875655
1.59156394005 0.0743887956557087 0.099781932037767 -3.094434941810275 1.3608784716441422 2.050055466436567 -0.5199772232553553 1.139971250875655
1.60145497322 0.0743887956557087 0.099781932037767 -3.094434941810275 1.3608784716441422 2.050055466436567 -0.5199772232553553 1.139971250875655
1.60145497322 0.0743887956557087 0.099781932037767 -3.094434941810275 1.3608784716441422 2.050055466436567 -0.5199772232553553 1.139971250875655
1.61134791374 0.0743887956557087 0.099781932037767 -3.094434941810275 1.3608784716441422 2.050055466436567 -0.5199772232553553 1.139971250875655
1.61134791374 0.0743887956557087 0.099781932037767 -3.094434941810275 1.3608784716441422 2.050055466436567 -0.5199772232553553 1.139971250875655
1.62150287628 0.0743887956557087 0.099781932037767 -3.094434941810275 1.3608784716441422 2.050055466436567 -0.5199772232553553 1.139971250875655
1.62150287628 0.0743887956557087 0.099781932037767 -3.094434941810275 1.3608784716441422 2.050055466436567 -0.5199772232553553 1.139971250875655
1.63151788712 0.0743887956557087 0.099781932037767 -3.094434941810275 1.3608784716441422 2.050055466436567 -0.5199772232553553 1.139971250875655
1.63151788712 0.0743887956557087 0.099781932037767 -3.094434941810275 1.3608784716441422 2.050055466436567 -0.5199772232553553 1.139971250875655
1.64156985283 0.0743887956557087 0.099781932037767 -3.094434941810275 1.3608784716441422 2.050055466436567 -0.5199772232553553 1.139971250875655
1.64156985283 0.0743887956557087 0.099781932037767 -3.094434941810275 1.3608784716441422 2.050055466436567 -0.5199772232553553 1.139971250875655
1.65153980255 0.0743887956557087 0.099781932037767 -3.094434941810275 1.3608784716441422 2.050055466436567 -0.5199772232553553 1.139971250875655
1.65153980255 0.0743887956557087 0.099781932037767 -3.094434941810275 1.3608784716441422 2.050055466436567 -0.5199772232553553 1.139971250875655
1.66161489487 0.0743887956557087 0.099781932037767 -3.094434941810275 1.3608784716441422 2.050055466436567 -0.5199772232553553 1.139971250875655
1.66161489487 0.0743887956557087 0.099781932037767 -3.094434941810275 1.3608784716441422 2.050055466436567 -0.5199772232553553 1.139971250875655
1.6716299057 0.0743887956557087 0.099781932037767 -3.094434941810275 1.3608784716441422 2.050055466436567 -0.5199772232553553 1.139971250875655
1.6716299057 0.0743887956557087 0.099781932037767 -3.094434941810275 1.3608784716441422 2.050055466436567 -0.5199772232553553 1.139971250875655
1.68159580231 0.0743887956557087 0.099781932037767 -3.094434941810275 1.3608784716441422 2.050055466436567 -0.5199772232553553 1.139971250875655
1.68159580231 0.0743887956557087 0.099781932037767 -3.094434941810275 1.3608784716441422 2.050055466436567 -0.5199772232553553 1.139971250875655
1.69154000282 0.0743887956557087 0.099781932037767 -3.094434941810275 1.3608784716441422 2.050055466436567 -0.5199772232553553 1.139971250875655
1.69154000282 0.0743887956557087 0.099781932037767 -3.094434941810275 1.3608784716441422 2.050055466436567 -0.5199772232553553 1.139971250875655
1.70140385628 0.0743887956557087 0.099781932037767 -3.094434941810275 1.3608784716441422 2.050055466436567 -0.5199772232553553 1.139971250875655
1.70140385628 0.0743887956557087 0.099781932037767 -3.094434941810275 1.3608784716441422 2.050055466436567 -0.5199772232553553 1.139971250875655
1.71155285835 0.0743887956557087 0.099781932037767 -3.094434941810275 1.3608784716441422 2.050055466436567 -0.5199772232553553 1.139971250875655
1.71155285835 0.0743887956557087 0.099781932037767 -3.094434941810275 1.3608784716441422 2.050055466436567 -0.5199772232553553 1.139971250875655
1.72156500816 0.0743887956557087 0.099781932037767 -3.094434941810275 1.3608784716441422 2.050055466436567 -0.5199772232553553 1.139971250875655
1.72156500816 0.0743887956557087 0.099781932037767 -3.094434941810275 1.3608784716441422 2.050055466436567 -0.5199772232553553 1.139971250875655
1.73142385483 0.0743887956557087 0.099781932037767 -3.094434941810275 1.3608784716441422 2.050055466436567 -0.5199772232553553 1.139971250875655
1.73142385483 0.0743887956557087 0.099781932037767 -3.094434941810275 1.3608784716441422 2.050055466436567 -0.5199772232553553 1.139971250875655
1.7416009903 0.0743887956557087 0.099781932037767 -3.094434941810275 1.3608784716441422 2.050055466436567 -0.5199772232553553 1.139971250875655
1.7416009903 0.0743887956557087 0.099781932037767 -3.094434941810275 1.3608784716441422 2.050055466436567 -0.5199772232553553 1.139971250875655
1.75157999992 0.0743887956557087 0.099781932037767 -3.094434941810275 1.3608784716441422 2.050055466436567 -0.5199772232553553 1.139971250875655
1.75157999992 0.0743887956557087 0.099781932037767 -3.094434941810275 1.3608784716441422 2.050055466436567 -0.5199772232553553 1.139971250875655
1.76147294044 0.0743887956557087 0.099781932037767 -3.094434941810275 1.3608784716441422 2.050055466436567 -0.5199772232553553 1.139971250875655
1.76147294044 0.0743887956557087 0.099781932037767 -3.094434941810275 1.3608784716441422 2.050055466436567 -0.5199772232553553 1.139971250875655
1.77150583267 0.0758767767568148 0.099781932037767 -3.087117756395558 1.3608784716441422 2.050055466436567 -0.5199772232553553 1.139971250875655
1.77150583267 0.0758767767568148 0.099781932037767 -3.087117756395558 1.3608784716441422 2.050055466436567 -0.5199772232553553 1.139971250875655
1.78154182434 0.0758767767568148 0.099781932037767 -3.087117756395558 1.3608784716441422 2.050055466436567 -0.5199772232553553 1.139971250875655
1.78154182434 0.0758767767568148 0.099781932037767 -3.087117756395558 1.3608784716441422 2.050055466436567 -0.5199772232553553 1.139971250875655
1.79113578796 0.0758767767568148 0.099781932037767 -3.087117756395558 1.3608784716441422 2.050055466436567 -0.5199772232553553 1.139971250875655
1.79113578796 0.0758767767568148 0.099781932037767 -3.087117756395558 1.3608784716441422 2.050055466436567 -0.5199772232553553 1.139971250875655
1.80118989944 0.0758767767568148 0.099781932037767 -3.087117756395558 1.3608784716441422 2.050055466436567 -0.5199772232553553 1.139971250875655
1.80118989944 0.0758767767568148 0.099781932037767 -3.087117756395558 1.3608784716441422 2.050055466436567 -0.5199772232553553 1.139971250875655
1.81133294106 0.0758767767568148 0.099781932037767 -3.087117756395558 1.3608784716441422 2.050055466436567 -0.5199772232553553 1.139971250875655
1.81133294106 0.0758767767568148 0.099781932037767 -3.087117756395558 1.3608784716441422 2.050055466436567 -0.5199772232553553 1.139971250875655
1.8213019371 0.0758767767568148 0.099781932037767 -3.087117756395558 1.3608784716441422 2.050055466436567 -0.5199772232553553 1.139971250875655
1.8213019371 0.0758767767568148 0.099781932037767 -3.087117756395558 1.3608784716441422 2.050055466436567 -0.5199772232553553 1.139971250875655
1.83149981499 0.0758767767568148 0.099781932037767 -3.087117756395558 1.3608784716441422 2.050055466436567 -0.5199772232553553 1.139971250875655
1.83149981499 0.0758767767568148 0.099781932037767 -3.087117756395558 1.3608784716441422 2.050055466436567 -0.5199772232553553 1.139971250875655
1.84151482582 0.0758767767568148 0.099781932037767 -3.087117756395558 1.3608784716441422 2.050055466436567 -0.5199772232553553 1.139971250875655
1.84151482582 0.0758767767568148 0.099781932037767 -3.087117756395558 1.3608784716441422 2.050055466436567 -0.5199772232553553 1.139971250875655
1.85134291649 0.0758767767568148 0.099781932037767 -3.087117756395558 1.3608784716441422 2.050055466436567 -0.5199772232553553 1.139971250875655
1.85134291649 0.0758767767568148 0.099781932037767 -3.087117756395558 1.3608784716441422 2.050055466436567 -0.5199772232553553 1.139971250875655
1.86125683784 0.0758767767568148 0.099781932037767 -3.087117756395558 1.3608784716441422 2.050055466436567 -0.5199772232553553 1.139971250875655
1.86125683784 0.0758767767568148 0.099781932037767 -3.087117756395558 1.3608784716441422 2.050055466436567 -0.5199772232553553 1.139971250875655
1.87152099609 0.0758767767568148 0.099781932037767 -3.087117756395558 1.3608784716441422 2.050055466436567 -0.5199772232553553 1.139971250875655
1.87152099609 0.0758767767568148 0.099781932037767 -3.087117756395558 1.3608784716441422 2.050055466436567 -0.5199772232553553 1.139971250875655
1.88151192665 0.0758767767568148 0.099781932037767 -3.087117756395558 1.3608784716441422 2.050055466436567 -0.5199772232553553 1.139971250875655
1.88151192665 0.0758767767568148 0.099781932037767 -3.087117756395558 1.3608784716441422 2.050055466436567 -0.5199772232553553 1.139971250875655
1.89155483246 0.0758767767568148 0.099781932037767 -3.087117756395558 1.3608784716441422 2.050055466436567 -0.5199772232553553 1.139971250875655
1.89155483246 0.0758767767568148 0.099781932037767 -3.087117756395558 1.3608784716441422 2.050055466436567 -0.5199772232553553 1.139971250875655
1.90155982971 0.0758767767568148 0.099781932037767 -3.087117756395558 1.3608784716441422 2.050055466436567 -0.5199772232553553 1.139971250875655
1.90155982971 0.0758767767568148 0.099781932037767 -3.087117756395558 1.3608784716441422 2.050055466436567 -0.5199772232553553 1.139971250875655
1.91143083572 0.0758767767568148 0.099781932037767 -3.087117756395558 1.3608784716441422 2.050055466436567 -0.5199772232553553 1.139971250875655
1.91143083572 0.0758767767568148 0.099781932037767 -3.087117756395558 1.3608784716441422 2.050055466436567 -0.5199772232553553 1.139971250875655
1.92154383659 0.0758767767568148 0.099781932037767 -3.087117756395558 1.3608784716441422 2.050055466436567 -0.5199772232553553 1.139971250875655
1.92154383659 0.0758767767568148 0.099781932037767 -3.087117756395558 1.3608784716441422 2.050055466436567 -0.5199772232553553 1.139971250875655
1.93156290054 0.0758767767568148 0.099781932037767 -3.087117756395558 1.3608784716441422 2.050055466436567 -0.5199772232553553 1.139971250875655
1.93156290054 0.0758767767568148 0.099781932037767 -3.087117756395558 1.3608784716441422 2.050055466436567 -0.5199772232553553 1.139971250875655
1.94144392014 0.0758767767568148 0.099781932037767 -3.087117756395558 1.3608784716441422 2.050055466436567 -0.5199772232553553 1.139971250875655
1.94144392014 0.0758767767568148 0.099781932037767 -3.087117756395558 1.3608784716441422 2.050055466436567 -0.5199772232553553 1.139971250875655
1.95134401321 0.0758767767568148 0.099781932037767 -3.087117756395558 1.3608784716441422 2.050055466436567 -0.5199772232553553 1.139971250875655
1.95134401321 0.0758767767568148 0.099781932037767 -3.087117756395558 1.3608784716441422 2.050055466436567 -0.5199772232553553 1.139971250875655
1.96118688583 0.0758767767568148 0.099781932037767 -3.087117756395558 1.3608784716441422 2.050055466436567 -0.5199772232553553 1.139971250875655
1.96118688583 0.0758767767568148 0.099781932037767 -3.087117756395558 1.3608784716441422 2.050055466436567 -0.5199772232553553 1.139971250875655
1.97133898735 0.0758767767568148 0.099781932037767 -3.087117756395558 1.3608784716441422 2.050055466436567 -0.5199772232553553 1.139971250875655
1.97133898735 0.0758767767568148 0.099781932037767 -3.087117756395558 1.3608784716441422 2.050055466436567 -0.5199772232553553 1.139971250875655
1.98157000542 0.0758767767568148 0.099781932037767 -3.087117756395558 1.3608784716441422 2.050055466436567 -0.5199772232553553 1.139971250875655
1.98157000542 0.0758767767568148 0.099781932037767 -3.087117756395558 1.3608784716441422 2.050055466436567 -0.5199772232553553 1.139971250875655
1.99151682854 0.0758767767568148 0.099781932037767 -3.087117756395558 1.3608784716441422 2.050055466436567 -0.5199772232553553 1.139971250875655
1.99151682854 0.0758767767568148 0.099781932037767 -3.087117756395558 1.3608784716441422 2.050055466436567 -0.5199772232553553 1.139971250875655
2.00155997276 0.0758767767568148 0.099781932037767 -3.087117756395558 1.3608784716441422 2.050055466436567 -0.5199772232553553 1.139971250875655
2.00155997276 0.0758767767568148 0.099781932037767 -3.087117756395558 1.3608784716441422 2.050055466436567 -0.5199772232553553 1.139971250875655
2.01142096519 0.0758767767568148 0.099781932037767 -3.087117756395558 1.3608784716441422 2.050055466436567 -0.5199772232553553 1.139971250875655
2.01142096519 0.0758767767568148 0.099781932037767 -3.087117756395558 1.3608784716441422 2.050055466436567 -0.5199772232553553 1.139971250875655
2.02158689499 0.0758767767568148 0.099781932037767 -3.087117756395558 1.3608784716441422 2.050055466436567 -0.5199772232553553 1.139971250875655
2.02158689499 0.0758767767568148 0.099781932037767 -3.087117756395558 1.3608784716441422 2.050055466436567 -0.5199772232553553 1.139971250875655
2.03157687187 0.0758767767568148 0.099781932037767 -3.087117756395558 1.3608784716441422 2.050055466436567 -0.5199772232553553 1.139971250875655
2.03157687187 0.0758767767568148 0.099781932037767 -3.087117756395558 1.3608784716441422 2.050055466436567 -0.5199772232553553 1.139971250875655
2.04141283035 0.0758767767568148 0.099781932037767 -3.087117756395558 1.3608784716441422 2.050055466436567 -0.5199772232553553 1.139971250875655
2.04141283035 0.0758767767568148 0.099781932037767 -3.087117756395558 1.3608784716441422 2.050055466436567 -0.5199772232553553 1.139971250875655
2.0515358448 0.0758767767568148 0.099781932037767 -3.087117756395558 1.3608784716441422 2.050055466436567 -0.5199772232553553 1.139971250875655
2.0515358448 0.0758767767568148 0.099781932037767 -3.087117756395558 1.3608784716441422 2.050055466436567 -0.5199772232553553 1.139971250875655
2.06159591675 0.0758767767568148 0.099781932037767 -3.087117756395558 1.3608784716441422 2.050055466436567 -0.5199772232553553 1.139971250875655
2.06159591675 0.0758767767568148 0.099781932037767 -3.087117756395558 1.3608784716441422 2.050055466436567 -0.5199772232553553 1.139971250875655
2.07148599625 0.0798344996855297 0.099781932037767 -3.025374210705334 1.3608784716441422 2.050055466436567 -0.5199772232553553 1.139971250875655
2.07148599625 0.0798344996855297 0.099781932037767 -3.025374210705334 1.3608784716441422 2.050055466436567 -0.5199772232553553 1.139971250875655
2.08159589767 0.0798344996855297 0.099781932037767 -3.025374210705334 1.3608784716441422 2.050055466436567 -0.5199772232553553 1.139971250875655
2.08159589767 0.0798344996855297 0.099781932037767 -3.025374210705334 1.3608784716441422 2.050055466436567 -0.5199772232553553 1.139971250875655
2.09158396721 0.0798344996855297 0.099781932037767 -3.025374210705334 1.3608784716441422 2.050055466436567 -0.5199772232553553 1.139971250875655
2.09158396721 0.0798344996855297 0.099781932037767 -3.025374210705334 1.3608784716441422 2.050055466436567 -0.5199772232553553 1.139971250875655
2.10141181946 0.0798344996855297 0.099781932037767 -3.025374210705334 1.3608784716441422 2.050055466436567 -0.5199772232553553 1.139971250875655
2.10141181946 0.0798344996855297 0.099781932037767 -3.025374210705334 1.3608784716441422 2.050055466436567 -0.5199772232553553 1.139971250875655
2.1115128994 0.0798344996855297 0.099781932037767 -3.025374210705334 1.3608784716441422 2.050055466436567 -0.5199772232553553 1.139971250875655
2.1115128994 0.0798344996855297 0.099781932037767 -3.025374210705334 1.3608784716441422 2.050055466436567 -0.5199772232553553 1.139971250875655
2.12159991264 0.0798344996855297 0.099781932037767 -3.025374210705334 1.3608784716441422 2.050055466436567 -0.5199772232553553 1.139971250875655
2.12159991264 0.0798344996855297 0.099781932037767 -3.025374210705334 1.3608784716441422 2.050055466436567 -0.5199772232553553 1.139971250875655
2.13149690628 0.0798344996855297 0.099781932037767 -3.025374210705334 1.3608784716441422 2.050055466436567 -0.5199772232553553 1.139971250875655
2.13149690628 0.0798344996855297 0.099781932037767 -3.025374210705334 1.3608784716441422 2.050055466436567 -0.5199772232553553 1.139971250875655
2.14152479172 0.0798344996855297 0.099781932037767 -3.025374210705334 1.3608784716441422 2.050055466436567 -0.5199772232553553 1.139971250875655
2.14152479172 0.0798344996855297 0.099781932037767 -3.025374210705334 1.3608784716441422 2.050055466436567 -0.5199772232553553 1.139971250875655
2.15150284767 0.0798344996855297 0.099781932037767 -3.025374210705334 1.3608784716441422 2.050055466436567 -0.5199772232553553 1.139971250875655
2.15150284767 0.0798344996855297 0.099781932037767 -3.025374210705334 1.3608784716441422 2.050055466436567 -0.5199772232553553 1.139971250875655
2.16133785248 0.0798344996855297 0.099781932037767 -3.025374210705334 1.3608784716441422 2.050055466436567 -0.5199772232553553 1.139971250875655
2.16133785248 0.0798344996855297 0.099781932037767 -3.025374210705334 1.3608784716441422 2.050055466436567 -0.5199772232553553 1.139971250875655
2.1715798378 0.0798344996855297 0.099781932037767 -3.025374210705334 1.3608784716441422 2.050055466436567 -0.5199772232553553 1.139971250875655
2.1715798378 0.0798344996855297 0.099781932037767 -3.025374210705334 1.3608784716441422 2.050055466436567 -0.5199772232553553 1.139971250875655
2.18154883385 0.0798344996855297 0.099781932037767 -3.025374210705334 1.3608784716441422 2.050055466436567 -0.5199772232553553 1.139971250875655
2.18154883385 0.0798344996855297 0.099781932037767 -3.025374210705334 1.3608784716441422 2.050055466436567 -0.5199772232553553 1.139971250875655
2.1913459301 0.0812304407185262 0.099781932037767 -3.0031772142795563 1.3608784716441422 2.050055466436567 -0.5199772232553553 1.139971250875655
2.1913459301 0.0812304407185262 0.099781932037767 -3.0031772142795563 1.3608784716441422 2.050055466436567 -0.5199772232553553 1.139971250875655
2.2014029026 0.0812304407185262 0.099781932037767 -3.0031772142795563 1.3608784716441422 2.050055466436567 -0.5199772232553553 1.139971250875655
2.2014029026 0.0812304407185262 0.099781932037767 -3.0031772142795563 1.3608784716441422 2.050055466436567 -0.5199772232553553 1.139971250875655
2.21151089668 0.0812304407185262 0.099781932037767 -3.0031772142795563 1.3608784716441422 2.050055466436567 -0.5199772232553553 1.139971250875655
2.21151089668 0.0812304407185262 0.099781932037767 -3.0031772142795563 1.3608784716441422 2.050055466436567 -0.5199772232553553 1.139971250875655
2.22147989273 0.0812304407185262 0.099781932037767 -3.0031772142795563 1.3608784716441422 2.050055466436567 -0.5199772232553553 1.139971250875655
2.22147989273 0.0812304407185262 0.099781932037767 -3.0031772142795563 1.3608784716441422 2.050055466436567 -0.5199772232553553 1.139971250875655
2.23149490356 0.0825190016720611 0.099781932037767 -2.980197877274847 1.3608784716441422 2.050055466436567 -0.5199772232553553 1.139971250875655
2.23149490356 0.0825190016720611 0.099781932037767 -2.980197877274847 1.3608784716441422 2.050055466436567 -0.5199772232553553 1.139971250875655
2.24113202095 0.0828104618877418 0.099781932037767 -2.972052331247143 1.3608784716441422 2.050055466436567 -0.5199772232553553 1.139971250875655
2.24113202095 0.0828104618877418 0.099781932037767 -2.972052331247143 1.3608784716441422 2.050055466436567 -0.5199772232553553 1.139971250875655
2.25113296509 0.0828104618877418 0.099781932037767 -2.972052331247143 1.3608784716441422 2.050055466436567 -0.5199772232553553 1.139971250875655
2.25113296509 0.0828104618877418 0.099781932037767 -2.972052331247143 1.3608784716441422 2.050055466436567 -0.5199772232553553 1.139971250875655
2.2611489296 0.0828104618877418 0.099781932037767 -2.972052331247143 1.3608784716441422 2.050055466436567 -0.5199772232553553 1.139971250875655
2.2611489296 0.0828104618877418 0.099781932037767 -2.972052331247143 1.3608784716441422 2.050055466436567 -0.5199772232553553 1.139971250875655
2.27127695084 0.0828104618877418 0.099781932037767 -2.972052331247143 1.3608784716441422 2.050055466436567 -0.5199772232553553 1.139971250875655
2.27127695084 0.0828104618877418 0.099781932037767 -2.972052331247143 1.3608784716441422 2.050055466436567 -0.5199772232553553 1.139971250875655
2.28156590462 0.0828104618877418 0.099781932037767 -2.972052331247143 1.3608784716441422 2.050055466436567 -0.5199772232553553 1.139971250875655
2.28156590462 0.0828104618877418 0.099781932037767 -2.972052331247143 1.3608784716441422 2.050055466436567 -0.5199772232553553 1.139971250875655
2.29136586189 0.0828104618877418 0.099781932037767 -2.972052331247143 1.3608784716441422 2.050055466436567 -0.5199772232553553 1.139971250875655
2.29136586189 0.0828104618877418 0.099781932037767 -2.972052331247143 1.3608784716441422 2.050055466436567 -0.5199772232553553 1.139971250875655
2.30150699615 0.0828104618877418 0.099781932037767 -2.972052331247143 1.3608784716441422 2.050055466436567 -0.5199772232553553 1.139971250875655
2.30150699615 0.0828104618877418 0.099781932037767 -2.972052331247143 1.3608784716441422 2.050055466436567 -0.5199772232553553 1.139971250875655
2.31137394905 0.0828104618877418 0.099781932037767 -2.972052331247143 1.3608784716441422 2.050055466436567 -0.5199772232553553 1.139971250875655
2.31137394905 0.0828104618877418 0.099781932037767 -2.972052331247143 1.3608784716441422 2.050055466436567 -0.5199772232553553 1.139971250875655
2.32155489922 0.0828104618877418 0.099781932037767 -2.972052331247143 1.3608784716441422 2.050055466436567 -0.5199772232553553 1.139971250875655
2.32155489922 0.0828104618877418 0.099781932037767 -2.972052331247143 1.3608784716441422 2.050055466436567 -0.5199772232553553 1.139971250875655
2.33150196075 0.083776882602893 0.099781932037767 -2.9264464774988115 1.3608784716441422 2.050055466436567 -0.5199772232553553 1.139971250875655
2.33150196075 0.083776882602893 0.099781932037767 -2.9264464774988115 1.3608784716441422 2.050055466436567 -0.5199772232553553 1.139971250875655
2.34158182144 0.083776882602893 0.099781932037767 -2.9264464774988115 1.3608784716441422 2.050055466436567 -0.5199772232553553 1.139971250875655
2.34158182144 0.083776882602893 0.099781932037767 -2.9264464774988115 1.3608784716441422 2.050055466436567 -0.5199772232553553 1.139971250875655
2.35150098801 0.083776882602893 0.099781932037767 -2.9264464774988115 1.3608784716441422 2.050055466436567 -0.5199772232553553 1.139971250875655
2.35150098801 0.083776882602893 0.099781932037767 -2.9264464774988115 1.3608784716441422 2.050055466436567 -0.5199772232553553 1.139971250875655
2.36155700684 0.083776882602893 0.099781932037767 -2.9264464774988115 1.3608784716441422 2.050055466436567 -0.5199772232553553 1.139971250875655
2.36155700684 0.083776882602893 0.099781932037767 -2.9264464774988115 1.3608784716441422 2.050055466436567 -0.5199772232553553 1.139971250875655
2.37136483192 0.083776882602893 0.099781932037767 -2.9264464774988115 1.3608784716441422 2.050055466436567 -0.5199772232553553 1.139971250875655
2.37136483192 0.083776882602893 0.099781932037767 -2.9264464774988115 1.3608784716441422 2.050055466436567 -0.5199772232553553 1.139971250875655
2.3811609745 0.0861239043396892 0.099781932037767 -2.883341045600792 1.3608784716441422 2.050055466436567 -0.5199772232553553 1.139971250875655
2.3811609745 0.0861239043396892 0.099781932037767 -2.883341045600792 1.3608784716441422 2.050055466436567 -0.5199772232553553 1.139971250875655
2.39135789871 0.0861239043396892 0.099781932037767 -2.883341045600792 1.3608784716441422 2.050055466436567 -0.5199772232553553 1.139971250875655
2.39135789871 0.0861239043396892 0.099781932037767 -2.883341045600792 1.3608784716441422 2.050055466436567 -0.5199772232553553 1.139971250875655
2.40154290199 0.0861239043396892 0.099781932037767 -2.883341045600792 1.3608784716441422 2.050055466436567 -0.5199772232553553 1.139971250875655
2.40154290199 0.0861239043396892 0.099781932037767 -2.883341045600792 1.3608784716441422 2.050055466436567 -0.5199772232553553 1.139971250875655
2.41149902344 0.0861239043396892 0.099781932037767 -2.883341045600792 1.3608784716441422 2.050055466436567 -0.5199772232553553 1.139971250875655
2.41149902344 0.0861239043396892 0.099781932037767 -2.883341045600792 1.3608784716441422 2.050055466436567 -0.5199772232553553 1.139971250875655
2.4213078022 0.0861239043396892 0.099781932037767 -2.883341045600792 1.3608784716441422 2.050055466436567 -0.5199772232553553 1.139971250875655
2.4213078022 0.0861239043396892 0.099781932037767 -2.883341045600792 1.3608784716441422 2.050055466436567 -0.5199772232553553 1.139971250875655
2.4315199852 0.0861239043396892 0.099781932037767 -2.883341045600792 1.3608784716441422 2.050055466436567 -0.5199772232553553 1.139971250875655
2.4315199852 0.0861239043396892 0.099781932037767 -2.883341045600792 1.3608784716441422 2.050055466436567 -0.5199772232553553 1.139971250875655
2.44131088257 0.0862773044532052 0.099781932037767 -2.8785703020704414 1.3608784716441422 2.050055466436567 -0.5199772232553553 1.139971250875655
2.44131088257 0.0862773044532052 0.099781932037767 -2.8785703020704414 1.3608784716441422 2.050055466436567 -0.5199772232553553 1.139971250875655
2.45152997971 0.0862773044532052 0.099781932037767 -2.8785703020704414 1.3608784716441422 2.050055466436567 -0.5199772232553553 1.139971250875655
2.45152997971 0.0862773044532052 0.099781932037767 -2.8785703020704414 1.3608784716441422 2.050055466436567 -0.5199772232553553 1.139971250875655
2.46156382561 0.0862773044532052 0.099781932037767 -2.8785703020704414 1.3608784716441422 2.050055466436567 -0.5199772232553553 1.139971250875655
2.46156382561 0.0862773044532052 0.099781932037767 -2.8785703020704414 1.3608784716441422 2.050055466436567 -0.5199772232553553 1.139971250875655
2.47155499458 0.0862773044532052 0.099781932037767 -2.8785703020704414 1.3608784716441422 2.050055466436567 -0.5199772232553553 1.139971250875655
2.47155499458 0.0862773044532052 0.099781932037767 -2.8785703020704414 1.3608784716441422 2.050055466436567 -0.5199772232553553 1.139971250875655
2.4814209938 0.0862773044532052 0.099781932037767 -2.8785703020704414 1.3608784716441422 2.050055466436567 -0.5199772232553553 1.139971250875655
2.4814209938 0.0862773044532052 0.099781932037767 -2.8785703020704414 1.3608784716441422 2.050055466436567 -0.5199772232553553 1.139971250875655
2.49151301384 0.0862773044532052 0.099781932037767 -2.8785703020704414 1.3608784716441422 2.050055466436567 -0.5199772232553553 1.139971250875655
2.49151301384 0.0862773044532052 0.099781932037767 -2.8785703020704414 1.3608784716441422 2.050055466436567 -0.5199772232553553 1.139971250875655
2.50162601471 0.0862773044532052 0.099781932037767 -2.8785703020704414 1.3608784716441422 2.050055466436567 -0.5199772232553553 1.139971250875655
2.50162601471 0.0862773044532052 0.099781932037767 -2.8785703020704414 1.3608784716441422 2.050055466436567 -0.5199772232553553 1.139971250875655
2.51154494286 0.0862773044532052 0.099781932037767 -2.8785703020704414 1.3608784716441422 2.050055466436567 -0.5199772232553553 1.139971250875655
2.51154494286 0.0862773044532052 0.099781932037767 -2.8785703020704414 1.3608784716441422 2.050055466436567 -0.5199772232553553 1.139971250875655
2.52155780792 0.0862773044532052 0.099781932037767 -2.8785703020704414 1.3608784716441422 2.050055466436567 -0.5199772232553553 1.139971250875655
2.52155780792 0.0862773044532052 0.099781932037767 -2.8785703020704414 1.3608784716441422 2.050055466436567 -0.5199772232553553 1.139971250875655
2.53149390221 0.0862773044532052 0.099781932037767 -2.8785703020704414 1.3608784716441422 2.050055466436567 -0.5199772232553553 1.139971250875655
2.53149390221 0.0862773044532052 0.099781932037767 -2.8785703020704414 1.3608784716441422 2.050055466436567 -0.5199772232553553 1.139971250875655
2.5415828228 0.0862773044532052 0.099781932037767 -2.8785703020704414 1.3608784716441422 2.050055466436567 -0.5199772232553553 1.139971250875655
2.5415828228 0.0862773044532052 0.099781932037767 -2.8785703020704414 1.3608784716441422 2.050055466436567 -0.5199772232553553 1.139971250875655
2.55152392387 0.0862773044532052 0.099781932037767 -2.8785703020704414 1.3608784716441422 2.050055466436567 -0.5199772232553553 1.139971250875655
2.55152392387 0.0862773044532052 0.099781932037767 -2.8785703020704414 1.3608784716441422 2.050055466436567 -0.5199772232553553 1.139971250875655
2.56144189835 0.0862773044532052 0.099781932037767 -2.8785703020704414 1.3608784716441422 2.050055466436567 -0.5199772232553553 1.139971250875655
2.56144189835 0.0862773044532052 0.099781932037767 -2.8785703020704414 1.3608784716441422 2.050055466436567 -0.5199772232553553 1.139971250875655
2.57152080536 0.0862773044532052 0.099781932037767 -2.8785703020704414 1.3608784716441422 2.050055466436567 -0.5199772232553553 1.139971250875655
2.57152080536 0.0862773044532052 0.099781932037767 -2.8785703020704414 1.3608784716441422 2.050055466436567 -0.5199772232553553 1.139971250875655
2.58145093918 0.0862773044532052 0.099781932037767 -2.8785703020704414 1.3608784716441422 2.050055466436567 -0.5199772232553553 1.139971250875655
2.58145093918 0.0862773044532052 0.099781932037767 -2.8785703020704414 1.3608784716441422 2.050055466436567 -0.5199772232553553 1.139971250875655
2.59145784378 0.0862773044532052 0.099781932037767 -2.8785703020704414 1.3608784716441422 2.050055466436567 -0.5199772232553553 1.139971250875655
2.59145784378 0.0862773044532052 0.099781932037767 -2.8785703020704414 1.3608784716441422 2.050055466436567 -0.5199772232553553 1.139971250875655
2.60159182549 0.0862773044532052 0.099781932037767 -2.8785703020704414 1.3608784716441422 2.050055466436567 -0.5199772232553553 1.139971250875655
2.60159182549 0.0862773044532052 0.099781932037767 -2.8785703020704414 1.3608784716441422 2.050055466436567 -0.5199772232553553 1.139971250875655
2.61154794693 0.0862773044532052 0.099781932037767 -2.8785703020704414 1.3608784716441422 2.050055466436567 -0.5199772232553553 1.139971250875655
2.61154794693 0.0862773044532052 0.099781932037767 -2.8785703020704414 1.3608784716441422 2.050055466436567 -0.5199772232553553 1.139971250875655
2.62157678604 0.0862773044532052 0.099781932037767 -2.8785703020704414 1.3608784716441422 2.050055466436567 -0.5199772232553553 1.139971250875655
2.62157678604 0.0862773044532052 0.099781932037767 -2.8785703020704414 1.3608784716441422 2.050055466436567 -0.5199772232553553 1.139971250875655
2.63159894943 0.0862773044532052 0.099781932037767 -2.8785703020704414 1.3608784716441422 2.050055466436567 -0.5199772232553553 1.139971250875655
2.63159894943 0.0862773044532052 0.099781932037767 -2.8785703020704414 1.3608784716441422 2.050055466436567 -0.5199772232553553 1.139971250875655
2.64160180092 0.0862773044532052 0.099781932037767 -2.8785703020704414 1.3608784716441422 2.050055466436567 -0.5199772232553553 1.139971250875655
2.64160180092 0.0862773044532052 0.099781932037767 -2.8785703020704414 1.3608784716441422 2.050055466436567 -0.5199772232553553 1.139971250875655
2.65154385567 0.0862773044532052 0.099781932037767 -2.8785703020704414 1.3608784716441422 2.050055466436567 -0.5199772232553553 1.139971250875655
2.65154385567 0.0862773044532052 0.099781932037767 -2.8785703020704414 1.3608784716441422 2.050055466436567 -0.5199772232553553 1.139971250875655
2.66158986092 0.0862773044532052 0.099781932037767 -2.8785703020704414 1.3608784716441422 2.050055466436567 -0.5199772232553553 1.139971250875655
2.66158986092 0.0862773044532052 0.099781932037767 -2.8785703020704414 1.3608784716441422 2.050055466436567 -0.5199772232553553 1.139971250875655
2.67156481743 0.0862773044532052 0.099781932037767 -2.8785703020704414 1.3608784716441422 2.050055466436567 -0.5199772232553553 1.139971250875655
2.67156481743 0.0862773044532052 0.099781932037767 -2.8785703020704414 1.3608784716441422 2.050055466436567 -0.5199772232553553 1.139971250875655
2.68152689934 0.0862773044532052 0.099781932037767 -2.8785703020704414 1.3608784716441422 2.050055466436567 -0.5199772232553553 1.139971250875655
2.68152689934 0.0862773044532052 0.099781932037767 -2.8785703020704414 1.3608784716441422 2.050055466436567 -0.5199772232553553 1.139971250875655
2.69137978554 0.0862773044532052 0.099781932037767 -2.8785703020704414 1.3608784716441422 2.050055466436567 -0.5199772232553553 1.139971250875655
2.69137978554 0.0862773044532052 0.099781932037767 -2.8785703020704414 1.3608784716441422 2.050055466436567 -0.5199772232553553 1.139971250875655
2.70155692101 0.0862773044532052 0.099781932037767 -2.8785703020704414 1.3608784716441422 2.050055466436567 -0.5199772232553553 1.139971250875655
2.70155692101 0.0862773044532052 0.099781932037767 -2.8785703020704414 1.3608784716441422 2.050055466436567 -0.5199772232553553 1.139971250875655
2.71153283119 0.0862773044532052 0.099781932037767 -2.8785703020704414 1.3608784716441422 2.050055466436567 -0.5199772232553553 1.139971250875655
2.71153283119 0.0862773044532052 0.099781932037767 -2.8785703020704414 1.3608784716441422 2.050055466436567 -0.5199772232553553 1.139971250875655
2.72161579132 0.0862773044532052 0.099781932037767 -2.8785703020704414 1.3608784716441422 2.050055466436567 -0.5199772232553553 1.139971250875655
2.72161579132 0.0862773044532052 0.099781932037767 -2.8785703020704414 1.3608784716441422 2.050055466436567 -0.5199772232553553 1.139971250875655
2.73152279854 0.0862773044532052 0.099781932037767 -2.8785703020704414 1.3608784716441422 2.050055466436567 -0.5199772232553553 1.139971250875655
2.73152279854 0.0862773044532052 0.099781932037767 -2.8785703020704414 1.3608784716441422 2.050055466436567 -0.5199772232553553 1.139971250875655
2.74155402184 0.0862773044532052 0.099781932037767 -2.8785703020704414 1.3608784716441422 2.050055466436567 -0.5199772232553553 1.139971250875655
2.74155402184 0.0862773044532052 0.099781932037767 -2.8785703020704414 1.3608784716441422 2.050055466436567 -0.5199772232553553 1.139971250875655
2.75141692162 0.0862773044532052 0.099781932037767 -2.8785703020704414 1.3608784716441422 2.050055466436567 -0.5199772232553553 1.139971250875655
2.75141692162 0.0862773044532052 0.099781932037767 -2.8785703020704414 1.3608784716441422 2.050055466436567 -0.5199772232553553 1.139971250875655
2.76154494286 0.0862773044532052 0.099781932037767 -2.8785703020704414 1.3608784716441422 2.050055466436567 -0.5199772232553553 1.139971250875655
2.76154494286 0.0862773044532052 0.099781932037767 -2.8785703020704414 1.3608784716441422 2.050055466436567 -0.5199772232553553 1.139971250875655
2.7715678215 0.0862773044532052 0.099781932037767 -2.8785703020704414 1.3608784716441422 2.050055466436567 -0.5199772232553553 1.139971250875655
2.7715678215 0.0862773044532052 0.099781932037767 -2.8785703020704414 1.3608784716441422 2.050055466436567 -0.5199772232553553 1.139971250875655
2.78147792816 0.0862773044532052 0.099781932037767 -2.8785703020704414 1.3608784716441422 2.050055466436567 -0.5199772232553553 1.139971250875655
2.78147792816 0.0862773044532052 0.099781932037767 -2.8785703020704414 1.3608784716441422 2.050055466436567 -0.5199772232553553 1.139971250875655
2.7914648056 0.0862773044532052 0.099781932037767 -2.8785703020704414 1.3608784716441422 2.050055466436567 -0.5199772232553553 1.139971250875655
2.7914648056 0.0862773044532052 0.099781932037767 -2.8785703020704414 1.3608784716441422 2.050055466436567 -0.5199772232553553 1.139971250875655
2.80135798454 0.0862773044532052 0.099781932037767 -2.8785703020704414 1.3608784716441422 2.050055466436567 -0.5199772232553553 1.139971250875655
2.80135798454 0.0862773044532052 0.099781932037767 -2.8785703020704414 1.3608784716441422 2.050055466436567 -0.5199772232553553 1.139971250875655
2.81157588959 0.0862773044532052 0.099781932037767 -2.8785703020704414 1.3608784716441422 2.050055466436567 -0.5199772232553553 1.139971250875655
2.81157588959 0.0862773044532052 0.099781932037767 -2.8785703020704414 1.3608784716441422 2.050055466436567 -0.5199772232553553 1.139971250875655
2.82155299187 0.0862773044532052 0.099781932037767 -2.8785703020704414 1.3608784716441422 2.050055466436567 -0.5199772232553553 1.139971250875655
2.82155299187 0.0862773044532052 0.099781932037767 -2.8785703020704414 1.3608784716441422 2.050055466436567 -0.5199772232553553 1.139971250875655
2.83155179024 0.0862773044532052 0.099781932037767 -2.8785703020704414 1.3608784716441422 2.050055466436567 -0.5199772232553553 1.139971250875655
2.83155179024 0.0862773044532052 0.099781932037767 -2.8785703020704414 1.3608784716441422 2.050055466436567 -0.5199772232553553 1.139971250875655
2.84156298637 0.0862773044532052 0.099781932037767 -2.8785703020704414 1.3608784716441422 2.050055466436567 -0.5199772232553553 1.139971250875655
2.84156298637 0.0862773044532052 0.099781932037767 -2.8785703020704414 1.3608784716441422 2.050055466436567 -0.5199772232553553 1.139971250875655
2.85153579712 0.0862773044532052 0.099781932037767 -2.8785703020704414 1.3608784716441422 2.050055466436567 -0.5199772232553553 1.139971250875655
2.85153579712 0.0862773044532052 0.099781932037767 -2.8785703020704414 1.3608784716441422 2.050055466436567 -0.5199772232553553 1.139971250875655
2.86158680916 0.0862773044532052 0.099781932037767 -2.8785703020704414 1.3608784716441422 2.050055466436567 -0.5199772232553553 1.139971250875655
2.86158680916 0.0862773044532052 0.099781932037767 -2.8785703020704414 1.3608784716441422 2.050055466436567 -0.5199772232553553 1.139971250875655
2.87148690224 0.0862773044532052 0.099781932037767 -2.8785703020704414 1.3608784716441422 2.050055466436567 -0.5199772232553553 1.139971250875655
2.87148690224 0.0862773044532052 0.099781932037767 -2.8785703020704414 1.3608784716441422 2.050055466436567 -0.5199772232553553 1.139971250875655
2.8815639019 0.0862773044532052 0.099781932037767 -2.8785703020704414 1.3608784716441422 2.050055466436567 -0.5199772232553553 1.139971250875655
2.8815639019 0.0862773044532052 0.099781932037767 -2.8785703020704414 1.3608784716441422 2.050055466436567 -0.5199772232553553 1.139971250875655
2.89156699181 0.0862773044532052 0.099781932037767 -2.8785703020704414 1.3608784716441422 2.050055466436567 -0.5199772232553553 1.139971250875655
2.89156699181 0.0862773044532052 0.099781932037767 -2.8785703020704414 1.3608784716441422 2.050055466436567 -0.5199772232553553 1.139971250875655
2.90154695511 0.0862773044532052 0.099781932037767 -2.8785703020704414 1.3608784716441422 2.050055466436567 -0.5199772232553553 1.139971250875655
2.90154695511 0.0862773044532052 0.099781932037767 -2.8785703020704414 1.3608784716441422 2.050055466436567 -0.5199772232553553 1.139971250875655
2.91156601906 0.0862773044532052 0.099781932037767 -2.8785703020704414 1.3608784716441422 2.050055466436567 -0.5199772232553553 1.139971250875655
2.91156601906 0.0862773044532052 0.099781932037767 -2.8785703020704414 1.3608784716441422 2.050055466436567 -0.5199772232553553 1.139971250875655
2.92154884338 0.0862773044532052 0.099781932037767 -2.8785703020704414 1.3608784716441422 2.050055466436567 -0.5199772232553553 1.139971250875655
2.92154884338 0.0862773044532052 0.099781932037767 -2.8785703020704414 1.3608784716441422 2.050055466436567 -0.5199772232553553 1.139971250875655
2.93153095245 0.0862773044532052 0.099781932037767 -2.8785703020704414 1.3608784716441422 2.050055466436567 -0.5199772232553553 1.139971250875655
2.93153095245 0.0862773044532052 0.099781932037767 -2.8785703020704414 1.3608784716441422 2.050055466436567 -0.5199772232553553 1.139971250875655
2.94157290459 0.0862773044532052 0.099781932037767 -2.8785703020704414 1.3608784716441422 2.050055466436567 -0.5199772232553553 1.139971250875655
2.94157290459 0.0862773044532052 0.099781932037767 -2.8785703020704414 1.3608784716441422 2.050055466436567 -0.5199772232553553 1.139971250875655
2.95201301575 0.0867068247710502 0.099781932037767 -2.8608986089933888 1.3608784716441422 2.050055466436567 -0.5199772232553553 1.139971250875655
2.95201301575 0.0867068247710502 0.099781932037767 -2.8608986089933888 1.3608784716441422 2.050055466436567 -0.5199772232553553 1.139971250875655
2.96158194542 0.0867068247710502 0.099781932037767 -2.8608986089933888 1.3608784716441422 2.050055466436567 -0.5199772232553553 1.139971250875655
2.96158194542 0.0867068247710502 0.099781932037767 -2.8608986089933888 1.3608784716441422 2.050055466436567 -0.5199772232553553 1.139971250875655
2.97150993347 0.0867068247710502 0.099781932037767 -2.8608986089933888 1.3608784716441422 2.050055466436567 -0.5199772232553553 1.139971250875655
2.97150993347 0.0867068247710502 0.099781932037767 -2.8608986089933888 1.3608784716441422 2.050055466436567 -0.5199772232553553 1.139971250875655
2.98155283928 0.0867068247710502 0.099781932037767 -2.8608986089933888 1.3608784716441422 2.050055466436567 -0.5199772232553553 1.139971250875655
2.98155283928 0.0867068247710502 0.099781932037767 -2.8608986089933888 1.3608784716441422 2.050055466436567 -0.5199772232553553 1.139971250875655
2.99154400826 0.0867068247710502 0.099781932037767 -2.8608986089933888 1.3608784716441422 2.050055466436567 -0.5199772232553553 1.139971250875655
2.99154400826 0.0867068247710502 0.099781932037767 -2.8608986089933888 1.3608784716441422 2.050055466436567 -0.5199772232553553 1.139971250875655
3.00134682655 0.0867068247710502 0.099781932037767 -2.8608986089933888 1.3608784716441422 2.050055466436567 -0.5199772232553553 1.139971250875655
3.00134682655 0.0867068247710502 0.099781932037767 -2.8608986089933888 1.3608784716441422 2.050055466436567 -0.5199772232553553 1.139971250875655
3.01139879227 0.0867068247710502 0.099781932037767 -2.8608986089933888 1.3608784716441422 2.050055466436567 -0.5199772232553553 1.139971250875655
3.01139879227 0.0867068247710502 0.099781932037767 -2.8608986089933888 1.3608784716441422 2.050055466436567 -0.5199772232553553 1.139971250875655
3.02156686783 0.0867068247710502 0.099781932037767 -2.8608986089933888 1.3608784716441422 2.050055466436567 -0.5199772232553553 1.139971250875655
3.02156686783 0.0867068247710502 0.099781932037767 -2.8608986089933888 1.3608784716441422 2.050055466436567 -0.5199772232553553 1.139971250875655
3.03141283989 0.0867068247710502 0.099781932037767 -2.8608986089933888 1.3608784716441422 2.050055466436567 -0.5199772232553553 1.139971250875655
3.03141283989 0.0867068247710502 0.099781932037767 -2.8608986089933888 1.3608784716441422 2.050055466436567 -0.5199772232553553 1.139971250875655
3.04157781601 0.0867068247710502 0.099781932037767 -2.8608986089933888 1.3608784716441422 2.050055466436567 -0.5199772232553553 1.139971250875655
3.04157781601 0.0867068247710502 0.099781932037767 -2.8608986089933888 1.3608784716441422 2.050055466436567 -0.5199772232553553 1.139971250875655
3.05153179169 0.0867068247710502 0.099781932037767 -2.8608986089933888 1.3608784716441422 2.050055466436567 -0.5199772232553553 1.139971250875655
3.05153179169 0.0867068247710502 0.099781932037767 -2.8608986089933888 1.3608784716441422 2.050055466436567 -0.5199772232553553 1.139971250875655
3.0614798069 0.0867068247710502 0.099781932037767 -2.8608986089933888 1.3608784716441422 2.050055466436567 -0.5199772232553553 1.139971250875655
3.0614798069 0.0867068247710502 0.099781932037767 -2.8608986089933888 1.3608784716441422 2.050055466436567 -0.5199772232553553 1.139971250875655
3.07155489922 0.0867068247710502 0.099781932037767 -2.8608986089933888 1.3608784716441422 2.050055466436567 -0.5199772232553553 1.139971250875655
3.07155489922 0.0867068247710502 0.099781932037767 -2.8608986089933888 1.3608784716441422 2.050055466436567 -0.5199772232553553 1.139971250875655
3.08159899712 0.0867068247710502 0.099781932037767 -2.8608986089933888 1.3608784716441422 2.050055466436567 -0.5199772232553553 1.139971250875655
3.08159899712 0.0867068247710502 0.099781932037767 -2.8608986089933888 1.3608784716441422 2.050055466436567 -0.5199772232553553 1.139971250875655
3.09157395363 0.0867068247710502 0.099781932037767 -2.8608986089933888 1.3608784716441422 2.050055466436567 -0.5199772232553553 1.139971250875655
3.09157395363 0.0867068247710502 0.099781932037767 -2.8608986089933888 1.3608784716441422 2.050055466436567 -0.5199772232553553 1.139971250875655
3.10160899162 0.0867068247710502 0.099781932037767 -2.8608986089933888 1.3608784716441422 2.050055466436567 -0.5199772232553553 1.139971250875655
3.10160899162 0.0867068247710502 0.099781932037767 -2.8608986089933888 1.3608784716441422 2.050055466436567 -0.5199772232553553 1.139971250875655
3.11157894135 0.0867068247710502 0.099781932037767 -2.8608986089933888 1.3608784716441422 2.050055466436567 -0.5199772232553553 1.139971250875655
3.11157894135 0.0867068247710502 0.099781932037767 -2.8608986089933888 1.3608784716441422 2.050055466436567 -0.5199772232553553 1.139971250875655
3.12117481232 0.0867068247710502 0.099781932037767 -2.8608986089933888 1.3608784716441422 2.050055466436567 -0.5199772232553553 1.139971250875655
3.12117481232 0.0867068247710502 0.099781932037767 -2.8608986089933888 1.3608784716441422 2.050055466436567 -0.5199772232553553 1.139971250875655
3.13132286072 0.0867068247710502 0.099781932037767 -2.8608986089933888 1.3608784716441422 2.050055466436567 -0.5199772232553553 1.139971250875655
3.13132286072 0.0867068247710502 0.099781932037767 -2.8608986089933888 1.3608784716441422 2.050055466436567 -0.5199772232553553 1.139971250875655
3.14142799377 0.0867068247710502 0.099781932037767 -2.8608986089933888 1.3608784716441422 2.050055466436567 -0.5199772232553553 1.139971250875655
3.14142799377 0.0867068247710502 0.099781932037767 -2.8608986089933888 1.3608784716441422 2.050055466436567 -0.5199772232553553 1.139971250875655
3.1514840126 0.0867068247710502 0.099781932037767 -2.8608986089933888 1.3608784716441422 2.050055466436567 -0.5199772232553553 1.139971250875655
3.1514840126 0.0867068247710502 0.099781932037767 -2.8608986089933888 1.3608784716441422 2.050055466436567 -0.5199772232553553 1.139971250875655
3.16155195236 0.0867068247710502 0.099781932037767 -2.8608986089933888 1.3608784716441422 2.050055466436567 -0.5199772232553553 1.139971250875655
3.16155195236 0.0867068247710502 0.099781932037767 -2.8608986089933888 1.3608784716441422 2.050055466436567 -0.5199772232553553 1.139971250875655
3.1714630127 0.0867068247710502 0.099781932037767 -2.8608986089933888 1.3608784716441422 2.050055466436567 -0.5199772232553553 1.139971250875655
3.1714630127 0.0867068247710502 0.099781932037767 -2.8608986089933888 1.3608784716441422 2.050055466436567 -0.5199772232553553 1.139971250875655
3.1815469265 0.0867068247710502 0.099781932037767 -2.8608986089933888 1.3608784716441422 2.050055466436567 -0.5199772232553553 1.139971250875655
3.1815469265 0.0867068247710502 0.099781932037767 -2.8608986089933888 1.3608784716441422 2.050055466436567 -0.5199772232553553 1.139971250875655
3.19139790535 0.0867068247710502 0.099781932037767 -2.8608986089933888 1.3608784716441422 2.050055466436567 -0.5199772232553553 1.139971250875655
3.19139790535 0.0867068247710502 0.099781932037767 -2.8608986089933888 1.3608784716441422 2.050055466436567 -0.5199772232553553 1.139971250875655
3.20144796371 0.0867068247710502 0.099781932037767 -2.8608986089933888 1.3608784716441422 2.050055466436567 -0.5199772232553553 1.139971250875655
3.20144796371 0.0867068247710502 0.099781932037767 -2.8608986089933888 1.3608784716441422 2.050055466436567 -0.5199772232553553 1.139971250875655
3.21149682999 0.0867068247710502 0.099781932037767 -2.8608986089933888 1.3608784716441422 2.050055466436567 -0.5199772232553553 1.139971250875655
3.21149682999 0.0867068247710502 0.099781932037767 -2.8608986089933888 1.3608784716441422 2.050055466436567 -0.5199772232553553 1.139971250875655
3.22143888474 0.0867068247710502 0.099781932037767 -2.8608986089933888 1.3608784716441422 2.050055466436567 -0.5199772232553553 1.139971250875655
3.22143888474 0.0867068247710502 0.099781932037767 -2.8608986089933888 1.3608784716441422 2.050055466436567 -0.5199772232553553 1.139971250875655
3.23137378693 0.0867068247710502 0.099781932037767 -2.8608986089933888 1.3608784716441422 2.050055466436567 -0.5199772232553553 1.139971250875655
3.23137378693 0.0867068247710502 0.099781932037767 -2.8608986089933888 1.3608784716441422 2.050055466436567 -0.5199772232553553 1.139971250875655
3.24151396751 0.0867068247710502 0.099781932037767 -2.8608986089933888 1.3608784716441422 2.050055466436567 -0.5199772232553553 1.139971250875655
3.24151396751 0.0867068247710502 0.099781932037767 -2.8608986089933888 1.3608784716441422 2.050055466436567 -0.5199772232553553 1.139971250875655
3.25159978867 0.0867068247710502 0.099781932037767 -2.8608986089933888 1.3608784716441422 2.050055466436567 -0.5199772232553553 1.139971250875655
3.25159978867 0.0867068247710502 0.099781932037767 -2.8608986089933888 1.3608784716441422 2.050055466436567 -0.5199772232553553 1.139971250875655
3.26144790649 0.0867068247710502 0.099781932037767 -2.8608986089933888 1.3608784716441422 2.050055466436567 -0.5199772232553553 1.139971250875655
3.26144790649 0.0867068247710502 0.099781932037767 -2.8608986089933888 1.3608784716441422 2.050055466436567 -0.5199772232553553 1.139971250875655
3.27154183388 0.0867068247710502 0.099781932037767 -2.8608986089933888 1.3608784716441422 2.050055466436567 -0.5199772232553553 1.139971250875655
3.27154183388 0.0867068247710502 0.099781932037767 -2.8608986089933888 1.3608784716441422 2.050055466436567 -0.5199772232553553 1.139971250875655
3.28139185905 0.0867068247710502 0.099781932037767 -2.8608986089933888 1.3608784716441422 2.050055466436567 -0.5199772232553553 1.139971250875655
3.28139185905 0.0867068247710502 0.099781932037767 -2.8608986089933888 1.3608784716441422 2.050055466436567 -0.5199772232553553 1.139971250875655
3.29153895378 0.0867068247710502 0.099781932037767 -2.8608986089933888 1.3608784716441422 2.050055466436567 -0.5199772232553553 1.139971250875655
3.29153895378 0.0867068247710502 0.099781932037767 -2.8608986089933888 1.3608784716441422 2.050055466436567 -0.5199772232553553 1.139971250875655
3.30154299736 0.0867068247710502 0.099781932037767 -2.8608986089933888 1.3608784716441422 2.050055466436567 -0.5199772232553553 1.139971250875655
3.30154299736 0.0867068247710502 0.099781932037767 -2.8608986089933888 1.3608784716441422 2.050055466436567 -0.5199772232553553 1.139971250875655
3.31156396866 0.0867068247710502 0.099781932037767 -2.8608986089933888 1.3608784716441422 2.050055466436567 -0.5199772232553553 1.139971250875655
3.31156396866 0.0867068247710502 0.099781932037767 -2.8608986089933888 1.3608784716441422 2.050055466436567 -0.5199772232553553 1.139971250875655
3.32161283493 0.0867068247710502 0.099781932037767 -2.8608986089933888 1.3608784716441422 2.050055466436567 -0.5199772232553553 1.139971250875655
3.32161283493 0.0867068247710502 0.099781932037767 -2.8608986089933888 1.3608784716441422 2.050055466436567 -0.5199772232553553 1.139971250875655
3.33154296875 0.0867068247710502 0.099781932037767 -2.8608986089933888 1.3608784716441422 2.050055466436567 -0.5199772232553553 1.139971250875655
3.33154296875 0.0867068247710502 0.099781932037767 -2.8608986089933888 1.3608784716441422 2.050055466436567 -0.5199772232553553 1.139971250875655
3.34138083458 0.0867068247710502 0.099781932037767 -2.8608986089933888 1.3608784716441422 2.050055466436567 -0.5199772232553553 1.139971250875655
3.34138083458 0.0867068247710502 0.099781932037767 -2.8608986089933888 1.3608784716441422 2.050055466436567 -0.5199772232553553 1.139971250875655
3.35149288177 0.0867068247710502 0.099781932037767 -2.8608986089933888 1.3608784716441422 2.050055466436567 -0.5199772232553553 1.139971250875655
3.35149288177 0.0867068247710502 0.099781932037767 -2.8608986089933888 1.3608784716441422 2.050055466436567 -0.5199772232553553 1.139971250875655
3.36154198647 0.0867068247710502 0.099781932037767 -2.8608986089933888 1.3608784716441422 2.050055466436567 -0.5199772232553553 1.139971250875655
3.36154198647 0.0867068247710502 0.099781932037767 -2.8608986089933888 1.3608784716441422 2.050055466436567 -0.5199772232553553 1.139971250875655
3.37153887749 0.0867068247710502 0.099781932037767 -2.8608986089933888 1.3608784716441422 2.050055466436567 -0.5199772232553553 1.139971250875655
3.37153887749 0.0867068247710502 0.099781932037767 -2.8608986089933888 1.3608784716441422 2.050055466436567 -0.5199772232553553 1.139971250875655
3.38165187836 0.0867068247710502 0.099781932037767 -2.8608986089933888 1.3608784716441422 2.050055466436567 -0.5199772232553553 1.139971250875655
3.38165187836 0.0867068247710502 0.099781932037767 -2.8608986089933888 1.3608784716441422 2.050055466436567 -0.5199772232553553 1.139971250875655
3.39139485359 0.0867068247710502 0.099781932037767 -2.8608986089933888 1.3608784716441422 2.050055466436567 -0.5199772232553553 1.139971250875655
3.39139485359 0.0867068247710502 0.099781932037767 -2.8608986089933888 1.3608784716441422 2.050055466436567 -0.5199772232553553 1.139971250875655
3.40144181252 0.0867068247710502 0.099781932037767 -2.8608986089933888 1.3608784716441422 2.050055466436567 -0.5199772232553553 1.139971250875655
3.40144181252 0.0867068247710502 0.099781932037767 -2.8608986089933888 1.3608784716441422 2.050055466436567 -0.5199772232553553 1.139971250875655
3.41151595116 0.0867068247710502 0.099781932037767 -2.8608986089933888 1.3608784716441422 2.050055466436567 -0.5199772232553553 1.139971250875655
3.41151595116 0.0867068247710502 0.099781932037767 -2.8608986089933888 1.3608784716441422 2.050055466436567 -0.5199772232553553 1.139971250875655
3.42153096199 0.0867068247710502 0.099781932037767 -2.8608986089933888 1.3608784716441422 2.050055466436567 -0.5199772232553553 1.139971250875655
3.42153096199 0.0867068247710502 0.099781932037767 -2.8608986089933888 1.3608784716441422 2.050055466436567 -0.5199772232553553 1.139971250875655
3.43155288696 0.0867068247710502 0.099781932037767 -2.8608986089933888 1.3608784716441422 2.050055466436567 -0.5199772232553553 1.139971250875655
3.43155288696 0.0867068247710502 0.099781932037767 -2.8608986089933888 1.3608784716441422 2.050055466436567 -0.5199772232553553 1.139971250875655
3.44141983986 0.0867068247710502 0.099781932037767 -2.8608986089933888 1.3608784716441422 2.050055466436567 -0.5199772232553553 1.139971250875655
3.44141983986 0.0867068247710502 0.099781932037767 -2.8608986089933888 1.3608784716441422 2.050055466436567 -0.5199772232553553 1.139971250875655
3.45150399208 0.0867068247710502 0.099781932037767 -2.8608986089933888 1.3608784716441422 2.050055466436567 -0.5199772232553553 1.139971250875655
3.45150399208 0.0867068247710502 0.099781932037767 -2.8608986089933888 1.3608784716441422 2.050055466436567 -0.5199772232553553 1.139971250875655
3.46154785156 0.0867068247710502 0.099781932037767 -2.8608986089933888 1.3608784716441422 2.050055466436567 -0.5199772232553553 1.139971250875655
3.46154785156 0.0867068247710502 0.099781932037767 -2.8608986089933888 1.3608784716441422 2.050055466436567 -0.5199772232553553 1.139971250875655
3.47137284279 0.0867068247710502 0.099781932037767 -2.8608986089933888 1.3608784716441422 2.050055466436567 -0.5199772232553553 1.139971250875655
3.47137284279 0.0867068247710502 0.099781932037767 -2.8608986089933888 1.3608784716441422 2.050055466436567 -0.5199772232553553 1.139971250875655
3.4815518856 0.0867068247710502 0.099781932037767 -2.8608986089933888 1.3608784716441422 2.050055466436567 -0.5199772232553553 1.139971250875655
3.4815518856 0.0867068247710502 0.099781932037767 -2.8608986089933888 1.3608784716441422 2.050055466436567 -0.5199772232553553 1.139971250875655
3.49152994156 0.0867068247710502 0.099781932037767 -2.8608986089933888 1.3608784716441422 2.050055466436567 -0.5199772232553553 1.139971250875655
3.49152994156 0.0867068247710502 0.099781932037767 -2.8608986089933888 1.3608784716441422 2.050055466436567 -0.5199772232553553 1.139971250875655
3.50138401985 0.0867068247710502 0.099781932037767 -2.8608986089933888 1.3608784716441422 2.050055466436567 -0.5199772232553553 1.139971250875655
3.50138401985 0.0867068247710502 0.099781932037767 -2.8608986089933888 1.3608784716441422 2.050055466436567 -0.5199772232553553 1.139971250875655
3.51154184341 0.0867068247710502 0.099781932037767 -2.8608986089933888 1.3608784716441422 2.050055466436567 -0.5199772232553553 1.139971250875655
3.51154184341 0.0867068247710502 0.099781932037767 -2.8608986089933888 1.3608784716441422 2.050055466436567 -0.5199772232553553 1.139971250875655
3.52164387703 0.0867068247710502 0.099781932037767 -2.8608986089933888 1.3608784716441422 2.050055466436567 -0.5199772232553553 1.139971250875655
3.52164387703 0.0867068247710502 0.099781932037767 -2.8608986089933888 1.3608784716441422 2.050055466436567 -0.5199772232553553 1.139971250875655
3.53153395653 0.0867068247710502 0.099781932037767 -2.8608986089933888 1.3608784716441422 2.050055466436567 -0.5199772232553553 1.139971250875655
3.53153395653 0.0867068247710502 0.099781932037767 -2.8608986089933888 1.3608784716441422 2.050055466436567 -0.5199772232553553 1.139971250875655
3.54155993462 0.0867068247710502 0.099781932037767 -2.8608986089933888 1.3608784716441422 2.050055466436567 -0.5199772232553553 1.139971250875655
3.54155993462 0.0867068247710502 0.099781932037767 -2.8608986089933888 1.3608784716441422 2.050055466436567 -0.5199772232553553 1.139971250875655
3.55150079727 0.0867068247710502 0.099781932037767 -2.8608986089933888 1.3608784716441422 2.050055466436567 -0.5199772232553553 1.139971250875655
3.55150079727 0.0867068247710502 0.099781932037767 -2.8608986089933888 1.3608784716441422 2.050055466436567 -0.5199772232553553 1.139971250875655
3.5613489151 0.0867068247710502 0.099781932037767 -2.8608986089933888 1.3608784716441422 2.050055466436567 -0.5199772232553553 1.139971250875655
3.5613489151 0.0867068247710502 0.099781932037767 -2.8608986089933888 1.3608784716441422 2.050055466436567 -0.5199772232553553 1.139971250875655
3.57138490677 0.0867068247710502 0.099781932037767 -2.8608986089933888 1.3608784716441422 2.050055466436567 -0.5199772232553553 1.139971250875655
3.57138490677 0.0867068247710502 0.099781932037767 -2.8608986089933888 1.3608784716441422 2.050055466436567 -0.5199772232553553 1.139971250875655
3.58153581619 0.0867068247710502 0.099781932037767 -2.8608986089933888 1.3608784716441422 2.050055466436567 -0.5199772232553553 1.139971250875655
3.58153581619 0.0867068247710502 0.099781932037767 -2.8608986089933888 1.3608784716441422 2.050055466436567 -0.5199772232553553 1.139971250875655
3.5915389061 0.0867068247710502 0.099781932037767 -2.8608986089933888 1.3608784716441422 2.050055466436567 -0.5199772232553553 1.139971250875655
3.5915389061 0.0867068247710502 0.099781932037767 -2.8608986089933888 1.3608784716441422 2.050055466436567 -0.5199772232553553 1.139971250875655
3.60160779953 0.0867068247710502 0.099781932037767 -2.8608986089933888 1.3608784716441422 2.050055466436567 -0.5199772232553553 1.139971250875655
3.60160779953 0.0867068247710502 0.099781932037767 -2.8608986089933888 1.3608784716441422 2.050055466436567 -0.5199772232553553 1.139971250875655
3.6113820076 0.0867068247710502 0.099781932037767 -2.8608986089933888 1.3608784716441422 2.050055466436567 -0.5199772232553553 1.139971250875655
3.6113820076 0.0867068247710502 0.099781932037767 -2.8608986089933888 1.3608784716441422 2.050055466436567 -0.5199772232553553 1.139971250875655
3.62130284309 0.0867068247710502 0.099781932037767 -2.8608986089933888 1.3608784716441422 2.050055466436567 -0.5199772232553553 1.139971250875655
3.62130284309 0.0867068247710502 0.099781932037767 -2.8608986089933888 1.3608784716441422 2.050055466436567 -0.5199772232553553 1.139971250875655
3.63151693344 0.0867068247710502 0.099781932037767 -2.8608986089933888 1.3608784716441422 2.050055466436567 -0.5199772232553553 1.139971250875655
3.63151693344 0.0867068247710502 0.099781932037767 -2.8608986089933888 1.3608784716441422 2.050055466436567 -0.5199772232553553 1.139971250875655
3.64156794548 0.0867068247710502 0.099781932037767 -2.8608986089933888 1.3608784716441422 2.050055466436567 -0.5199772232553553 1.139971250875655
3.64156794548 0.0867068247710502 0.099781932037767 -2.8608986089933888 1.3608784716441422 2.050055466436567 -0.5199772232553553 1.139971250875655
3.65132880211 0.0867068247710502 0.099781932037767 -2.8608986089933888 1.3608784716441422 2.050055466436567 -0.5199772232553553 1.139971250875655
3.65132880211 0.0867068247710502 0.099781932037767 -2.8608986089933888 1.3608784716441422 2.050055466436567 -0.5199772232553553 1.139971250875655
3.66143989563 0.0867068247710502 0.099781932037767 -2.8608986089933888 1.3608784716441422 2.050055466436567 -0.5199772232553553 1.139971250875655
3.66143989563 0.0867068247710502 0.099781932037767 -2.8608986089933888 1.3608784716441422 2.050055466436567 -0.5199772232553553 1.139971250875655
3.67140698433 0.0867068247710502 0.099781932037767 -2.8608986089933888 1.3608784716441422 2.050055466436567 -0.5199772232553553 1.139971250875655
3.67140698433 0.0867068247710502 0.099781932037767 -2.8608986089933888 1.3608784716441422 2.050055466436567 -0.5199772232553553 1.139971250875655
3.68152093887 0.0867068247710502 0.099781932037767 -2.8608986089933888 1.3608784716441422 2.050055466436567 -0.5199772232553553 1.139971250875655
3.68152093887 0.0867068247710502 0.099781932037767 -2.8608986089933888 1.3608784716441422 2.050055466436567 -0.5199772232553553 1.139971250875655
3.69152879715 0.0867068247710502 0.099781932037767 -2.8608986089933888 1.3608784716441422 2.050055466436567 -0.5199772232553553 1.139971250875655
3.69152879715 0.0867068247710502 0.099781932037767 -2.8608986089933888 1.3608784716441422 2.050055466436567 -0.5199772232553553 1.139971250875655
3.70156288147 0.0867068247710502 0.099781932037767 -2.8608986089933888 1.3608784716441422 2.050055466436567 -0.5199772232553553 1.139971250875655
3.70156288147 0.0867068247710502 0.099781932037767 -2.8608986089933888 1.3608784716441422 2.050055466436567 -0.5199772232553553 1.139971250875655
3.71154594421 0.0867068247710502 0.099781932037767 -2.8608986089933888 1.3608784716441422 2.050055466436567 -0.5199772232553553 1.139971250875655
3.71154594421 0.0867068247710502 0.099781932037767 -2.8608986089933888 1.3608784716441422 2.050055466436567 -0.5199772232553553 1.139971250875655
3.72157788277 0.0867068247710502 0.099781932037767 -2.8608986089933888 1.3608784716441422 2.050055466436567 -0.5199772232553553 1.139971250875655
3.72157788277 0.0867068247710502 0.099781932037767 -2.8608986089933888 1.3608784716441422 2.050055466436567 -0.5199772232553553 1.139971250875655
3.73154783249 0.0867068247710502 0.099781932037767 -2.8608986089933888 1.3608784716441422 2.050055466436567 -0.5199772232553553 1.139971250875655
3.73154783249 0.0867068247710502 0.099781932037767 -2.8608986089933888 1.3608784716441422 2.050055466436567 -0.5199772232553553 1.139971250875655
3.74159097672 0.0867068247710502 0.099781932037767 -2.8608986089933888 1.3608784716441422 2.050055466436567 -0.5199772232553553 1.139971250875655
3.74159097672 0.0867068247710502 0.099781932037767 -2.8608986089933888 1.3608784716441422 2.050055466436567 -0.5199772232553553 1.139971250875655
3.7515900135 0.0867068247710502 0.099781932037767 -2.8608986089933888 1.3608784716441422 2.050055466436567 -0.5199772232553553 1.139971250875655
3.7515900135 0.0867068247710502 0.099781932037767 -2.8608986089933888 1.3608784716441422 2.050055466436567 -0.5199772232553553 1.139971250875655
3.76162695885 0.0867068247710502 0.099781932037767 -2.8608986089933888 1.3608784716441422 2.050055466436567 -0.5199772232553553 1.139971250875655
3.76162695885 0.0867068247710502 0.099781932037767 -2.8608986089933888 1.3608784716441422 2.050055466436567 -0.5199772232553553 1.139971250875655
3.77138185501 0.0867068247710502 0.099781932037767 -2.8608986089933888 1.3608784716441422 2.050055466436567 -0.5199772232553553 1.139971250875655
3.77138185501 0.0867068247710502 0.099781932037767 -2.8608986089933888 1.3608784716441422 2.050055466436567 -0.5199772232553553 1.139971250875655
3.78160595894 0.0867068247710502 0.099781932037767 -2.8608986089933888 1.3608784716441422 2.050055466436567 -0.5199772232553553 1.139971250875655
3.78160595894 0.0867068247710502 0.099781932037767 -2.8608986089933888 1.3608784716441422 2.050055466436567 -0.5199772232553553 1.139971250875655
3.79134893417 0.0867068247710502 0.099781932037767 -2.8608986089933888 1.3608784716441422 2.050055466436567 -0.5199772232553553 1.139971250875655
3.79134893417 0.0867068247710502 0.099781932037767 -2.8608986089933888 1.3608784716441422 2.050055466436567 -0.5199772232553553 1.139971250875655
3.80157589912 0.0867068247710502 0.099781932037767 -2.8608986089933888 1.3608784716441422 2.050055466436567 -0.5199772232553553 1.139971250875655
3.80157589912 0.0867068247710502 0.099781932037767 -2.8608986089933888 1.3608784716441422 2.050055466436567 -0.5199772232553553 1.139971250875655
3.81155395508 0.0867068247710502 0.099781932037767 -2.8608986089933888 1.3608784716441422 2.050055466436567 -0.5199772232553553 1.139971250875655
3.81155395508 0.0867068247710502 0.099781932037767 -2.8608986089933888 1.3608784716441422 2.050055466436567 -0.5199772232553553 1.139971250875655
3.82134890556 0.0867068247710502 0.099781932037767 -2.8608986089933888 1.3608784716441422 2.050055466436567 -0.5199772232553553 1.139971250875655
3.82134890556 0.0867068247710502 0.099781932037767 -2.8608986089933888 1.3608784716441422 2.050055466436567 -0.5199772232553553 1.139971250875655
3.83163285255 0.0867068247710502 0.099781932037767 -2.8608986089933888 1.3608784716441422 2.050055466436567 -0.5199772232553553 1.139971250875655
3.83163285255 0.0867068247710502 0.099781932037767 -2.8608986089933888 1.3608784716441422 2.050055466436567 -0.5199772232553553 1.139971250875655
3.8415749073 0.0867068247710502 0.099781932037767 -2.8608986089933888 1.3608784716441422 2.050055466436567 -0.5199772232553553 1.139971250875655
3.8415749073 0.0867068247710502 0.099781932037767 -2.8608986089933888 1.3608784716441422 2.050055466436567 -0.5199772232553553 1.139971250875655
3.85154986382 0.0867068247710502 0.099781932037767 -2.8608986089933888 1.3608784716441422 2.050055466436567 -0.5199772232553553 1.139971250875655
3.85154986382 0.0867068247710502 0.099781932037767 -2.8608986089933888 1.3608784716441422 2.050055466436567 -0.5199772232553553 1.139971250875655
3.86158800125 0.0867068247710502 0.099781932037767 -2.8608986089933888 1.3608784716441422 2.050055466436567 -0.5199772232553553 1.139971250875655
3.86158800125 0.0867068247710502 0.099781932037767 -2.8608986089933888 1.3608784716441422 2.050055466436567 -0.5199772232553553 1.139971250875655
3.87143492699 0.0867068247710502 0.099781932037767 -2.8608986089933888 1.3608784716441422 2.050055466436567 -0.5199772232553553 1.139971250875655
3.87143492699 0.0867068247710502 0.099781932037767 -2.8608986089933888 1.3608784716441422 2.050055466436567 -0.5199772232553553 1.139971250875655
3.88139796257 0.0867068247710502 0.099781932037767 -2.8608986089933888 1.3608784716441422 2.050055466436567 -0.5199772232553553 1.139971250875655
3.88139796257 0.0867068247710502 0.099781932037767 -2.8608986089933888 1.3608784716441422 2.050055466436567 -0.5199772232553553 1.139971250875655
3.89156699181 0.0867068247710502 0.099781932037767 -2.8608986089933888 1.3608784716441422 2.050055466436567 -0.5199772232553553 1.139971250875655
3.89156699181 0.0867068247710502 0.099781932037767 -2.8608986089933888 1.3608784716441422 2.050055466436567 -0.5199772232553553 1.139971250875655
3.9014339447 0.0867068247710502 0.099781932037767 -2.8608986089933888 1.3608784716441422 2.050055466436567 -0.5199772232553553 1.139971250875655
3.9014339447 0.0867068247710502 0.099781932037767 -2.8608986089933888 1.3608784716441422 2.050055466436567 -0.5199772232553553 1.139971250875655
3.9115858078 0.0867068247710502 0.099781932037767 -2.8608986089933888 1.3608784716441422 2.050055466436567 -0.5199772232553553 1.139971250875655
3.9115858078 0.0867068247710502 0.099781932037767 -2.8608986089933888 1.3608784716441422 2.050055466436567 -0.5199772232553553 1.139971250875655
3.92158699036 0.0867068247710502 0.099781932037767 -2.8608986089933888 1.3608784716441422 2.050055466436567 -0.5199772232553553 1.139971250875655
3.92158699036 0.0867068247710502 0.099781932037767 -2.8608986089933888 1.3608784716441422 2.050055466436567 -0.5199772232553553 1.139971250875655
3.93138289452 0.0867068247710502 0.099781932037767 -2.8608986089933888 1.3608784716441422 2.050055466436567 -0.5199772232553553 1.139971250875655
3.93138289452 0.0867068247710502 0.099781932037767 -2.8608986089933888 1.3608784716441422 2.050055466436567 -0.5199772232553553 1.139971250875655
3.94163179398 0.0867068247710502 0.099781932037767 -2.8608986089933888 1.3608784716441422 2.050055466436567 -0.5199772232553553 1.139971250875655
3.94163179398 0.0867068247710502 0.099781932037767 -2.8608986089933888 1.3608784716441422 2.050055466436567 -0.5199772232553553 1.139971250875655
3.95160484314 0.0867068247710502 0.099781932037767 -2.8608986089933888 1.3608784716441422 2.050055466436567 -0.5199772232553553 1.139971250875655
3.95160484314 0.0867068247710502 0.099781932037767 -2.8608986089933888 1.3608784716441422 2.050055466436567 -0.5199772232553553 1.139971250875655
3.96143293381 0.0867068247710502 0.099781932037767 -2.8608986089933888 1.3608784716441422 2.050055466436567 -0.5199772232553553 1.139971250875655
3.96143293381 0.0867068247710502 0.099781932037767 -2.8608986089933888 1.3608784716441422 2.050055466436567 -0.5199772232553553 1.139971250875655
3.97161889076 0.0867068247710502 0.099781932037767 -2.8608986089933888 1.3608784716441422 2.050055466436567 -0.5199772232553553 1.139971250875655
3.97161889076 0.0867068247710502 0.099781932037767 -2.8608986089933888 1.3608784716441422 2.050055466436567 -0.5199772232553553 1.139971250875655
3.98165583611 0.0867068247710502 0.099781932037767 -2.8608986089933888 1.3608784716441422 2.050055466436567 -0.5199772232553553 1.139971250875655
3.98165583611 0.0867068247710502 0.099781932037767 -2.8608986089933888 1.3608784716441422 2.050055466436567 -0.5199772232553553 1.139971250875655
3.99156188965 0.0867068247710502 0.099781932037767 -2.8608986089933888 1.3608784716441422 2.050055466436567 -0.5199772232553553 1.139971250875655
3.99156188965 0.0867068247710502 0.099781932037767 -2.8608986089933888 1.3608784716441422 2.050055466436567 -0.5199772232553553 1.139971250875655
4.00167489052 0.0867068247710502 0.099781932037767 -2.8608986089933888 1.3608784716441422 2.050055466436567 -0.5199772232553553 1.139971250875655
4.00167489052 0.0867068247710502 0.099781932037767 -2.8608986089933888 1.3608784716441422 2.050055466436567 -0.5199772232553553 1.139971250875655
4.01156783104 0.0867068247710502 0.099781932037767 -2.8608986089933888 1.3608784716441422 2.050055466436567 -0.5199772232553553 1.139971250875655
4.01156783104 0.0867068247710502 0.099781932037767 -2.8608986089933888 1.3608784716441422 2.050055466436567 -0.5199772232553553 1.139971250875655
4.02157282829 0.0867068247710502 0.099781932037767 -2.8608986089933888 1.3608784716441422 2.050055466436567 -0.5199772232553553 1.139971250875655
4.02157282829 0.0867068247710502 0.099781932037767 -2.8608986089933888 1.3608784716441422 2.050055466436567 -0.5199772232553553 1.139971250875655
4.03157401085 0.0867068247710502 0.099781932037767 -2.8608986089933888 1.3608784716441422 2.050055466436567 -0.5199772232553553 1.139971250875655
4.03157401085 0.0867068247710502 0.099781932037767 -2.8608986089933888 1.3608784716441422 2.050055466436567 -0.5199772232553553 1.139971250875655
4.04159784317 0.0867068247710502 0.099781932037767 -2.8608986089933888 1.3608784716441422 2.050055466436567 -0.5199772232553553 1.139971250875655
4.04159784317 0.0867068247710502 0.099781932037767 -2.8608986089933888 1.3608784716441422 2.050055466436567 -0.5199772232553553 1.139971250875655
4.05157399178 0.0867068247710502 0.099781932037767 -2.8608986089933888 1.3608784716441422 2.050055466436567 -0.5199772232553553 1.139971250875655
4.05157399178 0.0867068247710502 0.099781932037767 -2.8608986089933888 1.3608784716441422 2.050055466436567 -0.5199772232553553 1.139971250875655
4.0615799427 0.0867068247710502 0.099781932037767 -2.8608986089933888 1.3608784716441422 2.050055466436567 -0.5199772232553553 1.139971250875655
4.0615799427 0.0867068247710502 0.099781932037767 -2.8608986089933888 1.3608784716441422 2.050055466436567 -0.5199772232553553 1.139971250875655
4.07156586647 0.0867068247710502 0.099781932037767 -2.8608986089933888 1.3608784716441422 2.050055466436567 -0.5199772232553553 1.139971250875655
4.07156586647 0.0867068247710502 0.099781932037767 -2.8608986089933888 1.3608784716441422 2.050055466436567 -0.5199772232553553 1.139971250875655
4.08154702187 0.0867068247710502 0.099781932037767 -2.8608986089933888 1.3608784716441422 2.050055466436567 -0.5199772232553553 1.139971250875655
4.08154702187 0.0867068247710502 0.099781932037767 -2.8608986089933888 1.3608784716441422 2.050055466436567 -0.5199772232553553 1.139971250875655
4.09154081345 0.0867068247710502 0.099781932037767 -2.8608986089933888 1.3608784716441422 2.050055466436567 -0.5199772232553553 1.139971250875655
4.09154081345 0.0867068247710502 0.099781932037767 -2.8608986089933888 1.3608784716441422 2.050055466436567 -0.5199772232553553 1.139971250875655
4.10150885582 0.0867068247710502 0.099781932037767 -2.8608986089933888 1.3608784716441422 2.050055466436567 -0.5199772232553553 1.139971250875655
4.10150885582 0.0867068247710502 0.099781932037767 -2.8608986089933888 1.3608784716441422 2.050055466436567 -0.5199772232553553 1.139971250875655
4.11151885986 0.0867068247710502 0.099781932037767 -2.8608986089933888 1.3608784716441422 2.050055466436567 -0.5199772232553553 1.139971250875655
4.11151885986 0.0867068247710502 0.099781932037767 -2.8608986089933888 1.3608784716441422 2.050055466436567 -0.5199772232553553 1.139971250875655
4.1215159893 0.0867068247710502 0.099781932037767 -2.8608986089933888 1.3608784716441422 2.050055466436567 -0.5199772232553553 1.139971250875655
4.1215159893 0.0867068247710502 0.099781932037767 -2.8608986089933888 1.3608784716441422 2.050055466436567 -0.5199772232553553 1.139971250875655
4.13153290749 0.0867068247710502 0.099781932037767 -2.8608986089933888 1.3608784716441422 2.050055466436567 -0.5199772232553553 1.139971250875655
4.13153290749 0.0867068247710502 0.099781932037767 -2.8608986089933888 1.3608784716441422 2.050055466436567 -0.5199772232553553 1.139971250875655
4.14157700539 0.0867068247710502 0.099781932037767 -2.8608986089933888 1.3608784716441422 2.050055466436567 -0.5199772232553553 1.139971250875655
4.14157700539 0.0867068247710502 0.099781932037767 -2.8608986089933888 1.3608784716441422 2.050055466436567 -0.5199772232553553 1.139971250875655
4.15139889717 0.0867068247710502 0.099781932037767 -2.8608986089933888 1.3608784716441422 2.050055466436567 -0.5199772232553553 1.139971250875655
4.15139889717 0.0867068247710502 0.099781932037767 -2.8608986089933888 1.3608784716441422 2.050055466436567 -0.5199772232553553 1.139971250875655
4.16155195236 0.0867068247710502 0.099781932037767 -2.8608986089933888 1.3608784716441422 2.050055466436567 -0.5199772232553553 1.139971250875655
4.16155195236 0.0867068247710502 0.099781932037767 -2.8608986089933888 1.3608784716441422 2.050055466436567 -0.5199772232553553 1.139971250875655
4.17151689529 0.0867068247710502 0.099781932037767 -2.8608986089933888 1.3608784716441422 2.050055466436567 -0.5199772232553553 1.139971250875655
4.17151689529 0.0867068247710502 0.099781932037767 -2.8608986089933888 1.3608784716441422 2.050055466436567 -0.5199772232553553 1.139971250875655
4.1814198494 0.0867068247710502 0.099781932037767 -2.8608986089933888 1.3608784716441422 2.050055466436567 -0.5199772232553553 1.139971250875655
4.1814198494 0.0867068247710502 0.099781932037767 -2.8608986089933888 1.3608784716441422 2.050055466436567 -0.5199772232553553 1.139971250875655
4.19152092934 0.0867068247710502 0.099781932037767 -2.8608986089933888 1.3608784716441422 2.050055466436567 -0.5199772232553553 1.139971250875655
4.19152092934 0.0867068247710502 0.099781932037767 -2.8608986089933888 1.3608784716441422 2.050055466436567 -0.5199772232553553 1.139971250875655
4.20159697533 0.0867068247710502 0.099781932037767 -2.8608986089933888 1.3608784716441422 2.050055466436567 -0.5199772232553553 1.139971250875655
4.20159697533 0.0867068247710502 0.099781932037767 -2.8608986089933888 1.3608784716441422 2.050055466436567 -0.5199772232553553 1.139971250875655
4.21155691147 0.0867068247710502 0.099781932037767 -2.8608986089933888 1.3608784716441422 2.050055466436567 -0.5199772232553553 1.139971250875655
4.21155691147 0.0867068247710502 0.099781932037767 -2.8608986089933888 1.3608784716441422 2.050055466436567 -0.5199772232553553 1.139971250875655
4.22147583961 0.0867068247710502 0.099781932037767 -2.8608986089933888 1.3608784716441422 2.050055466436567 -0.5199772232553553 1.139971250875655
4.22147583961 0.0867068247710502 0.099781932037767 -2.8608986089933888 1.3608784716441422 2.050055466436567 -0.5199772232553553 1.139971250875655
4.23145294189 0.0867068247710502 0.099781932037767 -2.8608986089933888 1.3608784716441422 2.050055466436567 -0.5199772232553553 1.139971250875655
4.23145294189 0.0867068247710502 0.099781932037767 -2.8608986089933888 1.3608784716441422 2.050055466436567 -0.5199772232553553 1.139971250875655
4.24156188965 0.0867068247710502 0.099781932037767 -2.8608986089933888 1.3608784716441422 2.050055466436567 -0.5199772232553553 1.139971250875655
4.24156188965 0.0867068247710502 0.099781932037767 -2.8608986089933888 1.3608784716441422 2.050055466436567 -0.5199772232553553 1.139971250875655
4.25157880783 0.0867068247710502 0.099781932037767 -2.8608986089933888 1.3608784716441422 2.050055466436567 -0.5199772232553553 1.139971250875655
4.25157880783 0.0867068247710502 0.099781932037767 -2.8608986089933888 1.3608784716441422 2.050055466436567 -0.5199772232553553 1.139971250875655
4.26157283783 0.0867068247710502 0.099781932037767 -2.8608986089933888 1.3608784716441422 2.050055466436567 -0.5199772232553553 1.139971250875655
4.26157283783 0.0867068247710502 0.099781932037767 -2.8608986089933888 1.3608784716441422 2.050055466436567 -0.5199772232553553 1.139971250875655
4.27137899399 0.0867068247710502 0.099781932037767 -2.8608986089933888 1.3608784716441422 2.050055466436567 -0.5199772232553553 1.139971250875655
4.27137899399 0.0867068247710502 0.099781932037767 -2.8608986089933888 1.3608784716441422 2.050055466436567 -0.5199772232553553 1.139971250875655
4.28155684471 0.0867068247710502 0.099781932037767 -2.8608986089933888 1.3608784716441422 2.050055466436567 -0.5199772232553553 1.139971250875655
4.28155684471 0.0867068247710502 0.099781932037767 -2.8608986089933888 1.3608784716441422 2.050055466436567 -0.5199772232553553 1.139971250875655
4.29156398773 0.0867068247710502 0.099781932037767 -2.8608986089933888 1.3608784716441422 2.050055466436567 -0.5199772232553553 1.139971250875655
4.29156398773 0.0867068247710502 0.099781932037767 -2.8608986089933888 1.3608784716441422 2.050055466436567 -0.5199772232553553 1.139971250875655
4.30147600174 0.0867068247710502 0.099781932037767 -2.8608986089933888 1.3608784716441422 2.050055466436567 -0.5199772232553553 1.139971250875655
4.30147600174 0.0867068247710502 0.099781932037767 -2.8608986089933888 1.3608784716441422 2.050055466436567 -0.5199772232553553 1.139971250875655
4.31139302254 0.0867068247710502 0.099781932037767 -2.8608986089933888 1.3608784716441422 2.050055466436567 -0.5199772232553553 1.139971250875655
4.31139302254 0.0867068247710502 0.099781932037767 -2.8608986089933888 1.3608784716441422 2.050055466436567 -0.5199772232553553 1.139971250875655
4.32156395912 0.0867068247710502 0.099781932037767 -2.8608986089933888 1.3608784716441422 2.050055466436567 -0.5199772232553553 1.139971250875655
4.32156395912 0.0867068247710502 0.099781932037767 -2.8608986089933888 1.3608784716441422 2.050055466436567 -0.5199772232553553 1.139971250875655
4.33142089844 0.0867068247710502 0.099781932037767 -2.8608986089933888 1.3608784716441422 2.050055466436567 -0.5199772232553553 1.139971250875655
4.33142089844 0.0867068247710502 0.099781932037767 -2.8608986089933888 1.3608784716441422 2.050055466436567 -0.5199772232553553 1.139971250875655
4.34140086174 0.0867068247710502 0.099781932037767 -2.8608986089933888 1.3608784716441422 2.050055466436567 -0.5199772232553553 1.139971250875655
4.34140086174 0.0867068247710502 0.099781932037767 -2.8608986089933888 1.3608784716441422 2.050055466436567 -0.5199772232553553 1.139971250875655
4.35154080391 0.0867068247710502 0.099781932037767 -2.8608986089933888 1.3608784716441422 2.050055466436567 -0.5199772232553553 1.139971250875655
4.35154080391 0.0867068247710502 0.099781932037767 -2.8608986089933888 1.3608784716441422 2.050055466436567 -0.5199772232553553 1.139971250875655
4.36141991615 0.0867068247710502 0.099781932037767 -2.8608986089933888 1.3608784716441422 2.050055466436567 -0.5199772232553553 1.139971250875655
4.36141991615 0.0867068247710502 0.099781932037767 -2.8608986089933888 1.3608784716441422 2.050055466436567 -0.5199772232553553 1.139971250875655
4.37155294418 0.0867068247710502 0.099781932037767 -2.8608986089933888 1.3608784716441422 2.050055466436567 -0.5199772232553553 1.139971250875655
4.37155294418 0.0867068247710502 0.099781932037767 -2.8608986089933888 1.3608784716441422 2.050055466436567 -0.5199772232553553 1.139971250875655
4.3816049099 0.0867068247710502 0.099781932037767 -2.8608986089933888 1.3608784716441422 2.050055466436567 -0.5199772232553553 1.139971250875655
