riccardo-csl/Motion-Planning-for-TIAGo-Manipulator/T3_G_7/head_scan/head_scan/tiago_traiettorie_SG/1a-1b/pick_1a_rep1.txt
time arm_1_joint arm_2_joint arm_3_joint arm_4_joint arm_5_joint arm_6_joint arm_7_joint
0.388485908508 0.069602712114007 0.0928482469068401 -3.1000033659309087 1.360341571246836 2.050055466436567 -0.5199726577957962 1.1399758163352145
0.388485908508 0.069602712114007 0.0928482469068401 -3.1000033659309087 1.360341571246836 2.050055466436567 -0.5199726577957962 1.1399758163352145
0.398864984512 0.069602712114007 0.0928482469068401 -3.1000033659309087 1.360341571246836 2.050055466436567 -0.5199726577957962 1.1399758163352145
0.398864984512 0.069602712114007 0.0928482469068401 -3.1000033659309087 1.360341571246836 2.050055466436567 -0.5199726577957962 1.1399758163352145
0.408715009689 0.069602712114007 0.0928482469068401 -3.1000033659309087 1.360341571246836 2.050055466436567 -0.5199726577957962 1.1399758163352145
0.408715009689 0.069602712114007 0.0928482469068401 -3.1000033659309087 1.360341571246836 2.050055466436567 -0.5199726577957962 1.1399758163352145
0.418740034103 0.069602712114007 0.0928482469068401 -3.1000033659309087 1.360341571246836 2.050055466436567 -0.5199726577957962 1.1399758163352145
0.418740034103 0.069602712114007 0.0928482469068401 -3.1000033659309087 1.360341571246836 2.050055466436567 -0.5199726577957962 1.1399758163352145
0.428457975388 0.069602712114007 0.0928482469068401 -3.1000033659309087 1.360341571246836 2.050055466436567 -0.5199726577957962 1.1399758163352145
0.428457975388 0.069602712114007 0.0928482469068401 -3.1000033659309087 1.360341571246836 2.050055466436567 -0.5199726577957962 1.1399758163352145
0.438642978668 0.069602712114007 0.0928482469068401 -3.1000033659309087 1.360341571246836 2.050055466436567 -0.5199726577957962 1.1399758163352145
0.438642978668 0.069602712114007 0.0928482469068401 -3.1000033659309087 1.360341571246836 2.050055466436567 -0.5199726577957962 1.1399758163352145
0.448648929596 0.069602712114007 0.0928482469068401 -3.1000033659309087 1.360341571246836 2.050055466436567 -0.5199726577957962 1.1399758163352145
0.448648929596 0.069602712114007 0.0928482469068401 -3.1000033659309087 1.360341571246836 2.050055466436567 -0.5199726577957962 1.1399758163352145
0.458840847015 0.069602712114007 0.0928482469068401 -3.1000033659309087 1.360341571246836 2.050055466436567 -0.5199726577957962 1.1399758163352145
0.458840847015 0.069602712114007 0.0928482469068401 -3.1000033659309087 1.360341571246836 2.050055466436567 -0.5199726577957962 1.1399758163352145
0.475680828094 0.069602712114007 0.0928482469068401 -3.1000033659309087 1.360341571246836 2.050055466436567 -0.5199772232553553 1.139971250875655
0.475680828094 0.069602712114007 0.0928482469068401 -3.1000033659309087 1.360341571246836 2.050055466436567 -0.5199772232553553 1.139971250875655
0.478399991989 0.069602712114007 0.0928482469068401 -3.1000033659309087 1.360341571246836 2.050055466436567 -0.5199772232553553 1.139971250875655
0.478399991989 0.069602712114007 0.0928482469068401 -3.1000033659309087 1.360341571246836 2.050055466436567 -0.5199772232553553 1.139971250875655
0.488519906998 0.069602712114007 0.0928482469068401 -3.1000033659309087 1.360341571246836 2.050055466436567 -0.5199772232553553 1.139971250875655
0.488519906998 0.069602712114007 0.0928482469068401 -3.1000033659309087 1.360341571246836 2.050055466436567 -0.5199772232553553 1.139971250875655
0.498654842377 0.069602712114007 0.0928482469068401 -3.1000033659309087 1.360341571246836 2.050055466436567 -0.5199772232553553 1.139971250875655
0.498654842377 0.069602712114007 0.0928482469068401 -3.1000033659309087 1.360341571246836 2.050055466436567 -0.5199772232553553 1.139971250875655
0.508631944656 0.069602712114007 0.0928482469068401 -3.1000033659309087 1.360341571246836 2.050055466436567 -0.5199772232553553 1.139971250875655
0.508631944656 0.069602712114007 0.0928482469068401 -3.1000033659309087 1.360341571246836 2.050055466436567 -0.5199772232553553 1.139971250875655
0.518715858459 0.069602712114007 0.0928482469068401 -3.1000033659309087 1.360341571246836 2.050055466436567 -0.5199772232553553 1.139971250875655
0.518715858459 0.069602712114007 0.0928482469068401 -3.1000033659309087 1.360341571246836 2.050055466436567 -0.5199772232553553 1.139971250875655
0.528828859329 0.069602712114007 0.0928482469068401 -3.1000033659309087 1.360341571246836 2.050055466436567 -0.5199772232553553 1.139971250875655
0.528828859329 0.069602712114007 0.0928482469068401 -3.1000033659309087 1.360341571246836 2.050055466436567 -0.5199772232553553 1.139971250875655
0.538870811462 0.069602712114007 0.0928482469068401 -3.1000033659309087 1.360341571246836 2.050055466436567 -0.5199772232553553 1.139971250875655
0.538870811462 0.069602712114007 0.0928482469068401 -3.1000033659309087 1.360341571246836 2.050055466436567 -0.5199772232553553 1.139971250875655
0.548678874969 0.069602712114007 0.0928482469068401 -3.1000033659309087 1.360341571246836 2.050055466436567 -0.5199772232553553 1.139971250875655
0.548678874969 0.069602712114007 0.0928482469068401 -3.1000033659309087 1.360341571246836 2.050055466436567 -0.5199772232553553 1.139971250875655
0.558645009995 0.069602712114007 0.0928482469068401 -3.1000033659309087 1.360341571246836 2.050055466436567 -0.5199772232553553 1.139971250875655
0.558645009995 0.069602712114007 0.0928482469068401 -3.1000033659309087 1.360341571246836 2.050055466436567 -0.5199772232553553 1.139971250875655
0.568498849869 0.069602712114007 0.0928482469068401 -3.1000033659309087 1.360341571246836 2.050055466436567 -0.5199772232553553 1.139971250875655
0.568498849869 0.069602712114007 0.0928482469068401 -3.1000033659309087 1.360341571246836 2.050055466436567 -0.5199772232553553 1.139971250875655
0.578624010086 0.069602712114007 0.0928482469068401 -3.1000033659309087 1.360341571246836 2.050055466436567 -0.5199772232553553 1.139971250875655
0.578624010086 0.069602712114007 0.0928482469068401 -3.1000033659309087 1.360341571246836 2.050055466436567 -0.5199772232553553 1.139971250875655
0.588829994202 0.069602712114007 0.0928482469068401 -3.1000033659309087 1.360341571246836 2.050055466436567 -0.5199772232553553 1.139971250875655
0.588829994202 0.069602712114007 0.0928482469068401 -3.1000033659309087 1.360341571246836 2.050055466436567 -0.5199772232553553 1.139971250875655
0.598693847656 0.069602712114007 0.0928482469068401 -3.1000033659309087 1.360341571246836 2.050055466436567 -0.5199772232553553 1.139971250875655
0.598693847656 0.069602712114007 0.0928482469068401 -3.1000033659309087 1.360341571246836 2.050055466436567 -0.5199772232553553 1.139971250875655
0.608625888824 0.069602712114007 0.0928482469068401 -3.1000033659309087 1.360341571246836 2.050055466436567 -0.5199772232553553 1.139971250875655
0.608625888824 0.069602712114007 0.0928482469068401 -3.1000033659309087 1.360341571246836 2.050055466436567 -0.5199772232553553 1.139971250875655
0.618830919266 0.069602712114007 0.0928482469068401 -3.1000033659309087 1.360341571246836 2.050055466436567 -0.5199772232553553 1.139971250875655
0.618830919266 0.069602712114007 0.0928482469068401 -3.1000033659309087 1.360341571246836 2.050055466436567 -0.5199772232553553 1.139971250875655
0.628638029099 0.069602712114007 0.0928482469068401 -3.1000033659309087 1.360341571246836 2.050055466436567 -0.5199772232553553 1.139971250875655
0.628638029099 0.069602712114007 0.0928482469068401 -3.1000033659309087 1.360341571246836 2.050055466436567 -0.5199772232553553 1.139971250875655
0.638717889786 0.069602712114007 0.0928482469068401 -3.1000033659309087 1.360341571246836 2.050055466436567 -0.5199772232553553 1.139971250875655
0.638717889786 0.069602712114007 0.0928482469068401 -3.1000033659309087 1.360341571246836 2.050055466436567 -0.5199772232553553 1.139971250875655
0.648638963699 0.069602712114007 0.0928482469068401 -3.1000033659309087 1.360341571246836 2.050055466436567 -0.5199772232553553 1.139971250875655
0.648638963699 0.069602712114007 0.0928482469068401 -3.1000033659309087 1.360341571246836 2.050055466436567 -0.5199772232553553 1.139971250875655
0.658674001694 0.069602712114007 0.0928482469068401 -3.1000033659309087 1.360341571246836 2.050055466436567 -0.5199772232553553 1.139971250875655
0.658674001694 0.069602712114007 0.0928482469068401 -3.1000033659309087 1.360341571246836 2.050055466436567 -0.5199772232553553 1.139971250875655
0.66873383522 0.069602712114007 0.0928482469068401 -3.1000033659309087 1.360341571246836 2.050055466436567 -0.5199772232553553 1.139971250875655
0.66873383522 0.069602712114007 0.0928482469068401 -3.1000033659309087 1.360341571246836 2.050055466436567 -0.5199772232553553 1.139971250875655
0.678694963455 0.069602712114007 0.0928482469068401 -3.1000033659309087 1.360341571246836 2.050055466436567 -0.5199772232553553 1.139971250875655
0.678694963455 0.069602712114007 0.0928482469068401 -3.1000033659309087 1.360341571246836 2.050055466436567 -0.5199772232553553 1.139971250875655
0.688617944717 0.069602712114007 0.0928482469068401 -3.1000033659309087 1.360341571246836 2.050055466436567 -0.5199772232553553 1.139971250875655
0.688617944717 0.069602712114007 0.0928482469068401 -3.1000033659309087 1.360341571246836 2.050055466436567 -0.5199772232553553 1.139971250875655
0.698820829391 0.069602712114007 0.0928482469068401 -3.1000033659309087 1.360341571246836 2.050055466436567 -0.5199772232553553 1.139971250875655
0.698820829391 0.069602712114007 0.0928482469068401 -3.1000033659309087 1.360341571246836 2.050055466436567 -0.5199772232553553 1.139971250875655
0.708649873734 0.069602712114007 0.0928482469068401 -3.1000033659309087 1.360341571246836 2.050055466436567 -0.5199772232553553 1.139971250875655
0.708649873734 0.069602712114007 0.0928482469068401 -3.1000033659309087 1.360341571246836 2.050055466436567 -0.5199772232553553 1.139971250875655
0.718605995178 0.069602712114007 0.0928482469068401 -3.1000033659309087 1.360341571246836 2.050055466436567 -0.5199772232553553 1.139971250875655
0.718605995178 0.069602712114007 0.0928482469068401 -3.1000033659309087 1.360341571246836 2.050055466436567 -0.5199772232553553 1.139971250875655
0.728771924973 0.069602712114007 0.0928482469068401 -3.1000033659309087 1.360341571246836 2.050055466436567 -0.5199772232553553 1.139971250875655
0.728771924973 0.069602712114007 0.0928482469068401 -3.1000033659309087 1.360341571246836 2.050055466436567 -0.5199772232553553 1.139971250875655
0.738756895065 0.069602712114007 0.0928482469068401 -3.1000033659309087 1.360341571246836 2.050055466436567 -0.5199772232553553 1.139971250875655
0.738756895065 0.069602712114007 0.0928482469068401 -3.1000033659309087 1.360341571246836 2.050055466436567 -0.5199772232553553 1.139971250875655
0.748572826385 0.069602712114007 0.0928482469068401 -3.1000033659309087 1.360341571246836 2.050055466436567 -0.5199772232553553 1.139971250875655
0.748572826385 0.069602712114007 0.0928482469068401 -3.1000033659309087 1.360341571246836 2.050055466436567 -0.5199772232553553 1.139971250875655
0.758755922318 0.069602712114007 0.0928482469068401 -3.1000033659309087 1.360341571246836 2.050055466436567 -0.5199772232553553 1.139971250875655
0.758755922318 0.069602712114007 0.0928482469068401 -3.1000033659309087 1.360341571246836 2.050055466436567 -0.5199772232553553 1.139971250875655
0.76868391037 0.069602712114007 0.0928482469068401 -3.1000033659309087 1.360341571246836 2.050055466436567 -0.5199772232553553 1.139971250875655
0.76868391037 0.069602712114007 0.0928482469068401 -3.1000033659309087 1.360341571246836 2.050055466436567 -0.5199772232553553 1.139971250875655
0.778648853302 0.069602712114007 0.0928482469068401 -3.1000033659309087 1.360341571246836 2.050055466436567 -0.5199772232553553 1.139971250875655
0.778648853302 0.069602712114007 0.0928482469068401 -3.1000033659309087 1.360341571246836 2.050055466436567 -0.5199772232553553 1.139971250875655
0.788754940033 0.069602712114007 0.0928482469068401 -3.1000033659309087 1.360341571246836 2.050055466436567 -0.5199772232553553 1.139971250875655
0.788754940033 0.069602712114007 0.0928482469068401 -3.1000033659309087 1.360341571246836 2.050055466436567 -0.5199772232553553 1.139971250875655
0.798738956451 0.069602712114007 0.0928482469068401 -3.1000033659309087 1.360341571246836 2.050055466436567 -0.5199772232553553 1.139971250875655
0.798738956451 0.069602712114007 0.0928482469068401 -3.1000033659309087 1.360341571246836 2.050055466436567 -0.5199772232553553 1.139971250875655
0.808580875397 0.069602712114007 0.0928482469068401 -3.1000033659309087 1.360341571246836 2.050055466436567 -0.5199772232553553 1.139971250875655
0.808580875397 0.069602712114007 0.0928482469068401 -3.1000033659309087 1.360341571246836 2.050055466436567 -0.5199772232553553 1.139971250875655
0.818790912628 0.069602712114007 0.0928482469068401 -3.1000033659309087 1.360341571246836 2.050055466436567 -0.5199772232553553 1.139971250875655
0.818790912628 0.069602712114007 0.0928482469068401 -3.1000033659309087 1.360341571246836 2.050055466436567 -0.5199772232553553 1.139971250875655
0.828768968582 0.069602712114007 0.0928482469068401 -3.1000033659309087 1.360341571246836 2.050055466436567 -0.5199772232553553 1.139971250875655
0.828768968582 0.069602712114007 0.0928482469068401 -3.1000033659309087 1.360341571246836 2.050055466436567 -0.5199772232553553 1.139971250875655
0.838670969009 0.069602712114007 0.0928482469068401 -3.1000033659309087 1.360341571246836 2.050055466436567 -0.5199772232553553 1.139971250875655
0.838670969009 0.069602712114007 0.0928482469068401 -3.1000033659309087 1.360341571246836 2.050055466436567 -0.5199772232553553 1.139971250875655
0.848696947098 0.069602712114007 0.0928482469068401 -3.1000033659309087 1.360341571246836 2.050055466436567 -0.5199772232553553 1.139971250875655
0.848696947098 0.069602712114007 0.0928482469068401 -3.1000033659309087 1.360341571246836 2.050055466436567 -0.5199772232553553 1.139971250875655
0.85871386528 0.069602712114007 0.0928482469068401 -3.1000033659309087 1.360341571246836 2.050055466436567 -0.5199772232553553 1.139971250875655
0.85871386528 0.069602712114007 0.0928482469068401 -3.1000033659309087 1.360341571246836 2.050055466436567 -0.5199772232553553 1.139971250875655
0.868592023849 0.069602712114007 0.0928482469068401 -3.1000033659309087 1.360341571246836 2.050055466436567 -0.5199772232553553 1.139971250875655
0.868592023849 0.069602712114007 0.0928482469068401 -3.1000033659309087 1.360341571246836 2.050055466436567 -0.5199772232553553 1.139971250875655
0.878749847412 0.069602712114007 0.0928482469068401 -3.1000033659309087 1.360341571246836 2.050055466436567 -0.5199772232553553 1.139971250875655
0.878749847412 0.069602712114007 0.0928482469068401 -3.1000033659309087 1.360341571246836 2.050055466436567 -0.5199772232553553 1.139971250875655
0.88870882988 0.069602712114007 0.0928482469068401 -3.1000033659309087 1.360341571246836 2.050055466436567 -0.5199772232553553 1.139971250875655
0.88870882988 0.069602712114007 0.0928482469068401 -3.1000033659309087 1.360341571246836 2.050055466436567 -0.5199772232553553 1.139971250875655
0.898756027222 0.069602712114007 0.0928482469068401 -3.1000033659309087 1.360341571246836 2.050055466436567 -0.5199772232553553 1.139971250875655
0.898756027222 0.069602712114007 0.0928482469068401 -3.1000033659309087 1.360341571246836 2.050055466436567 -0.5199772232553553 1.139971250875655
0.908638954163 0.069602712114007 0.0928482469068401 -3.1000033659309087 1.360341571246836 2.050055466436567 -0.5199772232553553 1.139971250875655
0.908638954163 0.069602712114007 0.0928482469068401 -3.1000033659309087 1.360341571246836 2.050055466436567 -0.5199772232553553 1.139971250875655
0.918707847595 0.069602712114007 0.0928482469068401 -3.1000033659309087 1.360341571246836 2.050055466436567 -0.5199772232553553 1.139971250875655
0.918707847595 0.069602712114007 0.0928482469068401 -3.1000033659309087 1.360341571246836 2.050055466436567 -0.5199772232553553 1.139971250875655
0.928797960281 0.069602712114007 0.0928482469068401 -3.1000033659309087 1.360341571246836 2.050055466436567 -0.5199772232553553 1.139971250875655
0.928797960281 0.069602712114007 0.0928482469068401 -3.1000033659309087 1.360341571246836 2.050055466436567 -0.5199772232553553 1.139971250875655
0.938879966736 0.069602712114007 0.0928482469068401 -3.1000033659309087 1.360341571246836 2.050055466436567 -0.5199772232553553 1.139971250875655
0.938879966736 0.069602712114007 0.0928482469068401 -3.1000033659309087 1.360341571246836 2.050055466436567 -0.5199772232553553 1.139971250875655
0.948680877686 0.069602712114007 0.0928482469068401 -3.1000033659309087 1.360341571246836 2.050055466436567 -0.5199772232553553 1.139971250875655
0.948680877686 0.069602712114007 0.0928482469068401 -3.1000033659309087 1.360341571246836 2.050055466436567 -0.5199772232553553 1.139971250875655
0.958704948425 0.069602712114007 0.0928482469068401 -3.1000033659309087 1.360341571246836 2.050055466436567 -0.5199772232553553 1.139971250875655
0.958704948425 0.069602712114007 0.0928482469068401 -3.1000033659309087 1.360341571246836 2.050055466436567 -0.5199772232553553 1.139971250875655
0.968808889389 0.069602712114007 0.0928482469068401 -3.1000033659309087 1.360341571246836 2.050055466436567 -0.5199772232553553 1.139971250875655
0.968808889389 0.069602712114007 0.0928482469068401 -3.1000033659309087 1.360341571246836 2.050055466436567 -0.5199772232553553 1.139971250875655
0.978720903397 0.069602712114007 0.0928482469068401 -3.1000033659309087 1.360341571246836 2.050055466436567 -0.5199772232553553 1.139971250875655
0.978720903397 0.069602712114007 0.0928482469068401 -3.1000033659309087 1.360341571246836 2.050055466436567 -0.5199772232553553 1.139971250875655
0.988544940948 0.069602712114007 0.0928482469068401 -3.1000033659309087 1.360341571246836 2.050055466436567 -0.5199772232553553 1.139971250875655
0.988544940948 0.069602712114007 0.0928482469068401 -3.1000033659309087 1.360341571246836 2.050055466436567 -0.5199772232553553 1.139971250875655
0.998663902283 0.069602712114007 0.0928482469068401 -3.1000033659309087 1.360341571246836 2.050055466436567 -0.5199772232553553 1.139971250875655
0.998663902283 0.069602712114007 0.0928482469068401 -3.1000033659309087 1.360341571246836 2.050055466436567 -0.5199772232553553 1.139971250875655
1.00878691673 0.069602712114007 0.0928482469068401 -3.1000033659309087 1.360341571246836 2.050055466436567 -0.5199772232553553 1.139971250875655
1.00878691673 0.069602712114007 0.0928482469068401 -3.1000033659309087 1.360341571246836 2.050055466436567 -0.5199772232553553 1.139971250875655
1.01887893677 0.069602712114007 0.0928482469068401 -3.1000033659309087 1.360341571246836 2.050055466436567 -0.5199772232553553 1.139971250875655
1.01887893677 0.069602712114007 0.0928482469068401 -3.1000033659309087 1.360341571246836 2.050055466436567 -0.5199772232553553 1.139971250875655
1.02860093117 0.069602712114007 0.0928482469068401 -3.1000033659309087 1.360341571246836 2.050055466436567 -0.5199772232553553 1.139971250875655
1.02860093117 0.069602712114007 0.0928482469068401 -3.1000033659309087 1.360341571246836 2.050055466436567 -0.5199772232553553 1.139971250875655
1.03884100914 0.069602712114007 0.0928482469068401 -3.1000033659309087 1.360341571246836 2.050055466436567 -0.5199772232553553 1.139971250875655
1.03884100914 0.069602712114007 0.0928482469068401 -3.1000033659309087 1.360341571246836 2.050055466436567 -0.5199772232553553 1.139971250875655
1.04884696007 0.069602712114007 0.0928482469068401 -3.1000033659309087 1.360341571246836 2.050055466436567 -0.5199772232553553 1.139971250875655
1.04884696007 0.069602712114007 0.0928482469068401 -3.1000033659309087 1.360341571246836 2.050055466436567 -0.5199772232553553 1.139971250875655
1.05869483948 0.069602712114007 0.0928482469068401 -3.1000033659309087 1.360341571246836 2.050055466436567 -0.5199772232553553 1.139971250875655
1.05869483948 0.069602712114007 0.0928482469068401 -3.1000033659309087 1.360341571246836 2.050055466436567 -0.5199772232553553 1.139971250875655
1.06867384911 0.069602712114007 0.0928482469068401 -3.1000033659309087 1.360341571246836 2.050055466436567 -0.5199772232553553 1.139971250875655
1.06867384911 0.069602712114007 0.0928482469068401 -3.1000033659309087 1.360341571246836 2.050055466436567 -0.5199772232553553 1.139971250875655
1.07875800133 0.069602712114007 0.0928482469068401 -3.1000033659309087 1.360341571246836 2.050055466436567 -0.5199772232553553 1.139971250875655
1.07875800133 0.069602712114007 0.0928482469068401 -3.1000033659309087 1.360341571246836 2.050055466436567 -0.5199772232553553 1.139971250875655
1.08862495422 0.069602712114007 0.0928482469068401 -3.1000033659309087 1.360341571246836 2.050055466436567 -0.5199772232553553 1.139971250875655
1.08862495422 0.069602712114007 0.0928482469068401 -3.1000033659309087 1.360341571246836 2.050055466436567 -0.5199772232553553 1.139971250875655
1.09887003899 0.069602712114007 0.0928482469068401 -3.1000033659309087 1.360341571246836 2.050055466436567 -0.5199772232553553 1.139971250875655
1.09887003899 0.069602712114007 0.0928482469068401 -3.1000033659309087 1.360341571246836 2.050055466436567 -0.5199772232553553 1.139971250875655
1.10878682137 0.069602712114007 0.0928482469068401 -3.1000033659309087 1.360341571246836 2.050055466436567 -0.5199772232553553 1.139971250875655
1.10878682137 0.069602712114007 0.0928482469068401 -3.1000033659309087 1.360341571246836 2.050055466436567 -0.5199772232553553 1.139971250875655
1.11867690086 0.069602712114007 0.0928482469068401 -3.1000033659309087 1.360341571246836 2.050055466436567 -0.5199772232553553 1.139971250875655
1.11867690086 0.069602712114007 0.0928482469068401 -3.1000033659309087 1.360341571246836 2.050055466436567 -0.5199772232553553 1.139971250875655
1.12871003151 0.069602712114007 0.0928482469068401 -3.1000033659309087 1.360341571246836 2.050055466436567 -0.5199772232553553 1.139971250875655
1.12871003151 0.069602712114007 0.0928482469068401 -3.1000033659309087 1.360341571246836 2.050055466436567 -0.5199772232553553 1.139971250875655
1.1387898922 0.069602712114007 0.0928482469068401 -3.1000033659309087 1.360341571246836 2.050055466436567 -0.5199772232553553 1.139971250875655
1.1387898922 0.069602712114007 0.0928482469068401 -3.1000033659309087 1.360341571246836 2.050055466436567 -0.5199772232553553 1.139971250875655
1.14885401726 0.069602712114007 0.0928482469068401 -3.1000033659309087 1.360341571246836 2.050055466436567 -0.5199772232553553 1.139971250875655
1.14885401726 0.069602712114007 0.0928482469068401 -3.1000033659309087 1.360341571246836 2.050055466436567 -0.5199772232553553 1.139971250875655
1.15871596336 0.069602712114007 0.0928482469068401 -3.1000033659309087 1.360341571246836 2.050055466436567 -0.5199772232553553 1.139971250875655
1.15871596336 0.069602712114007 0.0928482469068401 -3.1000033659309087 1.360341571246836 2.050055466436567 -0.5199772232553553 1.139971250875655
1.1687579155 0.069602712114007 0.0928482469068401 -3.1000033659309087 1.360341571246836 2.050055466436567 -0.5199772232553553 1.139971250875655
1.1687579155 0.069602712114007 0.0928482469068401 -3.1000033659309087 1.360341571246836 2.050055466436567 -0.5199772232553553 1.139971250875655
1.1789329052 0.069602712114007 0.0928482469068401 -3.1000033659309087 1.360341571246836 2.050055466436567 -0.5199772232553553 1.139971250875655
1.1789329052 0.069602712114007 0.0928482469068401 -3.1000033659309087 1.360341571246836 2.050055466436567 -0.5199772232553553 1.139971250875655
1.18862390518 0.069602712114007 0.0928482469068401 -3.1000033659309087 1.360341571246836 2.050055466436567 -0.5199772232553553 1.139971250875655
1.18862390518 0.069602712114007 0.0928482469068401 -3.1000033659309087 1.360341571246836 2.050055466436567 -0.5199772232553553 1.139971250875655
1.19875097275 0.069602712114007 0.0928482469068401 -3.1000033659309087 1.360341571246836 2.050055466436567 -0.5199772232553553 1.139971250875655
1.19875097275 0.069602712114007 0.0928482469068401 -3.1000033659309087 1.360341571246836 2.050055466436567 -0.5199772232553553 1.139971250875655
1.20892286301 0.069602712114007 0.0928482469068401 -3.1000033659309087 1.360341571246836 2.050055466436567 -0.5199772232553553 1.139971250875655
1.20892286301 0.069602712114007 0.0928482469068401 -3.1000033659309087 1.360341571246836 2.050055466436567 -0.5199772232553553 1.139971250875655
1.21880197525 0.069602712114007 0.0928482469068401 -3.1000033659309087 1.360341571246836 2.050055466436567 -0.5199772232553553 1.139971250875655
1.21880197525 0.069602712114007 0.0928482469068401 -3.1000033659309087 1.360341571246836 2.050055466436567 -0.5199772232553553 1.139971250875655
1.22865581512 0.069602712114007 0.0928482469068401 -3.1000033659309087 1.360341571246836 2.050055466436567 -0.5199772232553553 1.139971250875655
1.22865581512 0.069602712114007 0.0928482469068401 -3.1000033659309087 1.360341571246836 2.050055466436567 -0.5199772232553553 1.139971250875655
1.23865604401 0.069602712114007 0.0928482469068401 -3.1000033659309087 1.360341571246836 2.050055466436567 -0.5199772232553553 1.139971250875655
1.23865604401 0.069602712114007 0.0928482469068401 -3.1000033659309087 1.360341571246836 2.050055466436567 -0.5199772232553553 1.139971250875655
1.24874401093 0.069602712114007 0.0928482469068401 -3.1000033659309087 1.360341571246836 2.050055466436567 -0.5199772232553553 1.139971250875655
1.24874401093 0.069602712114007 0.0928482469068401 -3.1000033659309087 1.360341571246836 2.050055466436567 -0.5199772232553553 1.139971250875655
1.25876784325 0.069602712114007 0.0928482469068401 -3.1000033659309087 1.360341571246836 2.050055466436567 -0.5199772232553553 1.139971250875655
1.25876784325 0.069602712114007 0.0928482469068401 -3.1000033659309087 1.360341571246836 2.050055466436567 -0.5199772232553553 1.139971250875655
1.26882195473 0.069602712114007 0.0928482469068401 -3.1000033659309087 1.360341571246836 2.050055466436567 -0.5199772232553553 1.139971250875655
1.26882195473 0.069602712114007 0.0928482469068401 -3.1000033659309087 1.360341571246836 2.050055466436567 -0.5199772232553553 1.139971250875655
1.2789978981 0.069602712114007 0.0928482469068401 -3.1000033659309087 1.360341571246836 2.050055466436567 -0.5199772232553553 1.139971250875655
1.2789978981 0.069602712114007 0.0928482469068401 -3.1000033659309087 1.360341571246836 2.050055466436567 -0.5199772232553553 1.139971250875655
1.28884291649 0.069602712114007 0.0928482469068401 -3.1000033659309087 1.360341571246836 2.050055466436567 -0.5199772232553553 1.139971250875655
1.28884291649 0.069602712114007 0.0928482469068401 -3.1000033659309087 1.360341571246836 2.050055466436567 -0.5199772232553553 1.139971250875655
1.29874992371 0.069602712114007 0.0928482469068401 -3.1000033659309087 1.360341571246836 2.050055466436567 -0.5199772232553553 1.139971250875655
1.29874992371 0.069602712114007 0.0928482469068401 -3.1000033659309087 1.360341571246836 2.050055466436567 -0.5199772232553553 1.139971250875655
1.30865502357 0.069602712114007 0.0928482469068401 -3.1000033659309087 1.360341571246836 2.050055466436567 -0.5199772232553553 1.139971250875655
1.30865502357 0.069602712114007 0.0928482469068401 -3.1000033659309087 1.360341571246836 2.050055466436567 -0.5199772232553553 1.139971250875655
1.31867694855 0.069602712114007 0.0928482469068401 -3.1000033659309087 1.360341571246836 2.050055466436567 -0.5199772232553553 1.139971250875655
1.31867694855 0.069602712114007 0.0928482469068401 -3.1000033659309087 1.360341571246836 2.050055466436567 -0.5199772232553553 1.139971250875655
1.32881593704 0.069602712114007 0.0928482469068401 -3.1000033659309087 1.360341571246836 2.050055466436567 -0.5199772232553553 1.139971250875655
1.32881593704 0.069602712114007 0.0928482469068401 -3.1000033659309087 1.360341571246836 2.050055466436567 -0.5199772232553553 1.139971250875655
1.33864593506 0.069602712114007 0.0928482469068401 -3.1000033659309087 1.360341571246836 2.050055466436567 -0.5199772232553553 1.139971250875655
1.33864593506 0.069602712114007 0.0928482469068401 -3.1000033659309087 1.360341571246836 2.050055466436567 -0.5199772232553553 1.139971250875655
1.3485648632 0.069602712114007 0.0928482469068401 -3.1000033659309087 1.360341571246836 2.050055466436567 -0.5199772232553553 1.139971250875655
1.3485648632 0.069602712114007 0.0928482469068401 -3.1000033659309087 1.360341571246836 2.050055466436567 -0.5199772232553553 1.139971250875655
1.35887789726 0.069602712114007 0.0928482469068401 -3.1000033659309087 1.360341571246836 2.050055466436567 -0.5199772232553553 1.139971250875655
1.35887789726 0.069602712114007 0.0928482469068401 -3.1000033659309087 1.360341571246836 2.050055466436567 -0.5199772232553553 1.139971250875655
1.36883592606 0.069602712114007 0.0928482469068401 -3.1000033659309087 1.360341571246836 2.050055466436567 -0.5199772232553553 1.139971250875655
1.36883592606 0.069602712114007 0.0928482469068401 -3.1000033659309087 1.360341571246836 2.050055466436567 -0.5199772232553553 1.139971250875655
1.37875890732 0.069602712114007 0.0928482469068401 -3.1000033659309087 1.360341571246836 2.050055466436567 -0.5199772232553553 1.139971250875655
1.37875890732 0.069602712114007 0.0928482469068401 -3.1000033659309087 1.360341571246836 2.050055466436567 -0.5199772232553553 1.139971250875655
1.3887629509 0.069602712114007 0.0928482469068401 -3.1000033659309087 1.360341571246836 2.050055466436567 -0.5199772232553553 1.139971250875655
1.3887629509 0.069602712114007 0.0928482469068401 -3.1000033659309087 1.360341571246836 2.050055466436567 -0.5199772232553553 1.139971250875655
1.39886283875 0.069602712114007 0.0928482469068401 -3.1000033659309087 1.360341571246836 2.050055466436567 -0.5199772232553553 1.139971250875655
1.39886283875 0.069602712114007 0.0928482469068401 -3.1000033659309087 1.360341571246836 2.050055466436567 -0.5199772232553553 1.139971250875655
1.40870499611 0.069602712114007 0.0928482469068401 -3.1000033659309087 1.360341571246836 2.050055466436567 -0.5199772232553553 1.139971250875655
1.40870499611 0.069602712114007 0.0928482469068401 -3.1000033659309087 1.360341571246836 2.050055466436567 -0.5199772232553553 1.139971250875655
1.41874504089 0.069602712114007 0.0928482469068401 -3.1000033659309087 1.360341571246836 2.050055466436567 -0.5199772232553553 1.139971250875655
1.41874504089 0.069602712114007 0.0928482469068401 -3.1000033659309087 1.360341571246836 2.050055466436567 -0.5199772232553553 1.139971250875655
1.42892789841 0.069602712114007 0.0928482469068401 -3.1000033659309087 1.360341571246836 2.050055466436567 -0.5199772232553553 1.139971250875655
1.42892789841 0.069602712114007 0.0928482469068401 -3.1000033659309087 1.360341571246836 2.050055466436567 -0.5199772232553553 1.139971250875655
1.43873000145 0.069602712114007 0.0928482469068401 -3.1000033659309087 1.360341571246836 2.050055466436567 -0.5199772232553553 1.139971250875655
1.43873000145 0.069602712114007 0.0928482469068401 -3.1000033659309087 1.360341571246836 2.050055466436567 -0.5199772232553553 1.139971250875655
1.44864702225 0.069602712114007 0.0928482469068401 -3.1000033659309087 1.360341571246836 2.050055466436567 -0.5199772232553553 1.139971250875655
1.44864702225 0.069602712114007 0.0928482469068401 -3.1000033659309087 1.360341571246836 2.050055466436567 -0.5199772232553553 1.139971250875655
1.45864582062 0.069602712114007 0.0928482469068401 -3.1000033659309087 1.360341571246836 2.050055466436567 -0.5199772232553553 1.139971250875655
1.45864582062 0.069602712114007 0.0928482469068401 -3.1000033659309087 1.360341571246836 2.050055466436567 -0.5199772232553553 1.139971250875655
1.46878099442 0.069602712114007 0.0928482469068401 -3.1000033659309087 1.360341571246836 2.050055466436567 -0.5199772232553553 1.139971250875655
1.46878099442 0.069602712114007 0.0928482469068401 -3.1000033659309087 1.360341571246836 2.050055466436567 -0.5199772232553553 1.139971250875655
1.47881603241 0.069602712114007 0.0928482469068401 -3.1000033659309087 1.360341571246836 2.050055466436567 -0.5199772232553553 1.139971250875655
1.47881603241 0.069602712114007 0.0928482469068401 -3.1000033659309087 1.360341571246836 2.050055466436567 -0.5199772232553553 1.139971250875655
1.48881483078 0.069602712114007 0.0928482469068401 -3.1000033659309087 1.360341571246836 2.050055466436567 -0.5199772232553553 1.139971250875655
1.48881483078 0.069602712114007 0.0928482469068401 -3.1000033659309087 1.360341571246836 2.050055466436567 -0.5199772232553553 1.139971250875655
1.49882292747 0.069602712114007 0.0928482469068401 -3.1000033659309087 1.360341571246836 2.050055466436567 -0.5199772232553553 1.139971250875655
1.49882292747 0.069602712114007 0.0928482469068401 -3.1000033659309087 1.360341571246836 2.050055466436567 -0.5199772232553553 1.139971250875655
1.5086388588 0.069602712114007 0.0928482469068401 -3.1000033659309087 1.360341571246836 2.050055466436567 -0.5199772232553553 1.139971250875655
1.5086388588 0.069602712114007 0.0928482469068401 -3.1000033659309087 1.360341571246836 2.050055466436567 -0.5199772232553553 1.139971250875655
1.51865291595 0.069602712114007 0.0928482469068401 -3.1000033659309087 1.360341571246836 2.050055466436567 -0.5199772232553553 1.139971250875655
1.51865291595 0.069602712114007 0.0928482469068401 -3.1000033659309087 1.360341571246836 2.050055466436567 -0.5199772232553553 1.139971250875655
1.52874302864 0.069602712114007 0.0928482469068401 -3.1000033659309087 1.360341571246836 2.050055466436567 -0.5199772232553553 1.139971250875655
1.52874302864 0.069602712114007 0.0928482469068401 -3.1000033659309087 1.360341571246836 2.050055466436567 -0.5199772232553553 1.139971250875655
1.53885889053 0.069602712114007 0.0928482469068401 -3.1000033659309087 1.360341571246836 2.050055466436567 -0.5199772232553553 1.139971250875655
1.53885889053 0.069602712114007 0.0928482469068401 -3.1000033659309087 1.360341571246836 2.050055466436567 -0.5199772232553553 1.139971250875655
1.54871702194 0.069602712114007 0.0928482469068401 -3.1000033659309087 1.360341571246836 2.050055466436567 -0.5199772232553553 1.139971250875655
1.54871702194 0.069602712114007 0.0928482469068401 -3.1000033659309087 1.360341571246836 2.050055466436567 -0.5199772232553553 1.139971250875655
1.55873799324 0.069602712114007 0.0928482469068401 -3.1000033659309087 1.360341571246836 2.050055466436567 -0.5199772232553553 1.139971250875655
1.55873799324 0.069602712114007 0.0928482469068401 -3.1000033659309087 1.360341571246836 2.050055466436567 -0.5199772232553553 1.139971250875655
1.56879091263 0.069602712114007 0.0928482469068401 -3.1000033659309087 1.360341571246836 2.050055466436567 -0.5199772232553553 1.139971250875655
1.56879091263 0.069602712114007 0.0928482469068401 -3.1000033659309087 1.360341571246836 2.050055466436567 -0.5199772232553553 1.139971250875655
1.57887601852 0.069602712114007 0.0928482469068401 -3.1000033659309087 1.360341571246836 2.050055466436567 -0.5199772232553553 1.139971250875655
1.57887601852 0.069602712114007 0.0928482469068401 -3.1000033659309087 1.360341571246836 2.050055466436567 -0.5199772232553553 1.139971250875655
1.58865094185 0.069602712114007 0.0928482469068401 -3.1000033659309087 1.360341571246836 2.050055466436567 -0.5199772232553553 1.139971250875655
1.58865094185 0.069602712114007 0.0928482469068401 -3.1000033659309087 1.360341571246836 2.050055466436567 -0.5199772232553553 1.139971250875655
1.59886002541 0.069602712114007 0.0928482469068401 -3.1000033659309087 1.360341571246836 2.050055466436567 -0.5199772232553553 1.139971250875655
1.59886002541 0.069602712114007 0.0928482469068401 -3.1000033659309087 1.360341571246836 2.050055466436567 -0.5199772232553553 1.139971250875655
1.60864090919 0.069602712114007 0.0928482469068401 -3.1000033659309087 1.360341571246836 2.050055466436567 -0.5199772232553553 1.139971250875655
1.60864090919 0.069602712114007 0.0928482469068401 -3.1000033659309087 1.360341571246836 2.050055466436567 -0.5199772232553553 1.139971250875655
1.61875486374 0.069602712114007 0.0928482469068401 -3.1000033659309087 1.360341571246836 2.050055466436567 -0.5199772232553553 1.139971250875655
1.61875486374 0.069602712114007 0.0928482469068401 -3.1000033659309087 1.360341571246836 2.050055466436567 -0.5199772232553553 1.139971250875655
1.62866783142 0.069602712114007 0.0928482469068401 -3.1000033659309087 1.360341571246836 2.050055466436567 -0.5199772232553553 1.139971250875655
1.62866783142 0.069602712114007 0.0928482469068401 -3.1000033659309087 1.360341571246836 2.050055466436567 -0.5199772232553553 1.139971250875655
1.63889884949 0.069602712114007 0.0928482469068401 -3.1000033659309087 1.360341571246836 2.050055466436567 -0.5199772232553553 1.139971250875655
1.63889884949 0.069602712114007 0.0928482469068401 -3.1000033659309087 1.360341571246836 2.050055466436567 -0.5199772232553553 1.139971250875655
1.64865589142 0.069602712114007 0.0928482469068401 -3.1000033659309087 1.360341571246836 2.050055466436567 -0.5199772232553553 1.139971250875655
1.64865589142 0.069602712114007 0.0928482469068401 -3.1000033659309087 1.360341571246836 2.050055466436567 -0.5199772232553553 1.139971250875655
1.65877604485 0.069602712114007 0.0928482469068401 -3.1000033659309087 1.360341571246836 2.050055466436567 -0.5199772232553553 1.139971250875655
1.65877604485 0.069602712114007 0.0928482469068401 -3.1000033659309087 1.360341571246836 2.050055466436567 -0.5199772232553553 1.139971250875655
1.6688079834 0.069602712114007 0.0928482469068401 -3.1000033659309087 1.360341571246836 2.050055466436567 -0.5199772232553553 1.139971250875655
1.6688079834 0.069602712114007 0.0928482469068401 -3.1000033659309087 1.360341571246836 2.050055466436567 -0.5199772232553553 1.139971250875655
1.67896986008 0.069602712114007 0.0928482469068401 -3.1000033659309087 1.360341571246836 2.050055466436567 -0.5199772232553553 1.139971250875655
1.67896986008 0.069602712114007 0.0928482469068401 -3.1000033659309087 1.360341571246836 2.050055466436567 -0.5199772232553553 1.139971250875655
1.68868684769 0.069602712114007 0.0928482469068401 -3.1000033659309087 1.360341571246836 2.050055466436567 -0.5199772232553553 1.139971250875655
1.68868684769 0.069602712114007 0.0928482469068401 -3.1000033659309087 1.360341571246836 2.050055466436567 -0.5199772232553553 1.139971250875655
1.69864702225 0.069602712114007 0.0928482469068401 -3.1000033659309087 1.360341571246836 2.050055466436567 -0.5199772232553553 1.139971250875655
1.69864702225 0.069602712114007 0.0928482469068401 -3.1000033659309087 1.360341571246836 2.050055466436567 -0.5199772232553553 1.139971250875655
1.70854091644 0.069602712114007 0.0928482469068401 -3.1000033659309087 1.360341571246836 2.050055466436567 -0.5199772232553553 1.139971250875655
1.70854091644 0.069602712114007 0.0928482469068401 -3.1000033659309087 1.360341571246836 2.050055466436567 -0.5199772232553553 1.139971250875655
1.71869301796 0.069602712114007 0.0928482469068401 -3.1000033659309087 1.360341571246836 2.050055466436567 -0.5199772232553553 1.139971250875655
1.71869301796 0.069602712114007 0.0928482469068401 -3.1000033659309087 1.360341571246836 2.050055466436567 -0.5199772232553553 1.139971250875655
1.7287979126 0.069602712114007 0.0928482469068401 -3.1000033659309087 1.360341571246836 2.050055466436567 -0.5199772232553553 1.139971250875655
1.7287979126 0.069602712114007 0.0928482469068401 -3.1000033659309087 1.360341571246836 2.050055466436567 -0.5199772232553553 1.139971250875655
1.73888301849 0.069602712114007 0.0928482469068401 -3.1000033659309087 1.360341571246836 2.050055466436567 -0.5199772232553553 1.139971250875655
1.73888301849 0.069602712114007 0.0928482469068401 -3.1000033659309087 1.360341571246836 2.050055466436567 -0.5199772232553553 1.139971250875655
1.74866104126 0.069602712114007 0.0928482469068401 -3.1000033659309087 1.360341571246836 2.050055466436567 -0.5199772232553553 1.139971250875655
1.74866104126 0.069602712114007 0.0928482469068401 -3.1000033659309087 1.360341571246836 2.050055466436567 -0.5199772232553553 1.139971250875655
1.75880599022 0.069602712114007 0.0928482469068401 -3.1000033659309087 1.360341571246836 2.050055466436567 -0.5199772232553553 1.139971250875655
1.75880599022 0.069602712114007 0.0928482469068401 -3.1000033659309087 1.360341571246836 2.050055466436567 -0.5199772232553553 1.139971250875655
1.76880502701 0.069602712114007 0.0928482469068401 -3.1000033659309087 1.360341571246836 2.050055466436567 -0.5199772232553553 1.139971250875655
1.76880502701 0.069602712114007 0.0928482469068401 -3.1000033659309087 1.360341571246836 2.050055466436567 -0.5199772232553553 1.139971250875655
1.77866888046 0.069602712114007 0.0928482469068401 -3.1000033659309087 1.360341571246836 2.050055466436567 -0.5199772232553553 1.139971250875655
1.77866888046 0.069602712114007 0.0928482469068401 -3.1000033659309087 1.360341571246836 2.050055466436567 -0.5199772232553553 1.139971250875655
1.78860902786 0.069602712114007 0.0928482469068401 -3.1000033659309087 1.360341571246836 2.050055466436567 -0.5199772232553553 1.139971250875655
1.78860902786 0.069602712114007 0.0928482469068401 -3.1000033659309087 1.360341571246836 2.050055466436567 -0.5199772232553553 1.139971250875655
1.79884791374 0.069602712114007 0.0928482469068401 -3.1000033659309087 1.360341571246836 2.050055466436567 -0.5199772232553553 1.139971250875655
1.79884791374 0.069602712114007 0.0928482469068401 -3.1000033659309087 1.360341571246836 2.050055466436567 -0.5199772232553553 1.139971250875655
1.80872893333 0.069602712114007 0.0928482469068401 -3.1000033659309087 1.360341571246836 2.050055466436567 -0.5199772232553553 1.139971250875655
1.80872893333 0.069602712114007 0.0928482469068401 -3.1000033659309087 1.360341571246836 2.050055466436567 -0.5199772232553553 1.139971250875655
1.8187019825 0.069602712114007 0.0928482469068401 -3.1000033659309087 1.360341571246836 2.050055466436567 -0.5199772232553553 1.139971250875655
1.8187019825 0.069602712114007 0.0928482469068401 -3.1000033659309087 1.360341571246836 2.050055466436567 -0.5199772232553553 1.139971250875655
1.82843899727 0.069602712114007 0.0928482469068401 -3.1000033659309087 1.360341571246836 2.050055466436567 -0.5199772232553553 1.139971250875655
1.82843899727 0.069602712114007 0.0928482469068401 -3.1000033659309087 1.360341571246836 2.050055466436567 -0.5199772232553553 1.139971250875655
1.83879995346 0.069602712114007 0.0928482469068401 -3.1000033659309087 1.360341571246836 2.050055466436567 -0.5199772232553553 1.139971250875655
1.83879995346 0.069602712114007 0.0928482469068401 -3.1000033659309087 1.360341571246836 2.050055466436567 -0.5199772232553553 1.139971250875655
1.84879899025 0.069602712114007 0.0928482469068401 -3.1000033659309087 1.360341571246836 2.050055466436567 -0.5199772232553553 1.139971250875655
1.84879899025 0.069602712114007 0.0928482469068401 -3.1000033659309087 1.360341571246836 2.050055466436567 -0.5199772232553553 1.139971250875655
1.85888600349 0.069602712114007 0.0928482469068401 -3.1000033659309087 1.360341571246836 2.050055466436567 -0.5199772232553553 1.139971250875655
1.85888600349 0.069602712114007 0.0928482469068401 -3.1000033659309087 1.360341571246836 2.050055466436567 -0.5199772232553553 1.139971250875655
1.86896586418 0.069602712114007 0.0928482469068401 -3.1000033659309087 1.360341571246836 2.050055466436567 -0.5199772232553553 1.139971250875655
1.86896586418 0.069602712114007 0.0928482469068401 -3.1000033659309087 1.360341571246836 2.050055466436567 -0.5199772232553553 1.139971250875655
1.87885689735 0.069602712114007 0.0928482469068401 -3.1000033659309087 1.360341571246836 2.050055466436567 -0.5199772232553553 1.139971250875655
1.87885689735 0.069602712114007 0.0928482469068401 -3.1000033659309087 1.360341571246836 2.050055466436567 -0.5199772232553553 1.139971250875655
1.88869285583 0.069602712114007 0.0928482469068401 -3.1000033659309087 1.360341571246836 2.050055466436567 -0.5199772232553553 1.139971250875655
1.88869285583 0.069602712114007 0.0928482469068401 -3.1000033659309087 1.360341571246836 2.050055466436567 -0.5199772232553553 1.139971250875655
1.89867186546 0.069602712114007 0.0928482469068401 -3.1000033659309087 1.360341571246836 2.050055466436567 -0.5199772232553553 1.139971250875655
1.89867186546 0.069602712114007 0.0928482469068401 -3.1000033659309087 1.360341571246836 2.050055466436567 -0.5199772232553553 1.139971250875655
1.90861296654 0.069602712114007 0.0928482469068401 -3.1000033659309087 1.360341571246836 2.050055466436567 -0.5199772232553553 1.139971250875655
1.90861296654 0.069602712114007 0.0928482469068401 -3.1000033659309087 1.360341571246836 2.050055466436567 -0.5199772232553553 1.139971250875655
1.91886496544 0.069602712114007 0.0928482469068401 -3.1000033659309087 1.360341571246836 2.050055466436567 -0.5199772232553553 1.139971250875655
1.91886496544 0.069602712114007 0.0928482469068401 -3.1000033659309087 1.360341571246836 2.050055466436567 -0.5199772232553553 1.139971250875655
1.92863202095 0.069602712114007 0.0928482469068401 -3.1000033659309087 1.360341571246836 2.050055466436567 -0.5199772232553553 1.139971250875655
1.92863202095 0.069602712114007 0.0928482469068401 -3.1000033659309087 1.360341571246836 2.050055466436567 -0.5199772232553553 1.139971250875655
1.93862104416 0.069602712114007 0.0928482469068401 -3.1000033659309087 1.360341571246836 2.050055466436567 -0.5199772232553553 1.139971250875655
1.93862104416 0.069602712114007 0.0928482469068401 -3.1000033659309087 1.360341571246836 2.050055466436567 -0.5199772232553553 1.139971250875655
1.94877195358 0.069602712114007 0.0928482469068401 -3.1000033659309087 1.360341571246836 2.050055466436567 -0.5199772232553553 1.139971250875655
1.94877195358 0.069602712114007 0.0928482469068401 -3.1000033659309087 1.360341571246836 2.050055466436567 -0.5199772232553553 1.139971250875655
1.95870995522 0.069602712114007 0.0928482469068401 -3.1000033659309087 1.360341571246836 2.050055466436567 -0.5199772232553553 1.139971250875655
1.95870995522 0.069602712114007 0.0928482469068401 -3.1000033659309087 1.360341571246836 2.050055466436567 -0.5199772232553553 1.139971250875655
1.96864891052 0.069602712114007 0.0928482469068401 -3.1000033659309087 1.360341571246836 2.050055466436567 -0.5199772232553553 1.139971250875655
1.96864891052 0.069602712114007 0.0928482469068401 -3.1000033659309087 1.360341571246836 2.050055466436567 -0.5199772232553553 1.139971250875655
1.97869181633 0.069602712114007 0.0928482469068401 -3.1000033659309087 1.360341571246836 2.050055466436567 -0.5199772232553553 1.139971250875655
1.97869181633 0.069602712114007 0.0928482469068401 -3.1000033659309087 1.360341571246836 2.050055466436567 -0.5199772232553553 1.139971250875655
1.98852300644 0.069602712114007 0.0928482469068401 -3.1000033659309087 1.360341571246836 2.050055466436567 -0.5199772232553553 1.139971250875655
1.98852300644 0.069602712114007 0.0928482469068401 -3.1000033659309087 1.360341571246836 2.050055466436567 -0.5199772232553553 1.139971250875655
1.99848794937 0.069602712114007 0.0928482469068401 -3.1000033659309087 1.360341571246836 2.050055466436567 -0.5199772232553553 1.139971250875655
1.99848794937 0.069602712114007 0.0928482469068401 -3.1000033659309087 1.360341571246836 2.050055466436567 -0.5199772232553553 1.139971250875655
2.00859284401 0.069602712114007 0.0928482469068401 -3.1000033659309087 1.360341571246836 2.050055466436567 -0.5199772232553553 1.139971250875655
2.00859284401 0.069602712114007 0.0928482469068401 -3.1000033659309087 1.360341571246836 2.050055466436567 -0.5199772232553553 1.139971250875655
2.01858592033 0.069602712114007 0.0928482469068401 -3.1000033659309087 1.360341571246836 2.050055466436567 -0.5199772232553553 1.139971250875655
2.01858592033 0.069602712114007 0.0928482469068401 -3.1000033659309087 1.360341571246836 2.050055466436567 -0.5199772232553553 1.139971250875655
2.02846693993 0.069602712114007 0.0928482469068401 -3.1000033659309087 1.360341571246836 2.050055466436567 -0.5199772232553553 1.139971250875655
2.02846693993 0.069602712114007 0.0928482469068401 -3.1000033659309087 1.360341571246836 2.050055466436567 -0.5199772232553553 1.139971250875655
2.03860592842 0.069602712114007 0.0928482469068401 -3.1000033659309087 1.360341571246836 2.050055466436567 -0.5199772232553553 1.139971250875655
2.03860592842 0.069602712114007 0.0928482469068401 -3.1000033659309087 1.360341571246836 2.050055466436567 -0.5199772232553553 1.139971250875655
2.0485830307 0.069602712114007 0.0928482469068401 -3.1000033659309087 1.360341571246836 2.050055466436567 -0.5199772232553553 1.139971250875655
2.0485830307 0.069602712114007 0.0928482469068401 -3.1000033659309087 1.360341571246836 2.050055466436567 -0.5199772232553553 1.139971250875655
2.05880784988 0.069602712114007 0.0928482469068401 -3.1000033659309087 1.360341571246836 2.050055466436567 -0.5199772232553553 1.139971250875655
2.05880784988 0.069602712114007 0.0928482469068401 -3.1000033659309087 1.360341571246836 2.050055466436567 -0.5199772232553553 1.139971250875655
2.06889390945 0.069602712114007 0.0928482469068401 -3.1000033659309087 1.360341571246836 2.050055466436567 -0.5199772232553553 1.139971250875655
2.06889390945 0.069602712114007 0.0928482469068401 -3.1000033659309087 1.360341571246836 2.050055466436567 -0.5199772232553553 1.139971250875655
2.07871389389 0.069602712114007 0.0928482469068401 -3.1000033659309087 1.360341571246836 2.050055466436567 -0.5199772232553553 1.139971250875655
2.07871389389 0.069602712114007 0.0928482469068401 -3.1000033659309087 1.360341571246836 2.050055466436567 -0.5199772232553553 1.139971250875655
2.08847904205 0.069602712114007 0.0928482469068401 -3.1000033659309087 1.360341571246836 2.050055466436567 -0.5199772232553553 1.139971250875655
2.08847904205 0.069602712114007 0.0928482469068401 -3.1000033659309087 1.360341571246836 2.050055466436567 -0.5199772232553553 1.139971250875655
2.09862685204 0.069602712114007 0.0928482469068401 -3.1000033659309087 1.360341571246836 2.050055466436567 -0.5199772232553553 1.139971250875655
2.09862685204 0.069602712114007 0.0928482469068401 -3.1000033659309087 1.360341571246836 2.050055466436567 -0.5199772232553553 1.139971250875655
2.10848903656 0.069602712114007 0.0928482469068401 -3.1000033659309087 1.360341571246836 2.050055466436567 -0.5199772232553553 1.139971250875655
2.10848903656 0.069602712114007 0.0928482469068401 -3.1000033659309087 1.360341571246836 2.050055466436567 -0.5199772232553553 1.139971250875655
2.11845088005 0.069602712114007 0.0928482469068401 -3.1000033659309087 1.360341571246836 2.050055466436567 -0.5199772232553553 1.139971250875655
2.11845088005 0.069602712114007 0.0928482469068401 -3.1000033659309087 1.360341571246836 2.050055466436567 -0.5199772232553553 1.139971250875655
2.12876701355 0.069602712114007 0.0928482469068401 -3.1000033659309087 1.360341571246836 2.050055466436567 -0.5199772232553553 1.139971250875655
2.12876701355 0.069602712114007 0.0928482469068401 -3.1000033659309087 1.360341571246836 2.050055466436567 -0.5199772232553553 1.139971250875655
2.1387629509 0.069602712114007 0.0928482469068401 -3.1000033659309087 1.360341571246836 2.050055466436567 -0.5199772232553553 1.139971250875655
2.1387629509 0.069602712114007 0.0928482469068401 -3.1000033659309087 1.360341571246836 2.050055466436567 -0.5199772232553553 1.139971250875655
2.14852786064 0.069602712114007 0.0928482469068401 -3.1000033659309087 1.360341571246836 2.050055466436567 -0.5199772232553553 1.139971250875655
2.14852786064 0.069602712114007 0.0928482469068401 -3.1000033659309087 1.360341571246836 2.050055466436567 -0.5199772232553553 1.139971250875655
2.15858983994 0.069602712114007 0.0928482469068401 -3.1000033659309087 1.360341571246836 2.050055466436567 -0.5199772232553553 1.139971250875655
2.15858983994 0.069602712114007 0.0928482469068401 -3.1000033659309087 1.360341571246836 2.050055466436567 -0.5199772232553553 1.139971250875655
2.16873788834 0.069602712114007 0.0928482469068401 -3.1000033659309087 1.360341571246836 2.050055466436567 -0.5199772232553553 1.139971250875655
2.16873788834 0.069602712114007 0.0928482469068401 -3.1000033659309087 1.360341571246836 2.050055466436567 -0.5199772232553553 1.139971250875655
2.17865085602 0.069602712114007 0.0928482469068401 -3.1000033659309087 1.360341571246836 2.050055466436567 -0.5199772232553553 1.139971250875655
2.17865085602 0.069602712114007 0.0928482469068401 -3.1000033659309087 1.360341571246836 2.050055466436567 -0.5199772232553553 1.139971250875655
2.18852591515 0.069602712114007 0.0928482469068401 -3.1000033659309087 1.360341571246836 2.050055466436567 -0.5199772232553553 1.139971250875655
2.18852591515 0.069602712114007 0.0928482469068401 -3.1000033659309087 1.360341571246836 2.050055466436567 -0.5199772232553553 1.139971250875655
2.19873094559 0.069602712114007 0.0928482469068401 -3.1000033659309087 1.360341571246836 2.050055466436567 -0.5199772232553553 1.139971250875655
2.19873094559 0.069602712114007 0.0928482469068401 -3.1000033659309087 1.360341571246836 2.050055466436567 -0.5199772232553553 1.139971250875655
2.20878791809 0.069602712114007 0.0928482469068401 -3.1000033659309087 1.360341571246836 2.050055466436567 -0.5199772232553553 1.139971250875655
2.20878791809 0.069602712114007 0.0928482469068401 -3.1000033659309087 1.360341571246836 2.050055466436567 -0.5199772232553553 1.139971250875655
2.21861791611 0.069602712114007 0.0928482469068401 -3.1000033659309087 1.360341571246836 2.050055466436567 -0.5199772232553553 1.139971250875655
2.21861791611 0.069602712114007 0.0928482469068401 -3.1000033659309087 1.360341571246836 2.050055466436567 -0.5199772232553553 1.139971250875655
2.22876000404 0.069602712114007 0.0928482469068401 -3.1000033659309087 1.360341571246836 2.050055466436567 -0.5199772232553553 1.139971250875655
2.22876000404 0.069602712114007 0.0928482469068401 -3.1000033659309087 1.360341571246836 2.050055466436567 -0.5199772232553553 1.139971250875655
2.23883891106 0.069602712114007 0.0928482469068401 -3.1000033659309087 1.360341571246836 2.050055466436567 -0.5199772232553553 1.139971250875655
2.23883891106 0.069602712114007 0.0928482469068401 -3.1000033659309087 1.360341571246836 2.050055466436567 -0.5199772232553553 1.139971250875655
2.24848604202 0.069602712114007 0.0928482469068401 -3.1000033659309087 1.360341571246836 2.050055466436567 -0.5199726577957962 1.1399758163352145
2.24848604202 0.069602712114007 0.0928482469068401 -3.1000033659309087 1.360341571246836 2.050055466436567 -0.5199726577957962 1.1399758163352145
2.25847697258 0.069602712114007 0.0928482469068401 -3.1000033659309087 1.360341571246836 2.050055466436567 -0.5199726577957962 1.1399758163352145
2.25847697258 0.069602712114007 0.0928482469068401 -3.1000033659309087 1.360341571246836 2.050055466436567 -0.5199726577957962 1.1399758163352145
2.26864790916 0.069602712114007 0.0928482469068401 -3.1000033659309087 1.360341571246836 2.050055466436567 -0.5199726577957962 1.1399758163352145
2.26864790916 0.069602712114007 0.0928482469068401 -3.1000033659309087 1.360341571246836 2.050055466436567 -0.5199726577957962 1.1399758163352145
2.27849984169 0.069602712114007 0.0928482469068401 -3.1000033659309087 1.360341571246836 2.050055466436567 -0.5199726577957962 1.1399758163352145
2.27849984169 0.069602712114007 0.0928482469068401 -3.1000033659309087 1.360341571246836 2.050055466436567 -0.5199726577957962 1.1399758163352145
2.28845095634 0.069602712114007 0.0928482469068401 -3.1000033659309087 1.360341571246836 2.050055466436567 -0.5199726577957962 1.1399758163352145
2.28845095634 0.069602712114007 0.0928482469068401 -3.1000033659309087 1.360341571246836 2.050055466436567 -0.5199726577957962 1.1399758163352145
2.29838490486 0.069602712114007 0.0928482469068401 -3.1000033659309087 1.360341571246836 2.050055466436567 -0.5199726577957962 1.1399758163352145
2.29838490486 0.069602712114007 0.0928482469068401 -3.1000033659309087 1.360341571246836 2.050055466436567 -0.5199726577957962 1.1399758163352145
2.30847287178 0.069602712114007 0.0928482469068401 -3.1000033659309087 1.360341571246836 2.050055466436567 -0.5199726577957962 1.1399758163352145
2.30847287178 0.069602712114007 0.0928482469068401 -3.1000033659309087 1.360341571246836 2.050055466436567 -0.5199726577957962 1.1399758163352145
2.31877183914 0.069602712114007 0.0928482469068401 -3.1000033659309087 1.360341571246836 2.050055466436567 -0.5199726577957962 1.1399758163352145
2.31877183914 0.069602712114007 0.0928482469068401 -3.1000033659309087 1.360341571246836 2.050055466436567 -0.5199726577957962 1.1399758163352145
2.32944893837 0.069602712114007 0.0928482469068401 -3.1000033659309087 1.3603569112581877 2.050055466436567 -0.5199726577957962 1.1399758163352145
2.32944893837 0.069602712114007 0.0928482469068401 -3.1000033659309087 1.3603569112581877 2.050055466436567 -0.5199726577957962 1.1399758163352145
2.33860087395 0.069602712114007 0.0928482469068401 -3.1000033659309087 1.3603569112581877 2.050055466436567 -0.5199726577957962 1.1399758163352145
2.33860087395 0.069602712114007 0.0928482469068401 -3.1000033659309087 1.3603569112581877 2.050055466436567 -0.5199726577957962 1.1399758163352145
2.34851193428 0.069602712114007 0.0928482469068401 -3.1000033659309087 1.3603569112581877 2.050055466436567 -0.5199726577957962 1.1399758163352145
2.34851193428 0.069602712114007 0.0928482469068401 -3.1000033659309087 1.3603569112581877 2.050055466436567 -0.5199726577957962 1.1399758163352145
2.35856699944 0.0695413520686005 0.0928482469068401 -3.1000033659309087 1.3604182713035942 2.050055466436567 -0.5199726577957962 1.1399758163352145
2.35856699944 0.0695413520686005 0.0928482469068401 -3.1000033659309087 1.3604182713035942 2.050055466436567 -0.5199726577957962 1.1399758163352145
2.36854791641 0.0695413520686005 0.0928482469068401 -3.1000033659309087 1.3604182713035942 2.050055466436567 -0.5199726577957962 1.1399758163352145
2.36854791641 0.0695413520686005 0.0928482469068401 -3.1000033659309087 1.3604182713035942 2.050055466436567 -0.5199726577957962 1.1399758163352145
2.37872099876 0.0695413520686005 0.0928482469068401 -3.1000033659309087 1.3604182713035942 2.050055466436567 -0.5199726577957962 1.1399758163352145
2.37872099876 0.0695413520686005 0.0928482469068401 -3.1000033659309087 1.3604182713035942 2.050055466436567 -0.5199726577957962 1.1399758163352145
2.38842988014 0.0695106720458973 0.0928482469068401 -3.10001870594226 1.3608631316327908 2.050055466436567 -0.5199726577957962 1.1399758163352145
2.38842988014 0.0695106720458973 0.0928482469068401 -3.10001870594226 1.3608631316327908 2.050055466436567 -0.5199726577957962 1.1399758163352145
2.39837288857 0.0695106720458973 0.0928482469068401 -3.10001870594226 1.3608631316327908 2.050055466436567 -0.5199726577957962 1.1399758163352145
2.39837288857 0.0695106720458973 0.0928482469068401 -3.10001870594226 1.3608631316327908 2.050055466436567 -0.5199726577957962 1.1399758163352145
2.40864896774 0.0695106720458973 0.0928482469068401 -3.10001870594226 1.3608631316327908 2.050055466436567 -0.5199726577957962 1.1399758163352145
2.40864896774 0.0695106720458973 0.0928482469068401 -3.10001870594226 1.3608631316327908 2.050055466436567 -0.5199726577957962 1.1399758163352145
2.4185988903 0.0699248523523907 0.0928482469068401 -3.096536523365445 1.3608631316327908 2.050055466436567 -0.5199726577957962 1.1399758163352145
2.4185988903 0.0699248523523907 0.0928482469068401 -3.096536523365445 1.3608631316327908 2.050055466436567 -0.5199726577957962 1.1399758163352145
2.42861580849 0.0699248523523907 0.0928482469068401 -3.096536523365445 1.3608631316327908 2.050055466436567 -0.5199726577957962 1.1399758163352145
2.42861580849 0.0699248523523907 0.0928482469068401 -3.096536523365445 1.3608631316327908 2.050055466436567 -0.5199726577957962 1.1399758163352145
2.43873500824 0.0699248523523907 0.0928482469068401 -3.096536523365445 1.3608631316327908 2.050055466436567 -0.5199726577957962 1.1399758163352145
2.43873500824 0.0699248523523907 0.0928482469068401 -3.096536523365445 1.3608631316327908 2.050055466436567 -0.5199726577957962 1.1399758163352145
2.44891285896 0.0699248523523907 0.0928482469068401 -3.096536523365445 1.3608631316327908 2.050055466436567 -0.5199726577957962 1.1399758163352145
2.44891285896 0.0699248523523907 0.0928482469068401 -3.096536523365445 1.3608631316327908 2.050055466436567 -0.5199726577957962 1.1399758163352145
2.45865797997 0.1089345012195308 0.0928482469068401 -2.6880320210721136 1.3608631316327908 2.050055466436567 -0.5199726577957962 1.1399758163352145
2.45865797997 0.1089345012195308 0.0928482469068401 -2.6880320210721136 1.3608631316327908 2.050055466436567 -0.5199726577957962 1.1399758163352145
2.4685280323 0.1089345012195308 0.0928482469068401 -2.6880320210721136 1.3608631316327908 2.050055466436567 -0.5199726577957962 1.1399758163352145
2.4685280323 0.1089345012195308 0.0928482469068401 -2.6880320210721136 1.3608631316327908 2.050055466436567 -0.5199726577957962 1.1399758163352145
2.47873497009 0.1144569053061099 0.0928482469068401 -2.654283996098575 1.3608631316327908 2.050055466436567 -0.5199726577957962 1.1399758163352145
2.47873497009 0.1144569053061099 0.0928482469068401 -2.654283996098575 1.3608631316327908 2.050055466436567 -0.5199726577957962 1.1399758163352145
2.48874592781 0.1144569053061099 0.0928482469068401 -2.654283996098575 1.3608631316327908 2.050055466436567 -0.5199726577957962 1.1399758163352145
2.48874592781 0.1144569053061099 0.0928482469068401 -2.654283996098575 1.3608631316327908 2.050055466436567 -0.5199726577957962 1.1399758163352145
2.49847888947 0.1208843700624337 0.0928482469068401 -2.598185574585743 1.3608631316327908 2.050055466436567 -0.5199726577957962 1.1399758163352145
2.49847888947 0.1208843700624337 0.0928482469068401 -2.598185574585743 1.3608631316327908 2.050055466436567 -0.5199726577957962 1.1399758163352145
2.50842499733 0.1210377701759499 0.0928482469068401 -2.59023944870561 1.3608631316327908 2.050055466436567 -0.5199726577957962 1.1399758163352145
2.50842499733 0.1210377701759499 0.0928482469068401 -2.59023944870561 1.3608631316327908 2.050055466436567 -0.5199726577957962 1.1399758163352145
2.51860499382 0.1210377701759499 0.0928482469068401 -2.59023944870561 1.3608631316327908 2.050055466436567 -0.5199726577957962 1.1399758163352145
2.51860499382 0.1210377701759499 0.0928482469068401 -2.59023944870561 1.3608631316327908 2.050055466436567 -0.5199726577957962 1.1399758163352145
2.52884888649 0.121191170289466 0.0928482469068401 -2.582017202621148 1.3608631316327908 2.050055466436567 -0.5199726577957962 1.1399758163352145
2.52884888649 0.121191170289466 0.0928482469068401 -2.582017202621148 1.3608631316327908 2.050055466436567 -0.5199726577957962 1.1399758163352145
2.53871488571 0.121191170289466 0.0928482469068401 -2.582017202621148 1.3608631316327908 2.050055466436567 -0.5199726577957962 1.1399758163352145
2.53871488571 0.121191170289466 0.0928482469068401 -2.582017202621148 1.3608631316327908 2.050055466436567 -0.5199726577957962 1.1399758163352145
2.54867887497 0.121191170289466 0.0928482469068401 -2.582017202621148 1.3608631316327908 2.050055466436567 -0.5199726577957962 1.1399758163352145
2.54867887497 0.121191170289466 0.0928482469068401 -2.582017202621148 1.3608631316327908 2.050055466436567 -0.5199726577957962 1.1399758163352145
2.55874085426 0.121191170289466 0.0928482469068401 -2.582017202621148 1.3608631316327908 2.050055466436567 -0.5199726577957962 1.1399758163352145
2.55874085426 0.121191170289466 0.0928482469068401 -2.582017202621148 1.3608631316327908 2.050055466436567 -0.5199726577957962 1.1399758163352145
2.56862187386 0.1212065103008177 0.0928482469068401 -2.5737642765139825 1.3608631316327908 2.050046335517449 -0.5199726577957962 1.1399758163352145
2.56862187386 0.1212065103008177 0.0928482469068401 -2.5737642765139825 1.3608631316327908 2.050046335517449 -0.5199726577957962 1.1399758163352145
2.57863998413 0.1212065103008177 0.0928482469068401 -2.5737642765139825 1.3608631316327908 2.050046335517449 -0.5199726577957962 1.1399758163352145
2.57863998413 0.1212065103008177 0.0928482469068401 -2.5737642765139825 1.3608631316327908 2.050046335517449 -0.5199726577957962 1.1399758163352145
2.58867692947 0.1212218503121691 0.0928482469068401 -2.565373290304653 1.3608631316327908 2.050055466436567 -0.5199726577957962 1.1399758163352145
2.58867692947 0.1212218503121691 0.0928482469068401 -2.565373290304653 1.3608631316327908 2.050055466436567 -0.5199726577957962 1.1399758163352145
2.59873986244 0.1212218503121691 0.0928482469068401 -2.565373290304653 1.3608631316327908 2.050055466436567 -0.5199726577957962 1.1399758163352145
2.59873986244 0.1212218503121691 0.0928482469068401 -2.565373290304653 1.3608631316327908 2.050055466436567 -0.5199726577957962 1.1399758163352145
2.60854482651 0.1212218503121691 0.0928482469068401 -2.5486219979086964 1.3608631316327908 2.050055466436567 -0.5199726577957962 1.1399758163352145
2.60854482651 0.1212218503121691 0.0928482469068401 -2.5486219979086964 1.3608631316327908 2.050055466436567 -0.5199726577957962 1.1399758163352145
2.61887693405 0.1212218503121691 0.0928482469068401 -2.5486219979086964 1.3608631316327908 2.050055466436567 -0.5199726577957962 1.1399758163352145
2.61887693405 0.1212218503121691 0.0928482469068401 -2.5486219979086964 1.3608631316327908 2.050055466436567 -0.5199726577957962 1.1399758163352145
2.62881183624 0.1212218503121691 0.0928482469068401 -2.5486219979086964 1.3608631316327908 2.050055466436567 -0.5199726577957962 1.1399758163352145
2.62881183624 0.1212218503121691 0.0928482469068401 -2.5486219979086964 1.3608631316327908 2.050055466436567 -0.5199726577957962 1.1399758163352145
2.63866496086 0.1212218503121691 0.0928482469068401 -2.540016251540444 1.3608631316327908 2.050055466436567 -0.5199726577957962 1.1399758163352145
2.63866496086 0.1212218503121691 0.0928482469068401 -2.540016251540444 1.3608631316327908 2.050055466436567 -0.5199726577957962 1.1399758163352145
2.64881587029 0.1212218503121691 0.0928482469068401 -2.540016251540444 1.3608631316327908 2.050055466436567 -0.5199726577957962 1.1399758163352145
2.64881587029 0.1212218503121691 0.0928482469068401 -2.540016251540444 1.3608631316327908 2.050055466436567 -0.5199726577957962 1.1399758163352145
2.65909981728 0.1212218503121691 0.0928482469068401 -2.5316559453538177 1.3608631316327908 2.050055466436567 -0.5199726577957962 1.1399758163352145
2.65909981728 0.1212218503121691 0.0928482469068401 -2.5316559453538177 1.3608631316327908 2.050055466436567 -0.5199726577957962 1.1399758163352145
2.66853094101 0.1212218503121691 0.0928482469068401 -2.523264959144488 1.3608631316327908 2.050055466436567 -0.5199726577957962 1.1399758163352145
2.66853094101 0.1212218503121691 0.0928482469068401 -2.523264959144488 1.3608631316327908 2.050055466436567 -0.5199726577957962 1.1399758163352145
2.67869186401 0.1212218503121691 0.0928482469068401 -2.523264959144488 1.3608631316327908 2.050055466436567 -0.5199726577957962 1.1399758163352145
2.67869186401 0.1212218503121691 0.0928482469068401 -2.523264959144488 1.3608631316327908 2.050055466436567 -0.5199726577957962 1.1399758163352145
2.68863797188 0.1212218503121691 0.0928482469068401 -2.5148893129465097 1.3608631316327908 2.050055466436567 -0.5199772232553553 1.139971250875655
2.68863797188 0.1212218503121691 0.0928482469068401 -2.5148893129465097 1.3608631316327908 2.050055466436567 -0.5199772232553553 1.139971250875655
2.69859695435 0.1212218503121691 0.0928482469068401 -2.5148893129465097 1.3608631316327908 2.050055466436567 -0.5199772232553553 1.139971250875655
2.69859695435 0.1212218503121691 0.0928482469068401 -2.5148893129465097 1.3608631316327908 2.050055466436567 -0.5199772232553553 1.139971250875655
2.7085518837 0.1212218503121691 0.0928482469068401 -2.5064829867258283 1.3608631316327908 2.050055466436567 -0.5199726577957962 1.1399758163352145
2.7085518837 0.1212218503121691 0.0928482469068401 -2.5064829867258283 1.3608631316327908 2.050055466436567 -0.5199726577957962 1.1399758163352145
2.71854090691 0.1212218503121691 0.0928482469068401 -2.5064829867258283 1.3608631316327908 2.050055466436567 -0.5199726577957962 1.1399758163352145
2.71854090691 0.1212218503121691 0.0928482469068401 -2.5064829867258283 1.3608631316327908 2.050055466436567 -0.5199726577957962 1.1399758163352145
2.72853183746 0.1212218503121691 0.0928482469068401 -2.498184040584608 1.3608631316327908 2.050055466436567 -0.5199726577957962 1.1399758163352145
2.72853183746 0.1212218503121691 0.0928482469068401 -2.498184040584608 1.3608631316327908 2.050055466436567 -0.5199726577957962 1.1399758163352145
2.73867893219 0.1212218503121691 0.0928482469068401 -2.498184040584608 1.3608631316327908 2.050055466436567 -0.5199726577957962 1.1399758163352145
2.73867893219 0.1212218503121691 0.0928482469068401 -2.498184040584608 1.3608631316327908 2.050055466436567 -0.5199726577957962 1.1399758163352145
2.74871587753 0.1212218503121691 0.0928482469068401 -2.498184040584608 1.3608631316327908 2.050055466436567 -0.5199726577957962 1.1399758163352145
2.74871587753 0.1212218503121691 0.0928482469068401 -2.498184040584608 1.3608631316327908 2.050055466436567 -0.5199726577957962 1.1399758163352145
2.75880694389 0.1212218503121691 0.0928482469068401 -2.498184040584608 1.3608631316327908 2.050055466436567 -0.5199726577957962 1.1399758163352145
2.75880694389 0.1212218503121691 0.0928482469068401 -2.498184040584608 1.3608631316327908 2.050055466436567 -0.5199726577957962 1.1399758163352145
2.76858592033 0.1212218503121691 0.0928482469068401 -2.4810185678821584 1.3608631316327908 2.050055466436567 -0.5199726577957962 1.1399758163352145
2.76858592033 0.1212218503121691 0.0928482469068401 -2.4810185678821584 1.3608631316327908 2.050055466436567 -0.5199726577957962 1.1399758163352145
2.77881097794 0.1212218503121691 0.0928482469068401 -2.4810185678821584 1.3608631316327908 2.050055466436567 -0.5199726577957962 1.1399758163352145
2.77881097794 0.1212218503121691 0.0928482469068401 -2.4810185678821584 1.3608631316327908 2.050055466436567 -0.5199726577957962 1.1399758163352145
2.78882002831 0.1212218503121691 0.0928482469068401 -2.4716918409803803 1.3608631316327908 2.050055466436567 -0.5199726577957962 1.1399758163352145
2.78882002831 0.1212218503121691 0.0928482469068401 -2.4716918409803803 1.3608631316327908 2.050055466436567 -0.5199726577957962 1.1399758163352145
2.79870796204 0.1212218503121691 0.0928482469068401 -2.4716918409803803 1.3608631316327908 2.050055466436567 -0.5199726577957962 1.1399758163352145
2.79870796204 0.1212218503121691 0.0928482469068401 -2.4716918409803803 1.3608631316327908 2.050055466436567 -0.5199726577957962 1.1399758163352145
2.80862903595 0.1212218503121691 0.0928482469068401 -2.4716918409803803 1.3608631316327908 2.050055466436567 -0.5199726577957962 1.1399758163352145
2.80862903595 0.1212218503121691 0.0928482469068401 -2.4716918409803803 1.3608631316327908 2.050055466436567 -0.5199726577957962 1.1399758163352145
2.81869888306 0.1212218503121691 0.0928482469068401 -2.463162794668886 1.3608631316327908 2.050055466436567 -0.5199726577957962 1.1399758163352145
2.81869888306 0.1212218503121691 0.0928482469068401 -2.463162794668886 1.3608631316327908 2.050055466436567 -0.5199726577957962 1.1399758163352145
2.82865786552 0.1212218503121691 0.0928482469068401 -2.4541735480168434 1.3608631316327908 2.050055466436567 -0.5199726577957962 1.1399758163352145
2.82865786552 0.1212218503121691 0.0928482469068401 -2.4541735480168434 1.3608631316327908 2.050055466436567 -0.5199726577957962 1.1399758163352145
2.83864188194 0.1212218503121691 0.0928482469068401 -2.4541735480168434 1.3608631316327908 2.050055466436567 -0.5199726577957962 1.1399758163352145
2.83864188194 0.1212218503121691 0.0928482469068401 -2.4541735480168434 1.3608631316327908 2.050055466436567 -0.5199726577957962 1.1399758163352145
2.84855484962 0.1212218503121691 0.0928482469068401 -2.4541735480168434 1.3608631316327908 2.050055466436567 -0.5199726577957962 1.1399758163352145
2.84855484962 0.1212218503121691 0.0928482469068401 -2.4541735480168434 1.3608631316327908 2.050055466436567 -0.5199726577957962 1.1399758163352145
2.8585729599 0.1212218503121691 0.0928482469068401 -2.445261001421559 1.3608631316327908 2.050055466436567 -0.5199726577957962 1.1399758163352145
2.8585729599 0.1212218503121691 0.0928482469068401 -2.445261001421559 1.3608631316327908 2.050055466436567 -0.5199726577957962 1.1399758163352145
2.86851382256 0.1212218503121691 0.0928482469068401 -2.445261001421559 1.3608631316327908 2.050055466436567 -0.5199726577957962 1.1399758163352145
2.86851382256 0.1212218503121691 0.0928482469068401 -2.445261001421559 1.3608631316327908 2.050055466436567 -0.5199726577957962 1.1399758163352145
2.87857484818 0.1212218503121691 0.0928482469068401 -2.445261001421559 1.3608631316327908 2.050055466436567 -0.5199726577957962 1.1399758163352145
2.87857484818 0.1212218503121691 0.0928482469068401 -2.445261001421559 1.3608631316327908 2.050055466436567 -0.5199726577957962 1.1399758163352145
2.88844799995 0.1212218503121691 0.0928482469068401 -2.4365018549397908 1.3608631316327908 2.050055466436567 -0.5199726577957962 1.1399758163352145
2.88844799995 0.1212218503121691 0.0928482469068401 -2.4365018549397908 1.3608631316327908 2.050055466436567 -0.5199726577957962 1.1399758163352145
2.89855194092 0.1212218503121691 0.0928482469068401 -2.4365018549397908 1.3608631316327908 2.050055466436567 -0.5199726577957962 1.1399758163352145
2.89855194092 0.1212218503121691 0.0928482469068401 -2.4365018549397908 1.3608631316327908 2.050055466436567 -0.5199726577957962 1.1399758163352145
2.90845990181 0.1212218503121691 0.0928482469068401 -2.4274972682763964 1.3608631316327908 2.050055466436567 -0.5199726577957962 1.1399758163352145
2.90845990181 0.1212218503121691 0.0928482469068401 -2.4274972682763964 1.3608631316327908 2.050055466436567 -0.5199726577957962 1.1399758163352145
2.91846895218 0.1212218503121691 0.0928482469068401 -2.4182012213973216 1.3608631316327908 2.050055466436567 -0.5199726577957962 1.1399758163352145
2.91846895218 0.1212218503121691 0.0928482469068401 -2.4182012213973216 1.3608631316327908 2.050055466436567 -0.5199726577957962 1.1399758163352145
2.92848587036 0.1212218503121691 0.0928482469068401 -2.4088131344501376 1.3608631316327908 2.050055466436567 -0.5199726577957962 1.1399758163352145
2.92848587036 0.1212218503121691 0.0928482469068401 -2.4088131344501376 1.3608631316327908 2.050055466436567 -0.5199726577957962 1.1399758163352145
2.9385509491 0.1212218503121691 0.0928482469068401 -2.4088131344501376 1.3608631316327908 2.050055466436567 -0.5199726577957962 1.1399758163352145
2.9385509491 0.1212218503121691 0.0928482469068401 -2.4088131344501376 1.3608631316327908 2.050055466436567 -0.5199726577957962 1.1399758163352145
2.94846701622 0.1212218503121691 0.0928482469068401 -2.399639807661876 1.3608631316327908 2.050055466436567 -0.5199726577957962 1.1399758163352145
2.94846701622 0.1212218503121691 0.0928482469068401 -2.399639807661876 1.3608631316327908 2.050055466436567 -0.5199726577957962 1.1399758163352145
2.95844483376 0.1212218503121691 0.0928482469068401 -2.399639807661876 1.3608631316327908 2.050055466436567 -0.5199726577957962 1.1399758163352145
2.95844483376 0.1212218503121691 0.0928482469068401 -2.399639807661876 1.3608631316327908 2.050055466436567 -0.5199726577957962 1.1399758163352145
2.96842885017 0.1212218503121691 0.0928482469068401 -2.390082980589824 1.3608631316327908 2.050055466436567 -0.5199726577957962 1.1399758163352145
2.96842885017 0.1212218503121691 0.0928482469068401 -2.390082980589824 1.3608631316327908 2.050055466436567 -0.5199726577957962 1.1399758163352145
2.97849392891 0.1212218503121691 0.0928482469068401 -2.390082980589824 1.3608631316327908 2.050055466436567 -0.5199726577957962 1.1399758163352145
2.97849392891 0.1212218503121691 0.0928482469068401 -2.390082980589824 1.3608631316327908 2.050055466436567 -0.5199726577957962 1.1399758163352145
2.98839592934 0.1212218503121691 0.0928482469068401 -2.3806488736085845 1.3608631316327908 2.050055466436567 -0.5199726577957962 1.1399758163352145
2.98839592934 0.1212218503121691 0.0928482469068401 -2.3806488736085845 1.3608631316327908 2.050055466436567 -0.5199726577957962 1.1399758163352145
2.99855995178 0.1212218503121691 0.0928482469068401 -2.3806488736085845 1.3608631316327908 2.050055466436567 -0.5199726577957962 1.1399758163352145
2.99855995178 0.1212218503121691 0.0928482469068401 -2.3806488736085845 1.3608631316327908 2.050055466436567 -0.5199726577957962 1.1399758163352145
3.00845599174 0.1212218503121691 0.0928482469068401 -2.371460206808971 1.3608631316327908 2.050055466436567 -0.5199726577957962 1.1399758163352145
3.00845599174 0.1212218503121691 0.0928482469068401 -2.371460206808971 1.3608631316327908 2.050055466436567 -0.5199726577957962 1.1399758163352145
3.01856803894 0.1212218503121691 0.0928482469068401 -2.371460206808971 1.3608631316327908 2.050055466436567 -0.5199726577957962 1.1399758163352145
3.01856803894 0.1212218503121691 0.0928482469068401 -2.371460206808971 1.3608631316327908 2.050055466436567 -0.5199726577957962 1.1399758163352145
3.02852082253 0.1212218503121691 0.0928482469068401 -2.362179499941248 1.3608631316327908 2.050055466436567 -0.5199726577957962 1.1399758163352145
3.02852082253 0.1212218503121691 0.0928482469068401 -2.362179499941248 1.3608631316327908 2.050055466436567 -0.5199726577957962 1.1399758163352145
3.0384478569 0.1212218503121691 0.0928482469068401 -2.362179499941248 1.3608631316327908 2.050055466436567 -0.5199726577957962 1.1399758163352145
3.0384478569 0.1212218503121691 0.0928482469068401 -2.362179499941248 1.3608631316327908 2.050055466436567 -0.5199726577957962 1.1399758163352145
3.04844093323 0.1212218503121691 0.0928482469068401 -2.3525306328010864 1.3608631316327908 2.050055466436567 -0.5199726577957962 1.1399758163352145
3.04844093323 0.1212218503121691 0.0928482469068401 -2.3525306328010864 1.3608631316327908 2.050055466436567 -0.5199726577957962 1.1399758163352145
3.05847287178 0.1212218503121691 0.0928482469068401 -2.3525306328010864 1.3608631316327908 2.050055466436567 -0.5199726577957962 1.1399758163352145
3.05847287178 0.1212218503121691 0.0928482469068401 -2.3525306328010864 1.3608631316327908 2.050055466436567 -0.5199726577957962 1.1399758163352145
3.06843090057 0.1212218503121691 0.0928482469068401 -2.3525306328010864 1.3608631316327908 2.050055466436567 -0.5199726577957962 1.1399758163352145
3.06843090057 0.1212218503121691 0.0928482469068401 -2.3525306328010864 1.3608631316327908 2.050055466436567 -0.5199726577957962 1.1399758163352145
3.07840585709 0.1212218503121691 0.0928482469068401 -2.3525306328010864 1.3608631316327908 2.050055466436567 -0.5199726577957962 1.1399758163352145
3.07840585709 0.1212218503121691 0.0928482469068401 -2.3525306328010864 1.3608631316327908 2.050055466436567 -0.5199726577957962 1.1399758163352145
3.08840203285 0.1212218503121691 0.0928482469068401 -2.34292778569498 1.3608631316327908 2.050055466436567 -0.5199726577957962 1.1399758163352145
3.08840203285 0.1212218503121691 0.0928482469068401 -2.34292778569498 1.3608631316327908 2.050055466436567 -0.5199726577957962 1.1399758163352145
3.09849190712 0.1212218503121691 0.0928482469068401 -2.333509018725092 1.3608631316327908 2.050055466436567 -0.5199726577957962 1.1399758163352145
3.09849190712 0.1212218503121691 0.0928482469068401 -2.333509018725092 1.3608631316327908 2.050055466436567 -0.5199726577957962 1.1399758163352145
3.10852885246 0.1212218503121691 0.0928482469068401 -2.324212971846017 1.3608631316327908 2.050055466436567 -0.5199726577957962 1.1399758163352145
3.10852885246 0.1212218503121691 0.0928482469068401 -2.324212971846017 1.3608631316327908 2.050055466436567 -0.5199726577957962 1.1399758163352145
3.11847186089 0.1212218503121691 0.0928482469068401 -2.324212971846017 1.3608631316327908 2.050055466436567 -0.5199726577957962 1.1399758163352145
3.11847186089 0.1212218503121691 0.0928482469068401 -2.324212971846017 1.3608631316327908 2.050055466436567 -0.5199726577957962 1.1399758163352145
3.1285879612 0.1212218503121691 0.0928482469068401 -2.31508566509181 1.3608631316327908 2.050055466436567 -0.5199726577957962 1.1399758163352145
3.1285879612 0.1212218503121691 0.0928482469068401 -2.31508566509181 1.3608631316327908 2.050055466436567 -0.5199726577957962 1.1399758163352145
3.13841581345 0.1212218503121691 0.0928482469068401 -2.31508566509181 1.3608631316327908 2.050055466436567 -0.5199726577957962 1.1399758163352145
3.13841581345 0.1212218503121691 0.0928482469068401 -2.31508566509181 1.3608631316327908 2.050055466436567 -0.5199726577957962 1.1399758163352145
3.14860987663 0.1212218503121691 0.0928482469068401 -2.3061270984624707 1.3608631316327908 2.050055466436567 -0.5199726577957962 1.1399758163352145
3.14860987663 0.1212218503121691 0.0928482469068401 -2.3061270984624707 1.3608631316327908 2.050055466436567 -0.5199726577957962 1.1399758163352145
3.15849590302 0.1212218503121691 0.0928482469068401 -2.3061270984624707 1.3608631316327908 2.050055466436567 -0.5199726577957962 1.1399758163352145
3.15849590302 0.1212218503121691 0.0928482469068401 -2.3061270984624707 1.3608631316327908 2.050055466436567 -0.5199726577957962 1.1399758163352145
3.1684319973 0.1212218503121691 0.0928482469068401 -2.2968924116288028 1.3608631316327908 2.050055466436567 -0.5199772232553553 1.139971250875655
3.1684319973 0.1212218503121691 0.0928482469068401 -2.2968924116288028 1.3608631316327908 2.050055466436567 -0.5199772232553553 1.139971250875655
3.17853403091 0.1212218503121691 0.0928482469068401 -2.2968924116288028 1.3608631316327908 2.050055466436567 -0.5199772232553553 1.139971250875655
3.17853403091 0.1212218503121691 0.0928482469068401 -2.2968924116288028 1.3608631316327908 2.050055466436567 -0.5199772232553553 1.139971250875655
3.1884958744 0.1212218503121691 0.0928482469068401 -2.2968924116288028 1.3608631316327908 2.050055466436567 -0.5199772232553553 1.139971250875655
3.1884958744 0.1212218503121691 0.0928482469068401 -2.2968924116288028 1.3608631316327908 2.050055466436567 -0.5199772232553553 1.139971250875655
3.1985180378 0.1212218503121691 0.0928482469068401 -2.287473644658915 1.3608631316327908 2.050055466436567 -0.5199726577957962 1.1399758163352145
3.1985180378 0.1212218503121691 0.0928482469068401 -2.287473644658915 1.3608631316327908 2.050055466436567 -0.5199726577957962 1.1399758163352145
3.20844483376 0.1212218503121691 0.0928482469068401 -2.287473644658915 1.3608631316327908 2.050055466436567 -0.5199726577957962 1.1399758163352145
3.20844483376 0.1212218503121691 0.0928482469068401 -2.287473644658915 1.3608631316327908 2.050055466436567 -0.5199726577957962 1.1399758163352145
3.21847295761 0.1212218503121691 0.0928482469068401 -2.2783309978933564 1.3608631316327908 2.050055466436567 -0.5199726577957962 1.1399758163352145
3.21847295761 0.1212218503121691 0.0928482469068401 -2.2783309978933564 1.3608631316327908 2.050055466436567 -0.5199726577957962 1.1399758163352145
3.22847294807 0.1212218503121691 0.0928482469068401 -2.2783309978933564 1.3608631316327908 2.050055466436567 -0.5199726577957962 1.1399758163352145
3.22847294807 0.1212218503121691 0.0928482469068401 -2.2783309978933564 1.3608631316327908 2.050055466436567 -0.5199726577957962 1.1399758163352145
3.23846101761 0.1212218503121691 0.0928482469068401 -2.2692957312072592 1.3608631316327908 2.050055466436567 -0.5199726577957962 1.1399758163352145
3.23846101761 0.1212218503121691 0.0928482469068401 -2.2692957312072592 1.3608631316327908 2.050055466436567 -0.5199726577957962 1.1399758163352145
3.24838089943 0.1212218503121691 0.0928482469068401 -2.2692957312072592 1.3608631316327908 2.050055466436567 -0.5199726577957962 1.1399758163352145
3.24838089943 0.1212218503121691 0.0928482469068401 -2.2692957312072592 1.3608631316327908 2.050055466436567 -0.5199726577957962 1.1399758163352145
3.2585299015 0.1212218503121691 0.0928482469068401 -2.2604292046460293 1.3608631316327908 2.050055466436567 -0.5199726577957962 1.1399758163352145
3.2585299015 0.1212218503121691 0.0928482469068401 -2.2604292046460293 1.3608631316327908 2.050055466436567 -0.5199726577957962 1.1399758163352145
3.26845502853 0.1212218503121691 0.0928482469068401 -2.2604292046460293 1.3608631316327908 2.050055466436567 -0.5199726577957962 1.1399758163352145
3.26845502853 0.1212218503121691 0.0928482469068401 -2.2604292046460293 1.3608631316327908 2.050055466436567 -0.5199726577957962 1.1399758163352145
3.27850484848 0.1212218503121691 0.0928482469068401 -2.2514399579939868 1.3608631316327908 2.050055466436567 -0.5199726577957962 1.1399758163352145
3.27850484848 0.1212218503121691 0.0928482469068401 -2.2514399579939868 1.3608631316327908 2.050055466436567 -0.5199726577957962 1.1399758163352145
3.2884979248 0.1212218503121691 0.0928482469068401 -2.242803531603032 1.3608631316327908 2.050055466436567 -0.5199726577957962 1.1399758163352145
3.2884979248 0.1212218503121691 0.0928482469068401 -2.242803531603032 1.3608631316327908 2.050055466436567 -0.5199726577957962 1.1399758163352145
3.29847884178 0.1212218503121691 0.0928482469068401 -2.242803531603032 1.3608631316327908 2.050055466436567 -0.5199726577957962 1.1399758163352145
3.29847884178 0.1212218503121691 0.0928482469068401 -2.242803531603032 1.3608631316327908 2.050055466436567 -0.5199726577957962 1.1399758163352145
3.30845594406 0.1212218503121691 0.0928482469068401 -2.2338756449963952 1.3608631316327908 2.050055466436567 -0.5199726577957962 1.1399758163352145
3.30845594406 0.1212218503121691 0.0928482469068401 -2.2338756449963952 1.3608631316327908 2.050055466436567 -0.5199726577957962 1.1399758163352145
3.3185069561 0.1212218503121691 0.0928482469068401 -2.2338756449963952 1.3608631316327908 2.050055466436567 -0.5199726577957962 1.1399758163352145
3.3185069561 0.1212218503121691 0.0928482469068401 -2.2338756449963952 1.3608631316327908 2.050055466436567 -0.5199726577957962 1.1399758163352145
3.32844090462 0.1212218503121691 0.0928482469068401 -2.224779018264892 1.3608631316327908 2.050055466436567 -0.5199726577957962 1.1399758163352145
3.32844090462 0.1212218503121691 0.0928482469068401 -2.224779018264892 1.3608631316327908 2.050055466436567 -0.5199726577957962 1.1399758163352145
3.33854699135 0.1212218503121691 0.0928482469068401 -2.224779018264892 1.3608631316327908 2.050055466436567 -0.5199726577957962 1.1399758163352145
3.33854699135 0.1212218503121691 0.0928482469068401 -2.224779018264892 1.3608631316327908 2.050055466436567 -0.5199726577957962 1.1399758163352145
3.34842801094 0.1212218503121691 0.0928482469068401 -2.224779018264892 1.3608631316327908 2.050055466436567 -0.5199726577957962 1.1399758163352145
3.34842801094 0.1212218503121691 0.0928482469068401 -2.224779018264892 1.3608631316327908 2.050055466436567 -0.5199726577957962 1.1399758163352145
3.3585100174 0.1212218503121691 0.0928482469068401 -2.2160505518058264 1.3608631316327908 2.050055466436567 -0.5199726577957962 1.1399758163352145
3.3585100174 0.1212218503121691 0.0928482469068401 -2.2160505518058264 1.3608631316327908 2.050055466436567 -0.5199726577957962 1.1399758163352145
3.36846995354 0.1212218503121691 0.0928482469068401 -2.2075368455056834 1.3608631316327908 2.050055466436567 -0.5199726577957962 1.1399758163352145
3.36846995354 0.1212218503121691 0.0928482469068401 -2.2075368455056834 1.3608631316327908 2.050055466436567 -0.5199726577957962 1.1399758163352145
3.37845897675 0.1212218503121691 0.0928482469068401 -2.2075368455056834 1.3608631316327908 2.050055466436567 -0.5199726577957962 1.1399758163352145
3.37845897675 0.1212218503121691 0.0928482469068401 -2.2075368455056834 1.3608631316327908 2.050055466436567 -0.5199726577957962 1.1399758163352145
3.3884370327 0.1212065103008177 0.0928482469068401 -2.198793039035267 1.3608631316327908 2.050055466436567 -0.5199726577957962 1.1399758163352145
3.3884370327 0.1212065103008177 0.0928482469068401 -2.198793039035267 1.3608631316327908 2.050055466436567 -0.5199726577957962 1.1399758163352145
3.39846682549 0.1212065103008177 0.0928482469068401 -2.198793039035267 1.3608631316327908 2.050055466436567 -0.5199726577957962 1.1399758163352145
3.39846682549 0.1212065103008177 0.0928482469068401 -2.198793039035267 1.3608631316327908 2.050055466436567 -0.5199726577957962 1.1399758163352145
3.40846085548 0.1212065103008177 0.0928482469068401 -2.190125932621608 1.3608631316327908 2.050055466436567 -0.5199726577957962 1.1399758163352145
3.40846085548 0.1212065103008177 0.0928482469068401 -2.190125932621608 1.3608631316327908 2.050055466436567 -0.5199726577957962 1.1399758163352145
3.41851902008 0.1212065103008177 0.0928482469068401 -2.190125932621608 1.3608631316327908 2.050055466436567 -0.5199726577957962 1.1399758163352145
3.41851902008 0.1212065103008177 0.0928482469068401 -2.190125932621608 1.3608631316327908 2.050055466436567 -0.5199726577957962 1.1399758163352145
3.42840981483 0.1212065103008177 0.0928482469068401 -2.1817656264349816 1.3608631316327908 2.050055466436567 -0.5199726577957962 1.1399758163352145
3.42840981483 0.1212065103008177 0.0928482469068401 -2.1817656264349816 1.3608631316327908 2.050055466436567 -0.5199726577957962 1.1399758163352145
3.43847990036 0.1212065103008177 0.0928482469068401 -2.1817656264349816 1.3608631316327908 2.050055466436567 -0.5199726577957962 1.1399758163352145
3.43847990036 0.1212065103008177 0.0928482469068401 -2.1817656264349816 1.3608631316327908 2.050055466436567 -0.5199726577957962 1.1399758163352145
3.44856095314 0.1212065103008177 0.0928482469068401 -2.173144540055377 1.3608631316327908 2.050055466436567 -0.5199726577957962 1.1399758163352145
3.44856095314 0.1212065103008177 0.0928482469068401 -2.173144540055377 1.3608631316327908 2.050055466436567 -0.5199726577957962 1.1399758163352145
3.45846486092 0.1212065103008177 0.0928482469068401 -2.173144540055377 1.3608631316327908 2.050055466436567 -0.5199726577957962 1.1399758163352145
3.45846486092 0.1212065103008177 0.0928482469068401 -2.173144540055377 1.3608631316327908 2.050055466436567 -0.5199726577957962 1.1399758163352145
3.46845793724 0.1212065103008177 0.0928482469068401 -2.1644160735963123 1.3608631316327908 2.050055466436567 -0.5199726577957962 1.1399758163352145
3.46845793724 0.1212065103008177 0.0928482469068401 -2.1644160735963123 1.3608631316327908 2.050055466436567 -0.5199726577957962 1.1399758163352145
3.47848582268 0.1212065103008177 0.0928482469068401 -2.1644160735963123 1.3608631316327908 2.050055466436567 -0.5199726577957962 1.1399758163352145
3.47848582268 0.1212065103008177 0.0928482469068401 -2.1644160735963123 1.3608631316327908 2.050055466436567 -0.5199726577957962 1.1399758163352145
3.48841190338 0.1212065103008177 0.0928482469068401 -2.1556262470918406 1.3608631316327908 2.050055466436567 -0.5199726577957962 1.1399758163352145
3.48841190338 0.1212065103008177 0.0928482469068401 -2.1556262470918406 1.3608631316327908 2.050055466436567 -0.5199726577957962 1.1399758163352145
3.49851083755 0.1212065103008177 0.0928482469068401 -2.1556262470918406 1.3608631316327908 2.050055466436567 -0.5199726577957962 1.1399758163352145
3.49851083755 0.1212065103008177 0.0928482469068401 -2.1556262470918406 1.3608631316327908 2.050055466436567 -0.5199726577957962 1.1399758163352145
3.50839686394 0.1212065103008177 0.0928482469068401 -2.146928460655479 1.3608631316327908 2.050055466436567 -0.5199772232553553 1.139971250875655
3.50839686394 0.1212065103008177 0.0928482469068401 -2.146928460655479 1.3608631316327908 2.050055466436567 -0.5199772232553553 1.139971250875655
3.51853299141 0.1212065103008177 0.0928482469068401 -2.146928460655479 1.3608631316327908 2.050055466436567 -0.5199772232553553 1.139971250875655
3.51853299141 0.1212065103008177 0.0928482469068401 -2.146928460655479 1.3608631316327908 2.050055466436567 -0.5199772232553553 1.139971250875655
3.52847886086 0.1212065103008177 0.0928482469068401 -2.138199994196414 1.3608631316327908 2.050055466436567 -0.5199726577957962 1.1399758163352145
3.52847886086 0.1212065103008177 0.0928482469068401 -2.138199994196414 1.3608631316327908 2.050055466436567 -0.5199726577957962 1.1399758163352145
3.53847694397 0.1212065103008177 0.0928482469068401 -2.138199994196414 1.3608631316327908 2.050055466436567 -0.5199726577957962 1.1399758163352145
3.53847694397 0.1212065103008177 0.0928482469068401 -2.138199994196414 1.3608631316327908 2.050055466436567 -0.5199726577957962 1.1399758163352145
3.54844689369 0.1212065103008177 0.0928482469068401 -2.1295175477714032 1.3608631316327908 2.050055466436567 -0.5199726577957962 1.1399758163352145
3.54844689369 0.1212065103008177 0.0928482469068401 -2.1295175477714032 1.3608631316327908 2.050055466436567 -0.5199726577957962 1.1399758163352145
3.55851602554 0.1212065103008177 0.0928482469068401 -2.1295175477714032 1.3608631316327908 2.050055466436567 -0.5199726577957962 1.1399758163352145
3.55851602554 0.1212065103008177 0.0928482469068401 -2.1295175477714032 1.3608631316327908 2.050055466436567 -0.5199726577957962 1.1399758163352145
3.56843185425 0.1212065103008177 0.0928482469068401 -2.1207430612782834 1.3608631316327908 2.050055466436567 -0.5199726577957962 1.1399758163352145
3.56843185425 0.1212065103008177 0.0928482469068401 -2.1207430612782834 1.3608631316327908 2.050055466436567 -0.5199726577957962 1.1399758163352145
3.57856893539 0.1212065103008177 0.0928482469068401 -2.1207430612782834 1.3608631316327908 2.050055466436567 -0.5199726577957962 1.1399758163352145
3.57856893539 0.1212065103008177 0.0928482469068401 -2.1207430612782834 1.3608631316327908 2.050055466436567 -0.5199726577957962 1.1399758163352145
3.58853602409 0.1212065103008177 0.0928482469068401 -2.1120452748419214 1.3608631316327908 2.050055466436567 -0.5199726577957962 1.1399758163352145
3.58853602409 0.1212065103008177 0.0928482469068401 -2.1120452748419214 1.3608631316327908 2.050055466436567 -0.5199726577957962 1.1399758163352145
3.59858298302 0.1212065103008177 0.0928482469068401 -2.1120452748419214 1.3608631316327908 2.050055466436567 -0.5199726577957962 1.1399758163352145
3.59858298302 0.1212065103008177 0.0928482469068401 -2.1120452748419214 1.3608631316327908 2.050055466436567 -0.5199726577957962 1.1399758163352145
3.6088039875 0.1212065103008177 0.0928482469068401 -2.1120452748419214 1.3608631316327908 2.050055466436567 -0.5199726577957962 1.1399758163352145
3.6088039875 0.1212065103008177 0.0928482469068401 -2.1120452748419214 1.3608631316327908 2.050055466436567 -0.5199726577957962 1.1399758163352145
3.61879181862 0.1212065103008177 0.0928482469068401 -2.102963988121769 1.3608631316327908 2.050055466436567 -0.5199772232553553 1.139971250875655
3.61879181862 0.1212065103008177 0.0928482469068401 -2.102963988121769 1.3608631316327908 2.050055466436567 -0.5199772232553553 1.139971250875655
3.6287958622 0.1212065103008177 0.0928482469068401 -2.0940667815378364 1.3608631316327908 2.050055466436567 -0.5199726577957962 1.1399758163352145
3.6287958622 0.1212065103008177 0.0928482469068401 -2.0940667815378364 1.3608631316327908 2.050055466436567 -0.5199726577957962 1.1399758163352145
3.63866782188 0.1212065103008177 0.0928482469068401 -2.0940667815378364 1.3608631316327908 2.050055466436567 -0.5199726577957962 1.1399758163352145
3.63866782188 0.1212065103008177 0.0928482469068401 -2.0940667815378364 1.3608631316327908 2.050055466436567 -0.5199726577957962 1.1399758163352145
3.64873886108 0.1212065103008177 0.0928482469068401 -2.0940667815378364 1.3608631316327908 2.050055466436567 -0.5199726577957962 1.1399758163352145
3.64873886108 0.1212065103008177 0.0928482469068401 -2.0940667815378364 1.3608631316327908 2.050055466436567 -0.5199726577957962 1.1399758163352145
3.65886592865 0.1212065103008177 0.0928482469068401 -2.085338315078771 1.3608631316327908 2.050055466436567 -0.5199726577957962 1.1399758163352145
3.65886592865 0.1212065103008177 0.0928482469068401 -2.085338315078771 1.3608631316327908 2.050055466436567 -0.5199726577957962 1.1399758163352145
3.66865587234 0.1212065103008177 0.0928482469068401 -2.085338315078771 1.3608631316327908 2.050055466436567 -0.5199726577957962 1.1399758163352145
3.66865587234 0.1212065103008177 0.0928482469068401 -2.085338315078771 1.3608631316327908 2.050055466436567 -0.5199726577957962 1.1399758163352145
3.67883491516 0.1212065103008177 0.0928482469068401 -2.085338315078771 1.3608631316327908 2.050055466436567 -0.5199726577957962 1.1399758163352145
3.67883491516 0.1212065103008177 0.0928482469068401 -2.085338315078771 1.3608631316327908 2.050055466436567 -0.5199726577957962 1.1399758163352145
3.68869495392 0.1212065103008177 0.0928482469068401 -2.085338315078771 1.3608631316327908 2.050055466436567 -0.5199726577957962 1.1399758163352145
3.68869495392 0.1212065103008177 0.0928482469068401 -2.085338315078771 1.3608631316327908 2.050055466436567 -0.5199726577957962 1.1399758163352145
3.69868683815 0.1212065103008177 0.0928482469068401 -2.085338315078771 1.3608631316327908 2.050055466436567 -0.5199726577957962 1.1399758163352145
3.69868683815 0.1212065103008177 0.0928482469068401 -2.085338315078771 1.3608631316327908 2.050055466436567 -0.5199726577957962 1.1399758163352145
3.70877504349 0.1212065103008177 0.0928482469068401 -2.076594508608354 1.3608631316327908 2.050055466436567 -0.5199726577957962 1.1399758163352145
3.70877504349 0.1212065103008177 0.0928482469068401 -2.076594508608354 1.3608631316327908 2.050055466436567 -0.5199726577957962 1.1399758163352145
3.71854996681 0.1212065103008177 0.0928482469068401 -2.05929097580374 1.3608631316327908 2.050055466436567 -0.5199726577957962 1.1399758163352145
3.71854996681 0.1212065103008177 0.0928482469068401 -2.05929097580374 1.3608631316327908 2.050055466436567 -0.5199726577957962 1.1399758163352145
3.72839999199 0.1212065103008177 0.0928482469068401 -2.050639209401433 1.3608631316327908 2.050055466436567 -0.5199726577957962 1.1399758163352145
3.72839999199 0.1212065103008177 0.0928482469068401 -2.050639209401433 1.3608631316327908 2.050055466436567 -0.5199726577957962 1.1399758163352145
3.73855996132 0.1212065103008177 0.0928482469068401 -2.050639209401433 1.3608631316327908 2.050055466436567 -0.5199726577957962 1.1399758163352145
3.73855996132 0.1212065103008177 0.0928482469068401 -2.050639209401433 1.3608631316327908 2.050055466436567 -0.5199726577957962 1.1399758163352145
3.74844098091 0.1212065103008177 0.0928482469068401 -2.042002783010477 1.3608631316327908 2.050055466436567 -0.5199726577957962 1.1399758163352145
3.74844098091 0.1212065103008177 0.0928482469068401 -2.042002783010477 1.3608631316327908 2.050055466436567 -0.5199726577957962 1.1399758163352145
3.75854992867 0.1212065103008177 0.0928482469068401 -2.042002783010477 1.3608631316327908 2.050055466436567 -0.5199726577957962 1.1399758163352145
3.75854992867 0.1212065103008177 0.0928482469068401 -2.042002783010477 1.3608631316327908 2.050055466436567 -0.5199726577957962 1.1399758163352145
3.76842403412 0.1212065103008177 0.0928482469068401 -2.042002783010477 1.3608631316327908 2.050055466436567 -0.5199726577957962 1.1399758163352145
3.76842403412 0.1212065103008177 0.0928482469068401 -2.042002783010477 1.3608631316327908 2.050055466436567 -0.5199726577957962 1.1399758163352145
3.77845191956 0.1212065103008177 0.0928482469068401 -2.042002783010477 1.3608631316327908 2.050055466436567 -0.5199726577957962 1.1399758163352145
