riccardo-csl/Motion-Planning-for-TIAGo-Manipulator/T3_G_7/head_scan/head_scan/tiago_traiettorie_SG/1a-1b/place_1b_rep1.txt
time arm_1_joint arm_2_joint arm_3_joint arm_4_joint arm_5_joint arm_6_joint arm_7_joint
4.728058815 0.8422330638604673 0.1069610573503198 -1.1812594060603785 2.096708136158094 2.050055466436567 -0.5199726577957962 1.1399758163352145
4.73771500587 0.8422177238491156 0.1069610573503198 -1.1812594060603785 2.096708136158094 2.050046335517449 -0.519968092336237 1.1399803817947736
4.73771500587 0.8422177238491156 0.1069610573503198 -1.1812594060603785 2.096708136158094 2.050046335517449 -0.519968092336237 1.1399803817947736
4.74769592285 0.8422177238491156 0.1069610573503198 -1.1812594060603785 2.096708136158094 2.050046335517449 -0.519968092336237 1.1399803817947736
4.74769592285 0.8422177238491156 0.1069610573503198 -1.1812594060603785 2.096708136158094 2.050046335517449 -0.519968092336237 1.1399803817947736
4.75804400444 0.8422177238491156 0.1069610573503198 -1.1812594060603785 2.096708136158094 2.050046335517449 -0.519968092336237 1.1399803817947736
4.75804400444 0.8422177238491156 0.1069610573503198 -1.1812594060603785 2.096708136158094 2.050046335517449 -0.519968092336237 1.1399803817947736
4.76801300049 0.8422177238491156 0.1069610573503198 -1.1812594060603785 2.096708136158094 2.050046335517449 -0.519968092336237 1.1399803817947736
4.76801300049 0.8422177238491156 0.1069610573503198 -1.1812594060603785 2.096708136158094 2.050046335517449 -0.519968092336237 1.1399803817947736
4.77807879448 0.8422177238491156 0.1069610573503198 -1.1812594060603785 2.096708136158094 2.050046335517449 -0.519968092336237 1.1399803817947736
4.77807879448 0.8422177238491156 0.1069610573503198 -1.1812594060603785 2.096708136158094 2.050046335517449 -0.519968092336237 1.1399803817947736
4.78796291351 0.8422177238491156 0.1069610573503198 -1.1812594060603785 2.096708136158094 2.050046335517449 -0.519968092336237 1.1399803817947736
4.78796291351 0.8422177238491156 0.1069610573503198 -1.1812594060603785 2.096708136158094 2.050046335517449 -0.519968092336237 1.1399803817947736
4.79811096191 0.8422177238491156 0.1069610573503198 -1.1812594060603785 2.096708136158094 2.050046335517449 -0.519968092336237 1.1399803817947736
4.79811096191 0.8422177238491156 0.1069610573503198 -1.1812594060603785 2.096708136158094 2.050046335517449 -0.519968092336237 1.1399803817947736
4.80809879303 0.8422177238491156 0.1069610573503198 -1.1812594060603785 2.096708136158094 2.050046335517449 -0.519968092336237 1.1399803817947736
4.80809879303 0.8422177238491156 0.1069610573503198 -1.1812594060603785 2.096708136158094 2.050046335517449 -0.519968092336237 1.1399803817947736
4.81804990768 0.8422177238491156 0.1069610573503198 -1.1812594060603785 2.096708136158094 2.050046335517449 -0.519968092336237 1.1399803817947736
4.81804990768 0.8422177238491156 0.1069610573503198 -1.1812594060603785 2.096708136158094 2.050046335517449 -0.519968092336237 1.1399803817947736
4.82813096046 0.8422177238491156 0.1069610573503198 -1.1812594060603785 2.096708136158094 2.050046335517449 -0.519968092336237 1.1399803817947736
4.82813096046 0.8422177238491156 0.1069610573503198 -1.1812594060603785 2.096708136158094 2.050046335517449 -0.519968092336237 1.1399803817947736
4.83797097206 0.8422177238491156 0.1069610573503198 -1.1812594060603785 2.096708136158094 2.050046335517449 -0.519968092336237 1.1399803817947736
4.83797097206 0.8422177238491156 0.1069610573503198 -1.1812594060603785 2.096708136158094 2.050046335517449 -0.519968092336237 1.1399803817947736
4.84812688828 0.8422177238491156 0.1069610573503198 -1.1812594060603785 2.096708136158094 2.050046335517449 -0.519968092336237 1.1399803817947736
4.84812688828 0.8422177238491156 0.1069610573503198 -1.1812594060603785 2.096708136158094 2.050046335517449 -0.519968092336237 1.1399803817947736
4.8580288887 0.8422177238491156 0.1069610573503198 -1.1812594060603785 2.096708136158094 2.050046335517449 -0.519968092336237 1.1399803817947736
4.8580288887 0.8422177238491156 0.1069610573503198 -1.1812594060603785 2.096708136158094 2.050046335517449 -0.519968092336237 1.1399803817947736
4.86812186241 0.8422177238491156 0.1069610573503198 -1.1812594060603785 2.096708136158094 2.050046335517449 -0.519968092336237 1.1399803817947736
4.86812186241 0.8422177238491156 0.1069610573503198 -1.1812594060603785 2.096708136158094 2.050046335517449 -0.519968092336237 1.1399803817947736
4.87812280655 0.8422177238491156 0.1069610573503198 -1.1812594060603785 2.096708136158094 2.050046335517449 -0.519968092336237 1.1399803817947736
4.87812280655 0.8422177238491156 0.1069610573503198 -1.1812594060603785 2.096708136158094 2.050046335517449 -0.519968092336237 1.1399803817947736
4.88818097115 0.8422177238491156 0.1069610573503198 -1.1812594060603785 2.096708136158094 2.050046335517449 -0.519968092336237 1.1399803817947736
4.88818097115 0.8422177238491156 0.1069610573503198 -1.1812594060603785 2.096708136158094 2.050046335517449 -0.519968092336237 1.1399803817947736
4.89809179306 0.8421870438264124 0.1069610573503198 -1.1812594060603785 2.096708136158094 2.050055466436567 -0.5199772232553553 1.139971250875655
4.89809179306 0.8421870438264124 0.1069610573503198 -1.1812594060603785 2.096708136158094 2.050055466436567 -0.5199772232553553 1.139971250875655
4.90774488449 0.8421870438264124 0.1069610573503198 -1.1812594060603785 2.096708136158094 2.050055466436567 -0.5199772232553553 1.139971250875655
4.90774488449 0.8421870438264124 0.1069610573503198 -1.1812594060603785 2.096708136158094 2.050055466436567 -0.5199772232553553 1.139971250875655
4.91790986061 0.8421870438264124 0.1069610573503198 -1.1812594060603785 2.096708136158094 2.050055466436567 -0.5199772232553553 1.139971250875655
4.91790986061 0.8421870438264124 0.1069610573503198 -1.1812594060603785 2.096708136158094 2.050055466436567 -0.5199772232553553 1.139971250875655
4.92809891701 0.8421870438264124 0.1069610573503198 -1.1812594060603785 2.096708136158094 2.050055466436567 -0.5199772232553553 1.139971250875655
4.92809891701 0.8421870438264124 0.1069610573503198 -1.1812594060603785 2.096708136158094 2.050055466436567 -0.5199772232553553 1.139971250875655
4.9380428791 0.8421870438264124 0.1069610573503198 -1.1812594060603785 2.096708136158094 2.050055466436567 -0.5199772232553553 1.139971250875655
4.9380428791 0.8421870438264124 0.1069610573503198 -1.1812594060603785 2.096708136158094 2.050055466436567 -0.5199772232553553 1.139971250875655
4.94791078568 0.8421870438264124 0.1069610573503198 -1.1812594060603785 2.096708136158094 2.050055466436567 -0.5199772232553553 1.139971250875655
4.94791078568 0.8421870438264124 0.1069610573503198 -1.1812594060603785 2.096708136158094 2.050055466436567 -0.5199772232553553 1.139971250875655
4.95798993111 0.8421870438264124 0.1069610573503198 -1.1812594060603785 2.096708136158094 2.050055466436567 -0.5199772232553553 1.139971250875655
4.95798993111 0.8421870438264124 0.1069610573503198 -1.1812594060603785 2.096708136158094 2.050055466436567 -0.5199772232553553 1.139971250875655
4.96800684929 0.8421870438264124 0.1069610573503198 -1.1812594060603785 2.096708136158094 2.050055466436567 -0.5199772232553553 1.139971250875655
4.96800684929 0.8421870438264124 0.1069610573503198 -1.1812594060603785 2.096708136158094 2.050055466436567 -0.5199772232553553 1.139971250875655
4.97808790207 0.8421870438264124 0.1069610573503198 -1.1812594060603785 2.096708136158094 2.050055466436567 -0.5199772232553553 1.139971250875655
4.97808790207 0.8421870438264124 0.1069610573503198 -1.1812594060603785 2.096708136158094 2.050055466436567 -0.5199772232553553 1.139971250875655
4.9880797863 0.8421870438264124 0.1069610573503198 -1.1812594060603785 2.096708136158094 2.050055466436567 -0.5199772232553553 1.139971250875655
4.9880797863 0.8421870438264124 0.1069610573503198 -1.1812594060603785 2.096708136158094 2.050055466436567 -0.5199772232553553 1.139971250875655
4.99799799919 0.8421870438264124 0.1069610573503198 -1.1812594060603785 2.096708136158094 2.050055466436567 -0.5199772232553553 1.139971250875655
4.99799799919 0.8421870438264124 0.1069610573503198 -1.1812594060603785 2.096708136158094 2.050055466436567 -0.5199772232553553 1.139971250875655
5.00812482834 0.8421870438264124 0.1069610573503198 -1.1812594060603785 2.096708136158094 2.050055466436567 -0.5199772232553553 1.139971250875655
5.00812482834 0.8421870438264124 0.1069610573503198 -1.1812594060603785 2.096708136158094 2.050055466436567 -0.5199772232553553 1.139971250875655
5.01811385155 0.8421870438264124 0.1069610573503198 -1.1812594060603785 2.096708136158094 2.050055466436567 -0.5199772232553553 1.139971250875655
5.01811385155 0.8421870438264124 0.1069610573503198 -1.1812594060603785 2.096708136158094 2.050055466436567 -0.5199772232553553 1.139971250875655
5.02803087234 0.8421870438264124 0.1069610573503198 -1.1812594060603785 2.096708136158094 2.050055466436567 -0.5199772232553553 1.139971250875655
5.02803087234 0.8421870438264124 0.1069610573503198 -1.1812594060603785 2.096708136158094 2.050055466436567 -0.5199772232553553 1.139971250875655
5.03814387321 0.8421870438264124 0.1069610573503198 -1.1812594060603785 2.096708136158094 2.050055466436567 -0.5199772232553553 1.139971250875655
5.03814387321 0.8421870438264124 0.1069610573503198 -1.1812594060603785 2.096708136158094 2.050055466436567 -0.5199772232553553 1.139971250875655
5.04812979698 0.8421870438264124 0.1069610573503198 -1.1812594060603785 2.096708136158094 2.050055466436567 -0.5199772232553553 1.139971250875655
5.04812979698 0.8421870438264124 0.1069610573503198 -1.1812594060603785 2.096708136158094 2.050055466436567 -0.5199772232553553 1.139971250875655
5.05795383453 0.8421870438264124 0.1069610573503198 -1.1812594060603785 2.096708136158094 2.050055466436567 -0.5199772232553553 1.139971250875655
5.05795383453 0.8421870438264124 0.1069610573503198 -1.1812594060603785 2.096708136158094 2.050055466436567 -0.5199772232553553 1.139971250875655
5.06803679466 0.8421870438264124 0.1069610573503198 -1.1812594060603785 2.096708136158094 2.050055466436567 -0.5199772232553553 1.139971250875655
5.06803679466 0.8421870438264124 0.1069610573503198 -1.1812594060603785 2.096708136158094 2.050055466436567 -0.5199772232553553 1.139971250875655
5.07812595367 0.8421870438264124 0.1069610573503198 -1.1812594060603785 2.096708136158094 2.050055466436567 -0.5199772232553553 1.139971250875655
5.07812595367 0.8421870438264124 0.1069610573503198 -1.1812594060603785 2.096708136158094 2.050055466436567 -0.5199772232553553 1.139971250875655
5.08810400963 0.8421870438264124 0.1069610573503198 -1.1812594060603785 2.096708136158094 2.050055466436567 -0.5199772232553553 1.139971250875655
5.08810400963 0.8421870438264124 0.1069610573503198 -1.1812594060603785 2.096708136158094 2.050055466436567 -0.5199772232553553 1.139971250875655
5.09818482399 0.8421870438264124 0.1069610573503198 -1.1812594060603785 2.096708136158094 2.050055466436567 -0.5199772232553553 1.139971250875655
5.09818482399 0.8421870438264124 0.1069610573503198 -1.1812594060603785 2.096708136158094 2.050055466436567 -0.5199772232553553 1.139971250875655
5.10800385475 0.8421870438264124 0.1069610573503198 -1.1812594060603785 2.096708136158094 2.050055466436567 -0.5199772232553553 1.139971250875655
5.10800385475 0.8421870438264124 0.1069610573503198 -1.1812594060603785 2.096708136158094 2.050055466436567 -0.5199772232553553 1.139971250875655
5.11811685562 0.8421870438264124 0.1069610573503198 -1.1812594060603785 2.096708136158094 2.050055466436567 -0.5199772232553553 1.139971250875655
5.11811685562 0.8421870438264124 0.1069610573503198 -1.1812594060603785 2.096708136158094 2.050055466436567 -0.5199772232553553 1.139971250875655
5.12791585922 0.8421870438264124 0.1069610573503198 -1.1812594060603785 2.096708136158094 2.050055466436567 -0.5199772232553553 1.139971250875655
5.12791585922 0.8421870438264124 0.1069610573503198 -1.1812594060603785 2.096708136158094 2.050055466436567 -0.5199772232553553 1.139971250875655
5.13808083534 0.8421870438264124 0.1069610573503198 -1.1812594060603785 2.096708136158094 2.050055466436567 -0.5199772232553553 1.139971250875655
5.13808083534 0.8421870438264124 0.1069610573503198 -1.1812594060603785 2.096708136158094 2.050055466436567 -0.5199772232553553 1.139971250875655
5.14811396599 0.8421870438264124 0.1069610573503198 -1.1812594060603785 2.096708136158094 2.050055466436567 -0.5199772232553553 1.139971250875655
5.14811396599 0.8421870438264124 0.1069610573503198 -1.1812594060603785 2.096708136158094 2.050055466436567 -0.5199772232553553 1.139971250875655
5.15812587738 0.8421870438264124 0.1069610573503198 -1.1812594060603785 2.096708136158094 2.050055466436567 -0.5199772232553553 1.139971250875655
5.15812587738 0.8421870438264124 0.1069610573503198 -1.1812594060603785 2.096708136158094 2.050055466436567 -0.5199772232553553 1.139971250875655
5.16801691055 0.8421870438264124 0.1069610573503198 -1.1812594060603785 2.096708136158094 2.050055466436567 -0.5199772232553553 1.139971250875655
5.16801691055 0.8421870438264124 0.1069610573503198 -1.1812594060603785 2.096708136158094 2.050055466436567 -0.5199772232553553 1.139971250875655
5.17809486389 0.8421870438264124 0.1069610573503198 -1.1812594060603785 2.096708136158094 2.050055466436567 -0.5199772232553553 1.139971250875655
5.17809486389 0.8421870438264124 0.1069610573503198 -1.1812594060603785 2.096708136158094 2.050055466436567 -0.5199772232553553 1.139971250875655
5.18805480003 0.8421870438264124 0.1069610573503198 -1.1812594060603785 2.096708136158094 2.050055466436567 -0.5199772232553553 1.139971250875655
5.18805480003 0.8421870438264124 0.1069610573503198 -1.1812594060603785 2.096708136158094 2.050055466436567 -0.5199772232553553 1.139971250875655
5.19812393188 0.8421870438264124 0.1069610573503198 -1.1812594060603785 2.096708136158094 2.050055466436567 -0.5199772232553553 1.139971250875655
5.19812393188 0.8421870438264124 0.1069610573503198 -1.1812594060603785 2.096708136158094 2.050055466436567 -0.5199772232553553 1.139971250875655
5.20811080933 0.8421870438264124 0.1069610573503198 -1.1812594060603785 2.096708136158094 2.050055466436567 -0.5199772232553553 1.139971250875655
5.20811080933 0.8421870438264124 0.1069610573503198 -1.1812594060603785 2.096708136158094 2.050055466436567 -0.5199772232553553 1.139971250875655
5.21798682213 0.8421870438264124 0.1069610573503198 -1.1812594060603785 2.096708136158094 2.050055466436567 -0.5199772232553553 1.139971250875655
5.21798682213 0.8421870438264124 0.1069610573503198 -1.1812594060603785 2.096708136158094 2.050055466436567 -0.5199772232553553 1.139971250875655
5.22807383537 0.8421870438264124 0.1069610573503198 -1.1812594060603785 2.096708136158094 2.050055466436567 -0.5199772232553553 1.139971250875655
5.22807383537 0.8421870438264124 0.1069610573503198 -1.1812594060603785 2.096708136158094 2.050055466436567 -0.5199772232553553 1.139971250875655
5.23815083504 0.8421870438264124 0.1069610573503198 -1.1812594060603785 2.096708136158094 2.050055466436567 -0.5199772232553553 1.139971250875655
5.23815083504 0.8421870438264124 0.1069610573503198 -1.1812594060603785 2.096708136158094 2.050055466436567 -0.5199772232553553 1.139971250875655
5.24806380272 0.8421870438264124 0.1069610573503198 -1.1812594060603785 2.096708136158094 2.050055466436567 -0.5199772232553553 1.139971250875655
5.24806380272 0.8421870438264124 0.1069610573503198 -1.1812594060603785 2.096708136158094 2.050055466436567 -0.5199772232553553 1.139971250875655
5.25813579559 0.8421870438264124 0.1069610573503198 -1.1812594060603785 2.096708136158094 2.050055466436567 -0.5199772232553553 1.139971250875655
5.25813579559 0.8421870438264124 0.1069610573503198 -1.1812594060603785 2.096708136158094 2.050055466436567 -0.5199772232553553 1.139971250875655
5.26821184158 0.8421870438264124 0.1069610573503198 -1.1812594060603785 2.096708136158094 2.050055466436567 -0.5199772232553553 1.139971250875655
5.26821184158 0.8421870438264124 0.1069610573503198 -1.1812594060603785 2.096708136158094 2.050055466436567 -0.5199772232553553 1.139971250875655
5.27799797058 0.8421870438264124 0.1069610573503198 -1.1812594060603785 2.096708136158094 2.050055466436567 -0.5199772232553553 1.139971250875655
5.27799797058 0.8421870438264124 0.1069610573503198 -1.1812594060603785 2.096708136158094 2.050055466436567 -0.5199772232553553 1.139971250875655
5.2879087925 0.8421870438264124 0.1069610573503198 -1.1812594060603785 2.096708136158094 2.050055466436567 -0.5199772232553553 1.139971250875655
5.2879087925 0.8421870438264124 0.1069610573503198 -1.1812594060603785 2.096708136158094 2.050055466436567 -0.5199772232553553 1.139971250875655
5.29778385162 0.8421870438264124 0.1069610573503198 -1.1812594060603785 2.096708136158094 2.050055466436567 -0.5199772232553553 1.139971250875655
5.29778385162 0.8421870438264124 0.1069610573503198 -1.1812594060603785 2.096708136158094 2.050055466436567 -0.5199772232553553 1.139971250875655
5.30786895752 0.8421870438264124 0.1069610573503198 -1.1812594060603785 2.096708136158094 2.050055466436567 -0.5199772232553553 1.139971250875655
5.30786895752 0.8421870438264124 0.1069610573503198 -1.1812594060603785 2.096708136158094 2.050055466436567 -0.5199772232553553 1.139971250875655
5.31791877747 0.8421870438264124 0.1069610573503198 -1.1812594060603785 2.096708136158094 2.050055466436567 -0.5199772232553553 1.139971250875655
5.31791877747 0.8421870438264124 0.1069610573503198 -1.1812594060603785 2.096708136158094 2.050055466436567 -0.5199772232553553 1.139971250875655
5.32800388336 0.8421870438264124 0.1069610573503198 -1.1812594060603785 2.096708136158094 2.050055466436567 -0.5199772232553553 1.139971250875655
5.32800388336 0.8421870438264124 0.1069610573503198 -1.1812594060603785 2.096708136158094 2.050055466436567 -0.5199772232553553 1.139971250875655
5.33803391457 0.8421870438264124 0.1069610573503198 -1.1812594060603785 2.096708136158094 2.050055466436567 -0.5199772232553553 1.139971250875655
5.33803391457 0.8421870438264124 0.1069610573503198 -1.1812594060603785 2.096708136158094 2.050055466436567 -0.5199772232553553 1.139971250875655
5.3480618 0.8421870438264124 0.1069610573503198 -1.1812594060603785 2.096708136158094 2.050055466436567 -0.5199772232553553 1.139971250875655
5.3480618 0.8421870438264124 0.1069610573503198 -1.1812594060603785 2.096708136158094 2.050055466436567 -0.5199772232553553 1.139971250875655
5.35809397697 0.8421870438264124 0.1069610573503198 -1.1812594060603785 2.096708136158094 2.050055466436567 -0.5199772232553553 1.139971250875655
5.35809397697 0.8421870438264124 0.1069610573503198 -1.1812594060603785 2.096708136158094 2.050055466436567 -0.5199772232553553 1.139971250875655
5.36803197861 0.8421870438264124 0.1069610573503198 -1.1812594060603785 2.096708136158094 2.050055466436567 -0.5199772232553553 1.139971250875655
5.36803197861 0.8421870438264124 0.1069610573503198 -1.1812594060603785 2.096708136158094 2.050055466436567 -0.5199772232553553 1.139971250875655
5.37803697586 0.8421870438264124 0.1069610573503198 -1.1812594060603785 2.096708136158094 2.050055466436567 -0.5199772232553553 1.139971250875655
5.37803697586 0.8421870438264124 0.1069610573503198 -1.1812594060603785 2.096708136158094 2.050055466436567 -0.5199772232553553 1.139971250875655
5.38793492317 0.8421870438264124 0.1069610573503198 -1.1812594060603785 2.096708136158094 2.050055466436567 -0.5199772232553553 1.139971250875655
5.38793492317 0.8421870438264124 0.1069610573503198 -1.1812594060603785 2.096708136158094 2.050055466436567 -0.5199772232553553 1.139971250875655
5.39805483818 0.8421870438264124 0.1069610573503198 -1.1812594060603785 2.096708136158094 2.050055466436567 -0.5199772232553553 1.139971250875655
5.39805483818 0.8421870438264124 0.1069610573503198 -1.1812594060603785 2.096708136158094 2.050055466436567 -0.5199772232553553 1.139971250875655
5.40804982185 0.8421870438264124 0.1069610573503198 -1.1812594060603785 2.096708136158094 2.050055466436567 -0.5199772232553553 1.139971250875655
5.40804982185 0.8421870438264124 0.1069610573503198 -1.1812594060603785 2.096708136158094 2.050055466436567 -0.5199772232553553 1.139971250875655
5.41809988022 0.8421870438264124 0.1069610573503198 -1.1812594060603785 2.096708136158094 2.050055466436567 -0.5199772232553553 1.139971250875655
5.41809988022 0.8421870438264124 0.1069610573503198 -1.1812594060603785 2.096708136158094 2.050055466436567 -0.5199772232553553 1.139971250875655
5.42807984352 0.8421870438264124 0.1069610573503198 -1.1812594060603785 2.096708136158094 2.050055466436567 -0.5199772232553553 1.139971250875655
5.42807984352 0.8421870438264124 0.1069610573503198 -1.1812594060603785 2.096708136158094 2.050055466436567 -0.5199772232553553 1.139971250875655
5.43818998337 0.8421870438264124 0.1069610573503198 -1.1812594060603785 2.096708136158094 2.050055466436567 -0.5199772232553553 1.139971250875655
5.43818998337 0.8421870438264124 0.1069610573503198 -1.1812594060603785 2.096708136158094 2.050055466436567 -0.5199772232553553 1.139971250875655
5.44813990593 0.8421870438264124 0.1069610573503198 -1.1812594060603785 2.096708136158094 2.050055466436567 -0.5199772232553553 1.139971250875655
5.44813990593 0.8421870438264124 0.1069610573503198 -1.1812594060603785 2.096708136158094 2.050055466436567 -0.5199772232553553 1.139971250875655
5.45811700821 0.8421870438264124 0.1069610573503198 -1.1812594060603785 2.096708136158094 2.050055466436567 -0.5199772232553553 1.139971250875655
5.45811700821 0.8421870438264124 0.1069610573503198 -1.1812594060603785 2.096708136158094 2.050055466436567 -0.5199772232553553 1.139971250875655
5.46797394753 0.8421870438264124 0.1069610573503198 -1.1812594060603785 2.096708136158094 2.050055466436567 -0.5199772232553553 1.139971250875655
5.46797394753 0.8421870438264124 0.1069610573503198 -1.1812594060603785 2.096708136158094 2.050055466436567 -0.5199772232553553 1.139971250875655
5.47811794281 0.8421870438264124 0.1069610573503198 -1.1812594060603785 2.096708136158094 2.050055466436567 -0.5199772232553553 1.139971250875655
5.47811794281 0.8421870438264124 0.1069610573503198 -1.1812594060603785 2.096708136158094 2.050055466436567 -0.5199772232553553 1.139971250875655
5.48813700676 0.8421870438264124 0.1069610573503198 -1.1812594060603785 2.096708136158094 2.050055466436567 -0.5199772232553553 1.139971250875655
5.48813700676 0.8421870438264124 0.1069610573503198 -1.1812594060603785 2.096708136158094 2.050055466436567 -0.5199772232553553 1.139971250875655
5.49809193611 0.8421870438264124 0.1069610573503198 -1.1812594060603785 2.096708136158094 2.050055466436567 -0.5199772232553553 1.139971250875655
5.49809193611 0.8421870438264124 0.1069610573503198 -1.1812594060603785 2.096708136158094 2.050055466436567 -0.5199772232553553 1.139971250875655
5.50788998604 0.8421870438264124 0.1069610573503198 -1.1812594060603785 2.096708136158094 2.050055466436567 -0.5199772232553553 1.139971250875655
5.50788998604 0.8421870438264124 0.1069610573503198 -1.1812594060603785 2.096708136158094 2.050055466436567 -0.5199772232553553 1.139971250875655
5.5180978775 0.8421870438264124 0.1069610573503198 -1.1812594060603785 2.096708136158094 2.050055466436567 -0.5199772232553553 1.139971250875655
5.5180978775 0.8421870438264124 0.1069610573503198 -1.1812594060603785 2.096708136158094 2.050055466436567 -0.5199772232553553 1.139971250875655
5.52812480927 0.8421870438264124 0.1069610573503198 -1.1812594060603785 2.096708136158094 2.050055466436567 -0.5199772232553553 1.139971250875655
5.52812480927 0.8421870438264124 0.1069610573503198 -1.1812594060603785 2.096708136158094 2.050055466436567 -0.5199772232553553 1.139971250875655
5.53814291954 0.8421870438264124 0.1069610573503198 -1.1812594060603785 2.096708136158094 2.050055466436567 -0.5199772232553553 1.139971250875655
5.53814291954 0.8421870438264124 0.1069610573503198 -1.1812594060603785 2.096708136158094 2.050055466436567 -0.5199772232553553 1.139971250875655
5.54795789719 0.8421870438264124 0.1069610573503198 -1.1812594060603785 2.096708136158094 2.050055466436567 -0.5199772232553553 1.139971250875655
5.54795789719 0.8421870438264124 0.1069610573503198 -1.1812594060603785 2.096708136158094 2.050055466436567 -0.5199772232553553 1.139971250875655
5.55824398994 0.8421870438264124 0.1069610573503198 -1.1812594060603785 2.096708136158094 2.050055466436567 -0.5199772232553553 1.139971250875655
5.55824398994 0.8421870438264124 0.1069610573503198 -1.1812594060603785 2.096708136158094 2.050055466436567 -0.5199772232553553 1.139971250875655
5.56792783737 0.8421870438264124 0.1069610573503198 -1.1812594060603785 2.096708136158094 2.050055466436567 -0.5199772232553553 1.139971250875655
5.56792783737 0.8421870438264124 0.1069610573503198 -1.1812594060603785 2.096708136158094 2.050055466436567 -0.5199772232553553 1.139971250875655
5.5781109333 0.8421870438264124 0.1069610573503198 -1.1812594060603785 2.096708136158094 2.050055466436567 -0.5199772232553553 1.139971250875655
5.5781109333 0.8421870438264124 0.1069610573503198 -1.1812594060603785 2.096708136158094 2.050055466436567 -0.5199772232553553 1.139971250875655
5.58813881874 0.8421870438264124 0.1069610573503198 -1.1812594060603785 2.096708136158094 2.050055466436567 -0.5199772232553553 1.139971250875655
5.58813881874 0.8421870438264124 0.1069610573503198 -1.1812594060603785 2.096708136158094 2.050055466436567 -0.5199772232553553 1.139971250875655
5.59810590744 0.8421870438264124 0.1069610573503198 -1.1812594060603785 2.096708136158094 2.050055466436567 -0.5199772232553553 1.139971250875655
5.59810590744 0.8421870438264124 0.1069610573503198 -1.1812594060603785 2.096708136158094 2.050055466436567 -0.5199772232553553 1.139971250875655
5.60788989067 0.8421870438264124 0.1069610573503198 -1.1812594060603785 2.096708136158094 2.050055466436567 -0.5199772232553553 1.139971250875655
5.60788989067 0.8421870438264124 0.1069610573503198 -1.1812594060603785 2.096708136158094 2.050055466436567 -0.5199772232553553 1.139971250875655
5.6179227829 0.8421870438264124 0.1069610573503198 -1.1812594060603785 2.096708136158094 2.050055466436567 -0.5199772232553553 1.139971250875655
5.6179227829 0.8421870438264124 0.1069610573503198 -1.1812594060603785 2.096708136158094 2.050055466436567 -0.5199772232553553 1.139971250875655
5.62814688683 0.8421870438264124 0.1069610573503198 -1.1812594060603785 2.096708136158094 2.050055466436567 -0.5199772232553553 1.139971250875655
5.62814688683 0.8421870438264124 0.1069610573503198 -1.1812594060603785 2.096708136158094 2.050055466436567 -0.5199772232553553 1.139971250875655
5.63808083534 0.8421870438264124 0.1069610573503198 -1.1812594060603785 2.096708136158094 2.050055466436567 -0.5199772232553553 1.139971250875655
5.63808083534 0.8421870438264124 0.1069610573503198 -1.1812594060603785 2.096708136158094 2.050055466436567 -0.5199772232553553 1.139971250875655
5.64814186096 0.8421870438264124 0.1069610573503198 -1.1812594060603785 2.096708136158094 2.050055466436567 -0.5199772232553553 1.139971250875655
5.64814186096 0.8421870438264124 0.1069610573503198 -1.1812594060603785 2.096708136158094 2.050055466436567 -0.5199772232553553 1.139971250875655
5.65804481506 0.8421870438264124 0.1069610573503198 -1.1812594060603785 2.096708136158094 2.050055466436567 -0.5199772232553553 1.139971250875655
5.65804481506 0.8421870438264124 0.1069610573503198 -1.1812594060603785 2.096708136158094 2.050055466436567 -0.5199772232553553 1.139971250875655
5.66809892654 0.8421870438264124 0.1069610573503198 -1.1812594060603785 2.096708136158094 2.050055466436567 -0.5199772232553553 1.139971250875655
5.66809892654 0.8421870438264124 0.1069610573503198 -1.1812594060603785 2.096708136158094 2.050055466436567 -0.5199772232553553 1.139971250875655
5.6781039238 0.8421870438264124 0.1069610573503198 -1.1812594060603785 2.096708136158094 2.050055466436567 -0.5199772232553553 1.139971250875655
5.6781039238 0.8421870438264124 0.1069610573503198 -1.1812594060603785 2.096708136158094 2.050055466436567 -0.5199772232553553 1.139971250875655
5.68808698654 0.8421870438264124 0.1069610573503198 -1.1812594060603785 2.096708136158094 2.050055466436567 -0.5199772232553553 1.139971250875655
5.68808698654 0.8421870438264124 0.1069610573503198 -1.1812594060603785 2.096708136158094 2.050055466436567 -0.5199772232553553 1.139971250875655
5.69810891151 0.8421870438264124 0.1069610573503198 -1.1812594060603785 2.096708136158094 2.050055466436567 -0.5199772232553553 1.139971250875655
5.69810891151 0.8421870438264124 0.1069610573503198 -1.1812594060603785 2.096708136158094 2.050055466436567 -0.5199772232553553 1.139971250875655
5.70806598663 0.8421870438264124 0.1069610573503198 -1.1812594060603785 2.096708136158094 2.050055466436567 -0.5199772232553553 1.139971250875655
5.70806598663 0.8421870438264124 0.1069610573503198 -1.1812594060603785 2.096708136158094 2.050055466436567 -0.5199772232553553 1.139971250875655
5.71799898148 0.8421870438264124 0.1069610573503198 -1.1812594060603785 2.096708136158094 2.050055466436567 -0.5199772232553553 1.139971250875655
5.71799898148 0.8421870438264124 0.1069610573503198 -1.1812594060603785 2.096708136158094 2.050055466436567 -0.5199772232553553 1.139971250875655
5.72788786888 0.8421870438264124 0.1069610573503198 -1.1812594060603785 2.096708136158094 2.050055466436567 -0.5199772232553553 1.139971250875655
5.72788786888 0.8421870438264124 0.1069610573503198 -1.1812594060603785 2.096708136158094 2.050055466436567 -0.5199772232553553 1.139971250875655
5.73807787895 0.8421870438264124 0.1069610573503198 -1.1812594060603785 2.096708136158094 2.050055466436567 -0.5199772232553553 1.139971250875655
5.73807787895 0.8421870438264124 0.1069610573503198 -1.1812594060603785 2.096708136158094 2.050055466436567 -0.5199772232553553 1.139971250875655
5.74798583984 0.8421870438264124 0.1069610573503198 -1.1812594060603785 2.096708136158094 2.050055466436567 -0.5199772232553553 1.139971250875655
5.74798583984 0.8421870438264124 0.1069610573503198 -1.1812594060603785 2.096708136158094 2.050055466436567 -0.5199772232553553 1.139971250875655
5.75808691978 0.8421870438264124 0.1069610573503198 -1.1812594060603785 2.096708136158094 2.050055466436567 -0.5199772232553553 1.139971250875655
5.75808691978 0.8421870438264124 0.1069610573503198 -1.1812594060603785 2.096708136158094 2.050055466436567 -0.5199772232553553 1.139971250875655
5.7681248188 0.8421870438264124 0.1069610573503198 -1.1812594060603785 2.096708136158094 2.050055466436567 -0.5199772232553553 1.139971250875655
5.7681248188 0.8421870438264124 0.1069610573503198 -1.1812594060603785 2.096708136158094 2.050055466436567 -0.5199772232553553 1.139971250875655
5.7779648304 0.8421870438264124 0.1069610573503198 -1.1812594060603785 2.096708136158094 2.050055466436567 -0.5199772232553553 1.139971250875655
5.7779648304 0.8421870438264124 0.1069610573503198 -1.1812594060603785 2.096708136158094 2.050055466436567 -0.5199772232553553 1.139971250875655
5.78811979294 0.8421870438264124 0.1069610573503198 -1.1812594060603785 2.096708136158094 2.050055466436567 -0.5199772232553553 1.139971250875655
5.78811979294 0.8421870438264124 0.1069610573503198 -1.1812594060603785 2.096708136158094 2.050055466436567 -0.5199772232553553 1.139971250875655
5.79812884331 0.8421870438264124 0.1069610573503198 -1.1812594060603785 2.096708136158094 2.050055466436567 -0.5199772232553553 1.139971250875655
5.79812884331 0.8421870438264124 0.1069610573503198 -1.1812594060603785 2.096708136158094 2.050055466436567 -0.5199772232553553 1.139971250875655
5.8080329895 0.8421870438264124 0.1069610573503198 -1.1812594060603785 2.096708136158094 2.050055466436567 -0.5199772232553553 1.139971250875655
5.8080329895 0.8421870438264124 0.1069610573503198 -1.1812594060603785 2.096708136158094 2.050055466436567 -0.5199772232553553 1.139971250875655
5.81816482544 0.8421870438264124 0.1069610573503198 -1.1812594060603785 2.096708136158094 2.050055466436567 -0.5199772232553553 1.139971250875655
5.81816482544 0.8421870438264124 0.1069610573503198 -1.1812594060603785 2.096708136158094 2.050055466436567 -0.5199772232553553 1.139971250875655
5.82797384262 0.8421870438264124 0.1069610573503198 -1.1812594060603785 2.096708136158094 2.050055466436567 -0.5199772232553553 1.139971250875655
5.82797384262 0.8421870438264124 0.1069610573503198 -1.1812594060603785 2.096708136158094 2.050055466436567 -0.5199772232553553 1.139971250875655
5.83816885948 0.8421870438264124 0.1069610573503198 -1.1812594060603785 2.096708136158094 2.050055466436567 -0.5199772232553553 1.139971250875655
5.83816885948 0.8421870438264124 0.1069610573503198 -1.1812594060603785 2.096708136158094 2.050055466436567 -0.5199772232553553 1.139971250875655
5.84799194336 0.8421870438264124 0.1069610573503198 -1.1812594060603785 2.096708136158094 2.050055466436567 -0.5199772232553553 1.139971250875655
5.84799194336 0.8421870438264124 0.1069610573503198 -1.1812594060603785 2.096708136158094 2.050055466436567 -0.5199772232553553 1.139971250875655
5.85811185837 0.8421870438264124 0.1069610573503198 -1.1812594060603785 2.096708136158094 2.050055466436567 -0.5199772232553553 1.139971250875655
5.85811185837 0.8421870438264124 0.1069610573503198 -1.1812594060603785 2.096708136158094 2.050055466436567 -0.5199772232553553 1.139971250875655
5.86811900139 0.8421870438264124 0.1069610573503198 -1.1812594060603785 2.096708136158094 2.050055466436567 -0.5199772232553553 1.139971250875655
5.86811900139 0.8421870438264124 0.1069610573503198 -1.1812594060603785 2.096708136158094 2.050055466436567 -0.5199772232553553 1.139971250875655
5.87792897224 0.8421870438264124 0.1069610573503198 -1.1812594060603785 2.096708136158094 2.050055466436567 -0.5199772232553553 1.139971250875655
5.87792897224 0.8421870438264124 0.1069610573503198 -1.1812594060603785 2.096708136158094 2.050055466436567 -0.5199772232553553 1.139971250875655
5.88809990883 0.8421870438264124 0.1069610573503198 -1.1812594060603785 2.096708136158094 2.050055466436567 -0.5199772232553553 1.139971250875655
5.88809990883 0.8421870438264124 0.1069610573503198 -1.1812594060603785 2.096708136158094 2.050055466436567 -0.5199772232553553 1.139971250875655
5.8981218338 0.8421870438264124 0.1069610573503198 -1.1812594060603785 2.096708136158094 2.050055466436567 -0.5199772232553553 1.139971250875655
5.8981218338 0.8421870438264124 0.1069610573503198 -1.1812594060603785 2.096708136158094 2.050055466436567 -0.5199772232553553 1.139971250875655
5.90810799599 0.8421870438264124 0.1069610573503198 -1.1812594060603785 2.096708136158094 2.050055466436567 -0.5199772232553553 1.139971250875655
5.90810799599 0.8421870438264124 0.1069610573503198 -1.1812594060603785 2.096708136158094 2.050055466436567 -0.5199772232553553 1.139971250875655
5.91811585426 0.8421870438264124 0.1069610573503198 -1.1812594060603785 2.096708136158094 2.050055466436567 -0.5199772232553553 1.139971250875655
5.91811585426 0.8421870438264124 0.1069610573503198 -1.1812594060603785 2.096708136158094 2.050055466436567 -0.5199772232553553 1.139971250875655
5.92817783356 0.8421870438264124 0.1069610573503198 -1.1812594060603785 2.096708136158094 2.050055466436567 -0.5199772232553553 1.139971250875655
5.92817783356 0.8421870438264124 0.1069610573503198 -1.1812594060603785 2.096708136158094 2.050055466436567 -0.5199772232553553 1.139971250875655
5.93799901009 0.8421870438264124 0.1069610573503198 -1.1812594060603785 2.096708136158094 2.050055466436567 -0.5199772232553553 1.139971250875655
5.93799901009 0.8421870438264124 0.1069610573503198 -1.1812594060603785 2.096708136158094 2.050055466436567 -0.5199772232553553 1.139971250875655
5.9480137825 0.8421870438264124 0.1069610573503198 -1.1812594060603785 2.096708136158094 2.050055466436567 -0.5199772232553553 1.139971250875655
5.9480137825 0.8421870438264124 0.1069610573503198 -1.1812594060603785 2.096708136158094 2.050055466436567 -0.5199772232553553 1.139971250875655
5.95808792114 0.8421870438264124 0.1069610573503198 -1.1812594060603785 2.096708136158094 2.050055466436567 -0.5199772232553553 1.139971250875655
5.95808792114 0.8421870438264124 0.1069610573503198 -1.1812594060603785 2.096708136158094 2.050055466436567 -0.5199772232553553 1.139971250875655
5.96792697906 0.8421870438264124 0.1069610573503198 -1.1812594060603785 2.096708136158094 2.050055466436567 -0.5199772232553553 1.139971250875655
5.96792697906 0.8421870438264124 0.1069610573503198 -1.1812594060603785 2.096708136158094 2.050055466436567 -0.5199772232553553 1.139971250875655
5.97807979584 0.8421870438264124 0.1069610573503198 -1.1812594060603785 2.096708136158094 2.050055466436567 -0.5199772232553553 1.139971250875655
5.97807979584 0.8421870438264124 0.1069610573503198 -1.1812594060603785 2.096708136158094 2.050055466436567 -0.5199772232553553 1.139971250875655
5.98798799515 0.8421870438264124 0.1069610573503198 -1.1812594060603785 2.096708136158094 2.050055466436567 -0.5199772232553553 1.139971250875655
5.98798799515 0.8421870438264124 0.1069610573503198 -1.1812594060603785 2.096708136158094 2.050055466436567 -0.5199772232553553 1.139971250875655
5.99808883667 0.8421870438264124 0.1069610573503198 -1.1812594060603785 2.096708136158094 2.050055466436567 -0.5199772232553553 1.139971250875655
5.99808883667 0.8421870438264124 0.1069610573503198 -1.1812594060603785 2.096708136158094 2.050055466436567 -0.5199772232553553 1.139971250875655
6.00811696053 0.8421870438264124 0.1069610573503198 -1.1812594060603785 2.096708136158094 2.050055466436567 -0.5199772232553553 1.139971250875655
6.00811696053 0.8421870438264124 0.1069610573503198 -1.1812594060603785 2.096708136158094 2.050055466436567 -0.5199772232553553 1.139971250875655
6.01809096336 0.8421870438264124 0.1069610573503198 -1.1812594060603785 2.096708136158094 2.050055466436567 -0.5199772232553553 1.139971250875655
6.01809096336 0.8421870438264124 0.1069610573503198 -1.1812594060603785 2.096708136158094 2.050055466436567 -0.5199772232553553 1.139971250875655
6.02795791626 0.8421870438264124 0.1069610573503198 -1.1812594060603785 2.096708136158094 2.050055466436567 -0.5199772232553553 1.139971250875655
6.02795791626 0.8421870438264124 0.1069610573503198 -1.1812594060603785 2.096708136158094 2.050055466436567 -0.5199772232553553 1.139971250875655
6.03813695908 0.8421870438264124 0.1069610573503198 -1.1812594060603785 2.096708136158094 2.050055466436567 -0.5199772232553553 1.139971250875655
6.03813695908 0.8421870438264124 0.1069610573503198 -1.1812594060603785 2.096708136158094 2.050055466436567 -0.5199772232553553 1.139971250875655
6.04797792435 0.8421870438264124 0.1069610573503198 -1.1812594060603785 2.096708136158094 2.050055466436567 -0.5199772232553553 1.139971250875655
6.04797792435 0.8421870438264124 0.1069610573503198 -1.1812594060603785 2.096708136158094 2.050055466436567 -0.5199772232553553 1.139971250875655
6.05808401108 0.8421870438264124 0.1069610573503198 -1.1812594060603785 2.096708136158094 2.050055466436567 -0.5199772232553553 1.139971250875655
6.05808401108 0.8421870438264124 0.1069610573503198 -1.1812594060603785 2.096708136158094 2.050055466436567 -0.5199772232553553 1.139971250875655
6.06797599792 0.8421870438264124 0.1069610573503198 -1.1812594060603785 2.096708136158094 2.050055466436567 -0.5199772232553553 1.139971250875655
6.06797599792 0.8421870438264124 0.1069610573503198 -1.1812594060603785 2.096708136158094 2.050055466436567 -0.5199772232553553 1.139971250875655
6.07808995247 0.8421870438264124 0.1069610573503198 -1.1812594060603785 2.096708136158094 2.050055466436567 -0.5199772232553553 1.139971250875655
6.07808995247 0.8421870438264124 0.1069610573503198 -1.1812594060603785 2.096708136158094 2.050055466436567 -0.5199772232553553 1.139971250875655
6.08811783791 0.8421870438264124 0.1069610573503198 -1.1812594060603785 2.096708136158094 2.050055466436567 -0.5199772232553553 1.139971250875655
6.08811783791 0.8421870438264124 0.1069610573503198 -1.1812594060603785 2.096708136158094 2.050055466436567 -0.5199772232553553 1.139971250875655
6.09803295135 0.8421870438264124 0.1069610573503198 -1.1812594060603785 2.096708136158094 2.050055466436567 -0.5199772232553553 1.139971250875655
6.09803295135 0.8421870438264124 0.1069610573503198 -1.1812594060603785 2.096708136158094 2.050055466436567 -0.5199772232553553 1.139971250875655
6.10809493065 0.8421870438264124 0.1069610573503198 -1.1812594060603785 2.096708136158094 2.050055466436567 -0.5199772232553553 1.139971250875655
6.10809493065 0.8421870438264124 0.1069610573503198 -1.1812594060603785 2.096708136158094 2.050055466436567 -0.5199772232553553 1.139971250875655
6.11798501015 0.8421870438264124 0.1069610573503198 -1.1812594060603785 2.096708136158094 2.050055466436567 -0.5199772232553553 1.139971250875655
6.11798501015 0.8421870438264124 0.1069610573503198 -1.1812594060603785 2.096708136158094 2.050055466436567 -0.5199772232553553 1.139971250875655
6.12821483612 0.8421870438264124 0.1069610573503198 -1.1812594060603785 2.096708136158094 2.050055466436567 -0.5199772232553553 1.139971250875655
6.12821483612 0.8421870438264124 0.1069610573503198 -1.1812594060603785 2.096708136158094 2.050055466436567 -0.5199772232553553 1.139971250875655
6.13774394989 0.8421870438264124 0.1069610573503198 -1.1812594060603785 2.096708136158094 2.050055466436567 -0.5199772232553553 1.139971250875655
6.13774394989 0.8421870438264124 0.1069610573503198 -1.1812594060603785 2.096708136158094 2.050055466436567 -0.5199772232553553 1.139971250875655
6.14786982536 0.8421870438264124 0.1069610573503198 -1.1812594060603785 2.096708136158094 2.050055466436567 -0.5199772232553553 1.139971250875655
6.14786982536 0.8421870438264124 0.1069610573503198 -1.1812594060603785 2.096708136158094 2.050055466436567 -0.5199772232553553 1.139971250875655
6.15802979469 0.8421870438264124 0.1069610573503198 -1.1812594060603785 2.096708136158094 2.050055466436567 -0.5199772232553553 1.139971250875655
6.15802979469 0.8421870438264124 0.1069610573503198 -1.1812594060603785 2.096708136158094 2.050055466436567 -0.5199772232553553 1.139971250875655
6.1680059433 0.8421870438264124 0.1069610573503198 -1.1812594060603785 2.096708136158094 2.050055466436567 -0.5199772232553553 1.139971250875655
6.1680059433 0.8421870438264124 0.1069610573503198 -1.1812594060603785 2.096708136158094 2.050055466436567 -0.5199772232553553 1.139971250875655
6.17791986465 0.8421870438264124 0.1069610573503198 -1.1812594060603785 2.096708136158094 2.050055466436567 -0.5199772232553553 1.139971250875655
6.17791986465 0.8421870438264124 0.1069610573503198 -1.1812594060603785 2.096708136158094 2.050055466436567 -0.5199772232553553 1.139971250875655
6.18796491623 0.8421870438264124 0.1069610573503198 -1.1812594060603785 2.096708136158094 2.050055466436567 -0.5199772232553553 1.139971250875655
6.18796491623 0.8421870438264124 0.1069610573503198 -1.1812594060603785 2.096708136158094 2.050055466436567 -0.5199772232553553 1.139971250875655
6.19808793068 0.8421870438264124 0.1069610573503198 -1.1812594060603785 2.096708136158094 2.050055466436567 -0.5199772232553553 1.139971250875655
6.19808793068 0.8421870438264124 0.1069610573503198 -1.1812594060603785 2.096708136158094 2.050055466436567 -0.5199772232553553 1.139971250875655
6.20803380013 0.8421870438264124 0.1069610573503198 -1.1812594060603785 2.096708136158094 2.050055466436567 -0.5199772232553553 1.139971250875655
6.20803380013 0.8421870438264124 0.1069610573503198 -1.1812594060603785 2.096708136158094 2.050055466436567 -0.5199772232553553 1.139971250875655
6.21812200546 0.8421870438264124 0.1069610573503198 -1.1812594060603785 2.096708136158094 2.050055466436567 -0.5199772232553553 1.139971250875655
6.21812200546 0.8421870438264124 0.1069610573503198 -1.1812594060603785 2.096708136158094 2.050055466436567 -0.5199772232553553 1.139971250875655
6.22815084457 0.8421870438264124 0.1069610573503198 -1.1812594060603785 2.096708136158094 2.050055466436567 -0.5199772232553553 1.139971250875655
6.22815084457 0.8421870438264124 0.1069610573503198 -1.1812594060603785 2.096708136158094 2.050055466436567 -0.5199772232553553 1.139971250875655
6.23803281784 0.8421870438264124 0.1069610573503198 -1.1812594060603785 2.096708136158094 2.050055466436567 -0.5199772232553553 1.139971250875655
6.23803281784 0.8421870438264124 0.1069610573503198 -1.1812594060603785 2.096708136158094 2.050055466436567 -0.5199772232553553 1.139971250875655
6.24812293053 0.8421870438264124 0.1069610573503198 -1.1812594060603785 2.096708136158094 2.050055466436567 -0.5199772232553553 1.139971250875655
6.24812293053 0.8421870438264124 0.1069610573503198 -1.1812594060603785 2.096708136158094 2.050055466436567 -0.5199772232553553 1.139971250875655
6.25810885429 0.8421870438264124 0.1069610573503198 -1.1812594060603785 2.096708136158094 2.050055466436567 -0.5199772232553553 1.139971250875655
6.25810885429 0.8421870438264124 0.1069610573503198 -1.1812594060603785 2.096708136158094 2.050055466436567 -0.5199772232553553 1.139971250875655
6.26803684235 0.8421870438264124 0.1069610573503198 -1.1812594060603785 2.096708136158094 2.050055466436567 -0.5199772232553553 1.139971250875655
6.26803684235 0.8421870438264124 0.1069610573503198 -1.1812594060603785 2.096708136158094 2.050055466436567 -0.5199772232553553 1.139971250875655
6.27792692184 0.8421870438264124 0.1069610573503198 -1.1812594060603785 2.096708136158094 2.050055466436567 -0.5199772232553553 1.139971250875655
6.27792692184 0.8421870438264124 0.1069610573503198 -1.1812594060603785 2.096708136158094 2.050055466436567 -0.5199772232553553 1.139971250875655
6.28796195984 0.8421870438264124 0.1069610573503198 -1.1812594060603785 2.096708136158094 2.050055466436567 -0.5199772232553553 1.139971250875655
6.28796195984 0.8421870438264124 0.1069610573503198 -1.1812594060603785 2.096708136158094 2.050055466436567 -0.5199772232553553 1.139971250875655
6.29793691635 0.8421870438264124 0.1069610573503198 -1.1812594060603785 2.096708136158094 2.050055466436567 -0.5199772232553553 1.139971250875655
6.29793691635 0.8421870438264124 0.1069610573503198 -1.1812594060603785 2.096708136158094 2.050055466436567 -0.5199772232553553 1.139971250875655
6.3079199791 0.8421870438264124 0.1069610573503198 -1.1812594060603785 2.096708136158094 2.050055466436567 -0.5199772232553553 1.139971250875655
6.3079199791 0.8421870438264124 0.1069610573503198 -1.1812594060603785 2.096708136158094 2.050055466436567 -0.5199772232553553 1.139971250875655
6.31809282303 0.8421870438264124 0.1069610573503198 -1.1812594060603785 2.096708136158094 2.050055466436567 -0.5199772232553553 1.139971250875655
6.31809282303 0.8421870438264124 0.1069610573503198 -1.1812594060603785 2.096708136158094 2.050055466436567 -0.5199772232553553 1.139971250875655
6.32809782028 0.8421870438264124 0.1069610573503198 -1.1812594060603785 2.096708136158094 2.050055466436567 -0.5199772232553553 1.139971250875655
6.32809782028 0.8421870438264124 0.1069610573503198 -1.1812594060603785 2.096708136158094 2.050055466436567 -0.5199772232553553 1.139971250875655
6.33799386024 0.8421870438264124 0.1069610573503198 -1.1812594060603785 2.096708136158094 2.050055466436567 -0.5199772232553553 1.139971250875655
6.33799386024 0.8421870438264124 0.1069610573503198 -1.1812594060603785 2.096708136158094 2.050055466436567 -0.5199772232553553 1.139971250875655
6.3481938839 0.8421870438264124 0.1069610573503198 -1.1812594060603785 2.096708136158094 2.050055466436567 -0.5199772232553553 1.139971250875655
6.3481938839 0.8421870438264124 0.1069610573503198 -1.1812594060603785 2.096708136158094 2.050055466436567 -0.5199772232553553 1.139971250875655
6.35813188553 0.8421870438264124 0.1069610573503198 -1.1812594060603785 2.096708136158094 2.050055466436567 -0.5199772232553553 1.139971250875655
6.35813188553 0.8421870438264124 0.1069610573503198 -1.1812594060603785 2.096708136158094 2.050055466436567 -0.5199772232553553 1.139971250875655
6.36796188354 0.8421870438264124 0.1069610573503198 -1.1812594060603785 2.096708136158094 2.050055466436567 -0.5199772232553553 1.139971250875655
6.36796188354 0.8421870438264124 0.1069610573503198 -1.1812594060603785 2.096708136158094 2.050055466436567 -0.5199772232553553 1.139971250875655
6.37811994553 0.8421870438264124 0.1069610573503198 -1.1812594060603785 2.096708136158094 2.050055466436567 -0.5199772232553553 1.139971250875655
6.37811994553 0.8421870438264124 0.1069610573503198 -1.1812594060603785 2.096708136158094 2.050055466436567 -0.5199772232553553 1.139971250875655
6.3881278038 0.8421870438264124 0.1069610573503198 -1.1812594060603785 2.096708136158094 2.050055466436567 -0.5199772232553553 1.139971250875655
6.3881278038 0.8421870438264124 0.1069610573503198 -1.1812594060603785 2.096708136158094 2.050055466436567 -0.5199772232553553 1.139971250875655
6.39811587334 0.8421870438264124 0.1069610573503198 -1.1812594060603785 2.096708136158094 2.050055466436567 -0.5199772232553553 1.139971250875655
6.39811587334 0.8421870438264124 0.1069610573503198 -1.1812594060603785 2.096708136158094 2.050055466436567 -0.5199772232553553 1.139971250875655
6.40807700157 0.8421870438264124 0.1069610573503198 -1.1812594060603785 2.096708136158094 2.050055466436567 -0.5199772232553553 1.139971250875655
6.40807700157 0.8421870438264124 0.1069610573503198 -1.1812594060603785 2.096708136158094 2.050055466436567 -0.5199772232553553 1.139971250875655
6.41812396049 0.8421870438264124 0.1069610573503198 -1.1812594060603785 2.096708136158094 2.050055466436567 -0.5199772232553553 1.139971250875655
6.41812396049 0.8421870438264124 0.1069610573503198 -1.1812594060603785 2.096708136158094 2.050055466436567 -0.5199772232553553 1.139971250875655
6.42815685272 0.8421870438264124 0.1069610573503198 -1.1812594060603785 2.096708136158094 2.050055466436567 -0.5199772232553553 1.139971250875655
6.42815685272 0.8421870438264124 0.1069610573503198 -1.1812594060603785 2.096708136158094 2.050055466436567 -0.5199772232553553 1.139971250875655
6.43812584877 0.8421870438264124 0.1069610573503198 -1.1812594060603785 2.096708136158094 2.050055466436567 -0.5199772232553553 1.139971250875655
6.43812584877 0.8421870438264124 0.1069610573503198 -1.1812594060603785 2.096708136158094 2.050055466436567 -0.5199772232553553 1.139971250875655
6.44809579849 0.8421870438264124 0.1069610573503198 -1.1812594060603785 2.096708136158094 2.050055466436567 -0.5199772232553553 1.139971250875655
6.44809579849 0.8421870438264124 0.1069610573503198 -1.1812594060603785 2.096708136158094 2.050055466436567 -0.5199772232553553 1.139971250875655
6.45796489716 0.8421870438264124 0.1069610573503198 -1.1812594060603785 2.096708136158094 2.050055466436567 -0.5199772232553553 1.139971250875655
6.45796489716 0.8421870438264124 0.1069610573503198 -1.1812594060603785 2.096708136158094 2.050055466436567 -0.5199772232553553 1.139971250875655
6.46811485291 0.8421870438264124 0.1069610573503198 -1.1812594060603785 2.096708136158094 2.050055466436567 -0.5199772232553553 1.139971250875655
6.46811485291 0.8421870438264124 0.1069610573503198 -1.1812594060603785 2.096708136158094 2.050055466436567 -0.5199772232553553 1.139971250875655
6.47815394402 0.8421870438264124 0.1069610573503198 -1.1812594060603785 2.096708136158094 2.050055466436567 -0.5199772232553553 1.139971250875655
6.47815394402 0.8421870438264124 0.1069610573503198 -1.1812594060603785 2.096708136158094 2.050055466436567 -0.5199772232553553 1.139971250875655
6.48808097839 0.8421870438264124 0.1069610573503198 -1.1812594060603785 2.096708136158094 2.050055466436567 -0.5199772232553553 1.139971250875655
6.48808097839 0.8421870438264124 0.1069610573503198 -1.1812594060603785 2.096708136158094 2.050055466436567 -0.5199772232553553 1.139971250875655
6.4979569912 0.8421870438264124 0.1069610573503198 -1.1812594060603785 2.096708136158094 2.050055466436567 -0.5199772232553553 1.139971250875655
6.4979569912 0.8421870438264124 0.1069610573503198 -1.1812594060603785 2.096708136158094 2.050055466436567 -0.5199772232553553 1.139971250875655
6.50810480118 0.8421870438264124 0.1069610573503198 -1.1812594060603785 2.096708136158094 2.050055466436567 -0.5199772232553553 1.139971250875655
6.50810480118 0.8421870438264124 0.1069610573503198 -1.1812594060603785 2.096708136158094 2.050055466436567 -0.5199772232553553 1.139971250875655
6.51800584793 0.8421870438264124 0.1069610573503198 -1.1812594060603785 2.096708136158094 2.050055466436567 -0.5199772232553553 1.139971250875655
6.51800584793 0.8421870438264124 0.1069610573503198 -1.1812594060603785 2.096708136158094 2.050055466436567 -0.5199772232553553 1.139971250875655
6.52802181244 0.8421870438264124 0.1069610573503198 -1.1812594060603785 2.096708136158094 2.050055466436567 -0.5199772232553553 1.139971250875655
6.52802181244 0.8421870438264124 0.1069610573503198 -1.1812594060603785 2.096708136158094 2.050055466436567 -0.5199772232553553 1.139971250875655
6.53813791275 0.8421870438264124 0.1069610573503198 -1.1812594060603785 2.096708136158094 2.050055466436567 -0.5199772232553553 1.139971250875655
6.53813791275 0.8421870438264124 0.1069610573503198 -1.1812594060603785 2.096708136158094 2.050055466436567 -0.5199772232553553 1.139971250875655
6.54813790321 0.8421870438264124 0.1069610573503198 -1.1812594060603785 2.096708136158094 2.050055466436567 -0.5199772232553553 1.139971250875655
6.54813790321 0.8421870438264124 0.1069610573503198 -1.1812594060603785 2.096708136158094 2.050055466436567 -0.5199772232553553 1.139971250875655
6.55814480782 0.8421870438264124 0.1069610573503198 -1.1812594060603785 2.096708136158094 2.050055466436567 -0.5199772232553553 1.139971250875655
6.55814480782 0.8421870438264124 0.1069610573503198 -1.1812594060603785 2.096708136158094 2.050055466436567 -0.5199772232553553 1.139971250875655
6.56814980507 0.8421870438264124 0.1069610573503198 -1.1812594060603785 2.096708136158094 2.050055466436567 -0.5199772232553553 1.139971250875655
6.56814980507 0.8421870438264124 0.1069610573503198 -1.1812594060603785 2.096708136158094 2.050055466436567 -0.5199772232553553 1.139971250875655
6.57815790176 0.8421870438264124 0.1069610573503198 -1.1812594060603785 2.096708136158094 2.050055466436567 -0.5199772232553553 1.139971250875655
6.57815790176 0.8421870438264124 0.1069610573503198 -1.1812594060603785 2.096708136158094 2.050055466436567 -0.5199772232553553 1.139971250875655
6.5881319046 0.8421870438264124 0.1069610573503198 -1.1812594060603785 2.096708136158094 2.050055466436567 -0.5199772232553553 1.139971250875655
6.5881319046 0.8421870438264124 0.1069610573503198 -1.1812594060603785 2.096708136158094 2.050055466436567 -0.5199772232553553 1.139971250875655
6.5981400013 0.8421870438264124 0.1069610573503198 -1.1812594060603785 2.096708136158094 2.050055466436567 -0.5199772232553553 1.139971250875655
6.5981400013 0.8421870438264124 0.1069610573503198 -1.1812594060603785 2.096708136158094 2.050055466436567 -0.5199772232553553 1.139971250875655
6.60811901093 0.8421870438264124 0.1069610573503198 -1.1812594060603785 2.096708136158094 2.050055466436567 -0.5199772232553553 1.139971250875655
6.60811901093 0.8421870438264124 0.1069610573503198 -1.1812594060603785 2.096708136158094 2.050055466436567 -0.5199772232553553 1.139971250875655
6.61793398857 0.8421870438264124 0.1069610573503198 -1.1812594060603785 2.096708136158094 2.050055466436567 -0.5199772232553553 1.139971250875655
6.61793398857 0.8421870438264124 0.1069610573503198 -1.1812594060603785 2.096708136158094 2.050055466436567 -0.5199772232553553 1.139971250875655
6.62812900543 0.8421870438264124 0.1069610573503198 -1.1812594060603785 2.096708136158094 2.050055466436567 -0.5199772232553553 1.139971250875655
6.62812900543 0.8421870438264124 0.1069610573503198 -1.1812594060603785 2.096708136158094 2.050055466436567 -0.5199772232553553 1.139971250875655
6.63809585571 0.8421870438264124 0.1069610573503198 -1.1812594060603785 2.096708136158094 2.050055466436567 -0.5199772232553553 1.139971250875655
6.63809585571 0.8421870438264124 0.1069610573503198 -1.1812594060603785 2.096708136158094 2.050055466436567 -0.5199772232553553 1.139971250875655
6.6481628418 0.8421870438264124 0.1069610573503198 -1.1812594060603785 2.096708136158094 2.050055466436567 -0.5199772232553553 1.139971250875655
6.6481628418 0.8421870438264124 0.1069610573503198 -1.1812594060603785 2.096708136158094 2.050055466436567 -0.5199772232553553 1.139971250875655
6.6580247879 0.8421870438264124 0.1069610573503198 -1.1812594060603785 2.096708136158094 2.050055466436567 -0.5199772232553553 1.139971250875655
6.6580247879 0.8421870438264124 0.1069610573503198 -1.1812594060603785 2.096708136158094 2.050055466436567 -0.5199772232553553 1.139971250875655
6.66805195808 0.8421870438264124 0.1069610573503198 -1.1812594060603785 2.096708136158094 2.050055466436567 -0.5199772232553553 1.139971250875655
6.66805195808 0.8421870438264124 0.1069610573503198 -1.1812594060603785 2.096708136158094 2.050055466436567 -0.5199772232553553 1.139971250875655
6.67810297012 0.8421870438264124 0.1069610573503198 -1.1812594060603785 2.096708136158094 2.050055466436567 -0.5199772232553553 1.139971250875655
6.67810297012 0.8421870438264124 0.1069610573503198 -1.1812594060603785 2.096708136158094 2.050055466436567 -0.5199772232553553 1.139971250875655
6.68813180923 0.8421870438264124 0.1069610573503198 -1.1812594060603785 2.096708136158094 2.050055466436567 -0.5199772232553553 1.139971250875655
6.68813180923 0.8421870438264124 0.1069610573503198 -1.1812594060603785 2.096708136158094 2.050055466436567 -0.5199772232553553 1.139971250875655
6.69804596901 0.8421717038150608 0.1069610573503198 -1.1812594060603785 2.096708136158094 2.050055466436567 -0.519968092336237 1.1399803817947736
6.69804596901 0.8421717038150608 0.1069610573503198 -1.1812594060603785 2.096708136158094 2.050055466436567 -0.519968092336237 1.1399803817947736
6.70805191994 0.8421717038150608 0.1069610573503198 -1.1812594060603785 2.096708136158094 2.050055466436567 -0.519968092336237 1.1399803817947736
6.70805191994 0.8421717038150608 0.1069610573503198 -1.1812594060603785 2.096708136158094 2.050055466436567 -0.519968092336237 1.1399803817947736
6.71789979935 0.8421717038150608 0.1069610573503198 -1.1812594060603785 2.096708136158094 2.050055466436567 -0.519968092336237 1.1399803817947736
6.71789979935 0.8421717038150608 0.1069610573503198 -1.1812594060603785 2.096708136158094 2.050055466436567 -0.519968092336237 1.1399803817947736
6.7281229496 0.8421717038150608 0.1069610573503198 -1.1812594060603785 2.096708136158094 2.050055466436567 -0.519968092336237 1.1399803817947736
6.7281229496 0.8421717038150608 0.1069610573503198 -1.1812594060603785 2.096708136158094 2.050055466436567 -0.519968092336237 1.1399803817947736
6.73818397522 0.8421717038150608 0.1069610573503198 -1.1812594060603785 2.096708136158094 2.050055466436567 -0.519968092336237 1.1399803817947736
6.73818397522 0.8421717038150608 0.1069610573503198 -1.1812594060603785 2.096708136158094 2.050055466436567 -0.519968092336237 1.1399803817947736
6.74823498726 0.8421717038150608 0.1069610573503198 -1.1812594060603785 2.096708136158094 2.050055466436567 -0.519968092336237 1.1399803817947736
6.74823498726 0.8421717038150608 0.1069610573503198 -1.1812594060603785 2.096708136158094 2.050055466436567 -0.519968092336237 1.1399803817947736
6.75815296173 0.8421717038150608 0.1069610573503198 -1.1812594060603785 2.096708136158094 2.050055466436567 -0.519968092336237 1.1399803817947736
6.75815296173 0.8421717038150608 0.1069610573503198 -1.1812594060603785 2.096708136158094 2.050055466436567 -0.519968092336237 1.1399803817947736
6.76797294617 0.8421717038150608 0.1069610573503198 -1.1812594060603785 2.096708136158094 2.050055466436567 -0.519968092336237 1.1399803817947736
6.76797294617 0.8421717038150608 0.1069610573503198 -1.1812594060603785 2.096708136158094 2.050055466436567 -0.519968092336237 1.1399803817947736
6.7781329155 0.8421717038150608 0.1069610573503198 -1.1812594060603785 2.096708136158094 2.050055466436567 -0.519968092336237 1.1399803817947736
6.7781329155 0.8421717038150608 0.1069610573503198 -1.1812594060603785 2.096708136158094 2.050055466436567 -0.519968092336237 1.1399803817947736
6.7881000042 0.8421717038150608 0.1069610573503198 -1.1812594060603785 2.096708136158094 2.050055466436567 -0.519968092336237 1.1399803817947736
6.7881000042 0.8421717038150608 0.1069610573503198 -1.1812594060603785 2.096708136158094 2.050055466436567 -0.519968092336237 1.1399803817947736
6.79798793793 0.8421717038150608 0.1069610573503198 -1.1812594060603785 2.096708136158094 2.050055466436567 -0.519968092336237 1.1399803817947736
6.79798793793 0.8421717038150608 0.1069610573503198 -1.1812594060603785 2.096708136158094 2.050055466436567 -0.519968092336237 1.1399803817947736
6.80800795555 0.8421717038150608 0.1069610573503198 -1.1812594060603785 2.096708136158094 2.050055466436567 -0.519968092336237 1.1399803817947736
6.80800795555 0.8421717038150608 0.1069610573503198 -1.1812594060603785 2.096708136158094 2.050055466436567 -0.519968092336237 1.1399803817947736
6.8179898262 0.8421717038150608 0.1069610573503198 -1.1812594060603785 2.096708136158094 2.050055466436567 -0.519968092336237 1.1399803817947736
6.8179898262 0.8421717038150608 0.1069610573503198 -1.1812594060603785 2.096708136158094 2.050055466436567 -0.519968092336237 1.1399803817947736
6.82786989212 0.8421717038150608 0.1069610573503198 -1.1812594060603785 2.096708136158094 2.050055466436567 -0.519968092336237 1.1399803817947736
6.82786989212 0.8421717038150608 0.1069610573503198 -1.1812594060603785 2.096708136158094 2.050055466436567 -0.519968092336237 1.1399803817947736
6.83801198006 0.8421717038150608 0.1069610573503198 -1.1812594060603785 2.096708136158094 2.050055466436567 -0.519968092336237 1.1399803817947736
6.83801198006 0.8421717038150608 0.1069610573503198 -1.1812594060603785 2.096708136158094 2.050055466436567 -0.519968092336237 1.1399803817947736
6.84802079201 0.8421717038150608 0.1069610573503198 -1.1812594060603785 2.096708136158094 2.050055466436567 -0.519968092336237 1.1399803817947736
6.84802079201 0.8421717038150608 0.1069610573503198 -1.1812594060603785 2.096708136158094 2.050055466436567 -0.519968092336237 1.1399803817947736
6.85811185837 0.8421717038150608 0.1069610573503198 -1.1812594060603785 2.096708136158094 2.050055466436567 -0.519968092336237 1.1399803817947736
6.85811185837 0.8421717038150608 0.1069610573503198 -1.1812594060603785 2.096708136158094 2.050055466436567 -0.519968092336237 1.1399803817947736
6.86811494827 0.8421717038150608 0.1069610573503198 -1.1812594060603785 2.096708136158094 2.050055466436567 -0.519968092336237 1.1399803817947736
6.86811494827 0.8421717038150608 0.1069610573503198 -1.1812594060603785 2.096708136158094 2.050055466436567 -0.519968092336237 1.1399803817947736
6.87811183929 0.8421717038150608 0.1069610573503198 -1.1812594060603785 2.096708136158094 2.050055466436567 -0.519968092336237 1.1399803817947736
6.87811183929 0.8421717038150608 0.1069610573503198 -1.1812594060603785 2.096708136158094 2.050055466436567 -0.519968092336237 1.1399803817947736
6.88773584366 0.8421717038150608 0.1069610573503198 -1.1812594060603785 2.096708136158094 2.050046335517449 -0.519968092336237 1.1399803817947736
6.88773584366 0.8421717038150608 0.1069610573503198 -1.1812594060603785 2.096708136158094 2.050046335517449 -0.519968092336237 1.1399803817947736
6.89767694473 0.8421717038150608 0.1069610573503198 -1.1812594060603785 2.096708136158094 2.050046335517449 -0.519968092336237 1.1399803817947736
6.89767694473 0.8421717038150608 0.1069610573503198 -1.1812594060603785 2.096708136158094 2.050046335517449 -0.519968092336237 1.1399803817947736
6.90768885612 0.8421563638037093 0.1069610573503198 -1.1812594060603785 2.096708136158094 2.050055466436567 -0.519968092336237 1.1399803817947736
6.90768885612 0.8421563638037093 0.1069610573503198 -1.1812594060603785 2.096708136158094 2.050055466436567 -0.519968092336237 1.1399803817947736
6.91768884659 0.8421563638037093 0.1069610573503198 -1.1812594060603785 2.096708136158094 2.050055466436567 -0.519968092336237 1.1399803817947736
6.91768884659 0.8421563638037093 0.1069610573503198 -1.1812594060603785 2.096708136158094 2.050055466436567 -0.519968092336237 1.1399803817947736
6.92795777321 0.8421563638037093 0.1069610573503198 -1.1812594060603785 2.096708136158094 2.050055466436567 -0.519968092336237 1.1399803817947736
6.92795777321 0.8421563638037093 0.1069610573503198 -1.1812594060603785 2.096708136158094 2.050055466436567 -0.519968092336237 1.1399803817947736
6.93789291382 0.8421563638037093 0.1069610573503198 -1.1812594060603785 2.096708136158094 2.050055466436567 -0.519968092336237 1.1399803817947736
6.93789291382 0.8421563638037093 0.1069610573503198 -1.1812594060603785 2.096708136158094 2.050055466436567 -0.519968092336237 1.1399803817947736
6.94808292389 0.8421563638037093 0.1069610573503198 -1.1812594060603785 2.096708136158094 2.050055466436567 -0.519968092336237 1.1399803817947736
6.94808292389 0.8421563638037093 0.1069610573503198 -1.1812594060603785 2.096708136158094 2.050055466436567 -0.519968092336237 1.1399803817947736
6.95808792114 0.8421563638037093 0.1069610573503198 -1.1812594060603785 2.096708136158094 2.050055466436567 -0.519968092336237 1.1399803817947736
6.95808792114 0.8421563638037093 0.1069610573503198 -1.1812594060603785 2.096708136158094 2.050055466436567 -0.519968092336237 1.1399803817947736
6.96816086769 0.8421563638037093 0.1069610573503198 -1.1812594060603785 2.096708136158094 2.050055466436567 -0.519968092336237 1.1399803817947736
6.96816086769 0.8421563638037093 0.1069610573503198 -1.1812594060603785 2.096708136158094 2.050055466436567 -0.519968092336237 1.1399803817947736
6.97811698914 0.8421563638037093 0.1069610573503198 -1.1812594060603785 2.096708136158094 2.050055466436567 -0.519968092336237 1.1399803817947736
6.97811698914 0.8421563638037093 0.1069610573503198 -1.1812594060603785 2.096708136158094 2.050055466436567 -0.519968092336237 1.1399803817947736
6.98791480064 0.8421563638037093 0.1069610573503198 -1.1812594060603785 2.096708136158094 2.050055466436567 -0.519968092336237 1.1399803817947736
6.98791480064 0.8421563638037093 0.1069610573503198 -1.1812594060603785 2.096708136158094 2.050055466436567 -0.519968092336237 1.1399803817947736
6.99768900871 0.842125683781006 0.1069610573503198 -1.1812594060603785 2.096708136158094 2.050055466436567 -0.5199726577957962 1.1399758163352145
6.99768900871 0.842125683781006 0.1069610573503198 -1.1812594060603785 2.096708136158094 2.050055466436567 -0.5199726577957962 1.1399758163352145
7.00857686996 0.8419416036447868 0.1069610573503198 -1.1812594060603785 2.096677456135391 2.050055466436567 -0.519968092336237 1.1399803817947736
7.00857686996 0.8419416036447868 0.1069610573503198 -1.1812594060603785 2.096677456135391 2.050055466436567 -0.519968092336237 1.1399803817947736
7.01771378517 0.8419416036447868 0.1069610573503198 -1.1812594060603785 2.096677456135391 2.050055466436567 -0.519968092336237 1.1399803817947736
7.01771378517 0.8419416036447868 0.1069610573503198 -1.1812594060603785 2.096677456135391 2.050055466436567 -0.519968092336237 1.1399803817947736
7.02782297134 0.8419416036447868 0.1069610573503198 -1.1812594060603785 2.096677456135391 2.050055466436567 -0.519968092336237 1.1399803817947736
7.02782297134 0.8419416036447868 0.1069610573503198 -1.1812594060603785 2.096677456135391 2.050055466436567 -0.519968092336237 1.1399803817947736
7.03802680969 0.8419416036447868 0.1069610573503198 -1.1812594060603785 2.096677456135391 2.050055466436567 -0.519968092336237 1.1399803817947736
7.03802680969 0.8419416036447868 0.1069610573503198 -1.1812594060603785 2.096677456135391 2.050055466436567 -0.519968092336237 1.1399803817947736
7.04785299301 0.8419416036447868 0.1069610573503198 -1.1812594060603785 2.096677456135391 2.050055466436567 -0.5199726577957962 1.1399758163352145
7.04785299301 0.8419416036447868 0.1069610573503198 -1.1812594060603785 2.096677456135391 2.050055466436567 -0.5199726577957962 1.1399758163352145
7.05792498589 0.8419416036447868 0.1069610573503198 -1.1812594060603785 2.096677456135391 2.050055466436567 -0.5199726577957962 1.1399758163352145
7.05792498589 0.8419416036447868 0.1069610573503198 -1.1812594060603785 2.096677456135391 2.050055466436567 -0.5199726577957962 1.1399758163352145
7.06803584099 0.8419416036447868 0.1069610573503198 -1.1812594060603785 2.096677456135391 2.050055466436567 -0.519968092336237 1.1399803817947736
7.06803584099 0.8419416036447868 0.1069610573503198 -1.1812594060603785 2.096677456135391 2.050055466436567 -0.519968092336237 1.1399803817947736
7.07813191414 0.8419416036447868 0.1069610573503198 -1.1812594060603785 2.096677456135391 2.050055466436567 -0.519968092336237 1.1399803817947736
7.07813191414 0.8419416036447868 0.1069610573503198 -1.1812594060603785 2.096677456135391 2.050055466436567 -0.519968092336237 1.1399803817947736
7.0881857872 0.8419416036447868 0.1069610573503198 -1.1812594060603785 2.096677456135391 2.050055466436567 -0.519968092336237 1.1399803817947736
7.0881857872 0.8419416036447868 0.1069610573503198 -1.1812594060603785 2.096677456135391 2.050055466436567 -0.519968092336237 1.1399803817947736
7.09813690186 0.8419416036447868 0.1069610573503198 -1.1812594060603785 2.096677456135391 2.050055466436567 -0.519968092336237 1.1399803817947736
7.09813690186 0.8419416036447868 0.1069610573503198 -1.1812594060603785 2.096677456135391 2.050055466436567 -0.519968092336237 1.1399803817947736
7.10798978806 0.8419416036447868 0.1069610573503198 -1.1812594060603785 2.096677456135391 2.050055466436567 -0.519968092336237 1.1399803817947736
7.10798978806 0.8419416036447868 0.1069610573503198 -1.1812594060603785 2.096677456135391 2.050055466436567 -0.519968092336237 1.1399803817947736
7.11808586121 0.8419416036447868 0.1069610573503198 -1.1812594060603785 2.096677456135391 2.050055466436567 -0.519968092336237 1.1399803817947736
7.11808586121 0.8419416036447868 0.1069610573503198 -1.1812594060603785 2.096677456135391 2.050055466436567 -0.519968092336237 1.1399803817947736
7.12808680534 0.8419416036447868 0.1069610573503198 -1.1812594060603785 2.096677456135391 2.050055466436567 -0.519968092336237 1.1399803817947736
7.12808680534 0.8419416036447868 0.1069610573503198 -1.1812594060603785 2.096677456135391 2.050055466436567 -0.519968092336237 1.1399803817947736
7.13817501068 0.8419416036447868 0.1069610573503198 -1.1812594060603785 2.096677456135391 2.050055466436567 -0.519968092336237 1.1399803817947736
7.13817501068 0.8419416036447868 0.1069610573503198 -1.1812594060603785 2.096677456135391 2.050055466436567 -0.519968092336237 1.1399803817947736
7.14801192284 0.8419416036447868 0.1069610573503198 -1.1812594060603785 2.096677456135391 2.050055466436567 -0.519968092336237 1.1399803817947736
7.14801192284 0.8419416036447868 0.1069610573503198 -1.1812594060603785 2.096677456135391 2.050055466436567 -0.519968092336237 1.1399803817947736
7.15809988976 0.8419416036447868 0.1069610573503198 -1.1812594060603785 2.096677456135391 2.050055466436567 -0.519968092336237 1.1399803817947736
7.15809988976 0.8419416036447868 0.1069610573503198 -1.1812594060603785 2.096677456135391 2.050055466436567 -0.519968092336237 1.1399803817947736
7.16823482513 0.8419416036447868 0.1069610573503198 -1.1812594060603785 2.096677456135391 2.050055466436567 -0.519968092336237 1.1399803817947736
7.16823482513 0.8419416036447868 0.1069610573503198 -1.1812594060603785 2.096677456135391 2.050055466436567 -0.519968092336237 1.1399803817947736
7.17809581757 0.8419416036447868 0.1069610573503198 -1.1812594060603785 2.096677456135391 2.050055466436567 -0.519968092336237 1.1399803817947736
7.17809581757 0.8419416036447868 0.1069610573503198 -1.1812594060603785 2.096677456135391 2.050055466436567 -0.519968092336237 1.1399803817947736
7.18808293343 0.8419416036447868 0.1069610573503198 -1.1812594060603785 2.096677456135391 2.050055466436567 -0.519968092336237 1.1399803817947736
7.18808293343 0.8419416036447868 0.1069610573503198 -1.1812594060603785 2.096677456135391 2.050055466436567 -0.519968092336237 1.1399803817947736
7.19812989235 0.8419416036447868 0.1069610573503198 -1.1812594060603785 2.096677456135391 2.050055466436567 -0.519968092336237 1.1399803817947736
7.19812989235 0.8419416036447868 0.1069610573503198 -1.1812594060603785 2.096677456135391 2.050055466436567 -0.519968092336237 1.1399803817947736
7.20800900459 0.8419416036447868 0.1069610573503198 -1.1812594060603785 2.096677456135391 2.050055466436567 -0.519968092336237 1.1399803817947736
7.20800900459 0.8419416036447868 0.1069610573503198 -1.1812594060603785 2.096677456135391 2.050055466436567 -0.519968092336237 1.1399803817947736
7.21809482574 0.8419416036447868 0.1069610573503198 -1.1812594060603785 2.096677456135391 2.050055466436567 -0.519968092336237 1.1399803817947736
7.21809482574 0.8419416036447868 0.1069610573503198 -1.1812594060603785 2.096677456135391 2.050055466436567 -0.519968092336237 1.1399803817947736
7.22801780701 0.8419416036447868 0.1069610573503198 -1.1812594060603785 2.096677456135391 2.050055466436567 -0.519968092336237 1.1399803817947736
7.22801780701 0.8419416036447868 0.1069610573503198 -1.1812594060603785 2.096677456135391 2.050055466436567 -0.519968092336237 1.1399803817947736
7.23809599876 0.8419416036447868 0.1069610573503198 -1.1812594060603785 2.096677456135391 2.050055466436567 -0.519968092336237 1.1399803817947736
7.23809599876 0.8419416036447868 0.1069610573503198 -1.1812594060603785 2.096677456135391 2.050055466436567 -0.519968092336237 1.1399803817947736
7.2481148243 0.8419416036447868 0.1069610573503198 -1.1812594060603785 2.096677456135391 2.050055466436567 -0.519968092336237 1.1399803817947736
7.2481148243 0.8419416036447868 0.1069610573503198 -1.1812594060603785 2.096677456135391 2.050055466436567 -0.519968092336237 1.1399803817947736
7.25812196732 0.8419416036447868 0.1069610573503198 -1.1812594060603785 2.096677456135391 2.050055466436567 -0.519968092336237 1.1399803817947736
7.25812196732 0.8419416036447868 0.1069610573503198 -1.1812594060603785 2.096677456135391 2.050055466436567 -0.519968092336237 1.1399803817947736
7.26793694496 0.8419416036447868 0.1069610573503198 -1.1812594060603785 2.096677456135391 2.050055466436567 -0.519968092336237 1.1399803817947736
7.26793694496 0.8419416036447868 0.1069610573503198 -1.1812594060603785 2.096677456135391 2.050055466436567 -0.519968092336237 1.1399803817947736
7.27795791626 0.8419416036447868 0.1069610573503198 -1.1812594060603785 2.096677456135391 2.050055466436567 -0.519968092336237 1.1399803817947736
7.27795791626 0.8419416036447868 0.1069610573503198 -1.1812594060603785 2.096677456135391 2.050055466436567 -0.519968092336237 1.1399803817947736
7.28809499741 0.8419416036447868 0.1069610573503198 -1.1812594060603785 2.096677456135391 2.050055466436567 -0.519968092336237 1.1399803817947736
7.28809499741 0.8419416036447868 0.1069610573503198 -1.1812594060603785 2.096677456135391 2.050055466436567 -0.519968092336237 1.1399803817947736
7.29813694954 0.8419416036447868 0.1069610573503198 -1.1812594060603785 2.096677456135391 2.050055466436567 -0.519968092336237 1.1399803817947736
7.29813694954 0.8419416036447868 0.1069610573503198 -1.1812594060603785 2.096677456135391 2.050055466436567 -0.519968092336237 1.1399803817947736
7.30818581581 0.8419416036447868 0.1069610573503198 -1.1812594060603785 2.096677456135391 2.050055466436567 -0.519968092336237 1.1399803817947736
7.30818581581 0.8419416036447868 0.1069610573503198 -1.1812594060603785 2.096677456135391 2.050055466436567 -0.519968092336237 1.1399803817947736
7.31813788414 0.8419416036447868 0.1069610573503198 -1.1812594060603785 2.096677456135391 2.050055466436567 -0.519968092336237 1.1399803817947736
7.31813788414 0.8419416036447868 0.1069610573503198 -1.1812594060603785 2.096677456135391 2.050055466436567 -0.519968092336237 1.1399803817947736
7.32792878151 0.8419416036447868 0.1069610573503198 -1.1812594060603785 2.096677456135391 2.050055466436567 -0.519968092336237 1.1399803817947736
7.32792878151 0.8419416036447868 0.1069610573503198 -1.1812594060603785 2.096677456135391 2.050055466436567 -0.519968092336237 1.1399803817947736
7.33791589737 0.8419416036447868 0.1069610573503198 -1.1812594060603785 2.096677456135391 2.050055466436567 -0.519968092336237 1.1399803817947736
7.33791589737 0.8419416036447868 0.1069610573503198 -1.1812594060603785 2.096677456135391 2.050055466436567 -0.519968092336237 1.1399803817947736
7.34790682793 0.8419416036447868 0.1069610573503198 -1.1812594060603785 2.096677456135391 2.050055466436567 -0.519968092336237 1.1399803817947736
7.34790682793 0.8419416036447868 0.1069610573503198 -1.1812594060603785 2.096677456135391 2.050055466436567 -0.519968092336237 1.1399803817947736
7.3580288887 0.8419416036447868 0.1069610573503198 -1.1812594060603785 2.096677456135391 2.050055466436567 -0.519968092336237 1.1399803817947736
7.3580288887 0.8419416036447868 0.1069610573503198 -1.1812594060603785 2.096677456135391 2.050055466436567 -0.519968092336237 1.1399803817947736
7.36794495583 0.8419416036447868 0.1069610573503198 -1.1812594060603785 2.096677456135391 2.050055466436567 -0.519968092336237 1.1399803817947736
7.36794495583 0.8419416036447868 0.1069610573503198 -1.1812594060603785 2.096677456135391 2.050055466436567 -0.519968092336237 1.1399803817947736
7.3779129982 0.8419416036447868 0.1069610573503198 -1.1812594060603785 2.096677456135391 2.050055466436567 -0.519968092336237 1.1399803817947736
7.3779129982 0.8419416036447868 0.1069610573503198 -1.1812594060603785 2.096677456135391 2.050055466436567 -0.519968092336237 1.1399803817947736
7.38799881935 0.8419416036447868 0.1069610573503198 -1.1812594060603785 2.096677456135391 2.050055466436567 -0.519968092336237 1.1399803817947736
7.38799881935 0.8419416036447868 0.1069610573503198 -1.1812594060603785 2.096677456135391 2.050055466436567 -0.519968092336237 1.1399803817947736
7.39806294441 0.8419416036447868 0.1069610573503198 -1.1812594060603785 2.096677456135391 2.050055466436567 -0.519968092336237 1.1399803817947736
7.39806294441 0.8419416036447868 0.1069610573503198 -1.1812594060603785 2.096677456135391 2.050055466436567 -0.519968092336237 1.1399803817947736
7.40808081627 0.8419416036447868 0.1069610573503198 -1.1812594060603785 2.096677456135391 2.050055466436567 -0.519968092336237 1.1399803817947736
7.40808081627 0.8419416036447868 0.1069610573503198 -1.1812594060603785 2.096677456135391 2.050055466436567 -0.519968092336237 1.1399803817947736
7.41817784309 0.8419416036447868 0.1069610573503198 -1.1812594060603785 2.096677456135391 2.050055466436567 -0.519968092336237 1.1399803817947736
7.41817784309 0.8419416036447868 0.1069610573503198 -1.1812594060603785 2.096677456135391 2.050055466436567 -0.519968092336237 1.1399803817947736
7.42814683914 0.8419416036447868 0.1069610573503198 -1.1812594060603785 2.096677456135391 2.050055466436567 -0.519968092336237 1.1399803817947736
7.42814683914 0.8419416036447868 0.1069610573503198 -1.1812594060603785 2.096677456135391 2.050055466436567 -0.519968092336237 1.1399803817947736
7.43805885315 0.8419416036447868 0.1069610573503198 -1.1812594060603785 2.096677456135391 2.050055466436567 -0.519968092336237 1.1399803817947736
7.43805885315 0.8419416036447868 0.1069610573503198 -1.1812594060603785 2.096677456135391 2.050055466436567 -0.519968092336237 1.1399803817947736
7.44805788994 0.8419416036447868 0.1069610573503198 -1.1812594060603785 2.096677456135391 2.050055466436567 -0.519968092336237 1.1399803817947736
7.44805788994 0.8419416036447868 0.1069610573503198 -1.1812594060603785 2.096677456135391 2.050055466436567 -0.519968092336237 1.1399803817947736
7.4580988884 0.8419416036447868 0.1069610573503198 -1.1812594060603785 2.096677456135391 2.050055466436567 -0.519968092336237 1.1399803817947736
7.4580988884 0.8419416036447868 0.1069610573503198 -1.1812594060603785 2.096677456135391 2.050055466436567 -0.519968092336237 1.1399803817947736
7.46812200546 0.8419416036447868 0.1069610573503198 -1.1812594060603785 2.096677456135391 2.050055466436567 -0.519968092336237 1.1399803817947736
7.46812200546 0.8419416036447868 0.1069610573503198 -1.1812594060603785 2.096677456135391 2.050055466436567 -0.519968092336237 1.1399803817947736
7.47796988487 0.8419416036447868 0.1069610573503198 -1.1812594060603785 2.096677456135391 2.050055466436567 -0.519968092336237 1.1399803817947736
7.47796988487 0.8419416036447868 0.1069610573503198 -1.1812594060603785 2.096677456135391 2.050055466436567 -0.519968092336237 1.1399803817947736
7.48793697357 0.8419416036447868 0.1069610573503198 -1.1812594060603785 2.096677456135391 2.050055466436567 -0.519968092336237 1.1399803817947736
7.48793697357 0.8419416036447868 0.1069610573503198 -1.1812594060603785 2.096677456135391 2.050055466436567 -0.519968092336237 1.1399803817947736
7.49798679352 0.8419416036447868 0.1069610573503198 -1.1812594060603785 2.096677456135391 2.050055466436567 -0.519968092336237 1.1399803817947736
7.49798679352 0.8419416036447868 0.1069610573503198 -1.1812594060603785 2.096677456135391 2.050055466436567 -0.519968092336237 1.1399803817947736
7.50811600685 0.8419416036447868 0.1069610573503198 -1.1812594060603785 2.096677456135391 2.050055466436567 -0.519968092336237 1.1399803817947736
7.50811600685 0.8419416036447868 0.1069610573503198 -1.1812594060603785 2.096677456135391 2.050055466436567 -0.519968092336237 1.1399803817947736
7.51813793182 0.8419416036447868 0.1069610573503198 -1.1812594060603785 2.096677456135391 2.050055466436567 -0.519968092336237 1.1399803817947736
7.51813793182 0.8419416036447868 0.1069610573503198 -1.1812594060603785 2.096677456135391 2.050055466436567 -0.519968092336237 1.1399803817947736
7.52796196938 0.8419416036447868 0.1069610573503198 -1.1812594060603785 2.096677456135391 2.050055466436567 -0.519968092336237 1.1399803817947736
7.52796196938 0.8419416036447868 0.1069610573503198 -1.1812594060603785 2.096677456135391 2.050055466436567 -0.519968092336237 1.1399803817947736
7.53789877892 0.8419416036447868 0.1069610573503198 -1.1812594060603785 2.096677456135391 2.050055466436567 -0.519968092336237 1.1399803817947736
7.53789877892 0.8419416036447868 0.1069610573503198 -1.1812594060603785 2.096677456135391 2.050055466436567 -0.519968092336237 1.1399803817947736
7.5480389595 0.8419416036447868 0.1069610573503198 -1.1812594060603785 2.096677456135391 2.050055466436567 -0.519968092336237 1.1399803817947736
7.5480389595 0.8419416036447868 0.1069610573503198 -1.1812594060603785 2.096677456135391 2.050055466436567 -0.519968092336237 1.1399803817947736
7.55815792084 0.8419416036447868 0.1069610573503198 -1.1812594060603785 2.096677456135391 2.050055466436567 -0.519968092336237 1.1399803817947736
7.55815792084 0.8419416036447868 0.1069610573503198 -1.1812594060603785 2.096677456135391 2.050055466436567 -0.519968092336237 1.1399803817947736
7.56808495522 0.8419416036447868 0.1069610573503198 -1.1812594060603785 2.096677456135391 2.050055466436567 -0.519968092336237 1.1399803817947736
7.56808495522 0.8419416036447868 0.1069610573503198 -1.1812594060603785 2.096677456135391 2.050055466436567 -0.519968092336237 1.1399803817947736
7.57807397842 0.8419416036447868 0.1069610573503198 -1.1812594060603785 2.096677456135391 2.050055466436567 -0.519968092336237 1.1399803817947736
7.57807397842 0.8419416036447868 0.1069610573503198 -1.1812594060603785 2.096677456135391 2.050055466436567 -0.519968092336237 1.1399803817947736
7.5879099369 0.8419416036447868 0.1069610573503198 -1.1812594060603785 2.096677456135391 2.050055466436567 -0.519968092336237 1.1399803817947736
7.5879099369 0.8419416036447868 0.1069610573503198 -1.1812594060603785 2.096677456135391 2.050055466436567 -0.519968092336237 1.1399803817947736
7.59792995453 0.8419416036447868 0.1069610573503198 -1.1812594060603785 2.096677456135391 2.050055466436567 -0.519968092336237 1.1399803817947736
7.59792995453 0.8419416036447868 0.1069610573503198 -1.1812594060603785 2.096677456135391 2.050055466436567 -0.519968092336237 1.1399803817947736
7.60797190666 0.8419416036447868 0.1069610573503198 -1.1812594060603785 2.096677456135391 2.050055466436567 -0.519968092336237 1.1399803817947736
7.60797190666 0.8419416036447868 0.1069610573503198 -1.1812594060603785 2.096677456135391 2.050055466436567 -0.519968092336237 1.1399803817947736
7.61811590195 0.8419416036447868 0.1069610573503198 -1.1812594060603785 2.096677456135391 2.050055466436567 -0.519968092336237 1.1399803817947736
7.61811590195 0.8419416036447868 0.1069610573503198 -1.1812594060603785 2.096677456135391 2.050055466436567 -0.519968092336237 1.1399803817947736
7.62805581093 0.8419416036447868 0.1069610573503198 -1.1812594060603785 2.096677456135391 2.050055466436567 -0.519968092336237 1.1399803817947736
7.62805581093 0.8419416036447868 0.1069610573503198 -1.1812594060603785 2.096677456135391 2.050055466436567 -0.519968092336237 1.1399803817947736
7.63815498352 0.8419416036447868 0.1069610573503198 -1.1812594060603785 2.096677456135391 2.050055466436567 -0.519968092336237 1.1399803817947736
7.63815498352 0.8419416036447868 0.1069610573503198 -1.1812594060603785 2.096677456135391 2.050055466436567 -0.519968092336237 1.1399803817947736
7.64806485176 0.8419416036447868 0.1069610573503198 -1.1812594060603785 2.096677456135391 2.050055466436567 -0.519968092336237 1.1399803817947736
7.64806485176 0.8419416036447868 0.1069610573503198 -1.1812594060603785 2.096677456135391 2.050055466436567 -0.519968092336237 1.1399803817947736
7.65812587738 0.8419416036447868 0.1069610573503198 -1.1812594060603785 2.096677456135391 2.050055466436567 -0.519968092336237 1.1399803817947736
7.65812587738 0.8419416036447868 0.1069610573503198 -1.1812594060603785 2.096677456135391 2.050055466436567 -0.519968092336237 1.1399803817947736
7.66808795929 0.8419416036447868 0.1069610573503198 -1.1812594060603785 2.096677456135391 2.050055466436567 -0.519968092336237 1.1399803817947736
7.66808795929 0.8419416036447868 0.1069610573503198 -1.1812594060603785 2.096677456135391 2.050055466436567 -0.519968092336237 1.1399803817947736
7.67804384232 0.8419416036447868 0.1069610573503198 -1.1812594060603785 2.096677456135391 2.050055466436567 -0.519968092336237 1.1399803817947736
7.67804384232 0.8419416036447868 0.1069610573503198 -1.1812594060603785 2.096677456135391 2.050055466436567 -0.519968092336237 1.1399803817947736
7.688133955 0.8419416036447868 0.1069610573503198 -1.1812594060603785 2.096677456135391 2.050055466436567 -0.519968092336237 1.1399803817947736
7.688133955 0.8419416036447868 0.1069610573503198 -1.1812594060603785 2.096677456135391 2.050055466436567 -0.519968092336237 1.1399803817947736
7.69805693626 0.8419416036447868 0.1069610573503198 -1.1812594060603785 2.096677456135391 2.050055466436567 -0.519968092336237 1.1399803817947736
7.69805693626 0.8419416036447868 0.1069610573503198 -1.1812594060603785 2.096677456135391 2.050055466436567 -0.519968092336237 1.1399803817947736
7.70789384842 0.8419416036447868 0.1069610573503198 -1.1812594060603785 2.096677456135391 2.050055466436567 -0.519968092336237 1.1399803817947736
7.70789384842 0.8419416036447868 0.1069610573503198 -1.1812594060603785 2.096677456135391 2.050055466436567 -0.519968092336237 1.1399803817947736
7.7180788517 0.8419416036447868 0.1069610573503198 -1.1812594060603785 2.096677456135391 2.050055466436567 -0.519968092336237 1.1399803817947736
7.7180788517 0.8419416036447868 0.1069610573503198 -1.1812594060603785 2.096677456135391 2.050055466436567 -0.519968092336237 1.1399803817947736
7.72802400589 0.8419416036447868 0.1069610573503198 -1.1812594060603785 2.096677456135391 2.050055466436567 -0.519968092336237 1.1399803817947736
7.72802400589 0.8419416036447868 0.1069610573503198 -1.1812594060603785 2.096677456135391 2.050055466436567 -0.519968092336237 1.1399803817947736
7.73814678192 0.8419416036447868 0.1069610573503198 -1.1812594060603785 2.096677456135391 2.050055466436567 -0.519968092336237 1.1399803817947736
7.73814678192 0.8419416036447868 0.1069610573503198 -1.1812594060603785 2.096677456135391 2.050055466436567 -0.519968092336237 1.1399803817947736
7.74815988541 0.8419416036447868 0.1069610573503198 -1.1812594060603785 2.096677456135391 2.050055466436567 -0.519968092336237 1.1399803817947736
7.74815988541 0.8419416036447868 0.1069610573503198 -1.1812594060603785 2.096677456135391 2.050055466436567 -0.519968092336237 1.1399803817947736
7.7580947876 0.8419416036447868 0.1069610573503198 -1.1812594060603785 2.096677456135391 2.050055466436567 -0.519968092336237 1.1399803817947736
7.7580947876 0.8419416036447868 0.1069610573503198 -1.1812594060603785 2.096677456135391 2.050055466436567 -0.519968092336237 1.1399803817947736
7.7680478096 0.8416808234518094 0.1069610573503198 -1.1812594060603785 2.096677456135391 2.050055466436567 -0.5199726577957962 1.1399758163352145
7.7680478096 0.8416808234518094 0.1069610573503198 -1.1812594060603785 2.096677456135391 2.050055466436567 -0.5199726577957962 1.1399758163352145
7.77800679207 0.8416808234518094 0.1069610573503198 -1.1812594060603785 2.096677456135391 2.050055466436567 -0.5199726577957962 1.1399758163352145
7.77800679207 0.8416808234518094 0.1069610573503198 -1.1812594060603785 2.096677456135391 2.050055466436567 -0.5199726577957962 1.1399758163352145
7.78806185722 0.8416808234518094 0.1069610573503198 -1.1812594060603785 2.096677456135391 2.050055466436567 -0.5199726577957962 1.1399758163352145
7.78806185722 0.8416808234518094 0.1069610573503198 -1.1812594060603785 2.096677456135391 2.050055466436567 -0.5199726577957962 1.1399758163352145
7.79811382294 0.8416808234518094 0.1069610573503198 -1.1812594060603785 2.096677456135391 2.050055466436567 -0.5199726577957962 1.1399758163352145
7.79811382294 0.8416808234518094 0.1069610573503198 -1.1812594060603785 2.096677456135391 2.050055466436567 -0.5199726577957962 1.1399758163352145
7.80792880058 0.8416808234518094 0.1069610573503198 -1.1812594060603785 2.096677456135391 2.050055466436567 -0.5199726577957962 1.1399758163352145
7.80792880058 0.8416808234518094 0.1069610573503198 -1.1812594060603785 2.096677456135391 2.050055466436567 -0.5199726577957962 1.1399758163352145
7.81809592247 0.8416808234518094 0.1069610573503198 -1.1812594060603785 2.096677456135391 2.050055466436567 -0.5199726577957962 1.1399758163352145
7.81809592247 0.8416808234518094 0.1069610573503198 -1.1812594060603785 2.096677456135391 2.050055466436567 -0.5199726577957962 1.1399758163352145
7.82802200317 0.8416808234518094 0.1069610573503198 -1.1812594060603785 2.096677456135391 2.050055466436567 -0.5199726577957962 1.1399758163352145
7.82802200317 0.8416808234518094 0.1069610573503198 -1.1812594060603785 2.096677456135391 2.050055466436567 -0.5199726577957962 1.1399758163352145
7.83812689781 0.8416808234518094 0.1069610573503198 -1.1812594060603785 2.096677456135391 2.050055466436567 -0.5199726577957962 1.1399758163352145
7.83812689781 0.8416808234518094 0.1069610573503198 -1.1812594060603785 2.096677456135391 2.050055466436567 -0.5199726577957962 1.1399758163352145
7.84811091423 0.8416808234518094 0.1069610573503198 -1.1812594060603785 2.096677456135391 2.050055466436567 -0.5199726577957962 1.1399758163352145
7.84811091423 0.8416808234518094 0.1069610573503198 -1.1812594060603785 2.096677456135391 2.050055466436567 -0.5199726577957962 1.1399758163352145
7.85815191269 0.8416808234518094 0.1069610573503198 -1.1812594060603785 2.096677456135391 2.050055466436567 -0.5199726577957962 1.1399758163352145
7.85815191269 0.8416808234518094 0.1069610573503198 -1.1812594060603785 2.096677456135391 2.050055466436567 -0.5199726577957962 1.1399758163352145
7.86814880371 0.8416808234518094 0.1069610573503198 -1.1812594060603785 2.096677456135391 2.050055466436567 -0.5199726577957962 1.1399758163352145
7.86814880371 0.8416808234518094 0.1069610573503198 -1.1812594060603785 2.096677456135391 2.050055466436567 -0.5199726577957962 1.1399758163352145
7.87803387642 0.8416808234518094 0.1069610573503198 -1.1812594060603785 2.096677456135391 2.050055466436567 -0.5199726577957962 1.1399758163352145
7.87803387642 0.8416808234518094 0.1069610573503198 -1.1812594060603785 2.096677456135391 2.050055466436567 -0.5199726577957962 1.1399758163352145
7.88813185692 0.8416808234518094 0.1069610573503198 -1.1812594060603785 2.096677456135391 2.050055466436567 -0.5199726577957962 1.1399758163352145
7.88813185692 0.8416808234518094 0.1069610573503198 -1.1812594060603785 2.096677456135391 2.050055466436567 -0.5199726577957962 1.1399758163352145
7.89815688133 0.8416808234518094 0.1069610573503198 -1.1812594060603785 2.096677456135391 2.050055466436567 -0.5199726577957962 1.1399758163352145
7.89815688133 0.8416808234518094 0.1069610573503198 -1.1812594060603785 2.096677456135391 2.050055466436567 -0.5199726577957962 1.1399758163352145
7.90828585625 0.8416808234518094 0.1069610573503198 -1.1812594060603785 2.096677456135391 2.050055466436567 -0.5199726577957962 1.1399758163352145
7.90828585625 0.8416808234518094 0.1069610573503198 -1.1812594060603785 2.096677456135391 2.050055466436567 -0.5199726577957962 1.1399758163352145
7.91804790497 0.8416808234518094 0.1069610573503198 -1.1812594060603785 2.096677456135391 2.050055466436567 -0.5199726577957962 1.1399758163352145
7.91804790497 0.8416808234518094 0.1069610573503198 -1.1812594060603785 2.096677456135391 2.050055466436567 -0.5199726577957962 1.1399758163352145
7.92822194099 0.8416808234518094 0.1069610573503198 -1.1812594060603785 2.096677456135391 2.050055466436567 -0.5199726577957962 1.1399758163352145
7.92822194099 0.8416808234518094 0.1069610573503198 -1.1812594060603785 2.096677456135391 2.050055466436567 -0.5199726577957962 1.1399758163352145
7.93795990944 0.8416808234518094 0.1069610573503198 -1.1812594060603785 2.096677456135391 2.050055466436567 -0.5199726577957962 1.1399758163352145
7.93795990944 0.8416808234518094 0.1069610573503198 -1.1812594060603785 2.096677456135391 2.050055466436567 -0.5199726577957962 1.1399758163352145
7.9480099678 0.8416808234518094 0.1069610573503198 -1.1812594060603785 2.096677456135391 2.050055466436567 -0.5199726577957962 1.1399758163352145
7.9480099678 0.8416808234518094 0.1069610573503198 -1.1812594060603785 2.096677456135391 2.050055466436567 -0.5199726577957962 1.1399758163352145
7.95809698105 0.8416808234518094 0.1069610573503198 -1.1812594060603785 2.096677456135391 2.050055466436567 -0.5199726577957962 1.1399758163352145
7.95809698105 0.8416808234518094 0.1069610573503198 -1.1812594060603785 2.096677456135391 2.050055466436567 -0.5199726577957962 1.1399758163352145
7.96813082695 0.8416808234518094 0.1069610573503198 -1.1812594060603785 2.096677456135391 2.050055466436567 -0.5199726577957962 1.1399758163352145
7.96813082695 0.8416808234518094 0.1069610573503198 -1.1812594060603785 2.096677456135391 2.050055466436567 -0.5199726577957962 1.1399758163352145
7.97802400589 0.8416808234518094 0.1069610573503198 -1.1812594060603785 2.096677456135391 2.050055466436567 -0.5199726577957962 1.1399758163352145
7.97802400589 0.8416808234518094 0.1069610573503198 -1.1812594060603785 2.096677456135391 2.050055466436567 -0.5199726577957962 1.1399758163352145
7.98813700676 0.8416808234518094 0.1069610573503198 -1.1812594060603785 2.096677456135391 2.050055466436567 -0.5199726577957962 1.1399758163352145
7.98813700676 0.8416808234518094 0.1069610573503198 -1.1812594060603785 2.096677456135391 2.050055466436567 -0.5199726577957962 1.1399758163352145
7.99819087982 0.8416808234518094 0.1069610573503198 -1.1812594060603785 2.096677456135391 2.050055466436567 -0.5199726577957962 1.1399758163352145
7.99819087982 0.8416808234518094 0.1069610573503198 -1.1812594060603785 2.096677456135391 2.050055466436567 -0.5199726577957962 1.1399758163352145
8.00805783272 0.8416808234518094 0.1069610573503198 -1.1812594060603785 2.096677456135391 2.050055466436567 -0.5199726577957962 1.1399758163352145
8.00805783272 0.8416808234518094 0.1069610573503198 -1.1812594060603785 2.096677456135391 2.050055466436567 -0.5199726577957962 1.1399758163352145
8.01811981201 0.8416808234518094 0.1069610573503198 -1.1812594060603785 2.096677456135391 2.050055466436567 -0.5199726577957962 1.1399758163352145
8.01811981201 0.8416808234518094 0.1069610573503198 -1.1812594060603785 2.096677456135391 2.050055466436567 -0.5199726577957962 1.1399758163352145
8.02799892426 0.8416808234518094 0.1069610573503198 -1.1812594060603785 2.096677456135391 2.050055466436567 -0.5199726577957962 1.1399758163352145
8.02799892426 0.8416808234518094 0.1069610573503198 -1.1812594060603785 2.096677456135391 2.050055466436567 -0.5199726577957962 1.1399758163352145
8.03819680214 0.8416808234518094 0.1069610573503198 -1.1812594060603785 2.096677456135391 2.050055466436567 -0.5199726577957962 1.1399758163352145
8.03819680214 0.8416808234518094 0.1069610573503198 -1.1812594060603785 2.096677456135391 2.050055466436567 -0.5199726577957962 1.1399758163352145
8.04804086685 0.8416808234518094 0.1069610573503198 -1.1812594060603785 2.096677456135391 2.050055466436567 -0.5199726577957962 1.1399758163352145
8.04804086685 0.8416808234518094 0.1069610573503198 -1.1812594060603785 2.096677456135391 2.050055466436567 -0.5199726577957962 1.1399758163352145
8.05812692642 0.8416808234518094 0.1069610573503198 -1.1812594060603785 2.096677456135391 2.050055466436567 -0.5199726577957962 1.1399758163352145
8.05812692642 0.8416808234518094 0.1069610573503198 -1.1812594060603785 2.096677456135391 2.050055466436567 -0.5199726577957962 1.1399758163352145
8.06815290451 0.8416808234518094 0.1069610573503198 -1.1812594060603785 2.096677456135391 2.050055466436567 -0.5199726577957962 1.1399758163352145
8.06815290451 0.8416808234518094 0.1069610573503198 -1.1812594060603785 2.096677456135391 2.050055466436567 -0.5199726577957962 1.1399758163352145
8.07795381546 0.8416808234518094 0.1069610573503198 -1.1812594060603785 2.096677456135391 2.050055466436567 -0.5199726577957962 1.1399758163352145
8.07795381546 0.8416808234518094 0.1069610573503198 -1.1812594060603785 2.096677456135391 2.050055466436567 -0.5199726577957962 1.1399758163352145
8.08804988861 0.8416808234518094 0.1069610573503198 -1.1812594060603785 2.096677456135391 2.050055466436567 -0.5199726577957962 1.1399758163352145
8.08804988861 0.8416808234518094 0.1069610573503198 -1.1812594060603785 2.096677456135391 2.050055466436567 -0.5199726577957962 1.1399758163352145
8.09808182716 0.8416808234518094 0.1069610573503198 -1.1812594060603785 2.096677456135391 2.050055466436567 -0.5199726577957962 1.1399758163352145
8.09808182716 0.8416808234518094 0.1069610573503198 -1.1812594060603785 2.096677456135391 2.050055466436567 -0.5199726577957962 1.1399758163352145
8.10811281204 0.8416808234518094 0.1069610573503198 -1.1812594060603785 2.096677456135391 2.050055466436567 -0.5199726577957962 1.1399758163352145
8.10811281204 0.8416808234518094 0.1069610573503198 -1.1812594060603785 2.096677456135391 2.050055466436567 -0.5199726577957962 1.1399758163352145
8.11814284325 0.8416808234518094 0.1069610573503198 -1.1812594060603785 2.096677456135391 2.050055466436567 -0.5199726577957962 1.1399758163352145
8.11814284325 0.8416808234518094 0.1069610573503198 -1.1812594060603785 2.096677456135391 2.050055466436567 -0.5199726577957962 1.1399758163352145
