riccardo-csl/Motion-Planning-for-TIAGo-Manipulator/T3_G_7/head_scan/head_scan/tiago_traiettorie_SG/1a-1b/place_1b_rep2.txt
time arm_1_joint arm_2_joint arm_3_joint arm_4_joint arm_5_joint arm_6_joint arm_7_joint
1.6912279129 0.8238250502385372 0.0997359120037122 -1.142203737159183 2.0959564756018656 2.050055466436567 -0.519968092336237 1.1399803817947736
1.7012898922 0.8238250502385372 0.0997359120037122 -1.142203737159183 2.0959564756018656 2.050055466436567 -0.519968092336237 1.1399803817947736
1.7012898922 0.8238250502385372 0.0997359120037122 -1.142203737159183 2.0959564756018656 2.050055466436567 -0.519968092336237 1.1399803817947736
1.71120595932 0.8238250502385372 0.0997359120037122 -1.142203737159183 2.0959564756018656 2.050055466436567 -0.519968092336237 1.1399803817947736
1.71120595932 0.8238250502385372 0.0997359120037122 -1.142203737159183 2.0959564756018656 2.050055466436567 -0.519968092336237 1.1399803817947736
1.72135591507 0.8238250502385372 0.0997359120037122 -1.142203737159183 2.0959564756018656 2.050055466436567 -0.519968092336237 1.1399803817947736
1.72135591507 0.8238250502385372 0.0997359120037122 -1.142203737159183 2.0959564756018656 2.050055466436567 -0.519968092336237 1.1399803817947736
1.73124408722 0.8238250502385372 0.0997359120037122 -1.142203737159183 2.0959564756018656 2.050055466436567 -0.519968092336237 1.1399803817947736
1.73124408722 0.8238250502385372 0.0997359120037122 -1.142203737159183 2.0959564756018656 2.050055466436567 -0.519968092336237 1.1399803817947736
1.74133396149 0.8238250502385372 0.0997359120037122 -1.142203737159183 2.0959564756018656 2.050055466436567 -0.519968092336237 1.1399803817947736
1.74133396149 0.8238250502385372 0.0997359120037122 -1.142203737159183 2.0959564756018656 2.050055466436567 -0.519968092336237 1.1399803817947736
1.7513449192 0.8238250502385372 0.0997359120037122 -1.142203737159183 2.0959564756018656 2.050055466436567 -0.519968092336237 1.1399803817947736
1.7513449192 0.8238250502385372 0.0997359120037122 -1.142203737159183 2.0959564756018656 2.050055466436567 -0.519968092336237 1.1399803817947736
1.76130199432 0.8238250502385372 0.0997359120037122 -1.142203737159183 2.0959564756018656 2.050055466436567 -0.519968092336237 1.1399803817947736
1.76130199432 0.8238250502385372 0.0997359120037122 -1.142203737159183 2.0959564756018656 2.050055466436567 -0.519968092336237 1.1399803817947736
1.77125191689 0.8238250502385372 0.0997359120037122 -1.142203737159183 2.0959564756018656 2.050055466436567 -0.519968092336237 1.1399803817947736
1.77125191689 0.8238250502385372 0.0997359120037122 -1.142203737159183 2.0959564756018656 2.050055466436567 -0.519968092336237 1.1399803817947736
1.78140211105 0.8238250502385372 0.0997359120037122 -1.142203737159183 2.0959564756018656 2.050055466436567 -0.519968092336237 1.1399803817947736
1.78140211105 0.8238250502385372 0.0997359120037122 -1.142203737159183 2.0959564756018656 2.050055466436567 -0.519968092336237 1.1399803817947736
1.79123210907 0.8238250502385372 0.0997359120037122 -1.142203737159183 2.0959564756018656 2.050055466436567 -0.519968092336237 1.1399803817947736
1.79123210907 0.8238250502385372 0.0997359120037122 -1.142203737159183 2.0959564756018656 2.050055466436567 -0.519968092336237 1.1399803817947736
1.80094790459 0.8238250502385372 0.0997359120037122 -1.142203737159183 2.0959564756018656 2.050055466436567 -0.519968092336237 1.1399803817947736
1.80094790459 0.8238250502385372 0.0997359120037122 -1.142203737159183 2.0959564756018656 2.050055466436567 -0.519968092336237 1.1399803817947736
1.81080007553 0.8238250502385372 0.0997359120037122 -1.142203737159183 2.0959564756018656 2.050055466436567 -0.519968092336237 1.1399803817947736
1.81080007553 0.8238250502385372 0.0997359120037122 -1.142203737159183 2.0959564756018656 2.050055466436567 -0.519968092336237 1.1399803817947736
1.82093000412 0.8238250502385372 0.0997359120037122 -1.142203737159183 2.0959564756018656 2.050055466436567 -0.519968092336237 1.1399803817947736
1.82093000412 0.8238250502385372 0.0997359120037122 -1.142203737159183 2.0959564756018656 2.050055466436567 -0.519968092336237 1.1399803817947736
1.83081197739 0.8238250502385372 0.0997359120037122 -1.142203737159183 2.0959564756018656 2.050055466436567 -0.519968092336237 1.1399803817947736
1.83081197739 0.8238250502385372 0.0997359120037122 -1.142203737159183 2.0959564756018656 2.050055466436567 -0.519968092336237 1.1399803817947736
1.84088206291 0.8238250502385372 0.0997359120037122 -1.142203737159183 2.0959564756018656 2.050055466436567 -0.519968092336237 1.1399803817947736
1.84088206291 0.8238250502385372 0.0997359120037122 -1.142203737159183 2.0959564756018656 2.050055466436567 -0.519968092336237 1.1399803817947736
1.85081791878 0.8238250502385372 0.0997359120037122 -1.142203737159183 2.0959564756018656 2.050055466436567 -0.519968092336237 1.1399803817947736
1.85081791878 0.8238250502385372 0.0997359120037122 -1.142203737159183 2.0959564756018656 2.050055466436567 -0.519968092336237 1.1399803817947736
1.86087989807 0.8238250502385372 0.0997359120037122 -1.142203737159183 2.0959564756018656 2.050055466436567 -0.519968092336237 1.1399803817947736
1.86087989807 0.8238250502385372 0.0997359120037122 -1.142203737159183 2.0959564756018656 2.050055466436567 -0.519968092336237 1.1399803817947736
1.8708050251 0.8238250502385372 0.0997359120037122 -1.142203737159183 2.0959564756018656 2.050055466436567 -0.519968092336237 1.1399803817947736
1.8708050251 0.8238250502385372 0.0997359120037122 -1.142203737159183 2.0959564756018656 2.050055466436567 -0.519968092336237 1.1399803817947736
1.88086605072 0.8238250502385372 0.0997359120037122 -1.142203737159183 2.0959564756018656 2.050055466436567 -0.519968092336237 1.1399803817947736
1.88086605072 0.8238250502385372 0.0997359120037122 -1.142203737159183 2.0959564756018656 2.050055466436567 -0.519968092336237 1.1399803817947736
1.89082098007 0.8238250502385372 0.0997359120037122 -1.142203737159183 2.0959564756018656 2.050055466436567 -0.519968092336237 1.1399803817947736
1.89082098007 0.8238250502385372 0.0997359120037122 -1.142203737159183 2.0959564756018656 2.050055466436567 -0.519968092336237 1.1399803817947736
1.90087199211 0.8238250502385372 0.0997359120037122 -1.142203737159183 2.0959564756018656 2.050055466436567 -0.519968092336237 1.1399803817947736
1.90087199211 0.8238250502385372 0.0997359120037122 -1.142203737159183 2.0959564756018656 2.050055466436567 -0.519968092336237 1.1399803817947736
1.91080403328 0.8238250502385372 0.0997359120037122 -1.142203737159183 2.0959564756018656 2.050055466436567 -0.519968092336237 1.1399803817947736
1.91080403328 0.8238250502385372 0.0997359120037122 -1.142203737159183 2.0959564756018656 2.050055466436567 -0.519968092336237 1.1399803817947736
1.92096805573 0.8238250502385372 0.0997359120037122 -1.142203737159183 2.0959564756018656 2.050055466436567 -0.519968092336237 1.1399803817947736
1.92096805573 0.8238250502385372 0.0997359120037122 -1.142203737159183 2.0959564756018656 2.050055466436567 -0.519968092336237 1.1399803817947736
1.93083000183 0.8238250502385372 0.0997359120037122 -1.142203737159183 2.0959564756018656 2.050055466436567 -0.519968092336237 1.1399803817947736
1.93083000183 0.8238250502385372 0.0997359120037122 -1.142203737159183 2.0959564756018656 2.050055466436567 -0.519968092336237 1.1399803817947736
1.940928936 0.8238250502385372 0.0997359120037122 -1.142203737159183 2.0959564756018656 2.050055466436567 -0.519968092336237 1.1399803817947736
1.940928936 0.8238250502385372 0.0997359120037122 -1.142203737159183 2.0959564756018656 2.050055466436567 -0.519968092336237 1.1399803817947736
1.95086288452 0.8238250502385372 0.0997359120037122 -1.142203737159183 2.0959564756018656 2.050055466436567 -0.519968092336237 1.1399803817947736
1.95086288452 0.8238250502385372 0.0997359120037122 -1.142203737159183 2.0959564756018656 2.050055466436567 -0.519968092336237 1.1399803817947736
1.96088600159 0.8238250502385372 0.0997359120037122 -1.142203737159183 2.0959564756018656 2.050055466436567 -0.519968092336237 1.1399803817947736
1.96088600159 0.8238250502385372 0.0997359120037122 -1.142203737159183 2.0959564756018656 2.050055466436567 -0.519968092336237 1.1399803817947736
1.97081899643 0.8238250502385372 0.0997359120037122 -1.142203737159183 2.0959564756018656 2.050055466436567 -0.519968092336237 1.1399803817947736
1.97081899643 0.8238250502385372 0.0997359120037122 -1.142203737159183 2.0959564756018656 2.050055466436567 -0.519968092336237 1.1399803817947736
1.98083400726 0.8238250502385372 0.0997359120037122 -1.142203737159183 2.0959564756018656 2.050055466436567 -0.519968092336237 1.1399803817947736
1.98083400726 0.8238250502385372 0.0997359120037122 -1.142203737159183 2.0959564756018656 2.050055466436567 -0.519968092336237 1.1399803817947736
1.99085497856 0.8238250502385372 0.0997359120037122 -1.142203737159183 2.0959564756018656 2.050055466436567 -0.519968092336237 1.1399803817947736
1.99085497856 0.8238250502385372 0.0997359120037122 -1.142203737159183 2.0959564756018656 2.050055466436567 -0.519968092336237 1.1399803817947736
2.00095796585 0.8238250502385372 0.0997359120037122 -1.142203737159183 2.0959564756018656 2.050055466436567 -0.519968092336237 1.1399803817947736
2.00095796585 0.8238250502385372 0.0997359120037122 -1.142203737159183 2.0959564756018656 2.050055466436567 -0.519968092336237 1.1399803817947736
2.01082205772 0.8238250502385372 0.0997359120037122 -1.142203737159183 2.0959564756018656 2.050055466436567 -0.519968092336237 1.1399803817947736
2.01082205772 0.8238250502385372 0.0997359120037122 -1.142203737159183 2.0959564756018656 2.050055466436567 -0.519968092336237 1.1399803817947736
2.02086901665 0.8238250502385372 0.0997359120037122 -1.142203737159183 2.0959564756018656 2.050055466436567 -0.519968092336237 1.1399803817947736
2.02086901665 0.8238250502385372 0.0997359120037122 -1.142203737159183 2.0959564756018656 2.050055466436567 -0.519968092336237 1.1399803817947736
2.03084206581 0.8238250502385372 0.0997359120037122 -1.142203737159183 2.0959564756018656 2.050055466436567 -0.519968092336237 1.1399803817947736
2.03084206581 0.8238250502385372 0.0997359120037122 -1.142203737159183 2.0959564756018656 2.050055466436567 -0.519968092336237 1.1399803817947736
2.0409309864 0.8238250502385372 0.0997359120037122 -1.142203737159183 2.0959564756018656 2.050055466436567 -0.519968092336237 1.1399803817947736
2.0409309864 0.8238250502385372 0.0997359120037122 -1.142203737159183 2.0959564756018656 2.050055466436567 -0.519968092336237 1.1399803817947736
2.05080103874 0.8238250502385372 0.0997359120037122 -1.142203737159183 2.0959564756018656 2.050055466436567 -0.519968092336237 1.1399803817947736
2.05080103874 0.8238250502385372 0.0997359120037122 -1.142203737159183 2.0959564756018656 2.050055466436567 -0.519968092336237 1.1399803817947736
2.06102204323 0.8238250502385372 0.0997359120037122 -1.142203737159183 2.0959564756018656 2.050055466436567 -0.519968092336237 1.1399803817947736
2.06102204323 0.8238250502385372 0.0997359120037122 -1.142203737159183 2.0959564756018656 2.050055466436567 -0.519968092336237 1.1399803817947736
2.0708489418 0.8238250502385372 0.0997359120037122 -1.142203737159183 2.0959564756018656 2.050055466436567 -0.519968092336237 1.1399803817947736
2.0708489418 0.8238250502385372 0.0997359120037122 -1.142203737159183 2.0959564756018656 2.050055466436567 -0.519968092336237 1.1399803817947736
2.08090090752 0.8238250502385372 0.0997359120037122 -1.142203737159183 2.0959564756018656 2.050055466436567 -0.519968092336237 1.1399803817947736
2.08090090752 0.8238250502385372 0.0997359120037122 -1.142203737159183 2.0959564756018656 2.050055466436567 -0.519968092336237 1.1399803817947736
2.09084200859 0.8238250502385372 0.0997359120037122 -1.142203737159183 2.0959564756018656 2.050055466436567 -0.519968092336237 1.1399803817947736
2.09084200859 0.8238250502385372 0.0997359120037122 -1.142203737159183 2.0959564756018656 2.050055466436567 -0.519968092336237 1.1399803817947736
2.10092401505 0.8238250502385372 0.0997359120037122 -1.142203737159183 2.0959564756018656 2.050055466436567 -0.519968092336237 1.1399803817947736
2.10092401505 0.8238250502385372 0.0997359120037122 -1.142203737159183 2.0959564756018656 2.050055466436567 -0.519968092336237 1.1399803817947736
2.1108019352 0.8238250502385372 0.0997359120037122 -1.142203737159183 2.0959564756018656 2.050055466436567 -0.519968092336237 1.1399803817947736
2.1108019352 0.8238250502385372 0.0997359120037122 -1.142203737159183 2.0959564756018656 2.050055466436567 -0.519968092336237 1.1399803817947736
2.12083292007 0.8238250502385372 0.0997359120037122 -1.142203737159183 2.0959564756018656 2.050055466436567 -0.519968092336237 1.1399803817947736
2.12083292007 0.8238250502385372 0.0997359120037122 -1.142203737159183 2.0959564756018656 2.050055466436567 -0.519968092336237 1.1399803817947736
2.13081789017 0.8238250502385372 0.0997359120037122 -1.142203737159183 2.0959564756018656 2.050055466436567 -0.519968092336237 1.1399803817947736
2.13081789017 0.8238250502385372 0.0997359120037122 -1.142203737159183 2.0959564756018656 2.050055466436567 -0.519968092336237 1.1399803817947736
2.14083409309 0.8238250502385372 0.0997359120037122 -1.142203737159183 2.0959564756018656 2.050055466436567 -0.519968092336237 1.1399803817947736
2.14083409309 0.8238250502385372 0.0997359120037122 -1.142203737159183 2.0959564756018656 2.050055466436567 -0.519968092336237 1.1399803817947736
2.15079808235 0.8238250502385372 0.0997359120037122 -1.142203737159183 2.0959564756018656 2.050055466436567 -0.519968092336237 1.1399803817947736
2.15079808235 0.8238250502385372 0.0997359120037122 -1.142203737159183 2.0959564756018656 2.050055466436567 -0.519968092336237 1.1399803817947736
2.16094708443 0.8238250502385372 0.0997359120037122 -1.142203737159183 2.0959564756018656 2.050055466436567 -0.519968092336237 1.1399803817947736
2.16094708443 0.8238250502385372 0.0997359120037122 -1.142203737159183 2.0959564756018656 2.050055466436567 -0.519968092336237 1.1399803817947736
2.17083597183 0.8238250502385372 0.0997359120037122 -1.142203737159183 2.0959564756018656 2.050055466436567 -0.519968092336237 1.1399803817947736
2.17083597183 0.8238250502385372 0.0997359120037122 -1.142203737159183 2.0959564756018656 2.050055466436567 -0.519968092336237 1.1399803817947736
2.18088698387 0.8238250502385372 0.0997359120037122 -1.142203737159183 2.0959564756018656 2.050055466436567 -0.519968092336237 1.1399803817947736
2.18088698387 0.8238250502385372 0.0997359120037122 -1.142203737159183 2.0959564756018656 2.050055466436567 -0.519968092336237 1.1399803817947736
2.19087791443 0.8238250502385372 0.0997359120037122 -1.142203737159183 2.0959564756018656 2.050055466436567 -0.519968092336237 1.1399803817947736
2.19087791443 0.8238250502385372 0.0997359120037122 -1.142203737159183 2.0959564756018656 2.050055466436567 -0.519968092336237 1.1399803817947736
2.20093202591 0.8238250502385372 0.0997359120037122 -1.142203737159183 2.0959564756018656 2.050055466436567 -0.519968092336237 1.1399803817947736
2.20093202591 0.8238250502385372 0.0997359120037122 -1.142203737159183 2.0959564756018656 2.050055466436567 -0.519968092336237 1.1399803817947736
2.21084904671 0.8238250502385372 0.0997359120037122 -1.142203737159183 2.0959564756018656 2.050055466436567 -0.519968092336237 1.1399803817947736
2.21084904671 0.8238250502385372 0.0997359120037122 -1.142203737159183 2.0959564756018656 2.050055466436567 -0.519968092336237 1.1399803817947736
2.2208878994 0.8238250502385372 0.0997359120037122 -1.142203737159183 2.0959564756018656 2.050055466436567 -0.519968092336237 1.1399803817947736
2.2208878994 0.8238250502385372 0.0997359120037122 -1.142203737159183 2.0959564756018656 2.050055466436567 -0.519968092336237 1.1399803817947736
2.23080205917 0.8238250502385372 0.0997359120037122 -1.142203737159183 2.0959564756018656 2.050055466436567 -0.519968092336237 1.1399803817947736
2.23080205917 0.8238250502385372 0.0997359120037122 -1.142203737159183 2.0959564756018656 2.050055466436567 -0.519968092336237 1.1399803817947736
2.24088001251 0.8238250502385372 0.0997359120037122 -1.142203737159183 2.0959564756018656 2.050055466436567 -0.519968092336237 1.1399803817947736
2.24088001251 0.8238250502385372 0.0997359120037122 -1.142203737159183 2.0959564756018656 2.050055466436567 -0.519968092336237 1.1399803817947736
2.25080704689 0.8238250502385372 0.0997359120037122 -1.142203737159183 2.0959564756018656 2.050055466436567 -0.519968092336237 1.1399803817947736
2.25080704689 0.8238250502385372 0.0997359120037122 -1.142203737159183 2.0959564756018656 2.050055466436567 -0.519968092336237 1.1399803817947736
2.26082110405 0.8238250502385372 0.0997359120037122 -1.142203737159183 2.0959564756018656 2.050055466436567 -0.519968092336237 1.1399803817947736
2.26082110405 0.8238250502385372 0.0997359120037122 -1.142203737159183 2.0959564756018656 2.050055466436567 -0.519968092336237 1.1399803817947736
2.27079892159 0.8238250502385372 0.0997359120037122 -1.142203737159183 2.0959564756018656 2.050055466436567 -0.519968092336237 1.1399803817947736
2.27079892159 0.8238250502385372 0.0997359120037122 -1.142203737159183 2.0959564756018656 2.050055466436567 -0.519968092336237 1.1399803817947736
2.28084897995 0.8238250502385372 0.0997359120037122 -1.142203737159183 2.0959564756018656 2.050055466436567 -0.519968092336237 1.1399803817947736
2.28084897995 0.8238250502385372 0.0997359120037122 -1.142203737159183 2.0959564756018656 2.050055466436567 -0.519968092336237 1.1399803817947736
2.29080104828 0.8238250502385372 0.0997359120037122 -1.142203737159183 2.0959564756018656 2.050055466436567 -0.519968092336237 1.1399803817947736
2.29080104828 0.8238250502385372 0.0997359120037122 -1.142203737159183 2.0959564756018656 2.050055466436567 -0.519968092336237 1.1399803817947736
2.30082988739 0.8238250502385372 0.0997359120037122 -1.142203737159183 2.0959564756018656 2.050055466436567 -0.519968092336237 1.1399803817947736
2.30082988739 0.8238250502385372 0.0997359120037122 -1.142203737159183 2.0959564756018656 2.050055466436567 -0.519968092336237 1.1399803817947736
2.31081295013 0.8238250502385372 0.0997359120037122 -1.142203737159183 2.0959564756018656 2.050055466436567 -0.519968092336237 1.1399803817947736
2.31081295013 0.8238250502385372 0.0997359120037122 -1.142203737159183 2.0959564756018656 2.050055466436567 -0.519968092336237 1.1399803817947736
2.32084298134 0.8238250502385372 0.0997359120037122 -1.142203737159183 2.0959564756018656 2.050055466436567 -0.519968092336237 1.1399803817947736
2.32084298134 0.8238250502385372 0.0997359120037122 -1.142203737159183 2.0959564756018656 2.050055466436567 -0.519968092336237 1.1399803817947736
2.33079409599 0.8238250502385372 0.0997359120037122 -1.142203737159183 2.0959564756018656 2.050055466436567 -0.519968092336237 1.1399803817947736
2.33079409599 0.8238250502385372 0.0997359120037122 -1.142203737159183 2.0959564756018656 2.050055466436567 -0.519968092336237 1.1399803817947736
2.34082603455 0.8238250502385372 0.0997359120037122 -1.142203737159183 2.0959564756018656 2.050055466436567 -0.519968092336237 1.1399803817947736
2.34082603455 0.8238250502385372 0.0997359120037122 -1.142203737159183 2.0959564756018656 2.050055466436567 -0.519968092336237 1.1399803817947736
2.35077095032 0.8238250502385372 0.0997359120037122 -1.142203737159183 2.0959564756018656 2.050055466436567 -0.519968092336237 1.1399803817947736
2.35077095032 0.8238250502385372 0.0997359120037122 -1.142203737159183 2.0959564756018656 2.050055466436567 -0.519968092336237 1.1399803817947736
2.36082196236 0.8238250502385372 0.0997359120037122 -1.142203737159183 2.0959564756018656 2.050055466436567 -0.519968092336237 1.1399803817947736
2.36082196236 0.8238250502385372 0.0997359120037122 -1.142203737159183 2.0959564756018656 2.050055466436567 -0.519968092336237 1.1399803817947736
2.37080907822 0.8238250502385372 0.099781932037767 -1.142203737159183 2.0959564756018656 2.050055466436567 -0.519968092336237 1.1399803817947736
2.37080907822 0.8238250502385372 0.099781932037767 -1.142203737159183 2.0959564756018656 2.050055466436567 -0.519968092336237 1.1399803817947736
2.38082289696 0.8238097102271856 0.099781932037767 -1.142203737159183 2.0959564756018656 2.050055466436567 -0.5199726577957962 1.1399758163352145
2.38082289696 0.8238097102271856 0.099781932037767 -1.142203737159183 2.0959564756018656 2.050055466436567 -0.5199726577957962 1.1399758163352145
2.39077305794 0.8238097102271856 0.099781932037767 -1.142203737159183 2.0959564756018656 2.050055466436567 -0.5199726577957962 1.1399758163352145
2.39077305794 0.8238097102271856 0.099781932037767 -1.142203737159183 2.0959564756018656 2.050055466436567 -0.5199726577957962 1.1399758163352145
2.40081906319 0.8238097102271856 0.099781932037767 -1.142203737159183 2.0959564756018656 2.050055466436567 -0.5199726577957962 1.1399758163352145
2.40081906319 0.8238097102271856 0.099781932037767 -1.142203737159183 2.0959564756018656 2.050055466436567 -0.5199726577957962 1.1399758163352145
2.410779953 0.8238097102271856 0.099781932037767 -1.142203737159183 2.0959564756018656 2.050055466436567 -0.5199726577957962 1.1399758163352145
2.410779953 0.8238097102271856 0.099781932037767 -1.142203737159183 2.0959564756018656 2.050055466436567 -0.5199726577957962 1.1399758163352145
2.4208240509 0.8238097102271856 0.099781932037767 -1.142203737159183 2.0959564756018656 2.050055466436567 -0.5199726577957962 1.1399758163352145
2.4208240509 0.8238097102271856 0.099781932037767 -1.142203737159183 2.0959564756018656 2.050055466436567 -0.5199726577957962 1.1399758163352145
2.43080210686 0.8238097102271856 0.099781932037767 -1.142203737159183 2.0959564756018656 2.050055466436567 -0.5199726577957962 1.1399758163352145
2.43080210686 0.8238097102271856 0.099781932037767 -1.142203737159183 2.0959564756018656 2.050055466436567 -0.5199726577957962 1.1399758163352145
2.44084191322 0.823794370215834 0.099781932037767 -1.142203737159183 2.0959564756018656 2.050055466436567 -0.519968092336237 1.1399803817947736
2.44084191322 0.823794370215834 0.099781932037767 -1.142203737159183 2.0959564756018656 2.050055466436567 -0.519968092336237 1.1399803817947736
2.45077705383 0.823794370215834 0.099781932037767 -1.142203737159183 2.0959564756018656 2.050055466436567 -0.5199726577957962 1.1399758163352145
2.45077705383 0.823794370215834 0.099781932037767 -1.142203737159183 2.0959564756018656 2.050055466436567 -0.5199726577957962 1.1399758163352145
2.46092009544 0.823794370215834 0.099781932037767 -1.142203737159183 2.0959564756018656 2.050055466436567 -0.5199726577957962 1.1399758163352145
2.46092009544 0.823794370215834 0.099781932037767 -1.142203737159183 2.0959564756018656 2.050055466436567 -0.5199726577957962 1.1399758163352145
2.47099995613 0.823794370215834 0.099781932037767 -1.142203737159183 2.0959564756018656 2.050055466436567 -0.5199726577957962 1.1399758163352145
2.47099995613 0.823794370215834 0.099781932037767 -1.142203737159183 2.0959564756018656 2.050055466436567 -0.5199726577957962 1.1399758163352145
2.48124694824 0.823794370215834 0.099781932037767 -1.142203737159183 2.0959564756018656 2.050055466436567 -0.5199726577957962 1.1399758163352145
2.48124694824 0.823794370215834 0.099781932037767 -1.142203737159183 2.0959564756018656 2.050055466436567 -0.5199726577957962 1.1399758163352145
2.49125409126 0.823794370215834 0.099781932037767 -1.142203737159183 2.0959564756018656 2.050055466436567 -0.5199726577957962 1.1399758163352145
2.49125409126 0.823794370215834 0.099781932037767 -1.142203737159183 2.0959564756018656 2.050055466436567 -0.5199726577957962 1.1399758163352145
2.50124406815 0.823794370215834 0.099781932037767 -1.142203737159183 2.0959564756018656 2.050055466436567 -0.5199726577957962 1.1399758163352145
2.50124406815 0.823794370215834 0.099781932037767 -1.142203737159183 2.0959564756018656 2.050055466436567 -0.5199726577957962 1.1399758163352145
2.51120901108 0.823794370215834 0.099781932037767 -1.142203737159183 2.0959564756018656 2.050055466436567 -0.5199726577957962 1.1399758163352145
2.51120901108 0.823794370215834 0.099781932037767 -1.142203737159183 2.0959564756018656 2.050055466436567 -0.5199726577957962 1.1399758163352145
2.52118492126 0.823794370215834 0.099781932037767 -1.142203737159183 2.0959564756018656 2.050055466436567 -0.5199726577957962 1.1399758163352145
2.52118492126 0.823794370215834 0.099781932037767 -1.142203737159183 2.0959564756018656 2.050055466436567 -0.5199726577957962 1.1399758163352145
2.53110599518 0.823794370215834 0.099781932037767 -1.142203737159183 2.0959564756018656 2.050055466436567 -0.5199726577957962 1.1399758163352145
2.53110599518 0.823794370215834 0.099781932037767 -1.142203737159183 2.0959564756018656 2.050055466436567 -0.5199726577957962 1.1399758163352145
2.54110693932 0.823794370215834 0.099781932037767 -1.142203737159183 2.0959564756018656 2.050055466436567 -0.5199726577957962 1.1399758163352145
2.54110693932 0.823794370215834 0.099781932037767 -1.142203737159183 2.0959564756018656 2.050055466436567 -0.5199726577957962 1.1399758163352145
2.55116200447 0.823794370215834 0.099781932037767 -1.142203737159183 2.0959564756018656 2.050055466436567 -0.5199726577957962 1.1399758163352145
2.55116200447 0.823794370215834 0.099781932037767 -1.142203737159183 2.0959564756018656 2.050055466436567 -0.5199726577957962 1.1399758163352145
2.56126189232 0.823794370215834 0.099781932037767 -1.142203737159183 2.0959564756018656 2.050055466436567 -0.5199726577957962 1.1399758163352145
2.56126189232 0.823794370215834 0.099781932037767 -1.142203737159183 2.0959564756018656 2.050055466436567 -0.5199726577957962 1.1399758163352145
2.57124996185 0.823794370215834 0.099781932037767 -1.142203737159183 2.0959564756018656 2.050055466436567 -0.5199726577957962 1.1399758163352145
2.57124996185 0.823794370215834 0.099781932037767 -1.142203737159183 2.0959564756018656 2.050055466436567 -0.5199726577957962 1.1399758163352145
2.58127188683 0.823794370215834 0.099781932037767 -1.142203737159183 2.0959564756018656 2.050055466436567 -0.5199726577957962 1.1399758163352145
2.58127188683 0.823794370215834 0.099781932037767 -1.142203737159183 2.0959564756018656 2.050055466436567 -0.5199726577957962 1.1399758163352145
2.59121799469 0.823794370215834 0.099781932037767 -1.142203737159183 2.0959564756018656 2.050055466436567 -0.5199726577957962 1.1399758163352145
2.59121799469 0.823794370215834 0.099781932037767 -1.142203737159183 2.0959564756018656 2.050055466436567 -0.5199726577957962 1.1399758163352145
2.60123205185 0.823794370215834 0.099781932037767 -1.142203737159183 2.0959564756018656 2.050055466436567 -0.5199726577957962 1.1399758163352145
2.60123205185 0.823794370215834 0.099781932037767 -1.142203737159183 2.0959564756018656 2.050055466436567 -0.5199726577957962 1.1399758163352145
2.61120295525 0.823794370215834 0.099781932037767 -1.142203737159183 2.0959564756018656 2.050055466436567 -0.5199726577957962 1.1399758163352145
2.61120295525 0.823794370215834 0.099781932037767 -1.142203737159183 2.0959564756018656 2.050055466436567 -0.5199726577957962 1.1399758163352145
2.62211298943 0.823794370215834 0.099781932037767 -1.142203737159183 2.0959564756018656 2.050055466436567 -0.5199726577957962 1.1399758163352145
2.62211298943 0.823794370215834 0.099781932037767 -1.142203737159183 2.0959564756018656 2.050055466436567 -0.5199726577957962 1.1399758163352145
2.63083291054 0.823794370215834 0.099781932037767 -1.142203737159183 2.0959564756018656 2.050055466436567 -0.5199726577957962 1.1399758163352145
2.63083291054 0.823794370215834 0.099781932037767 -1.142203737159183 2.0959564756018656 2.050055466436567 -0.5199726577957962 1.1399758163352145
2.64091300964 0.823794370215834 0.099781932037767 -1.142203737159183 2.0959564756018656 2.050055466436567 -0.5199726577957962 1.1399758163352145
2.64091300964 0.823794370215834 0.099781932037767 -1.142203737159183 2.0959564756018656 2.050055466436567 -0.5199726577957962 1.1399758163352145
2.65110707283 0.823794370215834 0.099781932037767 -1.142203737159183 2.0959564756018656 2.050055466436567 -0.5199726577957962 1.1399758163352145
2.65110707283 0.823794370215834 0.099781932037767 -1.142203737159183 2.0959564756018656 2.050055466436567 -0.5199726577957962 1.1399758163352145
2.66125392914 0.823794370215834 0.099781932037767 -1.142203737159183 2.0959564756018656 2.050055466436567 -0.5199726577957962 1.1399758163352145
2.66125392914 0.823794370215834 0.099781932037767 -1.142203737159183 2.0959564756018656 2.050055466436567 -0.5199726577957962 1.1399758163352145
2.67103600502 0.823794370215834 0.099781932037767 -1.142203737159183 2.0959564756018656 2.050055466436567 -0.5199726577957962 1.1399758163352145
2.67103600502 0.823794370215834 0.099781932037767 -1.142203737159183 2.0959564756018656 2.050055466436567 -0.5199726577957962 1.1399758163352145
2.68124008179 0.823794370215834 0.099781932037767 -1.142203737159183 2.0959564756018656 2.050055466436567 -0.5199726577957962 1.1399758163352145
2.68124008179 0.823794370215834 0.099781932037767 -1.142203737159183 2.0959564756018656 2.050055466436567 -0.5199726577957962 1.1399758163352145
2.69110989571 0.823794370215834 0.099781932037767 -1.142203737159183 2.0959564756018656 2.050055466436567 -0.5199726577957962 1.1399758163352145
2.69110989571 0.823794370215834 0.099781932037767 -1.142203737159183 2.0959564756018656 2.050055466436567 -0.5199726577957962 1.1399758163352145
2.70124101639 0.823794370215834 0.099781932037767 -1.142203737159183 2.0959564756018656 2.050055466436567 -0.5199726577957962 1.1399758163352145
2.70124101639 0.823794370215834 0.099781932037767 -1.142203737159183 2.0959564756018656 2.050055466436567 -0.5199726577957962 1.1399758163352145
2.71112704277 0.823794370215834 0.099781932037767 -1.142203737159183 2.0959564756018656 2.050055466436567 -0.5199726577957962 1.1399758163352145
2.71112704277 0.823794370215834 0.099781932037767 -1.142203737159183 2.0959564756018656 2.050055466436567 -0.5199726577957962 1.1399758163352145
2.72116208076 0.823794370215834 0.099781932037767 -1.142203737159183 2.0959564756018656 2.050055466436567 -0.5199726577957962 1.1399758163352145
2.72116208076 0.823794370215834 0.099781932037767 -1.142203737159183 2.0959564756018656 2.050055466436567 -0.5199726577957962 1.1399758163352145
2.73115801811 0.823794370215834 0.099781932037767 -1.142203737159183 2.0959564756018656 2.050055466436567 -0.5199726577957962 1.1399758163352145
2.73115801811 0.823794370215834 0.099781932037767 -1.142203737159183 2.0959564756018656 2.050055466436567 -0.5199726577957962 1.1399758163352145
2.74115991592 0.823794370215834 0.099781932037767 -1.142203737159183 2.0959564756018656 2.050055466436567 -0.5199726577957962 1.1399758163352145
2.74115991592 0.823794370215834 0.099781932037767 -1.142203737159183 2.0959564756018656 2.050055466436567 -0.5199726577957962 1.1399758163352145
2.75083398819 0.823794370215834 0.099781932037767 -1.142203737159183 2.0959564756018656 2.050055466436567 -0.5199726577957962 1.1399758163352145
2.75083398819 0.823794370215834 0.099781932037767 -1.142203737159183 2.0959564756018656 2.050055466436567 -0.5199726577957962 1.1399758163352145
2.76091790199 0.823794370215834 0.099781932037767 -1.142203737159183 2.0959564756018656 2.050055466436567 -0.5199726577957962 1.1399758163352145
2.76091790199 0.823794370215834 0.099781932037767 -1.142203737159183 2.0959564756018656 2.050055466436567 -0.5199726577957962 1.1399758163352145
2.77124905586 0.823794370215834 0.099781932037767 -1.142203737159183 2.0959564756018656 2.050055466436567 -0.5199726577957962 1.1399758163352145
2.77124905586 0.823794370215834 0.099781932037767 -1.142203737159183 2.0959564756018656 2.050055466436567 -0.5199726577957962 1.1399758163352145
2.78127098083 0.823794370215834 0.099781932037767 -1.142203737159183 2.0959564756018656 2.050055466436567 -0.5199726577957962 1.1399758163352145
2.78127098083 0.823794370215834 0.099781932037767 -1.142203737159183 2.0959564756018656 2.050055466436567 -0.5199726577957962 1.1399758163352145
2.79118394852 0.823794370215834 0.099781932037767 -1.142203737159183 2.0959564756018656 2.050055466436567 -0.5199726577957962 1.1399758163352145
2.79118394852 0.823794370215834 0.099781932037767 -1.142203737159183 2.0959564756018656 2.050055466436567 -0.5199726577957962 1.1399758163352145
2.80132508278 0.823794370215834 0.099781932037767 -1.142203737159183 2.0959564756018656 2.050055466436567 -0.5199726577957962 1.1399758163352145
2.80132508278 0.823794370215834 0.099781932037767 -1.142203737159183 2.0959564756018656 2.050055466436567 -0.5199726577957962 1.1399758163352145
2.81120610237 0.823794370215834 0.099781932037767 -1.142203737159183 2.0959564756018656 2.050055466436567 -0.5199726577957962 1.1399758163352145
2.81120610237 0.823794370215834 0.099781932037767 -1.142203737159183 2.0959564756018656 2.050055466436567 -0.5199726577957962 1.1399758163352145
2.82129788399 0.823794370215834 0.099781932037767 -1.142203737159183 2.0959564756018656 2.050055466436567 -0.5199726577957962 1.1399758163352145
2.82129788399 0.823794370215834 0.099781932037767 -1.142203737159183 2.0959564756018656 2.050055466436567 -0.5199726577957962 1.1399758163352145
2.83128595352 0.823794370215834 0.099781932037767 -1.142203737159183 2.0959564756018656 2.050055466436567 -0.5199726577957962 1.1399758163352145
2.83128595352 0.823794370215834 0.099781932037767 -1.142203737159183 2.0959564756018656 2.050055466436567 -0.5199726577957962 1.1399758163352145
2.84122800827 0.823794370215834 0.099781932037767 -1.142203737159183 2.0959564756018656 2.050055466436567 -0.5199726577957962 1.1399758163352145
2.84122800827 0.823794370215834 0.099781932037767 -1.142203737159183 2.0959564756018656 2.050055466436567 -0.5199726577957962 1.1399758163352145
2.85129499435 0.823794370215834 0.099781932037767 -1.142203737159183 2.0959564756018656 2.050055466436567 -0.5199726577957962 1.1399758163352145
2.85129499435 0.823794370215834 0.099781932037767 -1.142203737159183 2.0959564756018656 2.050055466436567 -0.5199726577957962 1.1399758163352145
2.86115002632 0.823794370215834 0.099781932037767 -1.142203737159183 2.0959564756018656 2.050055466436567 -0.5199726577957962 1.1399758163352145
2.86115002632 0.823794370215834 0.099781932037767 -1.142203737159183 2.0959564756018656 2.050055466436567 -0.5199726577957962 1.1399758163352145
2.87113404274 0.823794370215834 0.099781932037767 -1.142203737159183 2.0959564756018656 2.050055466436567 -0.5199726577957962 1.1399758163352145
2.87113404274 0.823794370215834 0.099781932037767 -1.142203737159183 2.0959564756018656 2.050055466436567 -0.5199726577957962 1.1399758163352145
2.88126301765 0.823794370215834 0.099781932037767 -1.142203737159183 2.0959564756018656 2.050055466436567 -0.5199726577957962 1.1399758163352145
2.88126301765 0.823794370215834 0.099781932037767 -1.142203737159183 2.0959564756018656 2.050055466436567 -0.5199726577957962 1.1399758163352145
2.89090704918 0.823794370215834 0.099781932037767 -1.142203737159183 2.0959564756018656 2.050055466436567 -0.519968092336237 1.1399803817947736
2.89090704918 0.823794370215834 0.099781932037767 -1.142203737159183 2.0959564756018656 2.050055466436567 -0.519968092336237 1.1399803817947736
2.90109992027 0.823794370215834 0.099781932037767 -1.142203737159183 2.0959564756018656 2.050055466436567 -0.519968092336237 1.1399803817947736
2.90109992027 0.823794370215834 0.099781932037767 -1.142203737159183 2.0959564756018656 2.050055466436567 -0.519968092336237 1.1399803817947736
2.91081500053 0.823794370215834 0.099781932037767 -1.142203737159183 2.0959564756018656 2.050055466436567 -0.519968092336237 1.1399803817947736
2.91081500053 0.823794370215834 0.099781932037767 -1.142203737159183 2.0959564756018656 2.050055466436567 -0.519968092336237 1.1399803817947736
2.92090702057 0.8237790302044824 0.099781932037767 -1.142203737159183 2.0959564756018656 2.050055466436567 -0.519968092336237 1.1399803817947736
2.92090702057 0.8237790302044824 0.099781932037767 -1.142203737159183 2.0959564756018656 2.050055466436567 -0.519968092336237 1.1399803817947736
2.93080091476 0.8237790302044824 0.099781932037767 -1.142203737159183 2.0959564756018656 2.050055466436567 -0.519968092336237 1.1399803817947736
2.93080091476 0.8237790302044824 0.099781932037767 -1.142203737159183 2.0959564756018656 2.050055466436567 -0.519968092336237 1.1399803817947736
2.94100809097 0.8237790302044824 0.099781932037767 -1.142203737159183 2.0959564756018656 2.050055466436567 -0.519968092336237 1.1399803817947736
2.94100809097 0.8237790302044824 0.099781932037767 -1.142203737159183 2.0959564756018656 2.050055466436567 -0.519968092336237 1.1399803817947736
2.95099711418 0.8237790302044824 0.099781932037767 -1.142203737159183 2.0959564756018656 2.050055466436567 -0.519968092336237 1.1399803817947736
2.95099711418 0.8237790302044824 0.099781932037767 -1.142203737159183 2.0959564756018656 2.050055466436567 -0.519968092336237 1.1399803817947736
2.96094202995 0.8237790302044824 0.099781932037767 -1.142203737159183 2.0959564756018656 2.050055466436567 -0.519968092336237 1.1399803817947736
2.96094202995 0.8237790302044824 0.099781932037767 -1.142203737159183 2.0959564756018656 2.050055466436567 -0.519968092336237 1.1399803817947736
2.97091794014 0.8237790302044824 0.099781932037767 -1.142203737159183 2.0959564756018656 2.050055466436567 -0.519968092336237 1.1399803817947736
2.97091794014 0.8237790302044824 0.099781932037767 -1.142203737159183 2.0959564756018656 2.050055466436567 -0.519968092336237 1.1399803817947736
2.98096299171 0.8237790302044824 0.099781932037767 -1.142203737159183 2.0959564756018656 2.050055466436567 -0.5199726577957962 1.1399758163352145
2.98096299171 0.8237790302044824 0.099781932037767 -1.142203737159183 2.0959564756018656 2.050055466436567 -0.5199726577957962 1.1399758163352145
2.99090600014 0.8237790302044824 0.099781932037767 -1.142203737159183 2.0959564756018656 2.050055466436567 -0.5199726577957962 1.1399758163352145
2.99090600014 0.8237790302044824 0.099781932037767 -1.142203737159183 2.0959564756018656 2.050055466436567 -0.5199726577957962 1.1399758163352145
3.00086307526 0.8237790302044824 0.099781932037767 -1.142203737159183 2.0959564756018656 2.050055466436567 -0.519968092336237 1.1399803817947736
3.00086307526 0.8237790302044824 0.099781932037767 -1.142203737159183 2.0959564756018656 2.050055466436567 -0.519968092336237 1.1399803817947736
3.01080703735 0.8237790302044824 0.0997972720491186 -1.142203737159183 2.0959564756018656 2.050055466436567 -0.5199726577957962 1.1399758163352145
3.01080703735 0.8237790302044824 0.0997972720491186 -1.142203737159183 2.0959564756018656 2.050055466436567 -0.5199726577957962 1.1399758163352145
3.02090501785 0.8237790302044824 0.0997972720491186 -1.142203737159183 2.0959564756018656 2.050055466436567 -0.5199772232553553 1.139971250875655
3.02090501785 0.8237790302044824 0.0997972720491186 -1.142203737159183 2.0959564756018656 2.050055466436567 -0.5199772232553553 1.139971250875655
3.03111696243 0.8237790302044824 0.0997972720491186 -1.142203737159183 2.0959564756018656 2.050055466436567 -0.5199772232553553 1.139971250875655
3.03111696243 0.8237790302044824 0.0997972720491186 -1.142203737159183 2.0959564756018656 2.050055466436567 -0.5199772232553553 1.139971250875655
3.04097104073 0.8237330101704275 0.0997972720491186 -1.142203737159183 2.0959564756018656 2.050055466436567 -0.519968092336237 1.1399803817947736
3.04097104073 0.8237330101704275 0.0997972720491186 -1.142203737159183 2.0959564756018656 2.050055466436567 -0.519968092336237 1.1399803817947736
3.05081605911 0.8237330101704275 0.0997972720491186 -1.142203737159183 2.0959564756018656 2.050055466436567 -0.519968092336237 1.1399803817947736
3.05081605911 0.8237330101704275 0.0997972720491186 -1.142203737159183 2.0959564756018656 2.050055466436567 -0.519968092336237 1.1399803817947736
3.06124591827 0.8237330101704275 0.0997972720491186 -1.142203737159183 2.0959564756018656 2.050055466436567 -0.519968092336237 1.1399803817947736
3.06124591827 0.8237330101704275 0.0997972720491186 -1.142203737159183 2.0959564756018656 2.050055466436567 -0.519968092336237 1.1399803817947736
3.07106590271 0.8237330101704275 0.0997972720491186 -1.142203737159183 2.0959564756018656 2.050055466436567 -0.519968092336237 1.1399803817947736
3.07106590271 0.8237330101704275 0.0997972720491186 -1.142203737159183 2.0959564756018656 2.050055466436567 -0.519968092336237 1.1399803817947736
3.08118510246 0.8237330101704275 0.0997972720491186 -1.142203737159183 2.0959564756018656 2.050055466436567 -0.519968092336237 1.1399803817947736
3.08118510246 0.8237330101704275 0.0997972720491186 -1.142203737159183 2.0959564756018656 2.050055466436567 -0.519968092336237 1.1399803817947736
3.0910820961 0.8237330101704275 0.0997972720491186 -1.142203737159183 2.0959564756018656 2.050055466436567 -0.519968092336237 1.1399803817947736
3.0910820961 0.8237330101704275 0.0997972720491186 -1.142203737159183 2.0959564756018656 2.050055466436567 -0.519968092336237 1.1399803817947736
3.10154700279 0.823456889966 0.0997972720491 -1.14220373716 2.0959564756 2.05005546644 -0.519972657796 1.13997581634
3.10154700279 0.823456889966 0.0997972720491 -1.14220373716 2.0959564756 2.05005546644 -0.519972657796 1.13997581634
3.11089897156 0.8218615287855313 0.0997972720491186 -1.142203737159183 2.0959564756018656 2.050055466436567 -0.519968092336237 1.1399803817947736
3.11089897156 0.8218615287855313 0.0997972720491186 -1.142203737159183 2.0959564756018656 2.050055466436567 -0.519968092336237 1.1399803817947736
3.120855093 0.8218615287855313 0.0997972720491186 -1.142203737159183 2.0959564756018656 2.050055466436567 -0.519968092336237 1.1399803817947736
3.120855093 0.8218615287855313 0.0997972720491186 -1.142203737159183 2.0959564756018656 2.050055466436567 -0.519968092336237 1.1399803817947736
3.13113498688 0.8218615287855313 0.0997972720491186 -1.142203737159183 2.0959564756018656 2.050055466436567 -0.519968092336237 1.1399803817947736
3.13113498688 0.8218615287855313 0.0997972720491186 -1.142203737159183 2.0959564756018656 2.050055466436567 -0.519968092336237 1.1399803817947736
3.14107990265 0.8218615287855313 0.0997972720491186 -1.142203737159183 2.0959564756018656 2.050055466436567 -0.5199726577957962 1.1399758163352145
3.14107990265 0.8218615287855313 0.0997972720491186 -1.142203737159183 2.0959564756018656 2.050055466436567 -0.5199726577957962 1.1399758163352145
3.15231108665 0.8218615287855313 0.0997972720491186 -1.142203737159183 2.0959564756018656 2.050055466436567 -0.5199726577957962 1.1399758163352145
3.15231108665 0.8218615287855313 0.0997972720491186 -1.142203737159183 2.0959564756018656 2.050055466436567 -0.5199726577957962 1.1399758163352145
3.16131711006 0.8218615287855313 0.0997972720491186 -1.142203737159183 2.0959564756018656 2.050055466436567 -0.5199726577957962 1.1399758163352145
3.16131711006 0.8218615287855313 0.0997972720491186 -1.142203737159183 2.0959564756018656 2.050055466436567 -0.5199726577957962 1.1399758163352145
3.17118310928 0.8218615287855313 0.0997972720491186 -1.142203737159183 2.0959564756018656 2.050055466436567 -0.5199726577957962 1.1399758163352145
3.17118310928 0.8218615287855313 0.0997972720491186 -1.142203737159183 2.0959564756018656 2.050055466436567 -0.5199726577957962 1.1399758163352145
3.18107891083 0.8218615287855313 0.0997972720491186 -1.142203737159183 2.0959564756018656 2.050055466436567 -0.5199726577957962 1.1399758163352145
3.18107891083 0.8218615287855313 0.0997972720491186 -1.142203737159183 2.0959564756018656 2.050055466436567 -0.5199726577957962 1.1399758163352145
3.19120192528 0.8218615287855313 0.0997972720491186 -1.142203737159183 2.0959564756018656 2.050055466436567 -0.5199726577957962 1.1399758163352145
3.19120192528 0.8218615287855313 0.0997972720491186 -1.142203737159183 2.0959564756018656 2.050055466436567 -0.5199726577957962 1.1399758163352145
3.20127701759 0.8218615287855313 0.0997972720491186 -1.142203737159183 2.0959564756018656 2.050055466436567 -0.5199726577957962 1.1399758163352145
3.20127701759 0.8218615287855313 0.0997972720491186 -1.142203737159183 2.0959564756018656 2.050055466436567 -0.5199726577957962 1.1399758163352145
3.21119093895 0.8218615287855313 0.0997972720491186 -1.142203737159183 2.0959564756018656 2.050055466436567 -0.5199726577957962 1.1399758163352145
3.21119093895 0.8218615287855313 0.0997972720491186 -1.142203737159183 2.0959564756018656 2.050055466436567 -0.5199726577957962 1.1399758163352145
3.22130393982 0.8218615287855313 0.0997972720491186 -1.142203737159183 2.0959564756018656 2.050055466436567 -0.5199726577957962 1.1399758163352145
3.22130393982 0.8218615287855313 0.0997972720491186 -1.142203737159183 2.0959564756018656 2.050055466436567 -0.5199726577957962 1.1399758163352145
3.23125195503 0.8218615287855313 0.0997972720491186 -1.142203737159183 2.0959564756018656 2.050055466436567 -0.519968092336237 1.1399803817947736
3.23125195503 0.8218615287855313 0.0997972720491186 -1.142203737159183 2.0959564756018656 2.050055466436567 -0.519968092336237 1.1399803817947736
3.24131894112 0.8218615287855313 0.0997972720491186 -1.142203737159183 2.0959564756018656 2.050055466436567 -0.519968092336237 1.1399803817947736
3.24131894112 0.8218615287855313 0.0997972720491186 -1.142203737159183 2.0959564756018656 2.050055466436567 -0.519968092336237 1.1399803817947736
3.25124311447 0.8218615287855313 0.0997972720491186 -1.142203737159183 2.0959564756018656 2.050055466436567 -0.519968092336237 1.1399803817947736
3.25124311447 0.8218615287855313 0.0997972720491186 -1.142203737159183 2.0959564756018656 2.050055466436567 -0.519968092336237 1.1399803817947736
3.26125192642 0.8218615287855313 0.0997972720491186 -1.142203737159183 2.0959564756018656 2.050055466436567 -0.519968092336237 1.1399803817947736
3.26125192642 0.8218615287855313 0.0997972720491186 -1.142203737159183 2.0959564756018656 2.050055466436567 -0.519968092336237 1.1399803817947736
3.27122092247 0.8218615287855313 0.0997972720491186 -1.142203737159183 2.0959564756018656 2.050055466436567 -0.519968092336237 1.1399803817947736
3.27122092247 0.8218615287855313 0.0997972720491186 -1.142203737159183 2.0959564756018656 2.050055466436567 -0.519968092336237 1.1399803817947736
3.28135704994 0.8218615287855313 0.0997972720491186 -1.142203737159183 2.0959564756018656 2.050055466436567 -0.519968092336237 1.1399803817947736
3.28135704994 0.8218615287855313 0.0997972720491186 -1.142203737159183 2.0959564756018656 2.050055466436567 -0.519968092336237 1.1399803817947736
3.29110407829 0.8218615287855313 0.0997972720491186 -1.142203737159183 2.0959564756018656 2.050055466436567 -0.519968092336237 1.1399803817947736
3.29110407829 0.8218615287855313 0.0997972720491186 -1.142203737159183 2.0959564756018656 2.050055466436567 -0.519968092336237 1.1399803817947736
3.30087900162 0.8218615287855313 0.0997972720491186 -1.142203737159183 2.0959564756018656 2.050055466436567 -0.5199726577957962 1.1399758163352145
3.30087900162 0.8218615287855313 0.0997972720491186 -1.142203737159183 2.0959564756018656 2.050055466436567 -0.5199726577957962 1.1399758163352145
3.31086397171 0.8218615287855313 0.0997972720491186 -1.142203737159183 2.0959564756018656 2.050055466436567 -0.5199726577957962 1.1399758163352145
3.31086397171 0.8218615287855313 0.0997972720491186 -1.142203737159183 2.0959564756018656 2.050055466436567 -0.5199726577957962 1.1399758163352145
3.32116699219 0.8218615287855313 0.0997972720491186 -1.142203737159183 2.0959564756018656 2.050055466436567 -0.5199726577957962 1.1399758163352145
3.32116699219 0.8218615287855313 0.0997972720491186 -1.142203737159183 2.0959564756018656 2.050055466436567 -0.5199726577957962 1.1399758163352145
3.33104705811 0.8218615287855313 0.0997972720491186 -1.142203737159183 2.0959564756018656 2.050055466436567 -0.5199726577957962 1.1399758163352145
3.33104705811 0.8218615287855313 0.0997972720491186 -1.142203737159183 2.0959564756018656 2.050055466436567 -0.5199726577957962 1.1399758163352145
3.34107494354 0.8218615287855313 0.0997972720491186 -1.142203737159183 2.0959564756018656 2.050055466436567 -0.5199726577957962 1.1399758163352145
3.34107494354 0.8218615287855313 0.0997972720491186 -1.142203737159183 2.0959564756018656 2.050055466436567 -0.5199726577957962 1.1399758163352145
3.3509581089 0.8218615287855313 0.0997972720491186 -1.142203737159183 2.0959564756018656 2.050055466436567 -0.5199726577957962 1.1399758163352145
3.3509581089 0.8218615287855313 0.0997972720491186 -1.142203737159183 2.0959564756018656 2.050055466436567 -0.5199726577957962 1.1399758163352145
3.36092495918 0.8218615287855313 0.0997972720491186 -1.142203737159183 2.0959564756018656 2.050055466436567 -0.5199726577957962 1.1399758163352145
3.36092495918 0.8218615287855313 0.0997972720491186 -1.142203737159183 2.0959564756018656 2.050055466436567 -0.5199726577957962 1.1399758163352145
3.3708050251 0.8218615287855313 0.0997972720491186 -1.142203737159183 2.0959564756018656 2.050055466436567 -0.5199726577957962 1.1399758163352145
3.3708050251 0.8218615287855313 0.0997972720491186 -1.142203737159183 2.0959564756018656 2.050055466436567 -0.5199726577957962 1.1399758163352145
3.38089299202 0.8218615287855313 0.0997972720491186 -1.142203737159183 2.0959564756018656 2.050055466436567 -0.5199726577957962 1.1399758163352145
3.38089299202 0.8218615287855313 0.0997972720491186 -1.142203737159183 2.0959564756018656 2.050055466436567 -0.5199726577957962 1.1399758163352145
3.39084792137 0.8218615287855313 0.0997972720491186 -1.142203737159183 2.0959564756018656 2.050055466436567 -0.5199726577957962 1.1399758163352145
3.39084792137 0.8218615287855313 0.0997972720491186 -1.142203737159183 2.0959564756018656 2.050055466436567 -0.5199726577957962 1.1399758163352145
3.40089607239 0.8218615287855313 0.0997972720491186 -1.142203737159183 2.0959564756018656 2.050055466436567 -0.5199726577957962 1.1399758163352145
3.40089607239 0.8218615287855313 0.0997972720491186 -1.142203737159183 2.0959564756018656 2.050055466436567 -0.5199726577957962 1.1399758163352145
3.41082310677 0.8218615287855313 0.0997972720491186 -1.142203737159183 2.0959564756018656 2.050055466436567 -0.5199726577957962 1.1399758163352145
3.41082310677 0.8218615287855313 0.0997972720491186 -1.142203737159183 2.0959564756018656 2.050055466436567 -0.5199726577957962 1.1399758163352145
3.42082190514 0.8218615287855313 0.0997972720491186 -1.142203737159183 2.0959564756018656 2.050055466436567 -0.5199726577957962 1.1399758163352145
3.42082190514 0.8218615287855313 0.0997972720491186 -1.142203737159183 2.0959564756018656 2.050055466436567 -0.5199726577957962 1.1399758163352145
3.43078708649 0.8218615287855313 0.0997972720491186 -1.142203737159183 2.0959564756018656 2.050055466436567 -0.5199726577957962 1.1399758163352145
3.43078708649 0.8218615287855313 0.0997972720491186 -1.142203737159183 2.0959564756018656 2.050055466436567 -0.5199726577957962 1.1399758163352145
3.4408891201 0.8218615287855313 0.0997972720491186 -1.142203737159183 2.0959564756018656 2.050055466436567 -0.519968092336237 1.1399803817947736
3.4408891201 0.8218615287855313 0.0997972720491186 -1.142203737159183 2.0959564756018656 2.050055466436567 -0.519968092336237 1.1399803817947736
3.45080399513 0.8218615287855313 0.0997972720491186 -1.142203737159183 2.0959564756018656 2.050055466436567 -0.519968092336237 1.1399803817947736
3.45080399513 0.8218615287855313 0.0997972720491186 -1.142203737159183 2.0959564756018656 2.050055466436567 -0.519968092336237 1.1399803817947736
3.4609310627 0.8218615287855313 0.0997972720491186 -1.142203737159183 2.0959564756018656 2.050055466436567 -0.519968092336237 1.1399803817947736
3.4609310627 0.8218615287855313 0.0997972720491186 -1.142203737159183 2.0959564756018656 2.050055466436567 -0.519968092336237 1.1399803817947736
3.4708609581 0.8218615287855313 0.0997972720491186 -1.142203737159183 2.0959564756018656 2.050055466436567 -0.519968092336237 1.1399803817947736
3.4708609581 0.8218615287855313 0.0997972720491186 -1.142203737159183 2.0959564756018656 2.050055466436567 -0.519968092336237 1.1399803817947736
3.48089694977 0.8218615287855313 0.0997972720491186 -1.142203737159183 2.0959564756018656 2.050055466436567 -0.519968092336237 1.1399803817947736
3.48089694977 0.8218615287855313 0.0997972720491186 -1.142203737159183 2.0959564756018656 2.050055466436567 -0.519968092336237 1.1399803817947736
3.49121499062 0.8218615287855313 0.0997972720491186 -1.142203737159183 2.0959564756018656 2.050055466436567 -0.5199726577957962 1.1399758163352145
3.49121499062 0.8218615287855313 0.0997972720491186 -1.142203737159183 2.0959564756018656 2.050055466436567 -0.5199726577957962 1.1399758163352145
3.50088906288 0.8218615287855313 0.0997972720491186 -1.142203737159183 2.0959564756018656 2.050055466436567 -0.519968092336237 1.1399803817947736
3.50088906288 0.8218615287855313 0.0997972720491186 -1.142203737159183 2.0959564756018656 2.050055466436567 -0.519968092336237 1.1399803817947736
3.51110696793 0.8218615287855313 0.0997972720491186 -1.142203737159183 2.0959564756018656 2.050055466436567 -0.519968092336237 1.1399803817947736
3.51110696793 0.8218615287855313 0.0997972720491186 -1.142203737159183 2.0959564756018656 2.050055466436567 -0.519968092336237 1.1399803817947736
3.52128100395 0.8218615287855313 0.0997972720491186 -1.142203737159183 2.0959564756018656 2.050055466436567 -0.519968092336237 1.1399803817947736
3.52128100395 0.8218615287855313 0.0997972720491186 -1.142203737159183 2.0959564756018656 2.050055466436567 -0.519968092336237 1.1399803817947736
3.53088593483 0.8218615287855313 0.0997972720491186 -1.142203737159183 2.0959564756018656 2.050055466436567 -0.519968092336237 1.1399803817947736
3.53088593483 0.8218615287855313 0.0997972720491186 -1.142203737159183 2.0959564756018656 2.050055466436567 -0.519968092336237 1.1399803817947736
3.54083895683 0.8218615287855313 0.0997972720491186 -1.142203737159183 2.0959564756018656 2.050055466436567 -0.519968092336237 1.1399803817947736
3.54083895683 0.8218615287855313 0.0997972720491186 -1.142203737159183 2.0959564756018656 2.050055466436567 -0.519968092336237 1.1399803817947736
3.55079293251 0.8218615287855313 0.0997972720491186 -1.142203737159183 2.0959564756018656 2.050055466436567 -0.519968092336237 1.1399803817947736
3.55079293251 0.8218615287855313 0.0997972720491186 -1.142203737159183 2.0959564756018656 2.050055466436567 -0.519968092336237 1.1399803817947736
3.56104898453 0.8218615287855313 0.0997972720491186 -1.142203737159183 2.0959564756018656 2.050055466436567 -0.519968092336237 1.1399803817947736
3.56104898453 0.8218615287855313 0.0997972720491186 -1.142203737159183 2.0959564756018656 2.050055466436567 -0.519968092336237 1.1399803817947736
3.57117295265 0.8218615287855313 0.0997972720491186 -1.142203737159183 2.0959564756018656 2.050055466436567 -0.519968092336237 1.1399803817947736
3.57117295265 0.8218615287855313 0.0997972720491186 -1.142203737159183 2.0959564756018656 2.050055466436567 -0.519968092336237 1.1399803817947736
3.58112692833 0.8218615287855313 0.0997972720491186 -1.142203737159183 2.0959564756018656 2.050055466436567 -0.519968092336237 1.1399803817947736
3.58112692833 0.8218615287855313 0.0997972720491186 -1.142203737159183 2.0959564756018656 2.050055466436567 -0.519968092336237 1.1399803817947736
3.59117102623 0.8218615287855313 0.0997972720491186 -1.142203737159183 2.0959564756018656 2.050055466436567 -0.519968092336237 1.1399803817947736
3.59117102623 0.8218615287855313 0.0997972720491186 -1.142203737159183 2.0959564756018656 2.050055466436567 -0.519968092336237 1.1399803817947736
3.60122299194 0.8218615287855313 0.0997972720491186 -1.142203737159183 2.0959564756018656 2.050055466436567 -0.519968092336237 1.1399803817947736
3.60122299194 0.8218615287855313 0.0997972720491186 -1.142203737159183 2.0959564756018656 2.050055466436567 -0.519968092336237 1.1399803817947736
3.61112594604 0.8218615287855313 0.0997972720491186 -1.142203737159183 2.0959564756018656 2.050055466436567 -0.519968092336237 1.1399803817947736
3.61112594604 0.8218615287855313 0.0997972720491186 -1.142203737159183 2.0959564756018656 2.050055466436567 -0.519968092336237 1.1399803817947736
3.62116789818 0.8218615287855313 0.0997972720491186 -1.142203737159183 2.0959564756018656 2.050055466436567 -0.519968092336237 1.1399803817947736
3.62116789818 0.8218615287855313 0.0997972720491186 -1.142203737159183 2.0959564756018656 2.050055466436567 -0.519968092336237 1.1399803817947736
3.63090205193 0.8218155087514765 0.0997972720491186 -1.142203737159183 2.0959564756018656 2.050055466436567 -0.5199726577957962 1.1399758163352145
3.63090205193 0.8218155087514765 0.0997972720491186 -1.142203737159183 2.0959564756018656 2.050055466436567 -0.5199726577957962 1.1399758163352145
3.64123702049 0.8218155087514765 0.0997972720491186 -1.142203737159183 2.0959564756018656 2.050055466436567 -0.5199726577957962 1.1399758163352145
3.64123702049 0.8218155087514765 0.0997972720491186 -1.142203737159183 2.0959564756018656 2.050055466436567 -0.5199726577957962 1.1399758163352145
3.65121507645 0.8216467686266088 0.0997972720491186 -1.142203737159183 2.0959564756018656 2.050055466436567 -0.519968092336237 1.1399803817947736
3.65121507645 0.8216467686266088 0.0997972720491186 -1.142203737159183 2.0959564756018656 2.050055466436567 -0.519968092336237 1.1399803817947736
3.66114997864 0.8216467686266088 0.0997972720491186 -1.142203737159183 2.0959564756018656 2.050055466436567 -0.519968092336237 1.1399803817947736
3.66114997864 0.8216467686266088 0.0997972720491186 -1.142203737159183 2.0959564756018656 2.050055466436567 -0.519968092336237 1.1399803817947736
3.67123293877 0.8210178281611928 0.0997972720491186 -1.142203737159183 2.0959564756018656 2.050046335517449 -0.5199726577957962 1.1399758163352145
3.67123293877 0.8210178281611928 0.0997972720491186 -1.142203737159183 2.0959564756018656 2.050046335517449 -0.5199726577957962 1.1399758163352145
3.68094801903 0.8210178281611928 0.0997972720491186 -1.142203737159183 2.0959564756018656 2.050046335517449 -0.5199726577957962 1.1399758163352145
3.68094801903 0.8210178281611928 0.0997972720491186 -1.142203737159183 2.0959564756018656 2.050046335517449 -0.5199726577957962 1.1399758163352145
3.69105410576 0.820465587752535 0.0997972720491186 -1.142203737159183 2.0959564756018656 2.050055466436567 -0.519968092336237 1.1399803817947736
3.69105410576 0.820465587752535 0.0997972720491186 -1.142203737159183 2.0959564756018656 2.050055466436567 -0.519968092336237 1.1399803817947736
3.70126008987 0.820465587752535 0.0997972720491186 -1.142203737159183 2.0959564756018656 2.050055466436567 -0.519968092336237 1.1399803817947736
3.70126008987 0.820465587752535 0.0997972720491186 -1.142203737159183 2.0959564756018656 2.050055466436567 -0.519968092336237 1.1399803817947736
3.71112394333 0.820465587752535 0.0997972720491186 -1.142203737159183 2.0959564756018656 2.050055466436567 -0.519968092336237 1.1399803817947736
3.71112394333 0.820465587752535 0.0997972720491186 -1.142203737159183 2.0959564756018656 2.050055466436567 -0.519968092336237 1.1399803817947736
3.72114109993 0.8197139271963061 0.0997972720491186 -1.142203737159183 2.0959564756018656 2.050055466436567 -0.519968092336237 1.1399803817947736
3.72114109993 0.8197139271963061 0.0997972720491186 -1.142203737159183 2.0959564756018656 2.050055466436567 -0.519968092336237 1.1399803817947736
3.73121809959 0.8186401264016936 0.0997972720491186 -1.142203737159183 2.0959564756018656 2.050055466436567 -0.519968092336237 1.1399803817947736
3.73121809959 0.8186401264016936 0.0997972720491186 -1.142203737159183 2.0959564756018656 2.050055466436567 -0.519968092336237 1.1399803817947736
3.74121689796 0.8174742855389713 0.0997972720491186 -1.142203737159183 2.0959564756018656 2.050055466436567 -0.5199726577957962 1.1399758163352145
3.74121689796 0.8174742855389713 0.0997972720491186 -1.142203737159183 2.0959564756018656 2.050055466436567 -0.5199726577957962 1.1399758163352145
3.7510330677 0.8174742855389713 0.0997972720491186 -1.142203737159183 2.0959564756018656 2.050055466436567 -0.5199726577957962 1.1399758163352145
3.7510330677 0.8174742855389713 0.0997972720491186 -1.142203737159183 2.0959564756018656 2.050055466436567 -0.5199726577957962 1.1399758163352145
3.76113605499 0.8161090245286782 0.0997972720491186 -1.142203737159183 2.0959564756018656 2.050055466436567 -0.5199726577957962 1.1399758163352145
3.76113605499 0.8161090245286782 0.0997972720491186 -1.142203737159183 2.0959564756018656 2.050055466436567 -0.5199726577957962 1.1399758163352145
3.77099490166 0.8161090245286782 0.0997972720491186 -1.142203737159183 2.0959564756018656 2.050055466436567 -0.5199726577957962 1.1399758163352145
3.77099490166 0.8161090245286782 0.0997972720491186 -1.142203737159183 2.0959564756018656 2.050055466436567 -0.5199726577957962 1.1399758163352145
3.78094911575 0.8161090245286782 0.0997972720491186 -1.142203737159183 2.0959564756018656 2.050055466436567 -0.5199726577957962 1.1399758163352145
3.78094911575 0.8161090245286782 0.0997972720491186 -1.142203737159183 2.0959564756018656 2.050055466436567 -0.5199726577957962 1.1399758163352145
3.79092097282 0.8145290033594625 0.0997972720491186 -1.142203737159183 2.0959564756018656 2.050055466436567 -0.519968092336237 1.1399803817947736
3.79092097282 0.8145290033594625 0.0997972720491186 -1.142203737159183 2.0959564756018656 2.050055466436567 -0.519968092336237 1.1399803817947736
3.8009390831 0.8145290033594625 0.0997972720491186 -1.142203737159183 2.0959564756018656 2.050055466436567 -0.519968092336237 1.1399803817947736
3.8009390831 0.8145290033594625 0.0997972720491186 -1.142203737159183 2.0959564756018656 2.050055466436567 -0.519968092336237 1.1399803817947736
3.81080198288 0.8145290033594625 0.0997972720491186 -1.142203737159183 2.0959564756018656 2.050055466436567 -0.519968092336237 1.1399803817947736
3.81080198288 0.8145290033594625 0.0997972720491186 -1.142203737159183 2.0959564756018656 2.050055466436567 -0.519968092336237 1.1399803817947736
3.82087993622 0.8128876221448404 0.0997972720491186 -1.142203737159183 2.0959564756018656 2.050055466436567 -0.519968092336237 1.1399803817947736
3.82087993622 0.8128876221448404 0.0997972720491186 -1.142203737159183 2.0959564756018656 2.050055466436567 -0.519968092336237 1.1399803817947736
3.83084607124 0.8109547807145377 0.0997972720491186 -1.142203737159183 2.0959564756018656 2.050055466436567 -0.519968092336237 1.1399803817947736
3.83084607124 0.8109547807145377 0.0997972720491186 -1.142203737159183 2.0959564756018656 2.050055466436567 -0.519968092336237 1.1399803817947736
3.84086108208 0.8090065992728834 0.0997972720491186 -1.142203737159183 2.0959564756018656 2.050055466436567 -0.5199726577957962 1.1399758163352145
3.84086108208 0.8090065992728834 0.0997972720491186 -1.142203737159183 2.0959564756018656 2.050055466436567 -0.5199726577957962 1.1399758163352145
3.85081291199 0.8090065992728834 0.0997972720491186 -1.142203737159183 2.0959564756018656 2.050055466436567 -0.5199726577957962 1.1399758163352145
3.85081291199 0.8090065992728834 0.0997972720491186 -1.142203737159183 2.0959564756018656 2.050055466436567 -0.5199726577957962 1.1399758163352145
3.86091089249 0.8069050177177132 0.0997972720491186 -1.142203737159183 2.0959564756018656 2.050055466436567 -0.5199726577957962 1.1399758163352145
3.86091089249 0.8069050177177132 0.0997972720491186 -1.142203737159183 2.0959564756018656 2.050055466436567 -0.5199726577957962 1.1399758163352145
3.87082600594 0.8069050177177132 0.0997972720491186 -1.142203737159183 2.0959564756018656 2.050055466436567 -0.5199726577957962 1.1399758163352145
3.87082600594 0.8069050177177132 0.0997972720491186 -1.142203737159183 2.0959564756018656 2.050055466436567 -0.5199726577957962 1.1399758163352145
3.88089704514 0.8069050177177132 0.0997972720491186 -1.142203737159183 2.0959564756018656 2.050055466436567 -0.5199726577957962 1.1399758163352145
3.88089704514 0.8069050177177132 0.0997972720491186 -1.142203737159183 2.0959564756018656 2.050055466436567 -0.5199726577957962 1.1399758163352145
3.89091491699 0.8069050177177132 0.0997972720491186 -1.142203737159183 2.0959564756018656 2.050055466436567 -0.5199726577957962 1.1399758163352145
3.89091491699 0.8069050177177132 0.0997972720491186 -1.142203737159183 2.0959564756018656 2.050055466436567 -0.5199726577957962 1.1399758163352145
3.90092492104 0.8069050177177132 0.0997972720491186 -1.142203737159183 2.0959564756018656 2.050055466436567 -0.5199726577957962 1.1399758163352145
3.90092492104 0.8069050177177132 0.0997972720491186 -1.142203737159183 2.0959564756018656 2.050055466436567 -0.5199726577957962 1.1399758163352145
3.91080904007 0.8069050177177132 0.0997972720491186 -1.142203737159183 2.0959564756018656 2.050055466436567 -0.5199726577957962 1.1399758163352145
3.91080904007 0.8069050177177132 0.0997972720491186 -1.142203737159183 2.0959564756018656 2.050055466436567 -0.5199726577957962 1.1399758163352145
3.9208381176 0.8020268941079016 0.0997972720491186 -1.142203737159183 2.0959564756018656 2.050055466436567 -0.519968092336237 1.1399803817947736
3.9208381176 0.8020268941079016 0.0997972720491186 -1.142203737159183 2.0959564756018656 2.050055466436567 -0.519968092336237 1.1399803817947736
3.93086409569 0.8020268941079016 0.0997972720491186 -1.142203737159183 2.0959564756018656 2.050055466436567 -0.519968092336237 1.1399803817947736
3.93086409569 0.8020268941079016 0.0997972720491186 -1.142203737159183 2.0959564756018656 2.050055466436567 -0.519968092336237 1.1399803817947736
3.94090604782 0.7996031723143475 0.0997972720491186 -1.142203737159183 2.0959564756018656 2.050055466436567 -0.5199726577957962 1.1399758163352145
3.94090604782 0.7996031723143475 0.0997972720491186 -1.142203737159183 2.0959564756018656 2.050055466436567 -0.5199726577957962 1.1399758163352145
3.95080208778 0.7970107103959257 0.0997972720491186 -1.142203737159183 2.0959564756018656 2.050046335517449 -0.5199726577957962 1.1399758163352145
3.95080208778 0.7970107103959257 0.0997972720491186 -1.142203737159183 2.0959564756018656 2.050046335517449 -0.5199726577957962 1.1399758163352145
3.96099090576 0.7970107103959257 0.0997972720491186 -1.142203737159183 2.0959564756018656 2.050046335517449 -0.5199726577957962 1.1399758163352145
3.96099090576 0.7970107103959257 0.0997972720491186 -1.142203737159183 2.0959564756018656 2.050046335517449 -0.5199726577957962 1.1399758163352145
3.9708969593 0.7939733881483072 0.0998432920831735 -1.142203737159183 2.0959564756018656 2.050055466436567 -0.519968092336237 1.1399803817947736
3.9708969593 0.7939733881483072 0.0998432920831735 -1.142203737159183 2.0959564756018656 2.050055466436567 -0.519968092336237 1.1399803817947736
3.98089504242 0.7939733881483072 0.0998432920831735 -1.142203737159183 2.0959564756018656 2.050055466436567 -0.519968092336237 1.1399803817947736
3.98089504242 0.7939733881483072 0.0998432920831735 -1.142203737159183 2.0959564756018656 2.050055466436567 -0.519968092336237 1.1399803817947736
3.99103498459 0.7939733881483072 0.0998432920831735 -1.142203737159183 2.0959564756018656 2.050055466436567 -0.519968092336237 1.1399803817947736
3.99103498459 0.7939733881483072 0.0998432920831735 -1.142203737159183 2.0959564756018656 2.050055466436567 -0.519968092336237 1.1399803817947736
4.00088191032 0.7939733881483072 0.0998432920831735 -1.142203737159183 2.0959564756018656 2.050055466436567 -0.519968092336237 1.1399803817947736
4.00088191032 0.7939733881483072 0.0998432920831735 -1.142203737159183 2.0959564756018656 2.050055466436567 -0.519968092336237 1.1399803817947736
4.01090693474 0.7939733881483072 0.0998432920831735 -1.142203737159183 2.0959564756018656 2.050055466436567 -0.519968092336237 1.1399803817947736
4.01090693474 0.7939733881483072 0.0998432920831735 -1.142203737159183 2.0959564756018656 2.050055466436567 -0.519968092336237 1.1399803817947736
4.02090597153 0.7939733881483072 0.0998432920831735 -1.142203737159183 2.0959564756018656 2.050055466436567 -0.519968092336237 1.1399803817947736
4.02090597153 0.7939733881483072 0.0998432920831735 -1.142203737159183 2.0959564756018656 2.050055466436567 -0.519968092336237 1.1399803817947736
4.03080010414 0.7939733881483072 0.0998432920831735 -1.142203737159183 2.0959564756018656 2.050055466436567 -0.519968092336237 1.1399803817947736
4.03080010414 0.7939733881483072 0.0998432920831735 -1.142203737159183 2.0959564756018656 2.050055466436567 -0.519968092336237 1.1399803817947736
4.04091095924 0.7939733881483072 0.0998432920831735 -1.142203737159183 2.0959564756018656 2.050055466436567 -0.519968092336237 1.1399803817947736
4.04091095924 0.7939733881483072 0.0998432920831735 -1.142203737159183 2.0959564756018656 2.050055466436567 -0.519968092336237 1.1399803817947736
4.05080604553 0.7798145576707727 0.0998586320945251 -1.142203737159183 2.0959257955791624 2.050055466436567 -0.5199772232553553 1.139971250875655
4.05080604553 0.7798145576707727 0.0998586320945251 -1.142203737159183 2.0959257955791624 2.050055466436567 -0.5199772232553553 1.139971250875655
4.06089997292 0.776040914878277 0.0998586320945251 -1.142203737159183 2.0959104555678105 2.050055466436567 -0.519968092336237 1.1399803817947736
4.06089997292 0.776040914878277 0.0998586320945251 -1.142203737159183 2.0959104555678105 2.050055466436567 -0.519968092336237 1.1399803817947736
4.07081508636 0.776040914878277 0.0998586320945251 -1.142203737159183 2.0959104555678105 2.050055466436567 -0.519968092336237 1.1399803817947736
4.07081508636 0.776040914878277 0.0998586320945251 -1.142203737159183 2.0959104555678105 2.050055466436567 -0.519968092336237 1.1399803817947736
4.08080410957 0.776040914878277 0.0998586320945251 -1.142203737159183 2.0959104555678105 2.050055466436567 -0.519968092336237 1.1399803817947736
4.08080410957 0.776040914878277 0.0998586320945251 -1.142203737159183 2.0959104555678105 2.050055466436567 -0.519968092336237 1.1399803817947736
4.09082508087 0.771653671631717 0.0998586320945251 -1.142203737159183 2.0959104555678105 2.050055466436567 -0.519968092336237 1.1399803817947736
4.09082508087 0.771653671631717 0.0998586320945251 -1.142203737159183 2.0959104555678105 2.050055466436567 -0.519968092336237 1.1399803817947736
4.10087704659 0.771653671631717 0.0998586320945251 -1.142203737159183 2.0959104555678105 2.050055466436567 -0.519968092336237 1.1399803817947736
4.10087704659 0.771653671631717 0.0998586320945251 -1.142203737159183 2.0959104555678105 2.050055466436567 -0.519968092336237 1.1399803817947736
4.11084389687 0.771653671631717 0.0998586320945251 -1.142203737159183 2.0959104555678105 2.050055466436567 -0.519968092336237 1.1399803817947736
4.11084389687 0.771653671631717 0.0998586320945251 -1.142203737159183 2.0959104555678105 2.050055466436567 -0.519968092336237 1.1399803817947736
4.12093400955 0.7672510883738054 0.0998586320945251 -1.142203737159183 2.0959104555678105 2.050055466436567 -0.5199726577957962 1.1399758163352145
4.12093400955 0.7672510883738054 0.0998586320945251 -1.142203737159183 2.0959104555678105 2.050055466436567 -0.5199726577957962 1.1399758163352145
4.13087391853 0.7633547254904969 0.0998586320945251 -1.142203737159183 2.0959104555678105 2.050055466436567 -0.5199726577957962 1.1399758163352145
4.13087391853 0.7633547254904969 0.0998586320945251 -1.142203737159183 2.0959104555678105 2.050055466436567 -0.5199726577957962 1.1399758163352145
4.14098906517 0.7592282624369142 0.0998586320945251 -1.142203737159183 2.095895115556459 2.050055466436567 -0.519968092336237 1.1399803817947736
4.14098906517 0.7592282624369142 0.0998586320945251 -1.142203737159183 2.095895115556459 2.050055466436567 -0.519968092336237 1.1399803817947736
4.15081310272 0.7546722790654865 0.0998586320945251 -1.142203737159183 2.095849095522404 2.050055466436567 -0.519968092336237 1.1399803817947736
4.15081310272 0.7546722790654865 0.0998586320945251 -1.142203737159183 2.095849095522404 2.050055466436567 -0.519968092336237 1.1399803817947736
4.16104197502 0.7546722790654865 0.0998586320945251 -1.142203737159183 2.095849095522404 2.050055466436567 -0.519968092336237 1.1399803817947736
4.16104197502 0.7546722790654865 0.0998586320945251 -1.142203737159183 2.095849095522404 2.050055466436567 -0.519968092336237 1.1399803817947736
4.17081093788 0.7546722790654865 0.0998586320945251 -1.142203737159183 2.095849095522404 2.050055466436567 -0.519968092336237 1.1399803817947736
4.17081093788 0.7546722790654865 0.0998586320945251 -1.142203737159183 2.095849095522404 2.050055466436567 -0.519968092336237 1.1399803817947736
4.1808860302 0.7546722790654865 0.0998586320945251 -1.142203737159183 2.095849095522404 2.050055466436567 -0.519968092336237 1.1399803817947736
4.1808860302 0.7546722790654865 0.0998586320945251 -1.142203737159183 2.095849095522404 2.050055466436567 -0.519968092336237 1.1399803817947736
4.19080495834 0.7499015355351363 0.0998586320945251 -1.142203737159183 2.0958337555110527 2.050055466436567 -0.519968092336237 1.1399803817947736
4.19080495834 0.7499015355351363 0.0998586320945251 -1.142203737159183 2.0958337555110527 2.050055466436567 -0.519968092336237 1.1399803817947736
4.20082306862 0.7456370123793892 0.0998586320945251 -1.142203737159183 2.0958337555110527 2.050055466436567 -0.5199726577957962 1.1399758163352145
4.20082306862 0.7456370123793892 0.0998586320945251 -1.142203737159183 2.0958337555110527 2.050055466436567 -0.5199726577957962 1.1399758163352145
4.21081399918 0.7456370123793892 0.0998586320945251 -1.142203737159183 2.0958337555110527 2.050055466436567 -0.5199726577957962 1.1399758163352145
4.21081399918 0.7456370123793892 0.0998586320945251 -1.142203737159183 2.0958337555110527 2.050055466436567 -0.5199726577957962 1.1399758163352145
4.22088909149 0.7411423890533679 0.0998586320945251 -1.142203737159183 2.095818415499701 2.050046335517449 -0.5199726577957962 1.1399758163352145
4.22088909149 0.7411423890533679 0.0998586320945251 -1.142203737159183 2.095818415499701 2.050046335517449 -0.5199726577957962 1.1399758163352145
4.23080301285 0.7361722253754468 0.0998586320945251 -1.142203737159183 2.095818415499701 2.050055466436567 -0.519968092336237 1.1399803817947736
4.23080301285 0.7361722253754468 0.0998586320945251 -1.142203737159183 2.095818415499701 2.050055466436567 -0.519968092336237 1.1399803817947736
4.24083209038 0.7361722253754468 0.0998586320945251 -1.142203737159183 2.095818415499701 2.050055466436567 -0.519968092336237 1.1399803817947736
4.24083209038 0.7361722253754468 0.0998586320945251 -1.142203737159183 2.095818415499701 2.050055466436567 -0.519968092336237 1.1399803817947736
4.25084900856 0.7361722253754468 0.0998586320945251 -1.142203737159183 2.095818415499701 2.050055466436567 -0.519968092336237 1.1399803817947736
4.25084900856 0.7361722253754468 0.0998586320945251 -1.142203737159183 2.095818415499701 2.050055466436567 -0.519968092336237 1.1399803817947736
4.26092410088 0.7361722253754468 0.0998586320945251 -1.142203737159183 2.095818415499701 2.050055466436567 -0.519968092336237 1.1399803817947736
4.26092410088 0.7361722253754468 0.0998586320945251 -1.142203737159183 2.095818415499701 2.050055466436567 -0.519968092336237 1.1399803817947736
4.2708029747 0.7312634217429321 0.0998586320945251 -1.142203737159183 2.095803075488349 2.050055466436567 -0.519968092336237 1.1399803817947736
4.2708029747 0.7312634217429321 0.0998586320945251 -1.142203737159183 2.095803075488349 2.050055466436567 -0.519968092336237 1.1399803817947736
4.28085303307 0.7260938379174401 0.0998586320945251 -1.142203737159183 2.0957877354769976 2.050055466436567 -0.5199726577957962 1.1399758163352145
4.28085303307 0.7260938379174401 0.0998586320945251 -1.142203737159183 2.0957877354769976 2.050055466436567 -0.5199726577957962 1.1399758163352145
4.29081010818 0.7260938379174401 0.0998586320945251 -1.142203737159183 2.0957877354769976 2.050055466436567 -0.5199726577957962 1.1399758163352145
4.29081010818 0.7260938379174401 0.0998586320945251 -1.142203737159183 2.0957877354769976 2.050055466436567 -0.5199726577957962 1.1399758163352145
4.30090594292 0.7260938379174401 0.0998586320945251 -1.142203737159183 2.0957877354769976 2.050055466436567 -0.5199726577957962 1.1399758163352145
4.30090594292 0.7260938379174401 0.0998586320945251 -1.142203737159183 2.0957877354769976 2.050055466436567 -0.5199726577957962 1.1399758163352145
4.31080389023 0.72084755403519 0.0998586320945251 -1.142203737159183 2.095757055454295 2.050055466436567 -0.5199726577957962 1.1399758163352145
4.31080389023 0.72084755403519 0.0998586320945251 -1.142203737159183 2.095757055454295 2.050055466436567 -0.5199726577957962 1.1399758163352145
4.3209168911 0.72084755403519 0.0998586320945251 -1.142203737159183 2.095757055454295 2.050055466436567 -0.5199726577957962 1.1399758163352145
4.3209168911 0.72084755403519 0.0998586320945251 -1.142203737159183 2.095757055454295 2.050055466436567 -0.5199726577957962 1.1399758163352145
4.33080792427 0.72084755403519 0.0998586320945251 -1.142203737159183 2.095757055454295 2.050055466436567 -0.5199726577957962 1.1399758163352145
4.33080792427 0.72084755403519 0.0998586320945251 -1.142203737159183 2.095757055454295 2.050055466436567 -0.5199726577957962 1.1399758163352145
4.34081602097 0.7156472901869948 0.0998586320945251 -1.142203737159183 2.095726375431592 2.050055466436567 -0.5199726577957962 1.1399758163352145
4.34081602097 0.7156472901869948 0.0998586320945251 -1.142203737159183 2.095726375431592 2.050055466436567 -0.5199726577957962 1.1399758163352145
4.35081410408 0.7156472901869948 0.0998586320945251 -1.142203737159183 2.095726375431592 2.050055466436567 -0.5199726577957962 1.1399758163352145
4.35081410408 0.7156472901869948 0.0998586320945251 -1.142203737159183 2.095726375431592 2.050055466436567 -0.5199726577957962 1.1399758163352145
4.36080503464 0.7047558821273527 0.0998586320945251 -1.142203737159183 2.0956496753748333 2.050055466436567 -0.519968092336237 1.1399803817947736
4.36080503464 0.7047558821273527 0.0998586320945251 -1.142203737159183 2.0956496753748333 2.050055466436567 -0.519968092336237 1.1399803817947736
4.37080311775 0.7047558821273527 0.0998586320945251 -1.142203737159183 2.0956496753748333 2.050055466436567 -0.519968092336237 1.1399803817947736
4.37080311775 0.7047558821273527 0.0998586320945251 -1.142203737159183 2.0956496753748333 2.050055466436567 -0.519968092336237 1.1399803817947736
4.38090205193 0.7047558821273527 0.0998586320945251 -1.142203737159183 2.0956496753748333 2.050055466436567 -0.519968092336237 1.1399803817947736
4.38090205193 0.7047558821273527 0.0998586320945251 -1.142203737159183 2.0956496753748333 2.050055466436567 -0.519968092336237 1.1399803817947736
4.39080095291 0.7047558821273527 0.0998586320945251 -1.142203737159183 2.0956496753748333 2.050055466436567 -0.519968092336237 1.1399803817947736
4.39080095291 0.7047558821273527 0.0998586320945251 -1.142203737159183 2.0956496753748333 2.050055466436567 -0.519968092336237 1.1399803817947736
4.40090799332 0.6993868781542899 0.0998586320945251 -1.142203737159183 2.095603655340778 2.050055466436567 -0.5199726577957962 1.1399758163352145
4.40090799332 0.6993868781542899 0.0998586320945251 -1.142203737159183 2.095603655340778 2.050055466436567 -0.5199726577957962 1.1399758163352145
4.41085004807 0.6938798140790624 0.0998586320945251 -1.142203737159183 2.095588315329427 2.050055466436567 -0.5199726577957962 1.1399758163352145
4.41085004807 0.6938798140790624 0.0998586320945251 -1.142203737159183 2.095588315329427 2.050055466436567 -0.5199726577957962 1.1399758163352145
4.42088794708 0.6938798140790624 0.0998586320945251 -1.142203737159183 2.095588315329427 2.050055466436567 -0.5199726577957962 1.1399758163352145
4.42088794708 0.6938798140790624 0.0998586320945251 -1.142203737159183 2.095588315329427 2.050055466436567 -0.5199726577957962 1.1399758163352145
4.43080592155 0.6881579898449125 0.0998586320945251 -1.142203737159183 2.095542295295372 2.050055466436567 -0.519968092336237 1.1399803817947736
4.43080592155 0.6881579898449125 0.0998586320945251 -1.142203737159183 2.095542295295372 2.050055466436567 -0.519968092336237 1.1399803817947736
4.44087195396 0.6824821856448174 0.0998586320945251 -1.142203737159183 2.095496275261317 2.050055466436567 -0.519968092336237 1.1399803817947736
4.44087195396 0.6824821856448174 0.0998586320945251 -1.142203737159183 2.095496275261317 2.050055466436567 -0.519968092336237 1.1399803817947736
4.45089101791 0.6824821856448174 0.0998586320945251 -1.142203737159183 2.095496275261317 2.050055466436567 -0.519968092336237 1.1399803817947736
4.45089101791 0.6824821856448174 0.0998586320945251 -1.142203737159183 2.095496275261317 2.050055466436567 -0.519968092336237 1.1399803817947736
4.46090102196 0.6764689011949869 0.0998586320945251 -1.142203737159183 2.0954809352499657 2.050055466436567 -0.519968092336237 1.1399803817947736
4.46090102196 0.6764689011949869 0.0998586320945251 -1.142203737159183 2.0954809352499657 2.050055466436567 -0.519968092336237 1.1399803817947736
4.47101402283 0.6764689011949869 0.0998586320945251 -1.142203737159183 2.0954809352499657 2.050055466436567 -0.519968092336237 1.1399803817947736
4.47101402283 0.6764689011949869 0.0998586320945251 -1.142203737159183 2.0954809352499657 2.050055466436567 -0.519968092336237 1.1399803817947736
4.48087692261 0.670470956756508 0.0998586320945251 -1.142203737159183 2.095465595238614 2.050055466436567 -0.5199726577957962 1.1399758163352145
4.48087692261 0.670470956756508 0.0998586320945251 -1.142203737159183 2.095465595238614 2.050055466436567 -0.5199726577957962 1.1399758163352145
4.49081993103 0.670470956756508 0.0998586320945251 -1.142203737159183 2.095465595238614 2.050055466436567 -0.5199726577957962 1.1399758163352145
4.49081993103 0.670470956756508 0.0998586320945251 -1.142203737159183 2.095465595238614 2.050055466436567 -0.5199726577957962 1.1399758163352145
4.50086688995 0.670470956756508 0.0998586320945251 -1.142203737159183 2.095465595238614 2.050055466436567 -0.5199726577957962 1.1399758163352145
4.50086688995 0.670470956756508 0.0998586320945251 -1.142203737159183 2.095465595238614 2.050055466436567 -0.5199726577957962 1.1399758163352145
4.5108089447 0.670470956756508 0.0998586320945251 -1.142203737159183 2.095465595238614 2.050055466436567 -0.5199726577957962 1.1399758163352145
4.5108089447 0.670470956756508 0.0998586320945251 -1.142203737159183 2.095465595238614 2.050055466436567 -0.5199726577957962 1.1399758163352145
4.52082800865 0.6576313672552118 0.0998586320945251 -1.142203737159183 2.0954195752045592 2.050055466436567 -0.519968092336237 1.1399803817947736
4.52082800865 0.6576313672552118 0.0998586320945251 -1.142203737159183 2.0954195752045592 2.050055466436567 -0.519968092336237 1.1399803817947736
4.53088903427 0.6510965224194266 0.0998586320945251 -1.142203737159183 2.0953735551705046 2.050055466436567 -0.519968092336237 1.1399803817947736
4.53088903427 0.6510965224194266 0.0998586320945251 -1.142203737159183 2.0953735551705046 2.050055466436567 -0.519968092336237 1.1399803817947736
4.54088306427 0.6510965224194266 0.0998586320945251 -1.142203737159183 2.0953735551705046 2.050055466436567 -0.519968092336237 1.1399803817947736
4.54088306427 0.6510965224194266 0.0998586320945251 -1.142203737159183 2.0953735551705046 2.050055466436567 -0.519968092336237 1.1399803817947736
4.55080294609 0.6510965224194266 0.0998586320945251 -1.142203737159183 2.0953735551705046 2.050055466436567 -0.519968092336237 1.1399803817947736
4.55080294609 0.6510965224194266 0.0998586320945251 -1.142203737159183 2.0953735551705046 2.050055466436567 -0.519968092336237 1.1399803817947736
4.56089496613 0.6510965224194266 0.0998586320945251 -1.142203737159183 2.0953735551705046 2.050055466436567 -0.519968092336237 1.1399803817947736
4.56089496613 0.6510965224194266 0.0998586320945251 -1.142203737159183 2.0953735551705046 2.050055466436567 -0.519968092336237 1.1399803817947736
4.57081699371 0.643794677016061 0.0998586320945251 -1.142203737159183 2.0953428751478014 2.050055466436567 -0.519968092336237 1.1399803817947736
4.57081699371 0.643794677016061 0.0998586320945251 -1.142203737159183 2.0953428751478014 2.050055466436567 -0.519968092336237 1.1399803817947736
4.58097791672 0.643794677016061 0.0998586320945251 -1.142203737159183 2.0953428751478014 2.050055466436567 -0.519968092336237 1.1399803817947736
4.58097791672 0.643794677016061 0.0998586320945251 -1.142203737159183 2.0953428751478014 2.050055466436567 -0.519968092336237 1.1399803817947736
4.59086608887 0.643794677016061 0.0998586320945251 -1.142203737159183 2.0953428751478014 2.050055466436567 -0.519968092336237 1.1399803817947736
4.59086608887 0.643794677016061 0.0998586320945251 -1.142203737159183 2.0953428751478014 2.050055466436567 -0.519968092336237 1.1399803817947736
4.60088205338 0.643794677016061 0.0998586320945251 -1.142203737159183 2.0953428751478014 2.050055466436567 -0.519968092336237 1.1399803817947736
4.60088205338 0.643794677016061 0.0998586320945251 -1.142203737159183 2.0953428751478014 2.050055466436567 -0.519968092336237 1.1399803817947736
4.61080408096 0.643794677016061 0.0998586320945251 -1.142203737159183 2.0953428751478014 2.050055466436567 -0.519968092336237 1.1399803817947736
4.61080408096 0.643794677016061 0.0998586320945251 -1.142203737159183 2.0953428751478014 2.050055466436567 -0.519968092336237 1.1399803817947736
4.62104797363 0.643794677016061 0.0998586320945251 -1.142203737159183 2.0953428751478014 2.050055466436567 -0.519968092336237 1.1399803817947736
4.62104797363 0.643794677016061 0.0998586320945251 -1.142203737159183 2.0953428751478014 2.050055466436567 -0.519968092336237 1.1399803817947736
4.63116502762 0.643794677016061 0.0998586320945251 -1.142203737159183 2.0953428751478014 2.050055466436567 -0.519968092336237 1.1399803817947736
4.63116502762 0.643794677016061 0.0998586320945251 -1.142203737159183 2.0953428751478014 2.050055466436567 -0.519968092336237 1.1399803817947736
4.64114689827 0.6369683719645953 0.0998586320945251 -1.142203737159183 2.095327535136449 2.050055466436567 -0.5199726577957962 1.1399758163352145
4.64114689827 0.6369683719645953 0.0998586320945251 -1.142203737159183 2.095327535136449 2.050055466436567 -0.5199726577957962 1.1399758163352145
4.65112805367 0.6369683719645953 0.0998586320945251 -1.142203737159183 2.095327535136449 2.050055466436567 -0.5199726577957962 1.1399758163352145
4.65112805367 0.6369683719645953 0.0998586320945251 -1.142203737159183 2.095327535136449 2.050055466436567 -0.5199726577957962 1.1399758163352145
4.66120004654 0.630004006810965 0.0998586320945251 -1.142203737159183 2.095312195125098 2.050055466436567 -0.519968092336237 1.1399803817947736
4.66120004654 0.630004006810965 0.0998586320945251 -1.142203737159183 2.095312195125098 2.050055466436567 -0.519968092336237 1.1399803817947736
4.67121005058 0.6225027412600286 0.0998586320945251 -1.142203737159183 2.0952968551137463 2.050055466436567 -0.519968092336237 1.1399803817947736
4.67121005058 0.6225027412600286 0.0998586320945251 -1.142203737159183 2.0952968551137463 2.050055466436567 -0.519968092336237 1.1399803817947736
4.68148493767 0.6076996303057265 0.0998586320945251 -1.142203737159183 2.095281515102395 2.050055466436567 -0.5199726577957962 1.1399758163352145
4.68148493767 0.6076996303057265 0.0998586320945251 -1.142203737159183 2.095281515102395 2.050055466436567 -0.5199726577957962 1.1399758163352145
4.69124794006 0.6076996303057265 0.0998586320945251 -1.142203737159183 2.095281515102395 2.050055466436567 -0.5199726577957962 1.1399758163352145
4.69124794006 0.6076996303057265 0.0998586320945251 -1.142203737159183 2.095281515102395 2.050055466436567 -0.5199726577957962 1.1399758163352145
4.70122003555 0.6003057448342513 0.0998586320945251 -1.142203737159183 2.095266175091043 2.050055466436567 -0.5199726577957962 1.1399758163352145
4.70122003555 0.6003057448342513 0.0998586320945251 -1.142203737159183 2.095266175091043 2.050055466436567 -0.5199726577957962 1.1399758163352145
4.71110701561 0.6003057448342513 0.0998586320945251 -1.142203737159183 2.095266175091043 2.050055466436567 -0.5199726577957962 1.1399758163352145
4.71110701561 0.6003057448342513 0.0998586320945251 -1.142203737159183 2.095266175091043 2.050055466436567 -0.5199726577957962 1.1399758163352145
4.72132205963 0.5931726395557533 0.0998586320945251 -1.142203737159183 2.095266175091043 2.050055466436567 -0.519968092336237 1.1399803817947736
4.72132205963 0.5931726395557533 0.0998586320945251 -1.142203737159183 2.095266175091043 2.050055466436567 -0.519968092336237 1.1399803817947736
4.73092103004 0.5863003144702328 0.0998586320945251 -1.142203737159183 2.0952201550569884 2.050046335517449 -0.519968092336237 1.1399803817947736
4.73092103004 0.5863003144702328 0.0998586320945251 -1.142203737159183 2.0952201550569884 2.050046335517449 -0.519968092336237 1.1399803817947736
4.74090409279 0.5863003144702328 0.0998586320945251 -1.142203737159183 2.0952201550569884 2.050046335517449 -0.519968092336237 1.1399803817947736
4.74090409279 0.5863003144702328 0.0998586320945251 -1.142203737159183 2.0952201550569884 2.050046335517449 -0.519968092336237 1.1399803817947736
4.75081992149 0.5863003144702328 0.0998586320945251 -1.142203737159183 2.0952201550569884 2.050046335517449 -0.519968092336237 1.1399803817947736
4.75081992149 0.5863003144702328 0.0998586320945251 -1.142203737159183 2.0952201550569884 2.050046335517449 -0.519968092336237 1.1399803817947736
4.76108407974 0.5863003144702328 0.0998586320945251 -1.142203737159183 2.0952201550569884 2.050046335517449 -0.519968092336237 1.1399803817947736
4.76108407974 0.5863003144702328 0.0998586320945251 -1.142203737159183 2.0952201550569884 2.050046335517449 -0.519968092336237 1.1399803817947736
4.77120709419 0.5863003144702328 0.0998586320945251 -1.142203737159183 2.0952201550569884 2.050046335517449 -0.519968092336237 1.1399803817947736
4.77120709419 0.5863003144702328 0.0998586320945251 -1.142203737159183 2.0952201550569884 2.050046335517449 -0.519968092336237 1.1399803817947736
4.78168606758 0.5715278835386339 0.0998586320945251 -1.142203737159183 2.0952048150456366 2.050055466436567 -0.5199726577957962 1.1399758163352145
4.78168606758 0.5715278835386339 0.0998586320945251 -1.142203737159183 2.0952048150456366 2.050055466436567 -0.5199726577957962 1.1399758163352145
4.79102492332 0.5640572980104006 0.0998586320945251 -1.142203737159183 2.0952048150456366 2.050055466436567 -0.5199772232553553 1.139971250875655
4.79102492332 0.5640572980104006 0.0998586320945251 -1.142203737159183 2.0952048150456366 2.050055466436567 -0.5199772232553553 1.139971250875655
4.80113911629 0.5640572980104006 0.0998586320945251 -1.142203737159183 2.0952048150456366 2.050055466436567 -0.5199772232553553 1.139971250875655
4.80113911629 0.5640572980104006 0.0998586320945251 -1.142203737159183 2.0952048150456366 2.050055466436567 -0.5199772232553553 1.139971250875655
4.81105494499 0.5574764331405606 0.0998586320945251 -1.142203737159183 2.095189475034285 2.050055466436567 -0.519968092336237 1.1399803817947736
4.81105494499 0.5574764331405606 0.0998586320945251 -1.142203737159183 2.095189475034285 2.050055466436567 -0.519968092336237 1.1399803817947736
4.82115101814 0.5574764331405606 0.0998586320945251 -1.142203737159183 2.095189475034285 2.050055466436567 -0.519968092336237 1.1399803817947736
4.82115101814 0.5574764331405606 0.0998586320945251 -1.142203737159183 2.095189475034285 2.050055466436567 -0.519968092336237 1.1399803817947736
4.83119988441 0.5574764331405606 0.0998586320945251 -1.142203737159183 2.095189475034285 2.050055466436567 -0.519968092336237 1.1399803817947736
4.83119988441 0.5574764331405606 0.0998586320945251 -1.142203737159183 2.095189475034285 2.050055466436567 -0.519968092336237 1.1399803817947736
4.84119105339 0.5574764331405606 0.0998586320945251 -1.142203737159183 2.095189475034285 2.050055466436567 -0.519968092336237 1.1399803817947736
4.84119105339 0.5574764331405606 0.0998586320945251 -1.142203737159183 2.095189475034285 2.050055466436567 -0.519968092336237 1.1399803817947736
4.85107898712 0.5574764331405606 0.0998586320945251 -1.142203737159183 2.095189475034285 2.050055466436567 -0.519968092336237 1.1399803817947736
4.85107898712 0.5574764331405606 0.0998586320945251 -1.142203737159183 2.095189475034285 2.050055466436567 -0.519968092336237 1.1399803817947736
4.86126995087 0.5574764331405606 0.0998586320945251 -1.142203737159183 2.095189475034285 2.050055466436567 -0.519968092336237 1.1399803817947736
4.86126995087 0.5574764331405606 0.0998586320945251 -1.142203737159183 2.095189475034285 2.050055466436567 -0.519968092336237 1.1399803817947736
4.87133097649 0.5574764331405606 0.0998586320945251 -1.142203737159183 2.095189475034285 2.050055466436567 -0.519968092336237 1.1399803817947736
4.87133097649 0.5574764331405606 0.0998586320945251 -1.142203737159183 2.095189475034285 2.050055466436567 -0.519968092336237 1.1399803817947736
4.88129496574 0.5574764331405606 0.0998586320945251 -1.142203737159183 2.095189475034285 2.050055466436567 -0.519968092336237 1.1399803817947736
4.88129496574 0.5574764331405606 0.0998586320945251 -1.142203737159183 2.095189475034285 2.050055466436567 -0.519968092336237 1.1399803817947736
4.89121699333 0.5574764331405606 0.0998586320945251 -1.142203737159183 2.095189475034285 2.050055466436567 -0.519968092336237 1.1399803817947736
4.89121699333 0.5574764331405606 0.0998586320945251 -1.142203737159183 2.095189475034285 2.050055466436567 -0.519968092336237 1.1399803817947736
4.90132808685 0.5574764331405606 0.0998586320945251 -1.142203737159183 2.095189475034285 2.050055466436567 -0.519968092336237 1.1399803817947736
4.90132808685 0.5574764331405606 0.0998586320945251 -1.142203737159183 2.095189475034285 2.050055466436567 -0.519968092336237 1.1399803817947736
4.91124796867 0.5574764331405606 0.0998586320945251 -1.142203737159183 2.095189475034285 2.050055466436567 -0.519968092336237 1.1399803817947736
4.91124796867 0.5574764331405606 0.0998586320945251 -1.142203737159183 2.095189475034285 2.050055466436567 -0.519968092336237 1.1399803817947736
4.92100906372 0.5574764331405606 0.0998586320945251 -1.142203737159183 2.095189475034285 2.050055466436567 -0.519968092336237 1.1399803817947736
4.92100906372 0.5574764331405606 0.0998586320945251 -1.142203737159183 2.095189475034285 2.050055466436567 -0.519968092336237 1.1399803817947736
4.93120503426 0.5574764331405606 0.0998586320945251 -1.142203737159183 2.095189475034285 2.050055466436567 -0.519968092336237 1.1399803817947736
4.93120503426 0.5574764331405606 0.0998586320945251 -1.142203737159183 2.095189475034285 2.050055466436567 -0.519968092336237 1.1399803817947736
4.94132900238 0.5574764331405606 0.0998586320945251 -1.142203737159183 2.095189475034285 2.050055466436567 -0.519968092336237 1.1399803817947736
4.94132900238 0.5574764331405606 0.0998586320945251 -1.142203737159183 2.095189475034285 2.050055466436567 -0.519968092336237 1.1399803817947736
4.95114398003 0.5574764331405606 0.0998586320945251 -1.142203737159183 2.095189475034285 2.050055466436567 -0.519968092336237 1.1399803817947736
4.95114398003 0.5574764331405606 0.0998586320945251 -1.142203737159183 2.095189475034285 2.050055466436567 -0.519968092336237 1.1399803817947736
4.9611620903 0.5574764331405606 0.0998586320945251 -1.142203737159183 2.095189475034285 2.050055466436567 -0.519968092336237 1.1399803817947736
4.9611620903 0.5574764331405606 0.0998586320945251 -1.142203737159183 2.095189475034285 2.050055466436567 -0.519968092336237 1.1399803817947736
4.97119402885 0.5574764331405606 0.0998586320945251 -1.142203737159183 2.095189475034285 2.050055466436567 -0.519968092336237 1.1399803817947736
4.97119402885 0.5574764331405606 0.0998586320945251 -1.142203737159183 2.095189475034285 2.050055466436567 -0.519968092336237 1.1399803817947736
4.98114895821 0.5574764331405606 0.0998586320945251 -1.142203737159183 2.095189475034285 2.050055466436567 -0.519968092336237 1.1399803817947736
4.98114895821 0.5574764331405606 0.0998586320945251 -1.142203737159183 2.095189475034285 2.050055466436567 -0.519968092336237 1.1399803817947736
4.99115300179 0.5574764331405606 0.0998586320945251 -1.142203737159183 2.095189475034285 2.050055466436567 -0.519968092336237 1.1399803817947736
4.99115300179 0.5574764331405606 0.0998586320945251 -1.142203737159183 2.095189475034285 2.050055466436567 -0.519968092336237 1.1399803817947736
5.00126194954 0.5574764331405606 0.0998586320945251 -1.142203737159183 2.095189475034285 2.050055466436567 -0.519968092336237 1.1399803817947736
5.00126194954 0.5574764331405606 0.0998586320945251 -1.142203737159183 2.095189475034285 2.050055466436567 -0.519968092336237 1.1399803817947736
5.01119804382 0.5574764331405606 0.0998586320945251 -1.142203737159183 2.095189475034285 2.050055466436567 -0.519968092336237 1.1399803817947736
5.01119804382 0.5574764331405606 0.0998586320945251 -1.142203737159183 2.095189475034285 2.050055466436567 -0.519968092336237 1.1399803817947736
5.02121806145 0.5574764331405606 0.0998586320945251 -1.142203737159183 2.095189475034285 2.050055466436567 -0.519968092336237 1.1399803817947736
5.02121806145 0.5574764331405606 0.0998586320945251 -1.142203737159183 2.095189475034285 2.050055466436567 -0.519968092336237 1.1399803817947736
5.03114390373 0.5574764331405606 0.0998586320945251 -1.142203737159183 2.095189475034285 2.050055466436567 -0.519968092336237 1.1399803817947736
5.03114390373 0.5574764331405606 0.0998586320945251 -1.142203737159183 2.095189475034285 2.050055466436567 -0.519968092336237 1.1399803817947736
5.04122304916 0.5574764331405606 0.0998586320945251 -1.142203737159183 2.095189475034285 2.050055466436567 -0.519968092336237 1.1399803817947736
5.04122304916 0.5574764331405606 0.0998586320945251 -1.142203737159183 2.095189475034285 2.050055466436567 -0.519968092336237 1.1399803817947736
5.05118703842 0.5574764331405606 0.0998586320945251 -1.142203737159183 2.095189475034285 2.050055466436567 -0.519968092336237 1.1399803817947736
5.05118703842 0.5574764331405606 0.0998586320945251 -1.142203737159183 2.095189475034285 2.050055466436567 -0.519968092336237 1.1399803817947736
5.06118702888 0.5574764331405606 0.0998586320945251 -1.142203737159183 2.095189475034285 2.050055466436567 -0.519968092336237 1.1399803817947736
5.06118702888 0.5574764331405606 0.0998586320945251 -1.142203737159183 2.095189475034285 2.050055466436567 -0.519968092336237 1.1399803817947736
5.0710940361 0.5574764331405606 0.0998586320945251 -1.142203737159183 2.095189475034285 2.050055466436567 -0.519968092336237 1.1399803817947736
5.0710940361 0.5574764331405606 0.0998586320945251 -1.142203737159183 2.095189475034285 2.050055466436567 -0.519968092336237 1.1399803817947736
5.08103394508 0.5574764331405606 0.0998586320945251 -1.142203737159183 2.095189475034285 2.050055466436567 -0.519968092336237 1.1399803817947736
5.08103394508 0.5574764331405606 0.0998586320945251 -1.142203737159183 2.095189475034285 2.050055466436567 -0.519968092336237 1.1399803817947736
5.09505200386 0.5574764331405606 0.0998586320945251 -1.142203737159183 2.095189475034285 2.050055466436567 -0.519968092336237 1.1399803817947736
5.09505200386 0.5574764331405606 0.0998586320945251 -1.142203737159183 2.095189475034285 2.050055466436567 -0.519968092336237 1.1399803817947736
