riccardo-csl/Motion-Planning-for-TIAGo-Manipulator/T3_G_7/head_scan/head_scan/tiago_traiettorie_SG/3a-3b/pick_3a_rep1.txt
time arm_1_joint arm_2_joint arm_3_joint arm_4_joint arm_5_joint arm_6_joint arm_7_joint
0.488588094711 0.0651234287993373 0.1688580031540597 -3.116923398451733 1.1486033945605854 2.050055466436567 -0.5200411396891835 1.1400169054712466
0.488588094711 0.0651234287993373 0.1688580031540597 -3.116923398451733 1.1486033945605854 2.050055466436567 -0.5200411396891835 1.1400169054712466
0.498763084412 0.0651234287993373 0.1688580031540597 -3.116923398451733 1.1486033945605854 2.050055466436567 -0.5200411396891835 1.1400169054712466
0.498763084412 0.0651234287993373 0.1688580031540597 -3.116923398451733 1.1486033945605854 2.050055466436567 -0.5200411396891835 1.1400169054712466
0.509406089783 0.0652308088787984 0.1688580031540597 -3.116217757929559 1.1486033945605854 2.050046335517449 -0.5200457051487426 1.140021470930806
0.509406089783 0.0652308088787984 0.1688580031540597 -3.116217757929559 1.1486033945605854 2.050046335517449 -0.5200457051487426 1.140021470930806
0.518820047379 0.0652308088787984 0.1688580031540597 -3.116217757929559 1.1486033945605854 2.050046335517449 -0.5200457051487426 1.140021470930806
0.518820047379 0.0652308088787984 0.1688580031540597 -3.116217757929559 1.1486033945605854 2.050046335517449 -0.5200457051487426 1.140021470930806
0.528954029083 0.0652768289128533 0.1688580031540597 -3.11537405730522 1.1486033945605854 2.0500645973556857 -0.5200320087700652 1.1400077745521284
0.528954029083 0.0652768289128533 0.1688580031540597 -3.11537405730522 1.1486033945605854 2.0500645973556857 -0.5200320087700652 1.1400077745521284
0.538955926895 0.0652768289128533 0.1688580031540597 -3.11537405730522 1.1486033945605854 2.0500645973556857 -0.5200320087700652 1.1400077745521284
0.538955926895 0.0652768289128533 0.1688580031540597 -3.11537405730522 1.1486033945605854 2.0500645973556857 -0.5200320087700652 1.1400077745521284
0.548891067505 0.0652768289128533 0.1688580031540597 -3.11537405730522 1.1486033945605854 2.0500645973556857 -0.5200320087700652 1.1400077745521284
0.548891067505 0.0652768289128533 0.1688580031540597 -3.11537405730522 1.1486033945605854 2.0500645973556857 -0.5200320087700652 1.1400077745521284
0.558999061584 0.0652768289128533 0.1688580031540597 -3.11537405730522 1.1486033945605854 2.0500645973556857 -0.5200320087700652 1.1400077745521284
0.558999061584 0.0652768289128533 0.1688580031540597 -3.11537405730522 1.1486033945605854 2.0500645973556857 -0.5200320087700652 1.1400077745521284
0.569287061691 0.0652921689242049 0.1688580031540597 -3.114622396748992 1.1486033945605854 2.0500645973556857 -0.5200183123913877 1.1399940781734508
0.569287061691 0.0652921689242049 0.1688580031540597 -3.114622396748992 1.1486033945605854 2.0500645973556857 -0.5200183123913877 1.1399940781734508
0.578984975815 0.0653381889582597 0.1688580031540597 -3.113978116272224 1.1486033945605854 2.050055466436567 -0.5200457051487426 1.140021470930806
0.578984975815 0.0653381889582597 0.1688580031540597 -3.113978116272224 1.1486033945605854 2.050055466436567 -0.5200457051487426 1.140021470930806
0.588819980621 0.0653535289696114 0.1688580031540597 -3.1133645158181595 1.1486033945605854 2.050046335517449 -0.5200502706083019 1.140026036390365
0.588819980621 0.0653535289696114 0.1688580031540597 -3.1133645158181595 1.1486033945605854 2.050046335517449 -0.5200502706083019 1.140026036390365
0.598737955093 0.0653535289696114 0.1688580031540597 -3.1133645158181595 1.1486033945605854 2.050046335517449 -0.5200502706083019 1.140026036390365
0.598737955093 0.0653535289696114 0.1688580031540597 -3.1133645158181595 1.1486033945605854 2.050046335517449 -0.5200502706083019 1.140026036390365
0.608891963959 0.065368868980963 0.1688580031540597 -3.112750915364096 1.1486033945605854 2.0500645973556857 -0.5200320087700652 1.1400077745521284
0.608891963959 0.065368868980963 0.1688580031540597 -3.112750915364096 1.1486033945605854 2.0500645973556857 -0.5200320087700652 1.1400077745521284
0.618770122528 0.065368868980963 0.1688580031540597 -3.112750915364096 1.1486033945605854 2.0500645973556857 -0.5200320087700652 1.1400077745521284
0.618770122528 0.065368868980963 0.1688580031540597 -3.112750915364096 1.1486033945605854 2.0500645973556857 -0.5200320087700652 1.1400077745521284
0.628924131393 0.065368868980963 0.1688580031540597 -3.112750915364096 1.1486033945605854 2.0500645973556857 -0.5200320087700652 1.1400077745521284
0.628924131393 0.065368868980963 0.1688580031540597 -3.112750915364096 1.1486033945605854 2.0500645973556857 -0.5200320087700652 1.1400077745521284
0.638773918152 0.065368868980963 0.1688580031540597 -3.112750915364096 1.1486033945605854 2.0500645973556857 -0.5200320087700652 1.1400077745521284
0.638773918152 0.065368868980963 0.1688580031540597 -3.112750915364096 1.1486033945605854 2.0500645973556857 -0.5200320087700652 1.1400077745521284
0.648931026459 0.065368868980963 0.1688580031540597 -3.112750915364096 1.1486033945605854 2.0500645973556857 -0.5200320087700652 1.1400077745521284
0.648931026459 0.065368868980963 0.1688580031540597 -3.112750915364096 1.1486033945605854 2.0500645973556857 -0.5200320087700652 1.1400077745521284
0.658951044083 0.065368868980963 0.1688580031540597 -3.1121526549213825 1.1486033945605854 2.0500645973556857 -0.5200137469318284 1.1399895127138917
0.658951044083 0.065368868980963 0.1688580031540597 -3.1121526549213825 1.1486033945605854 2.0500645973556857 -0.5200137469318284 1.1399895127138917
0.668966054916 0.065368868980963 0.1688580031540597 -3.1121526549213825 1.1486033945605854 2.0500645973556857 -0.5200137469318284 1.1399895127138917
0.668966054916 0.065368868980963 0.1688580031540597 -3.1121526549213825 1.1486033945605854 2.0500645973556857 -0.5200137469318284 1.1399895127138917
0.678687095642 0.065368868980963 0.1688580031540597 -3.111585074501373 1.1486033945605854 2.050055466436567 -0.5200457051487426 1.140021470930806
0.678687095642 0.065368868980963 0.1688580031540597 -3.111585074501373 1.1486033945605854 2.050055466436567 -0.5200457051487426 1.140021470930806
0.688909053802 0.065368868980963 0.1688580031540597 -3.111585074501373 1.1486033945605854 2.050055466436567 -0.5200457051487426 1.140021470930806
0.688909053802 0.065368868980963 0.1688580031540597 -3.111585074501373 1.1486033945605854 2.050055466436567 -0.5200457051487426 1.140021470930806
0.699072122574 0.065368868981 0.168858003154 -3.11101749408 1.14860339456 2.05005546644 -0.520045705149 1.14002147093
0.699072122574 0.065368868980963 0.1688580031540597 -3.111017494081364 1.1486033945605854 2.050055466436567 -0.5200457051487426 1.140021470930806
0.708873033524 0.0653842089923146 0.1688580031540597 -3.1105112737067606 1.1486033945605854 2.0500645973556857 -0.5200274433105061 1.1400032090925691
0.708873033524 0.0653842089923146 0.1688580031540597 -3.1105112737067606 1.1486033945605854 2.0500645973556857 -0.5200274433105061 1.1400032090925691
0.718949079514 0.0653842089923146 0.1688580031540597 -3.1105112737067606 1.1486033945605854 2.0500645973556857 -0.5200274433105061 1.1400032090925691
0.718949079514 0.0653842089923146 0.1688580031540597 -3.1105112737067606 1.1486033945605854 2.0500645973556857 -0.5200274433105061 1.1400032090925691
0.728933095932 0.0653842089923146 0.1688580031540597 -3.1105112737067606 1.1486033945605854 2.0500645973556857 -0.5200274433105061 1.1400032090925691
0.728933095932 0.0653842089923146 0.1688580031540597 -3.1105112737067606 1.1486033945605854 2.0500645973556857 -0.5200274433105061 1.1400032090925691
0.738809108734 0.0653842089923146 0.1688580031540597 -3.1105112737067606 1.1486033945605854 2.0500645973556857 -0.5200274433105061 1.1400032090925691
0.738809108734 0.0653842089923146 0.1688580031540597 -3.1105112737067606 1.1486033945605854 2.0500645973556857 -0.5200274433105061 1.1400032090925691
0.748954057693 0.0653842089923146 0.1688580031540597 -3.1105112737067606 1.1486033945605854 2.0500645973556857 -0.5200274433105061 1.1400032090925691
0.748954057693 0.0653842089923146 0.1688580031540597 -3.1105112737067606 1.1486033945605854 2.0500645973556857 -0.5200274433105061 1.1400032090925691
0.759004116058 0.0653842089923146 0.1688580031540597 -3.1105112737067606 1.1486033945605854 2.0500645973556857 -0.5200274433105061 1.1400032090925691
0.759004116058 0.0653842089923146 0.1688580031540597 -3.1105112737067606 1.1486033945605854 2.0500645973556857 -0.5200274433105061 1.1400032090925691
0.768801927567 0.0653842089923146 0.1688580031540597 -3.1105112737067606 1.1486033945605854 2.0500645973556857 -0.5200274433105061 1.1400032090925691
0.768801927567 0.0653842089923146 0.1688580031540597 -3.1105112737067606 1.1486033945605854 2.0500645973556857 -0.5200274433105061 1.1400032090925691
0.778919935226 0.0653842089923146 0.1688580031540597 -3.1105112737067606 1.1486033945605854 2.0500645973556857 -0.5200274433105061 1.1400032090925691
0.778919935226 0.0653842089923146 0.1688580031540597 -3.1105112737067606 1.1486033945605854 2.0500645973556857 -0.5200274433105061 1.1400032090925691
0.788813114166 0.0653842089923146 0.1688580031540597 -3.109913013264048 1.1486033945605854 2.0500645973556857 -0.5200137469318284 1.1399895127138917
0.788813114166 0.0653842089923146 0.1688580031540597 -3.109913013264048 1.1486033945605854 2.0500645973556857 -0.5200137469318284 1.1399895127138917
0.798958063126 0.0653842089923146 0.1688580031540597 -3.109913013264048 1.1486033945605854 2.0500645973556857 -0.5200137469318284 1.1399895127138917
0.798958063126 0.0653842089923146 0.1688580031540597 -3.109913013264048 1.1486033945605854 2.0500645973556857 -0.5200137469318284 1.1399895127138917
0.808953046799 0.0653842089923146 0.1688580031540597 -3.109913013264048 1.1486033945605854 2.0500645973556857 -0.5200137469318284 1.1399895127138917
0.808953046799 0.0653842089923146 0.1688580031540597 -3.109913013264048 1.1486033945605854 2.0500645973556857 -0.5200137469318284 1.1399895127138917
0.818865060806 0.0653842089923146 0.1688580031540597 -3.109913013264048 1.1486033945605854 2.0500645973556857 -0.5200137469318284 1.1399895127138917
0.818865060806 0.0653842089923146 0.1688580031540597 -3.109913013264048 1.1486033945605854 2.0500645973556857 -0.5200137469318284 1.1399895127138917
0.828777074814 0.0653842089923146 0.1688580031540597 -3.109913013264048 1.1486033945605854 2.0500645973556857 -0.5200137469318284 1.1399895127138917
0.828777074814 0.0653842089923146 0.1688580031540597 -3.109913013264048 1.1486033945605854 2.0500645973556857 -0.5200137469318284 1.1399895127138917
0.839416027069 0.0653842089923146 0.1688580031540597 -3.109299412809984 1.1486033945605854 2.050055466436567 -0.5200457051487426 1.140021470930806
0.839416027069 0.0653842089923146 0.1688580031540597 -3.109299412809984 1.1486033945605854 2.050055466436567 -0.5200457051487426 1.140021470930806
0.84890294075 0.0653842089923146 0.1688580031540597 -3.109299412809984 1.1486033945605854 2.050055466436567 -0.5200457051487426 1.140021470930806
0.84890294075 0.0653842089923146 0.1688580031540597 -3.109299412809984 1.1486033945605854 2.050055466436567 -0.5200457051487426 1.140021470930806
0.858958005905 0.0653842089923146 0.1688580031540597 -3.109299412809984 1.1486033945605854 2.050055466436567 -0.5200457051487426 1.140021470930806
0.858958005905 0.0653842089923146 0.1688580031540597 -3.109299412809984 1.1486033945605854 2.050055466436567 -0.5200457051487426 1.140021470930806
0.868592023849 0.0653995490036662 0.1688580031540597 -3.108148911958613 1.1486033945605854 2.050055466436567 -0.5200274433105061 1.1400032090925691
0.868592023849 0.0653995490036662 0.1688580031540597 -3.108148911958613 1.1486033945605854 2.050055466436567 -0.5200274433105061 1.1400032090925691
0.878588914871 0.0654148890150178 0.1688580031540597 -3.106798990959671 1.1486033945605854 2.0500645973556857 -0.5200365742296242 1.1400123400116875
0.878588914871 0.0654148890150178 0.1688580031540597 -3.106798990959671 1.1486033945605854 2.0500645973556857 -0.5200365742296242 1.1400123400116875
0.888531923294 0.0654148890150178 0.1688580031540597 -3.106645590846155 1.1486033945605854 2.050055466436567 -0.5200457051487426 1.140021470930806
0.888531923294 0.0654148890150178 0.1688580031540597 -3.106645590846155 1.1486033945605854 2.050055466436567 -0.5200457051487426 1.140021470930806
0.898713111877 0.0654148890150178 0.1688580031540597 -3.106568890789397 1.1486033945605854 2.050055466436567 -0.5200320087700652 1.1400077745521284
0.898713111877 0.0654148890150178 0.1688580031540597 -3.106568890789397 1.1486033945605854 2.050055466436567 -0.5200320087700652 1.1400077745521284
0.908612966537 0.0654148890150178 0.1688580031540597 -3.106568890789397 1.1486033945605854 2.050055466436567 -0.5200320087700652 1.1400077745521284
0.908612966537 0.0654148890150178 0.1688580031540597 -3.106568890789397 1.1486033945605854 2.050055466436567 -0.5200320087700652 1.1400077745521284
0.918833017349 0.0654148890150178 0.1688580031540597 -3.106568890789397 1.1486033945605854 2.050055466436567 -0.5200320087700652 1.1400077745521284
0.918833017349 0.0654148890150178 0.1688580031540597 -3.106568890789397 1.1486033945605854 2.050055466436567 -0.5200320087700652 1.1400077745521284
0.928853034973 0.0654148890150178 0.1688580031540597 -3.106568890789397 1.1486033945605854 2.050055466436567 -0.5200320087700652 1.1400077745521284
0.928853034973 0.0654148890150178 0.1688580031540597 -3.106568890789397 1.1486033945605854 2.050055466436567 -0.5200320087700652 1.1400077745521284
0.938729047775 0.0654148890150178 0.1688580031540597 -3.106568890789397 1.1486033945605854 2.050055466436567 -0.5200320087700652 1.1400077745521284
0.938729047775 0.0654148890150178 0.1688580031540597 -3.106568890789397 1.1486033945605854 2.050055466436567 -0.5200320087700652 1.1400077745521284
0.948913097382 0.0654148890150178 0.1688580031540597 -3.106568890789397 1.1486033945605854 2.050055466436567 -0.5200320087700652 1.1400077745521284
0.948913097382 0.0654148890150178 0.1688580031540597 -3.106568890789397 1.1486033945605854 2.050055466436567 -0.5200320087700652 1.1400077745521284
0.958609104156 0.0654148890150178 0.1688580031540597 -3.1065228707553425 1.1486033945605854 2.050055466436567 -0.5200457051487426 1.140021470930806
0.958609104156 0.0654148890150178 0.1688580031540597 -3.1065228707553425 1.1486033945605854 2.050055466436567 -0.5200457051487426 1.140021470930806
0.96911907196 0.0654148890150178 0.1688580031540597 -3.1065228707553425 1.1486033945605854 2.050055466436567 -0.5200457051487426 1.140021470930806
0.96911907196 0.0654148890150178 0.1688580031540597 -3.1065228707553425 1.1486033945605854 2.050055466436567 -0.5200457051487426 1.140021470930806
0.978960037231 0.0654148890150178 0.1688580031540597 -3.1065228707553425 1.1486033945605854 2.050055466436567 -0.5200457051487426 1.140021470930806
0.978960037231 0.0654148890150178 0.1688580031540597 -3.1065228707553425 1.1486033945605854 2.050055466436567 -0.5200457051487426 1.140021470930806
0.988765954971 0.0654148890150178 0.1688580031540597 -3.1065228707553425 1.1486033945605854 2.050055466436567 -0.5200320087700652 1.1400077745521284
0.988765954971 0.0654148890150178 0.1688580031540597 -3.1065228707553425 1.1486033945605854 2.050055466436567 -0.5200320087700652 1.1400077745521284
0.998943090439 0.0654148890150178 0.1688580031540597 -3.1065228707553425 1.1486033945605854 2.050055466436567 -0.5200320087700652 1.1400077745521284
0.998943090439 0.0654148890150178 0.1688580031540597 -3.1065228707553425 1.1486033945605854 2.050055466436567 -0.5200320087700652 1.1400077745521284
1.00886392593 0.0654148890150178 0.1688580031540597 -3.1065228707553425 1.1486033945605854 2.050055466436567 -0.5200320087700652 1.1400077745521284
1.00886392593 0.0654148890150178 0.1688580031540597 -3.1065228707553425 1.1486033945605854 2.050055466436567 -0.5200320087700652 1.1400077745521284
1.01898097992 0.0654148890150178 0.1688580031540597 -3.1065228707553425 1.1486033945605854 2.050055466436567 -0.5200320087700652 1.1400077745521284
1.01898097992 0.0654148890150178 0.1688580031540597 -3.1065228707553425 1.1486033945605854 2.050055466436567 -0.5200320087700652 1.1400077745521284
1.02896308899 0.0654148890150178 0.1688580031540597 -3.1065075307439907 1.1486033945605854 2.0500645973556857 -0.5200457051487426 1.140021470930806
1.02896308899 0.0654148890150178 0.1688580031540597 -3.1065075307439907 1.1486033945605854 2.0500645973556857 -0.5200457051487426 1.140021470930806
1.03887104988 0.0654148890150178 0.1688580031540597 -3.1065075307439907 1.1486033945605854 2.0500645973556857 -0.5200457051487426 1.140021470930806
1.03887104988 0.0654148890150178 0.1688580031540597 -3.1065075307439907 1.1486033945605854 2.0500645973556857 -0.5200457051487426 1.140021470930806
1.04881906509 0.0654148890150178 0.1688580031540597 -3.1065075307439907 1.1486033945605854 2.0500645973556857 -0.5200457051487426 1.140021470930806
1.04881906509 0.0654148890150178 0.1688580031540597 -3.1065075307439907 1.1486033945605854 2.0500645973556857 -0.5200457051487426 1.140021470930806
1.05872106552 0.0654148890150178 0.1688580031540597 -3.1065075307439907 1.1486033945605854 2.050055466436567 -0.5200457051487426 1.140021470930806
1.05872106552 0.0654148890150178 0.1688580031540597 -3.1065075307439907 1.1486033945605854 2.050055466436567 -0.5200457051487426 1.140021470930806
1.06897497177 0.0654148890150178 0.1688580031540597 -3.1065075307439907 1.1486033945605854 2.050055466436567 -0.5200274433105061 1.1400032090925691
1.06897497177 0.0654148890150178 0.1688580031540597 -3.1065075307439907 1.1486033945605854 2.050055466436567 -0.5200274433105061 1.1400032090925691
1.07878303528 0.0654148890150178 0.1688580031540597 -3.1065075307439907 1.1486033945605854 2.050055466436567 -0.5200274433105061 1.1400032090925691
1.07878303528 0.0654148890150178 0.1688580031540597 -3.1065075307439907 1.1486033945605854 2.050055466436567 -0.5200274433105061 1.1400032090925691
1.08868312836 0.0654148890150178 0.1688580031540597 -3.1065075307439907 1.1486033945605854 2.050055466436567 -0.5200274433105061 1.1400032090925691
1.08868312836 0.0654148890150178 0.1688580031540597 -3.1065075307439907 1.1486033945605854 2.050055466436567 -0.5200274433105061 1.1400032090925691
1.0989279747 0.0654148890150178 0.1688580031540597 -3.1065075307439907 1.1486033945605854 2.050055466436567 -0.5200091814722694 1.1399849472543326
1.0989279747 0.0654148890150178 0.1688580031540597 -3.1065075307439907 1.1486033945605854 2.050055466436567 -0.5200091814722694 1.1399849472543326
1.10873007774 0.0654148890150178 0.1688580031540597 -3.1065075307439907 1.1486033945605854 2.050055466436567 -0.5200091814722694 1.1399849472543326
1.10873007774 0.0654148890150178 0.1688580031540597 -3.1065075307439907 1.1486033945605854 2.050055466436567 -0.5200091814722694 1.1399849472543326
1.11895608902 0.0654148890150178 0.1688580031540597 -3.1065075307439907 1.1486033945605854 2.0500645973556857 -0.5200502706083019 1.140026036390365
1.11895608902 0.0654148890150178 0.1688580031540597 -3.1065075307439907 1.1486033945605854 2.0500645973556857 -0.5200502706083019 1.140026036390365
1.12904405594 0.0654148890150178 0.1688580031540597 -3.1065075307439907 1.1486033945605854 2.050055466436567 -0.5200502706083019 1.140026036390365
1.12904405594 0.0654148890150178 0.1688580031540597 -3.1065075307439907 1.1486033945605854 2.050055466436567 -0.5200502706083019 1.140026036390365
1.13875293732 0.0654148890150178 0.1688580031540597 -3.1065075307439907 1.1486033945605854 2.050055466436567 -0.5200502706083019 1.140026036390365
1.13875293732 0.0654148890150178 0.1688580031540597 -3.1065075307439907 1.1486033945605854 2.050055466436567 -0.5200502706083019 1.140026036390365
1.1489379406 0.0654148890150178 0.1688580031540597 -3.1065075307439907 1.1486033945605854 2.050055466436567 -0.5200274433105061 1.1400032090925691
1.1489379406 0.0654148890150178 0.1688580031540597 -3.1065075307439907 1.1486033945605854 2.050055466436567 -0.5200274433105061 1.1400032090925691
1.15881896019 0.0654148890150178 0.1688580031540597 -3.1065075307439907 1.1486033945605854 2.050055466436567 -0.5200274433105061 1.1400032090925691
1.15881896019 0.0654148890150178 0.1688580031540597 -3.1065075307439907 1.1486033945605854 2.050055466436567 -0.5200274433105061 1.1400032090925691
1.1688170433 0.0654148890150178 0.1688580031540597 -3.1065075307439907 1.1486033945605854 2.050055466436567 -0.5200274433105061 1.1400032090925691
1.1688170433 0.0654148890150178 0.1688580031540597 -3.1065075307439907 1.1486033945605854 2.050055466436567 -0.5200274433105061 1.1400032090925691
1.17891097069 0.0654148890150178 0.1688580031540597 -3.1065075307439907 1.1486033945605854 2.050055466436567 -0.5200274433105061 1.1400032090925691
1.17891097069 0.0654148890150178 0.1688580031540597 -3.1065075307439907 1.1486033945605854 2.050055466436567 -0.5200274433105061 1.1400032090925691
1.18895196915 0.0654148890150178 0.1688580031540597 -3.1064768507212874 1.1486033945605854 2.050055466436567 -0.5200137469318284 1.1399895127138917
1.18895196915 0.0654148890150178 0.1688580031540597 -3.1064768507212874 1.1486033945605854 2.050055466436567 -0.5200137469318284 1.1399895127138917
1.19872093201 0.0654148890150178 0.1688580031540597 -3.106446170698584 1.1486033945605854 2.0500645973556857 -0.5200457051487426 1.140021470930806
1.19872093201 0.0654148890150178 0.1688580031540597 -3.106446170698584 1.1486033945605854 2.0500645973556857 -0.5200457051487426 1.140021470930806
1.20897698402 0.0654148890150178 0.1688580031540597 -3.106446170698584 1.1486033945605854 2.0500645973556857 -0.5200457051487426 1.140021470930806
1.20897698402 0.0654148890150178 0.1688580031540597 -3.106446170698584 1.1486033945605854 2.0500645973556857 -0.5200457051487426 1.140021470930806
1.21882510185 0.0654148890150178 0.1688580031540597 -3.1063541306304745 1.1486033945605854 2.0500645973556857 -0.5200411396891835 1.1400169054712466
1.21882510185 0.0654148890150178 0.1688580031540597 -3.1063541306304745 1.1486033945605854 2.0500645973556857 -0.5200411396891835 1.1400169054712466
1.22867798805 0.0654148890150178 0.1688580031540597 -3.106154710482904 1.1486033945605854 2.050055466436567 -0.5200228778509468 1.13999864363301
1.22867798805 0.0654148890150178 0.1688580031540597 -3.106154710482904 1.1486033945605854 2.050055466436567 -0.5200228778509468 1.13999864363301
1.23892998695 0.0654148890150178 0.1688580031540597 -3.106154710482904 1.1486033945605854 2.050055466436567 -0.5200228778509468 1.13999864363301
1.23892998695 0.0654148890150178 0.1688580031540597 -3.106154710482904 1.1486033945605854 2.050055466436567 -0.5200228778509468 1.13999864363301
1.24895191193 0.0654148890150178 0.1688580031540597 -3.106154710482904 1.1486033945605854 2.050055466436567 -0.5200228778509468 1.13999864363301
1.24895191193 0.0654148890150178 0.1688580031540597 -3.106154710482904 1.1486033945605854 2.050055466436567 -0.5200228778509468 1.13999864363301
1.25884413719 0.0654148890150178 0.1688580031540597 -3.106154710482904 1.1486033945605854 2.050055466436567 -0.5200228778509468 1.13999864363301
1.25884413719 0.0654148890150178 0.1688580031540597 -3.106154710482904 1.1486033945605854 2.050055466436567 -0.5200228778509468 1.13999864363301
1.27000212669 0.0654148890150178 0.1688580031540597 -3.105847910255872 1.1486033945605854 2.050055466436567 -0.5200274433105061 1.1400032090925691
1.27000212669 0.0654148890150178 0.1688580031540597 -3.105847910255872 1.1486033945605854 2.050055466436567 -0.5200274433105061 1.1400032090925691
1.27864599228 0.0654148890150178 0.1688580031540597 -3.1052649898245104 1.1486033945605854 2.0500645973556857 -0.5200320087700652 1.1400077745521284
1.27864599228 0.0654148890150178 0.1688580031540597 -3.1052649898245104 1.1486033945605854 2.0500645973556857 -0.5200320087700652 1.1400077745521284
1.28855705261 0.0654148890150178 0.1688580031540597 -3.1043139091207106 1.1486033945605854 2.0500645973556857 -0.5200320087700652 1.1400077745521284
1.28855705261 0.0654148890150178 0.1688580031540597 -3.1043139091207106 1.1486033945605854 2.0500645973556857 -0.5200320087700652 1.1400077745521284
1.29856204987 0.0654148890150178 0.1688580031540597 -3.103010008155824 1.1486033945605854 2.050055466436567 -0.5200274433105061 1.1400032090925691
1.29856204987 0.0654148890150178 0.1688580031540597 -3.103010008155824 1.1486033945605854 2.050055466436567 -0.5200274433105061 1.1400032090925691
1.3085501194 0.0654148890150178 0.1688580031540597 -3.103010008155824 1.1486033945605854 2.050055466436567 -0.5200274433105061 1.1400032090925691
1.3085501194 0.0654148890150178 0.1688580031540597 -3.103010008155824 1.1486033945605854 2.050055466436567 -0.5200274433105061 1.1400032090925691
1.3189060688 0.0654148890150178 0.1688580031540597 -3.103010008155824 1.1486033945605854 2.050055466436567 -0.5200274433105061 1.1400032090925691
1.3189060688 0.0654148890150178 0.1688580031540597 -3.103010008155824 1.1486033945605854 2.050055466436567 -0.5200274433105061 1.1400032090925691
1.32904791832 0.0654148890150178 0.1688580031540597 -3.103010008155824 1.1486033945605854 2.050055466436567 -0.5200274433105061 1.1400032090925691
1.32904791832 0.0654148890150178 0.1688580031540597 -3.103010008155824 1.1486033945605854 2.050055466436567 -0.5200274433105061 1.1400032090925691
1.33892202377 0.0654148890150178 0.1688580031540597 -3.103010008155824 1.1486033945605854 2.050055466436567 -0.5200274433105061 1.1400032090925691
1.33892202377 0.0654148890150178 0.1688580031540597 -3.103010008155824 1.1486033945605854 2.050055466436567 -0.5200274433105061 1.1400032090925691
1.3488740921 0.0654148890150178 0.1688580031540597 -3.101399306963905 1.1486033945605854 2.050055466436567 -0.5200137469318284 1.1399895127138917
1.3488740921 0.0654148890150178 0.1688580031540597 -3.101399306963905 1.1486033945605854 2.050055466436567 -0.5200137469318284 1.1399895127138917
1.35949802399 0.0654148890150178 0.1688580031540597 -3.101399306963905 1.1486033945605854 2.050055466436567 -0.5200137469318284 1.1399895127138917
1.35949802399 0.0654148890150178 0.1688580031540597 -3.101399306963905 1.1486033945605854 2.050055466436567 -0.5200137469318284 1.1399895127138917
1.36869192123 0.0654148890150178 0.1688580031540597 -3.097211483864916 1.1486033945605854 2.0500645973556857 -0.5200411396891835 1.1400169054712466
1.36869192123 0.0654148890150178 0.1688580031540597 -3.097211483864916 1.1486033945605854 2.0500645973556857 -0.5200411396891835 1.1400169054712466
1.37891197205 0.0654148890150178 0.1688580031540597 -3.097211483864916 1.1486033945605854 2.0500645973556857 -0.5200411396891835 1.1400169054712466
1.37891197205 0.0654148890150178 0.1688580031540597 -3.097211483864916 1.1486033945605854 2.0500645973556857 -0.5200411396891835 1.1400169054712466
1.38892412186 0.0654148890150178 0.1688580031540597 -3.0948031020827136 1.1486033945605854 2.050055466436567 -0.5200274433105061 1.1400032090925691
1.38892412186 0.0654148890150178 0.1688580031540597 -3.0948031020827136 1.1486033945605854 2.050055466436567 -0.5200274433105061 1.1400032090925691
1.39896512032 0.0654148890150178 0.1688580031540597 -3.0948031020827136 1.1486033945605854 2.050055466436567 -0.5200274433105061 1.1400032090925691
1.39896512032 0.0654148890150178 0.1688580031540597 -3.0948031020827136 1.1486033945605854 2.050055466436567 -0.5200274433105061 1.1400032090925691
1.40897393227 0.0654148890150178 0.1688580031540597 -3.0948031020827136 1.1486033945605854 2.050055466436567 -0.5200274433105061 1.1400032090925691
1.40897393227 0.0654148890150178 0.1688580031540597 -3.0948031020827136 1.1486033945605854 2.050055466436567 -0.5200274433105061 1.1400032090925691
1.41896104813 0.0654148890150178 0.1688580031540597 -3.0948031020827136 1.1486033945605854 2.050055466436567 -0.5200274433105061 1.1400032090925691
1.41896104813 0.0654148890150178 0.1688580031540597 -3.0948031020827136 1.1486033945605854 2.050055466436567 -0.5200274433105061 1.1400032090925691
1.42896795273 0.0654148890150178 0.1688580031540597 -3.092225980175644 1.1486033945605854 2.050055466436567 -0.5200274433105061 1.1400032090925691
1.42896795273 0.0654148890150178 0.1688580031540597 -3.092225980175644 1.1486033945605854 2.050055466436567 -0.5200274433105061 1.1400032090925691
1.43905091286 0.0654302290263694 0.1688580031540597 -3.08905059782586 1.1486033945605854 2.0500645973556857 -0.5200457051487426 1.140021470930806
1.43905091286 0.0654302290263694 0.1688580031540597 -3.08905059782586 1.1486033945605854 2.0500645973556857 -0.5200457051487426 1.140021470930806
1.44881701469 0.0654455690377211 0.1688580031540597 -3.085031514851739 1.1486033945605854 2.0500645973556857 -0.5200365742296242 1.1400123400116875
1.44881701469 0.0654455690377211 0.1688580031540597 -3.085031514851739 1.1486033945605854 2.0500645973556857 -0.5200365742296242 1.1400123400116875
1.4589600563 0.0654455690377211 0.1688580031540597 -3.085031514851739 1.1486033945605854 2.0500645973556857 -0.5200365742296242 1.1400123400116875
1.4589600563 0.0654455690377211 0.1688580031540597 -3.085031514851739 1.1486033945605854 2.0500645973556857 -0.5200365742296242 1.1400123400116875
1.4689180851 0.0654455690377211 0.1688580031540597 -3.0802761113327404 1.1486033945605854 2.050055466436567 -0.5200228778509468 1.13999864363301
1.4689180851 0.0654455690377211 0.1688580031540597 -3.0802761113327404 1.1486033945605854 2.050055466436567 -0.5200228778509468 1.13999864363301
1.47896313667 0.0654455690377211 0.1688580031540597 -3.0802761113327404 1.1486033945605854 2.050055466436567 -0.5200228778509468 1.13999864363301
1.47896313667 0.0654455690377211 0.1688580031540597 -3.0802761113327404 1.1486033945605854 2.050055466436567 -0.5200228778509468 1.13999864363301
1.48909497261 0.0654455690377211 0.1688580031540597 -3.0802761113327404 1.1486033945605854 2.050055466436567 -0.5200228778509468 1.13999864363301
1.48909497261 0.0654455690377211 0.1688580031540597 -3.0802761113327404 1.1486033945605854 2.050055466436567 -0.5200228778509468 1.13999864363301
1.49888396263 0.0654455690377211 0.1688580031540597 -3.0802761113327404 1.1486033945605854 2.050055466436567 -0.5200228778509468 1.13999864363301
1.49888396263 0.0654455690377211 0.1688580031540597 -3.0802761113327404 1.1486033945605854 2.050055466436567 -0.5200228778509468 1.13999864363301
1.50925898552 0.0654455690377211 0.1688580031540597 -3.069722183522834 1.1486033945605854 2.0500645973556857 -0.5200274433105061 1.1400032090925691
1.50925898552 0.0654455690377211 0.1688580031540597 -3.069722183522834 1.1486033945605854 2.0500645973556857 -0.5200274433105061 1.1400032090925691
1.51891303062 0.0654455690377211 0.1688580031540597 -3.0638622991865194 1.1486033945605854 2.0500645973556857 -0.5200274433105061 1.1400032090925691
1.51891303062 0.0654455690377211 0.1688580031540597 -3.0638622991865194 1.1486033945605854 2.0500645973556857 -0.5200274433105061 1.1400032090925691
1.52893996239 0.0654455690377211 0.1688580031540597 -3.0638622991865194 1.1486033945605854 2.0500645973556857 -0.5200274433105061 1.1400032090925691
1.52893996239 0.0654455690377211 0.1688580031540597 -3.0638622991865194 1.1486033945605854 2.0500645973556857 -0.5200274433105061 1.1400032090925691
1.53897809982 0.0654455690377211 0.1688580031540597 -3.0638622991865194 1.1486033945605854 2.0500645973556857 -0.5200274433105061 1.1400032090925691
1.53897809982 0.0654455690377211 0.1688580031540597 -3.0638622991865194 1.1486033945605854 2.0500645973556857 -0.5200274433105061 1.1400032090925691
1.54883694649 0.0654455690377211 0.1688580031540597 -3.0579410548047985 1.1486033945605854 2.050055466436567 -0.5200274433105061 1.1400032090925691
1.54883694649 0.0654455690377211 0.1688580031540597 -3.0579410548047985 1.1486033945605854 2.050055466436567 -0.5200274433105061 1.1400032090925691
1.55893993378 0.0654455690377211 0.1688580031540597 -3.0579410548047985 1.1486033945605854 2.050055466436567 -0.5200274433105061 1.1400032090925691
1.55893993378 0.0654455690377211 0.1688580031540597 -3.0579410548047985 1.1486033945605854 2.050055466436567 -0.5200274433105061 1.1400032090925691
1.56886100769 0.0654455690377211 0.1688580031540597 -3.0579410548047985 1.1486033945605854 2.050055466436567 -0.5200274433105061 1.1400032090925691
1.56886100769 0.0654455690377211 0.1688580031540597 -3.0579410548047985 1.1486033945605854 2.050055466436567 -0.5200274433105061 1.1400032090925691
1.57895994186 0.0654455690377211 0.1688580031540597 -3.0512988298895523 1.1486033945605854 2.050055466436567 -0.5200091814722694 1.1399849472543326
1.57895994186 0.0654455690377211 0.1688580031540597 -3.0512988298895523 1.1486033945605854 2.050055466436567 -0.5200091814722694 1.1399849472543326
1.58897209167 0.0654455690377211 0.1688580031540597 -3.0512988298895523 1.1486033945605854 2.050055466436567 -0.5200091814722694 1.1399849472543326
1.58897209167 0.0654455690377211 0.1688580031540597 -3.0512988298895523 1.1486033945605854 2.050055466436567 -0.5200091814722694 1.1399849472543326
1.59880590439 0.0654455690377211 0.1688580031540597 -3.043736204293209 1.1486033945605854 2.0500645973556857 -0.5200457051487426 1.140021470930806
1.59880590439 0.0654455690377211 0.1688580031540597 -3.043736204293209 1.1486033945605854 2.0500645973556857 -0.5200457051487426 1.140021470930806
1.60892891884 0.0654455690377211 0.1688580031540597 -3.035866778469834 1.1486033945605854 2.0500645973556857 -0.5200411396891835 1.1400169054712466
1.60892891884 0.0654455690377211 0.1688580031540597 -3.035866778469834 1.1486033945605854 2.0500645973556857 -0.5200411396891835 1.1400169054712466
1.61882710457 0.0654455690377211 0.1688580031540597 -3.027736572453481 1.1486033945605854 2.050055466436567 -0.5200274433105061 1.1400032090925691
1.61882710457 0.0654455690377211 0.1688580031540597 -3.027736572453481 1.1486033945605854 2.050055466436567 -0.5200274433105061 1.1400032090925691
1.62893009186 0.0654455690377211 0.1688580031540597 -3.027736572453481 1.1486033945605854 2.050055466436567 -0.5200274433105061 1.1400032090925691
1.62893009186 0.0654455690377211 0.1688580031540597 -3.027736572453481 1.1486033945605854 2.050055466436567 -0.5200274433105061 1.1400032090925691
1.63880610466 0.0654455690377211 0.1688580031540597 -3.027736572453481 1.1486033945605854 2.050055466436567 -0.5200274433105061 1.1400032090925691
1.63880610466 0.0654455690377211 0.1688580031540597 -3.027736572453481 1.1486033945605854 2.050055466436567 -0.5200274433105061 1.1400032090925691
1.6489379406 0.0654455690377211 0.1688580031540597 -3.027736572453481 1.1486033945605854 2.050055466436567 -0.5200274433105061 1.1400032090925691
1.6489379406 0.0654455690377211 0.1688580031540597 -3.027736572453481 1.1486033945605854 2.050055466436567 -0.5200274433105061 1.1400032090925691
1.65895009041 0.0654455690377211 0.1688580031540597 -3.027736572453481 1.1486033945605854 2.050055466436567 -0.5200274433105061 1.1400032090925691
1.65895009041 0.0654455690377211 0.1688580031540597 -3.027736572453481 1.1486033945605854 2.050055466436567 -0.5200274433105061 1.1400032090925691
1.66890096664 0.0655529491171824 0.1688580031540597 -3.0096813790926387 1.1486033945605854 2.0500645973556857 -0.5200502706083019 1.140026036390365
1.66890096664 0.0655529491171824 0.1688580031540597 -3.0096813790926387 1.1486033945605854 2.0500645973556857 -0.5200502706083019 1.140026036390365
1.67904806137 0.0657677092761048 0.1688580031540597 -3.0000478519638283 1.1485880545492335 2.0500645973556857 -0.5200457051487426 1.140021470930806
1.67904806137 0.0657677092761048 0.1688580031540597 -3.0000478519638283 1.1485880545492335 2.0500645973556857 -0.5200457051487426 1.140021470930806
1.68907499313 0.0657677092761048 0.1688580031540597 -3.0000478519638283 1.1485880545492335 2.0500645973556857 -0.5200457051487426 1.140021470930806
1.68907499313 0.0657677092761048 0.1688580031540597 -3.0000478519638283 1.1485880545492335 2.0500645973556857 -0.5200457051487426 1.140021470930806
1.69893312454 0.0657677092761048 0.1688580031540597 -3.0000478519638283 1.1485880545492335 2.0500645973556857 -0.5200457051487426 1.140021470930806
1.69893312454 0.0657677092761048 0.1688580031540597 -3.0000478519638283 1.1485880545492335 2.0500645973556857 -0.5200457051487426 1.140021470930806
1.7089509964 0.0657677092761048 0.1688580031540597 -3.0000478519638283 1.1485880545492335 2.0500645973556857 -0.5200457051487426 1.140021470930806
1.7089509964 0.0657677092761048 0.1688580031540597 -3.0000478519638283 1.1485880545492335 2.0500645973556857 -0.5200457051487426 1.140021470930806
1.71883797646 0.0657677092761048 0.1688580031540597 -3.0000478519638283 1.1485880545492335 2.0500645973556857 -0.5200457051487426 1.140021470930806
1.71883797646 0.0657677092761048 0.1688580031540597 -3.0000478519638283 1.1485880545492335 2.0500645973556857 -0.5200457051487426 1.140021470930806
1.72888898849 0.0661051895258401 0.1688580031540597 -2.9904143248350183 1.148572714537882 2.050055466436567 -0.5200274433105061 1.1400032090925691
1.72888898849 0.0661051895258401 0.1688580031540597 -2.9904143248350183 1.148572714537882 2.050055466436567 -0.5200274433105061 1.1400032090925691
1.73873305321 0.0661051895258401 0.1688580031540597 -2.9904143248350183 1.148572714537882 2.050055466436567 -0.5200274433105061 1.1400032090925691
1.73873305321 0.0661051895258401 0.1688580031540597 -2.9904143248350183 1.148572714537882 2.050055466436567 -0.5200274433105061 1.1400032090925691
1.74891710281 0.0664273297642239 0.1688580031540597 -2.9801518572407923 1.148542034515179 2.050046335517449 -0.5200228778509468 1.13999864363301
1.74891710281 0.0664273297642239 0.1688580031540597 -2.9801518572407923 1.148542034515179 2.050046335517449 -0.5200228778509468 1.13999864363301
1.75882005692 0.0664273297642239 0.1688580031540597 -2.9801518572407923 1.148542034515179 2.050046335517449 -0.5200228778509468 1.13999864363301
1.75882005692 0.0664273297642239 0.1688580031540597 -2.9801518572407923 1.148542034515179 2.050046335517449 -0.5200228778509468 1.13999864363301
1.76897406578 0.0664273297642239 0.1688580031540597 -2.9801518572407923 1.148542034515179 2.050046335517449 -0.5200228778509468 1.13999864363301
1.76897406578 0.0664273297642239 0.1688580031540597 -2.9801518572407923 1.148542034515179 2.050046335517449 -0.5200228778509468 1.13999864363301
1.77890300751 0.0670869502523432 0.1688580031540597 -2.9589519615528697 1.148373294390311 2.0500645973556857 -0.5200411396891835 1.1400169054712466
1.77890300751 0.0670869502523432 0.1688580031540597 -2.9589519615528697 1.148373294390311 2.0500645973556857 -0.5200411396891835 1.1400169054712466
1.78881192207 0.0674704505361333 0.1688580031540597 -2.9482906536635016 1.1480971741859822 2.050055466436567 -0.5200228778509468 1.13999864363301
1.78881192207 0.0674704505361333 0.1688580031540597 -2.9482906536635016 1.1480971741859822 2.050055466436567 -0.5200228778509468 1.13999864363301
1.79894208908 0.0674704505361333 0.1688580031540597 -2.9482906536635016 1.1480971741859822 2.050055466436567 -0.5200228778509468 1.13999864363301
1.79894208908 0.0674704505361333 0.1688580031540597 -2.9482906536635016 1.1480971741859822 2.050055466436567 -0.5200228778509468 1.13999864363301
1.80897593498 0.0674704505361333 0.1688580031540597 -2.9482906536635016 1.1480971741859822 2.050055466436567 -0.5200228778509468 1.13999864363301
1.80897593498 0.0674704505361333 0.1688580031540597 -2.9482906536635016 1.1480971741859822 2.050055466436567 -0.5200228778509468 1.13999864363301
1.81883096695 0.0674704505361333 0.1688580031540597 -2.9482906536635016 1.1480971741859822 2.050055466436567 -0.5200228778509468 1.13999864363301
1.81883096695 0.0674704505361333 0.1688580031540597 -2.9482906536635016 1.1480971741859822 2.050055466436567 -0.5200228778509468 1.13999864363301
1.82881712914 0.0680993910015492 0.1688580031540597 -2.9370157453200694 1.1477596939362469 2.050046335517449 -0.5200228778509468 1.13999864363301
1.82881712914 0.0680993910015492 0.1688580031540597 -2.9370157453200694 1.1477596939362469 2.050046335517449 -0.5200228778509468 1.13999864363301
1.83900403976 0.0680993910015492 0.1688580031540597 -2.9370157453200694 1.1477596939362469 2.050046335517449 -0.5200228778509468 1.13999864363301
1.83900403976 0.0680993910015492 0.1688580031540597 -2.9370157453200694 1.1477596939362469 2.050046335517449 -0.5200228778509468 1.13999864363301
1.84879302979 0.0693572719323811 0.1688580031540597 -2.913929028235899 1.147161433493534 2.0500645973556857 -0.5200457051487426 1.140021470930806
1.84879302979 0.0693572719323811 0.1688580031540597 -2.913929028235899 1.147161433493534 2.0500645973556857 -0.5200457051487426 1.140021470930806
1.85896492004 0.0693572719323811 0.1688580031540597 -2.913929028235899 1.147161433493534 2.0500645973556857 -0.5200457051487426 1.140021470930806
1.85896492004 0.0693572719323811 0.1688580031540597 -2.913929028235899 1.147161433493534 2.0500645973556857 -0.5200457051487426 1.140021470930806
1.8689250946 0.0693572719323811 0.1688580031540597 -2.913929028235899 1.147161433493534 2.0500645973556857 -0.5200457051487426 1.140021470930806
1.8689250946 0.0693572719323811 0.1688580031540597 -2.913929028235899 1.147161433493534 2.0500645973556857 -0.5200457051487426 1.140021470930806
1.87883591652 0.0700629124545552 0.1688580031540597 -2.9020711994611057 1.1468239532437987 2.050055466436567 -0.5200228778509468 1.13999864363301
1.87883591652 0.0700629124545552 0.1688580031540597 -2.9020711994611057 1.1468239532437987 2.050055466436567 -0.5200228778509468 1.13999864363301
1.88880300522 0.0708299130221356 0.1688426631427081 -2.890136670629554 1.1463177328691956 2.050055466436567 -0.5200320087700652 1.1400077745521284
1.88880300522 0.0708299130221356 0.1688426631427081 -2.890136670629554 1.1463177328691956 2.050055466436567 -0.5200320087700652 1.1400077745521284
1.89894890785 0.0708299130221356 0.1688426631427081 -2.890136670629554 1.1463177328691956 2.050055466436567 -0.5200320087700652 1.1400077745521284
1.89894890785 0.0708299130221356 0.1688426631427081 -2.890136670629554 1.1463177328691956 2.050055466436567 -0.5200320087700652 1.1400077745521284
1.90896511078 0.0708299130221356 0.1688426631427081 -2.890136670629554 1.1463177328691956 2.050055466436567 -0.5200320087700652 1.1400077745521284
1.90896511078 0.0708299130221356 0.1688426631427081 -2.890136670629554 1.1463177328691956 2.050055466436567 -0.5200320087700652 1.1400077745521284
1.91898703575 0.0708299130221356 0.1688426631427081 -2.890136670629554 1.1463177328691956 2.050055466436567 -0.5200320087700652 1.1400077745521284
1.91898703575 0.0708299130221356 0.1688426631427081 -2.890136670629554 1.1463177328691956 2.050055466436567 -0.5200320087700652 1.1400077745521284
1.92899703979 0.0717809937259352 0.1688426631427081 -2.87788000155962 1.1455660723129668 2.0500645973556857 -0.5200457051487426 1.140021470930806
1.92899703979 0.0717809937259352 0.1688426631427081 -2.87788000155962 1.1455660723129668 2.0500645973556857 -0.5200457051487426 1.140021470930806
1.9388859272 0.072931494577306 0.1688273231313565 -2.86548527238752 1.144584311586464 2.0500645973556857 -0.5200320087700652 1.1400077745521284
1.9388859272 0.072931494577306 0.1688273231313565 -2.86548527238752 1.144584311586464 2.0500645973556857 -0.5200320087700652 1.1400077745521284
1.94900298119 0.0740513154059733 0.1688273231313565 -2.8531365632494747 1.143096330485358 2.050055466436567 -0.5200183123913877 1.1399940781734508
1.94900298119 0.0740513154059733 0.1688273231313565 -2.8531365632494747 1.143096330485358 2.050055466436567 -0.5200183123913877 1.1399940781734508
1.95887303352 0.0740513154059733 0.1688273231313565 -2.8531365632494747 1.143096330485358 2.050055466436567 -0.5200183123913877 1.1399940781734508
1.95887303352 0.0740513154059733 0.1688273231313565 -2.8531365632494747 1.143096330485358 2.050055466436567 -0.5200183123913877 1.1399940781734508
1.96889710426 0.0740513154059733 0.1688273231313565 -2.8531365632494747 1.143096330485358 2.050055466436567 -0.5200183123913877 1.1399940781734508
1.96889710426 0.0740513154059733 0.1688273231313565 -2.8531365632494747 1.143096330485358 2.050055466436567 -0.5200183123913877 1.1399940781734508
1.97888493538 0.0752018162573439 0.1688273231313565 -2.840128233623311 1.1413015491572198 2.050055466436567 -0.5200411396891835 1.1400169054712466
1.97888493538 0.0752018162573439 0.1688273231313565 -2.840128233623311 1.1413015491572198 2.050055466436567 -0.5200411396891835 1.1400169054712466
1.98891592026 0.0752018162573439 0.1688273231313565 -2.840128233623311 1.1413015491572198 2.050055466436567 -0.5200411396891835 1.1400169054712466
1.98891592026 0.0752018162573439 0.1688273231313565 -2.840128233623311 1.1413015491572198 2.050055466436567 -0.5200411396891835 1.1400169054712466
1.99882292747 0.0752018162573439 0.1688273231313565 -2.840128233623311 1.1413015491572198 2.050055466436567 -0.5200411396891835 1.1400169054712466
1.99882292747 0.0752018162573439 0.1688273231313565 -2.840128233623311 1.1413015491572198 2.050055466436567 -0.5200411396891835 1.1400169054712466
2.00877213478 0.0779323382779304 0.1688119831200049 -2.813758754109896 1.1367762458084951 2.0500645973556857 -0.5200320087700652 1.1400077745521284
2.00877213478 0.0779323382779304 0.1688119831200049 -2.813758754109896 1.1367762458084951 2.0500645973556857 -0.5200320087700652 1.1400077745521284
2.01873707771 0.0779323382779304 0.1688119831200049 -2.813758754109896 1.1367762458084951 2.0500645973556857 -0.5200320087700652 1.1400077745521284
2.01873707771 0.0779323382779304 0.1688119831200049 -2.813758754109896 1.1367762458084951 2.0500645973556857 -0.5200320087700652 1.1400077745521284
2.02882003784 0.079190219208762 0.1688119831200049 -2.7999987639275035 1.134275823958183 2.0500645973556857 -0.5200137469318284 1.1399895127138917
2.02882003784 0.079190219208762 0.1688119831200049 -2.7999987639275035 1.134275823958183 2.0500645973556857 -0.5200137469318284 1.1399895127138917
2.03895401955 0.079190219208762 0.1688119831200049 -2.7999987639275035 1.134275823958183 2.0500645973556857 -0.5200137469318284 1.1399895127138917
2.03895401955 0.079190219208762 0.1688119831200049 -2.7999987639275035 1.134275823958183 2.0500645973556857 -0.5200137469318284 1.1399895127138917
2.04897809029 0.0802333399806715 0.1687046030405436 -2.7860546936088912 1.1317600620965194 2.050055466436567 -0.5200457051487426 1.140021470930806
2.04897809029 0.0802333399806715 0.1687046030405436 -2.7860546936088912 1.1317600620965194 2.050055466436567 -0.5200457051487426 1.140021470930806
2.05877614021 0.0802333399806715 0.1687046030405436 -2.7860546936088912 1.1317600620965194 2.050055466436567 -0.5200457051487426 1.140021470930806
2.05877614021 0.0802333399806715 0.1687046030405436 -2.7860546936088912 1.1317600620965194 2.050055466436567 -0.5200457051487426 1.140021470930806
2.06874799728 0.0802333399806715 0.1687046030405436 -2.7860546936088912 1.1317600620965194 2.050055466436567 -0.5200457051487426 1.140021470930806
2.06874799728 0.0802333399806715 0.1687046030405436 -2.7860546936088912 1.1317600620965194 2.050055466436567 -0.5200457051487426 1.140021470930806
2.07866311073 0.0802333399806715 0.1687046030405436 -2.7860546936088912 1.1317600620965194 2.050055466436567 -0.5200457051487426 1.140021470930806
2.07866311073 0.0802333399806715 0.1687046030405436 -2.7860546936088912 1.1317600620965194 2.050055466436567 -0.5200457051487426 1.140021470930806
2.08891010284 0.0810923806163616 0.1686432429951372 -2.771466342813512 1.1294437203824264 2.0500645973556857 -0.5200411396891835 1.1400169054712466
2.08891010284 0.0810923806163616 0.1686432429951372 -2.771466342813512 1.1294437203824264 2.0500645973556857 -0.5200411396891835 1.1400169054712466
2.09876894951 0.0817673411158323 0.1684284828362147 -2.756724591904616 1.1267438783845434 2.0500645973556857 -0.5200320087700652 1.1400077745521284
2.09876894951 0.0817673411158323 0.1684284828362147 -2.756724591904616 1.1267438783845434 2.0500645973556857 -0.5200320087700652 1.1400077745521284
2.10897612572 0.0823349215358419 0.1680756625751277 -2.7417527408254463 1.1240286963753088 2.0500645973556857 -0.5200137469318284 1.1399895127138917
2.10897612572 0.0823349215358419 0.1680756625751277 -2.7417527408254463 1.1240286963753088 2.0500645973556857 -0.5200137469318284 1.1399895127138917
2.11898112297 0.0823349215358419 0.1680756625751277 -2.7417527408254463 1.1240286963753088 2.0500645973556857 -0.5200137469318284 1.1399895127138917
2.11898112297 0.0823349215358419 0.1680756625751277 -2.7417527408254463 1.1240286963753088 2.0500645973556857 -0.5200137469318284 1.1399895127138917
2.12900805473 0.0823349215358419 0.1680756625751277 -2.7417527408254463 1.1240286963753088 2.0500645973556857 -0.5200137469318284 1.1399895127138917
2.12900805473 0.0823349215358419 0.1680756625751277 -2.7417527408254463 1.1240286963753088 2.0500645973556857 -0.5200137469318284 1.1399895127138917
2.1389799118 0.0823349215358419 0.1680756625751277 -2.7417527408254463 1.1240286963753088 2.0500645973556857 -0.5200137469318284 1.1399895127138917
2.1389799118 0.0823349215358419 0.1680756625751277 -2.7417527408254463 1.1240286963753088 2.0500645973556857 -0.5200137469318284 1.1399895127138917
2.14899706841 0.0823349215358419 0.1680756625751277 -2.7417527408254463 1.1240286963753088 2.0500645973556857 -0.5200137469318284 1.1399895127138917
2.14899706841 0.0823349215358419 0.1680756625751277 -2.7417527408254463 1.1240286963753088 2.0500645973556857 -0.5200137469318284 1.1399895127138917
2.1588640213 0.0823349215358419 0.1680756625751277 -2.7417527408254463 1.1240286963753088 2.0500645973556857 -0.5200137469318284 1.1399895127138917
2.1588640213 0.0823349215358419 0.1680756625751277 -2.7417527408254463 1.1240286963753088 2.0500645973556857 -0.5200137469318284 1.1399895127138917
2.16899013519 0.0823349215358419 0.1680756625751277 -2.7417527408254463 1.1240286963753088 2.0500645973556857 -0.5200137469318284 1.1399895127138917
2.16899013519 0.0823349215358419 0.1680756625751277 -2.7417527408254463 1.1240286963753088 2.0500645973556857 -0.5200137469318284 1.1399895127138917
2.17901992798 0.0823349215358419 0.1680756625751277 -2.7417527408254463 1.1240286963753088 2.0500645973556857 -0.5200137469318284 1.1399895127138917
2.17901992798 0.0823349215358419 0.1680756625751277 -2.7417527408254463 1.1240286963753088 2.0500645973556857 -0.5200137469318284 1.1399895127138917
2.18882608414 0.0823349215358419 0.1680756625751277 -2.7417527408254463 1.1240286963753088 2.0500645973556857 -0.5200137469318284 1.1399895127138917
2.18882608414 0.0823349215358419 0.1680756625751277 -2.7417527408254463 1.1240286963753088 2.0500645973556857 -0.5200137469318284 1.1399895127138917
2.1987760067 0.0830405620580158 0.1617862579209682 -2.679978515112519 1.1164660707789658 2.0500645973556857 -0.5200137469318284 1.1399895127138917
2.1987760067 0.0830405620580158 0.1617862579209682 -2.679978515112519 1.1164660707789658 2.0500645973556857 -0.5200137469318284 1.1399895127138917
2.20892596245 0.0830405620580158 0.1585495155257789 -2.6647305438290205 1.1161439305405818 2.050055466436567 -0.5200411396891835 1.1400169054712466
2.20892596245 0.0830405620580158 0.1585495155257789 -2.6647305438290205 1.1161439305405818 2.050055466436567 -0.5200411396891835 1.1400169054712466
2.21898412704 0.0830405620580158 0.1585495155257789 -2.6647305438290205 1.1161439305405818 2.050055466436567 -0.5200411396891835 1.1400169054712466
2.21898412704 0.0830405620580158 0.1585495155257789 -2.6647305438290205 1.1161439305405818 2.050055466436567 -0.5200411396891835 1.1400169054712466
2.22895598412 0.0830405620580158 0.1585495155257789 -2.6647305438290205 1.1161439305405818 2.050055466436567 -0.5200411396891835 1.1400169054712466
2.22895598412 0.0830405620580158 0.1585495155257789 -2.6647305438290205 1.1161439305405818 2.050055466436567 -0.5200411396891835 1.1400169054712466
2.23895192146 0.0830405620580158 0.1585495155257789 -2.6647305438290205 1.1161439305405818 2.050055466436567 -0.5200411396891835 1.1400169054712466
2.23895192146 0.0830405620580158 0.1585495155257789 -2.6647305438290205 1.1161439305405818 2.050055466436567 -0.5200411396891835 1.1400169054712466
2.24885797501 0.0830405620580158 0.1585495155257789 -2.6647305438290205 1.1161439305405818 2.050055466436567 -0.5200411396891835 1.1400169054712466
2.24885797501 0.0830405620580158 0.1585495155257789 -2.6647305438290205 1.1161439305405818 2.050055466436567 -0.5200411396891835 1.1400169054712466
2.25884699821 0.0830405620580158 0.1549599528695025 -2.6492217923525443 1.1160365504611207 2.050055466436567 -0.5200365742296242 1.1400123400116875
2.25884699821 0.0830405620580158 0.1549599528695025 -2.6492217923525443 1.1160365504611207 2.050055466436567 -0.5200365742296242 1.1400123400116875
2.26893591881 0.0830405620580158 0.1509101898726779 -2.633759060910123 1.116021210449769 2.0500645973556857 -0.5200228778509468 1.13999864363301
2.26893591881 0.0830405620580158 0.1509101898726779 -2.633759060910123 1.116021210449769 2.0500645973556857 -0.5200228778509468 1.13999864363301
2.27898406982 0.0830405620580158 0.1509101898726779 -2.633759060910123 1.116021210449769 2.0500645973556857 -0.5200228778509468 1.13999864363301
2.27898406982 0.0830405620580158 0.1509101898726779 -2.633759060910123 1.116021210449769 2.0500645973556857 -0.5200228778509468 1.13999864363301
2.28866505623 0.0830559020693674 0.1417522030957677 -2.603125058240961 1.115990530427066 2.050055466436567 -0.5200457051487426 1.140021470930806
2.28866505623 0.0830559020693674 0.1417522030957677 -2.603125058240961 1.115990530427066 2.050055466436567 -0.5200457051487426 1.140021470930806
2.29849505424 0.0830559020693674 0.1417522030957677 -2.603125058240961 1.115990530427066 2.050055466436567 -0.5200457051487426 1.140021470930806
2.29849505424 0.0830559020693674 0.1417522030957677 -2.603125058240961 1.115990530427066 2.050055466436567 -0.5200457051487426 1.140021470930806
2.30868601799 0.0830559020693674 0.1371348596789335 -2.587693006821243 1.115990530427066 2.050055466436567 -0.5200411396891835 1.1400169054712466
2.30868601799 0.0830559020693674 0.1371348596789335 -2.587693006821243 1.115990530427066 2.050055466436567 -0.5200411396891835 1.1400169054712466
2.31897711754 0.0830559020693674 0.1371348596789335 -2.587693006821243 1.115990530427066 2.050055466436567 -0.5200411396891835 1.1400169054712466
2.31897711754 0.0830559020693674 0.1371348596789335 -2.587693006821243 1.115990530427066 2.050055466436567 -0.5200411396891835 1.1400169054712466
2.32885503769 0.0831632821488288 0.1322260560464188 -2.57183143508368 1.115990530427066 2.050055466436567 -0.5200228778509468 1.13999864363301
2.32885503769 0.0831632821488288 0.1322260560464188 -2.57183143508368 1.115990530427066 2.050055466436567 -0.5200228778509468 1.13999864363301
2.3389339447 0.0831632821488288 0.1322260560464188 -2.57183143508368 1.115990530427066 2.050055466436567 -0.5200228778509468 1.13999864363301
2.3389339447 0.0831632821488288 0.1322260560464188 -2.57183143508368 1.115990530427066 2.050055466436567 -0.5200228778509468 1.13999864363301
2.34893894196 0.0831632821488288 0.1322260560464188 -2.57183143508368 1.115990530427066 2.050055466436567 -0.5200228778509468 1.13999864363301
2.34893894196 0.0831632821488288 0.1322260560464188 -2.57183143508368 1.115990530427066 2.050055466436567 -0.5200228778509468 1.13999864363301
2.35925912857 0.083546782432619 0.1278694928225621 -2.556338023618556 1.115990530427066 2.050055466436567 -0.5200137469318284 1.1399895127138917
2.35925912857 0.083546782432619 0.1278694928225621 -2.556338023618556 1.115990530427066 2.050055466436567 -0.5200137469318284 1.1399895127138917
2.36883306503 0.0835621224439706 0.1233748694965407 -2.540614511983157 1.115990530427066 2.050055466436567 -0.5200411396891835 1.1400169054712466
2.36883306503 0.0835621224439706 0.1233748694965407 -2.540614511983157 1.115990530427066 2.050055466436567 -0.5200411396891835 1.1400169054712466
2.3789639473 0.0835621224439706 0.1233748694965407 -2.540614511983157 1.115990530427066 2.050055466436567 -0.5200411396891835 1.1400169054712466
2.3789639473 0.0835621224439706 0.1233748694965407 -2.540614511983157 1.115990530427066 2.050055466436567 -0.5200411396891835 1.1400169054712466
2.38899493217 0.0835621224439706 0.1193251064997162 -2.524829640302352 1.115990530427066 2.050046335517449 -0.5200411396891835 1.1400169054712466
2.38899493217 0.0835621224439706 0.1193251064997162 -2.524829640302352 1.115990530427066 2.050046335517449 -0.5200411396891835 1.1400169054712466
2.39913392067 0.0835621224439706 0.1193251064997162 -2.524829640302352 1.115990530427066 2.050046335517449 -0.5200411396891835 1.1400169054712466
2.39913392067 0.0835621224439706 0.1193251064997162 -2.524829640302352 1.115990530427066 2.050046335517449 -0.5200411396891835 1.1400169054712466
2.40887498856 0.0835621224439706 0.1193251064997162 -2.524829640302352 1.115990530427066 2.050046335517449 -0.5200411396891835 1.1400169054712466
2.40887498856 0.0835621224439706 0.1193251064997162 -2.524829640302352 1.115990530427066 2.050046335517449 -0.5200411396891835 1.1400169054712466
2.41879296303 0.0836541625120803 0.1147537831169368 -2.508523208235592 1.115990530427066 2.050055466436567 -0.5200228778509468 1.13999864363301
2.41879296303 0.0836541625120803 0.1147537831169368 -2.508523208235592 1.115990530427066 2.050055466436567 -0.5200228778509468 1.13999864363301
2.42930412292 0.0836541625120803 0.1147537831169368 -2.508523208235592 1.115990530427066 2.050055466436567 -0.5200228778509468 1.13999864363301
2.42930412292 0.0836541625120803 0.1147537831169368 -2.508523208235592 1.115990530427066 2.050055466436567 -0.5200228778509468 1.13999864363301
2.43875312805 0.0836541625120803 0.1147537831169368 -2.508523208235592 1.115990530427066 2.050055466436567 -0.5200228778509468 1.13999864363301
2.43875312805 0.0836541625120803 0.1147537831169368 -2.508523208235592 1.115990530427066 2.050055466436567 -0.5200228778509468 1.13999864363301
2.44897007942 0.0836541625120803 0.1107653801655187 -2.492815036611545 1.115990530427066 2.050055466436567 -0.5200365742296242 1.1400123400116875
2.44897007942 0.0836541625120803 0.1107653801655187 -2.492815036611545 1.115990530427066 2.050055466436567 -0.5200365742296242 1.1400123400116875
2.45894694328 0.0836541625120803 0.1107653801655187 -2.492815036611545 1.115990530427066 2.050055466436567 -0.5200365742296242 1.1400123400116875
2.45894694328 0.0836541625120803 0.1107653801655187 -2.492815036611545 1.115990530427066 2.050055466436567 -0.5200365742296242 1.1400123400116875
2.4688141346 0.0836541625120803 0.1066542571232876 -2.4765086045447853 1.115990530427066 2.050055466436567 -0.5200411396891835 1.1400169054712466
2.4688141346 0.0836541625120803 0.1066542571232876 -2.4765086045447853 1.115990530427066 2.050055466436567 -0.5200411396891835 1.1400169054712466
2.47892212868 0.0836541625120803 0.1066542571232876 -2.4765086045447853 1.115990530427066 2.050055466436567 -0.5200411396891835 1.1400169054712466
2.47892212868 0.0836541625120803 0.1066542571232876 -2.4765086045447853 1.115990530427066 2.050055466436567 -0.5200411396891835 1.1400169054712466
2.48892903328 0.0836541625120803 0.1066542571232876 -2.4765086045447853 1.115990530427066 2.050055466436567 -0.5200411396891835 1.1400169054712466
2.48892903328 0.0836541625120803 0.1066542571232876 -2.4765086045447853 1.115990530427066 2.050055466436567 -0.5200411396891835 1.1400169054712466
2.49883008003 0.0836541625120803 0.1066542571232876 -2.4765086045447853 1.115990530427066 2.050055466436567 -0.5200411396891835 1.1400169054712466
2.49883008003 0.0836541625120803 0.1066542571232876 -2.4765086045447853 1.115990530427066 2.050055466436567 -0.5200411396891835 1.1400169054712466
2.5089840889 0.0836541625120803 0.1030953744897145 -2.459680612092071 1.115990530427066 2.050046335517449 -0.5200320087700652 1.1400077745521284
2.5089840889 0.0836541625120803 0.1030953744897145 -2.459680612092071 1.115990530427066 2.050046335517449 -0.5200320087700652 1.1400077745521284
2.51885104179 0.0836541625120803 0.0957781890749972 -2.42676094773152 1.115990530427066 2.050055466436567 -0.5200365742296242 1.1400123400116875
2.51885104179 0.0836541625120803 0.0957781890749972 -2.42676094773152 1.115990530427066 2.050055466436567 -0.5200365742296242 1.1400123400116875
2.52880501747 0.0836541625120803 0.0957781890749972 -2.42676094773152 1.115990530427066 2.050055466436567 -0.5200365742296242 1.1400123400116875
2.52880501747 0.0836541625120803 0.0957781890749972 -2.42676094773152 1.115990530427066 2.050055466436567 -0.5200365742296242 1.1400123400116875
2.53881597519 0.0836541625120803 0.0957781890749972 -2.42676094773152 1.115990530427066 2.050055466436567 -0.5200365742296242 1.1400123400116875
2.53881597519 0.0836541625120803 0.0957781890749972 -2.42676094773152 1.115990530427066 2.050055466436567 -0.5200365742296242 1.1400123400116875
2.54900407791 0.0836541625120803 0.0889518840235315 -2.394209443643406 1.115990530427066 2.050055466436567 -0.5200320087700652 1.1400077745521284
2.54900407791 0.0836541625120803 0.0889518840235315 -2.394209443643406 1.115990530427066 2.050055466436567 -0.5200320087700652 1.1400077745521284
2.55879592896 0.0836541625120803 0.0889518840235315 -2.394209443643406 1.115990530427066 2.050055466436567 -0.5200320087700652 1.1400077745521284
2.55879592896 0.0836541625120803 0.0889518840235315 -2.394209443643406 1.115990530427066 2.050055466436567 -0.5200320087700652 1.1400077745521284
2.56891798973 0.0836541625120803 0.0889518840235315 -2.394209443643406 1.115990530427066 2.050055466436567 -0.5200320087700652 1.1400077745521284
2.56891798973 0.0836541625120803 0.0889518840235315 -2.394209443643406 1.115990530427066 2.050055466436567 -0.5200320087700652 1.1400077745521284
2.57895302773 0.0836541625120803 0.0889518840235315 -2.394209443643406 1.115990530427066 2.050055466436567 -0.5200320087700652 1.1400077745521284
2.57895302773 0.0836541625120803 0.0889518840235315 -2.394209443643406 1.115990530427066 2.050055466436567 -0.5200320087700652 1.1400077745521284
2.58887290955 0.0836541625120803 0.0852856213104971 -2.377964371622053 1.115990530427066 2.050055466436567 -0.5200183123913877 1.1399940781734508
2.58887290955 0.0836541625120803 0.0852856213104971 -2.377964371622053 1.115990530427066 2.050055466436567 -0.5200183123913877 1.1399940781734508
2.59879112244 0.0836541625120803 0.0852856213104971 -2.377964371622053 1.115990530427066 2.050055466436567 -0.5200183123913877 1.1399940781734508
2.59879112244 0.0836541625120803 0.0852856213104971 -2.377964371622053 1.115990530427066 2.050055466436567 -0.5200183123913877 1.1399940781734508
2.60877394676 0.0836541625120803 0.0820488789153078 -2.3624096001115222 1.115990530427066 2.050055466436567 -0.5200365742296242 1.1400123400116875
2.60877394676 0.0836541625120803 0.0820488789153078 -2.3624096001115222 1.115990530427066 2.050055466436567 -0.5200365742296242 1.1400123400116875
2.61873292923 0.0836541625120803 0.0788888365768764 -2.346977548691804 1.115990530427066 2.050055466436567 -0.5200411396891835 1.1400169054712466
2.61873292923 0.0836541625120803 0.0788888365768764 -2.346977548691804 1.115990530427066 2.050055466436567 -0.5200411396891835 1.1400169054712466
2.62894296646 0.083623482489377 0.0759128743746644 -2.3308705367726152 1.115990530427066 2.050055466436567 -0.5200365742296242 1.1400123400116875
2.62894296646 0.083623482489377 0.0759128743746644 -2.3308705367726152 1.115990530427066 2.050055466436567 -0.5200365742296242 1.1400123400116875
2.63886809349 0.083623482489377 0.0759128743746644 -2.3308705367726152 1.115990530427066 2.050055466436567 -0.5200365742296242 1.1400123400116875
2.63886809349 0.083623482489377 0.0759128743746644 -2.3308705367726152 1.115990530427066 2.050055466436567 -0.5200365742296242 1.1400123400116875
2.64873790741 0.083623482489377 0.0759128743746644 -2.3308705367726152 1.115990530427066 2.050055466436567 -0.5200365742296242 1.1400123400116875
2.64873790741 0.083623482489377 0.0759128743746644 -2.3308705367726152 1.115990530427066 2.050055466436567 -0.5200365742296242 1.1400123400116875
2.65897703171 0.083623482489377 0.0759128743746644 -2.3308705367726152 1.115990530427066 2.050055466436567 -0.5200365742296242 1.1400123400116875
2.65897703171 0.083623482489377 0.0759128743746644 -2.3308705367726152 1.115990530427066 2.050055466436567 -0.5200365742296242 1.1400123400116875
2.66874504089 0.083623482489377 0.0759128743746644 -2.3308705367726152 1.115990530427066 2.050055466436567 -0.5200365742296242 1.1400123400116875
2.66874504089 0.083623482489377 0.0759128743746644 -2.3308705367726152 1.115990530427066 2.050055466436567 -0.5200365742296242 1.1400123400116875
2.67889308929 0.083623482489377 0.0759128743746644 -2.3308705367726152 1.115990530427066 2.050055466436567 -0.5200365742296242 1.1400123400116875
2.67889308929 0.083623482489377 0.0759128743746644 -2.3308705367726152 1.115990530427066 2.050055466436567 -0.5200365742296242 1.1400123400116875
2.68888306618 0.0834547423645093 0.0705745504243047 -2.299760993751553 1.115990530427066 2.050055466436567 -0.5200274433105061 1.1400032090925691
2.68888306618 0.0834547423645093 0.0705745504243047 -2.299760993751553 1.115990530427066 2.050055466436567 -0.5200274433105061 1.1400032090925691
2.69878196716 0.0834547423645093 0.0705745504243047 -2.299760993751553 1.115990530427066 2.050055466436567 -0.5200274433105061 1.1400032090925691
2.69878196716 0.0834547423645093 0.0705745504243047 -2.299760993751553 1.115990530427066 2.050055466436567 -0.5200274433105061 1.1400032090925691
2.70883703232 0.0832860022396417 0.0658038068939544 -2.270001371729433 1.115990530427066 2.050055466436567 -0.5200365742296242 1.1400123400116875
2.70883703232 0.0832860022396417 0.0658038068939544 -2.270001371729433 1.115990530427066 2.050055466436567 -0.5200365742296242 1.1400123400116875
2.71894001961 0.0832860022396417 0.0658038068939544 -2.270001371729433 1.115990530427066 2.050055466436567 -0.5200365742296242 1.1400123400116875
2.71894001961 0.0832860022396417 0.0658038068939544 -2.270001371729433 1.115990530427066 2.050055466436567 -0.5200365742296242 1.1400123400116875
2.72894406319 0.0832860022396417 0.0658038068939544 -2.270001371729433 1.115990530427066 2.050055466436567 -0.5200365742296242 1.1400123400116875
2.72894406319 0.0832860022396417 0.0658038068939544 -2.270001371729433 1.115990530427066 2.050055466436567 -0.5200365742296242 1.1400123400116875
2.73885202408 0.083193962171532 0.0629045447485004 -2.255351660888647 1.115990530427066 2.050055466436567 -0.5200274433105061 1.1400032090925691
2.73885202408 0.083193962171532 0.0629045447485004 -2.255351660888647 1.115990530427066 2.050055466436567 -0.5200274433105061 1.1400032090925691
2.74907898903 0.0830712420807191 0.0600359626257497 -2.241867790910584 1.115990530427066 2.050055466436567 -0.5200091814722694 1.1399849472543326
2.74907898903 0.0830712420807191 0.0600359626257497 -2.241867790910584 1.115990530427066 2.050055466436567 -0.5200091814722694 1.1399849472543326
2.7588429451 0.0830712420807191 0.0600359626257497 -2.241867790910584 1.115990530427066 2.050055466436567 -0.5200091814722694 1.1399849472543326
2.7588429451 0.0830712420807191 0.0600359626257497 -2.241867790910584 1.115990530427066 2.050055466436567 -0.5200091814722694 1.1399849472543326
2.7689011097 0.0829331819785545 0.0568759202873184 -2.2282305208190034 1.115990530427066 2.050055466436567 -0.5200274433105061 1.1400032090925691
2.7689011097 0.0829331819785545 0.0568759202873184 -2.2282305208190034 1.115990530427066 2.050055466436567 -0.5200274433105061 1.1400032090925691
2.77889299393 0.0829331819785545 0.0568759202873184 -2.2282305208190034 1.115990530427066 2.050055466436567 -0.5200274433105061 1.1400032090925691
2.77889299393 0.0829331819785545 0.0568759202873184 -2.2282305208190034 1.115990530427066 2.050055466436567 -0.5200274433105061 1.1400032090925691
2.78899812698 0.0827491018423353 0.0535931578580742 -2.2145472306933685 1.115990530427066 2.050055466436567 -0.5200274433105061 1.1400032090925691
2.78899812698 0.0827491018423353 0.0535931578580742 -2.2145472306933685 1.115990530427066 2.050055466436567 -0.5200274433105061 1.1400032090925691
2.79903197289 0.0827491018423353 0.0535931578580742 -2.2145472306933685 1.115990530427066 2.050055466436567 -0.5200274433105061 1.1400032090925691
2.79903197289 0.0827491018423353 0.0535931578580742 -2.2145472306933685 1.115990530427066 2.050055466436567 -0.5200274433105061 1.1400032090925691
2.80908894539 0.0827491018423353 0.0535931578580742 -2.2145472306933685 1.115990530427066 2.050055466436567 -0.5200274433105061 1.1400032090925691
2.80908894539 0.0827491018423353 0.0535931578580742 -2.2145472306933685 1.115990530427066 2.050055466436567 -0.5200274433105061 1.1400032090925691
2.81898593903 0.0827491018423353 0.0535931578580742 -2.2145472306933685 1.115990530427066 2.050055466436567 -0.5200274433105061 1.1400032090925691
2.81898593903 0.0827491018423353 0.0535931578580742 -2.2145472306933685 1.115990530427066 2.050055466436567 -0.5200274433105061 1.1400032090925691
2.82897210121 0.0826263817515224 0.0501569953153139 -2.201692301180721 1.115990530427066 2.050055466436567 -0.5200274433105061 1.1400032090925691
2.82897210121 0.0826263817515224 0.0501569953153139 -2.201692301180721 1.115990530427066 2.050055466436567 -0.5200274433105061 1.1400032090925691
2.83883500099 0.0826263817515224 0.0501569953153139 -2.201692301180721 1.115990530427066 2.050055466436567 -0.5200274433105061 1.1400032090925691
2.83883500099 0.0826263817515224 0.0501569953153139 -2.201692301180721 1.115990530427066 2.050055466436567 -0.5200274433105061 1.1400032090925691
2.84987807274 0.0825496816947643 0.0465674326590375 -2.1890981518610504 1.115990530427066 2.050055466436567 -0.5200137469318284 1.1399895127138917
2.84987807274 0.0825496816947643 0.0465674326590375 -2.1890981518610504 1.115990530427066 2.050055466436567 -0.5200137469318284 1.1399895127138917
2.85891294479 0.0824423016153032 0.0427631098438386 -2.1765500225754346 1.115990530427066 2.050055466436567 -0.5200365742296242 1.1400123400116875
2.85891294479 0.0824423016153032 0.0427631098438386 -2.1765500225754346 1.115990530427066 2.050055466436567 -0.5200365742296242 1.1400123400116875
2.86880803108 0.0823195815244903 0.0390508270967494 -2.1638178131536 1.115990530427066 2.050055466436567 -0.5200365742296242 1.1400123400116875
2.86880803108 0.0823195815244903 0.0390508270967494 -2.1638178131536 1.115990530427066 2.050055466436567 -0.5200365742296242 1.1400123400116875
2.87875103951 0.0823195815244903 0.0390508270967494 -2.1638178131536 1.115990530427066 2.050055466436567 -0.5200365742296242 1.1400123400116875
2.87875103951 0.0823195815244903 0.0390508270967494 -2.1638178131536 1.115990530427066 2.050055466436567 -0.5200365742296242 1.1400123400116875
2.88895511627 0.0823195815244903 0.0390508270967494 -2.1638178131536 1.115990530427066 2.050055466436567 -0.5200365742296242 1.1400123400116875
2.88895511627 0.0823195815244903 0.0390508270967494 -2.1638178131536 1.115990530427066 2.050055466436567 -0.5200365742296242 1.1400123400116875
2.89883708954 0.0823195815244903 0.0390508270967494 -2.1638178131536 1.115990530427066 2.050055466436567 -0.5200365742296242 1.1400123400116875
2.89883708954 0.0823195815244903 0.0390508270967494 -2.1638178131536 1.115990530427066 2.050055466436567 -0.5200365742296242 1.1400123400116875
2.90886211395 0.0821508413996225 0.0353078643269569 -2.151515124049609 1.115990530427066 2.050055466436567 -0.5200365742296242 1.1400123400116875
2.90886211395 0.0821508413996225 0.0353078643269569 -2.151515124049609 1.115990530427066 2.050055466436567 -0.5200365742296242 1.1400123400116875
2.91903400421 0.0817059810704258 0.0272696983787141 -2.127952866613539 1.115990530427066 2.050055466436567 -0.5200183123913877 1.1399940781734508
2.91903400421 0.0817059810704258 0.0272696983787141 -2.127952866613539 1.115990530427066 2.050055466436567 -0.5200183123913877 1.1399940781734508
2.9288790226 0.0817059810704258 0.0272696983787141 -2.127952866613539 1.115990530427066 2.050055466436567 -0.5200183123913877 1.1399940781734508
2.9288790226 0.0817059810704258 0.0272696983787141 -2.127952866613539 1.115990530427066 2.050055466436567 -0.5200183123913877 1.1399940781734508
2.93896412849 0.0817059810704258 0.0272696983787141 -2.127952866613539 1.115990530427066 2.050055466436567 -0.5200183123913877 1.1399940781734508
2.93896412849 0.0817059810704258 0.0272696983787141 -2.127952866613539 1.115990530427066 2.050055466436567 -0.5200183123913877 1.1399940781734508
2.94896602631 0.0817059810704258 0.0272696983787141 -2.127952866613539 1.115990530427066 2.050055466436567 -0.5200183123913877 1.1399940781734508
2.94896602631 0.0817059810704258 0.0272696983787141 -2.127952866613539 1.115990530427066 2.050055466436567 -0.5200183123913877 1.1399940781734508
2.95891904831 0.081429860866097 0.0231125553024283 -2.1163558180317232 1.115990530427066 2.050055466436567 -0.5200274433105061 1.1400032090925691
2.95891904831 0.081429860866097 0.0231125553024283 -2.1163558180317232 1.115990530427066 2.050055466436567 -0.5200274433105061 1.1400032090925691
2.96880102158 0.081429860866097 0.0231125553024283 -2.1163558180317232 1.115990530427066 2.050055466436567 -0.5200274433105061 1.1400032090925691
2.96880102158 0.081429860866097 0.0231125553024283 -2.1163558180317232 1.115990530427066 2.050055466436567 -0.5200274433105061 1.1400032090925691
2.97894191742 0.081429860866097 0.0231125553024283 -2.1163558180317232 1.115990530427066 2.050055466436567 -0.5200274433105061 1.1400032090925691
2.97894191742 0.081429860866097 0.0231125553024283 -2.1163558180317232 1.115990530427066 2.050055466436567 -0.5200274433105061 1.1400032090925691
2.98884797096 0.0811997606958229 0.0187406520672199 -2.105280329835862 1.115990530427066 2.050055466436567 -0.5200365742296242 1.1400123400116875
2.98884797096 0.0811997606958229 0.0187406520672199 -2.105280329835862 1.115990530427066 2.050055466436567 -0.5200365742296242 1.1400123400116875
2.99892997742 0.0811997606958229 0.0187406520672199 -2.105280329835862 1.115990530427066 2.050055466436567 -0.5200365742296242 1.1400123400116875
2.99892997742 0.0811997606958229 0.0187406520672199 -2.105280329835862 1.115990530427066 2.050055466436567 -0.5200365742296242 1.1400123400116875
3.00887608528 0.0809389805028455 0.014859629195263 -2.0942968817081105 1.115990530427066 2.050055466436567 -0.5200365742296242 1.1400123400116875
3.00887608528 0.0809389805028455 0.014859629195263 -2.0942968817081105 1.115990530427066 2.050055466436567 -0.5200365742296242 1.1400123400116875
3.01921010017 0.080524800196352 0.0075577837918974 -2.071148804578533 1.115990530427066 2.050055466436567 -0.5200228778509468 1.13999864363301
3.01921010017 0.080524800196352 0.0075577837918974 -2.071148804578533 1.115990530427066 2.050055466436567 -0.5200228778509468 1.13999864363301
3.02882504463 0.080524800196352 0.0075577837918974 -2.071148804578533 1.115990530427066 2.050055466436567 -0.5200228778509468 1.13999864363301
3.02882504463 0.080524800196352 0.0075577837918974 -2.071148804578533 1.115990530427066 2.050055466436567 -0.5200228778509468 1.13999864363301
3.03894901276 0.080524800196352 0.0075577837918974 -2.071148804578533 1.115990530427066 2.050055466436567 -0.5200228778509468 1.13999864363301
3.03894901276 0.080524800196352 0.0075577837918974 -2.071148804578533 1.115990530427066 2.050055466436567 -0.5200228778509468 1.13999864363301
3.04891300201 0.080524800196352 0.0075577837918974 -2.071148804578533 1.115990530427066 2.050055466436567 -0.5200228778509468 1.13999864363301
3.04891300201 0.080524800196352 0.0075577837918974 -2.071148804578533 1.115990530427066 2.050055466436567 -0.5200228778509468 1.13999864363301
3.05890798569 0.0802640200033748 0.0044130814648176 -2.060855656961604 1.115990530427066 2.050055466436567 -0.5200137469318284 1.1399895127138917
3.05890798569 0.0802640200033748 0.0044130814648176 -2.060855656961604 1.115990530427066 2.050055466436567 -0.5200137469318284 1.1399895127138917
3.06908893585 0.079941879764991 0.0011609990582767 -2.050363089197104 1.115990530427066 2.050055466436567 -0.5200365742296242 1.1400123400116875
3.06908893585 0.079941879764991 0.0011609990582767 -2.050363089197104 1.115990530427066 2.050055466436567 -0.5200365742296242 1.1400123400116875
3.07900905609 0.079941879764991 0.0011609990582767 -2.050363089197104 1.115990530427066 2.050055466436567 -0.5200365742296242 1.1400123400116875
3.07900905609 0.079941879764991 0.0011609990582767 -2.050363089197104 1.115990530427066 2.050055466436567 -0.5200365742296242 1.1400123400116875
3.08889293671 0.079941879764991 0.0011609990582767 -2.050363089197104 1.115990530427066 2.050055466436567 -0.5200365742296242 1.1400123400116875
3.08889293671 0.079941879764991 0.0011609990582767 -2.050363089197104 1.115990530427066 2.050055466436567 -0.5200365742296242 1.1400123400116875
3.09894394875 0.079941879764991 0.0011609990582767 -2.050363089197104 1.115990530427066 2.050055466436567 -0.5200365742296242 1.1400123400116875
3.09894394875 0.079941879764991 0.0011609990582767 -2.050363089197104 1.115990530427066 2.050055466436567 -0.5200365742296242 1.1400123400116875
3.10874009132 0.0794970194357944 -0.0048829654142569 -2.030190974269739 1.115990530427066 2.050055466436567 -0.5200365742296242 1.1400123400116875
3.10874009132 0.0794970194357944 -0.0048829654142569 -2.030190974269739 1.115990530427066 2.050055466436567 -0.5200365742296242 1.1400123400116875
3.11887001991 0.0794970194357944 -0.0048829654142569 -2.030190974269739 1.115990530427066 2.050055466436567 -0.5200365742296242 1.1400123400116875
3.11887001991 0.0794970194357944 -0.0048829654142569 -2.030190974269739 1.115990530427066 2.050055466436567 -0.5200365742296242 1.1400123400116875
3.12885403633 0.0794970194357944 -0.0048829654142569 -2.030190974269739 1.115990530427066 2.050055466436567 -0.5200365742296242 1.1400123400116875
3.12885403633 0.0794970194357944 -0.0048829654142569 -2.030190974269739 1.115990530427066 2.050055466436567 -0.5200365742296242 1.1400123400116875
3.13903093338 0.0793282793109266 -0.0077668875483593 -2.020327346970655 1.115990530427066 2.050055466436567 -0.5200320087700652 1.1400077745521284
3.13903093338 0.0793282793109266 -0.0077668875483593 -2.020327346970655 1.115990530427066 2.050055466436567 -0.5200320087700652 1.1400077745521284
3.14882493019 0.0793282793109266 -0.0077668875483593 -2.020327346970655 1.115990530427066 2.050055466436567 -0.5200320087700652 1.1400077745521284
3.14882493019 0.0793282793109266 -0.0077668875483593 -2.020327346970655 1.115990530427066 2.050055466436567 -0.5200320087700652 1.1400077745521284
3.15892910957 0.0791748791974106 -0.0108042097959778 -2.0110926601369865 1.115990530427066 2.050055466436567 -0.5200137469318284 1.1399895127138917
3.15892910957 0.0791748791974106 -0.0108042097959778 -2.0110926601369865 1.115990530427066 2.050055466436567 -0.5200137469318284 1.1399895127138917
3.16893696785 0.0791748791974106 -0.0108042097959778 -2.0110926601369865 1.115990530427066 2.050055466436567 -0.5200137469318284 1.1399895127138917
3.16893696785 0.0791748791974106 -0.0108042097959778 -2.0110926601369865 1.115990530427066 2.050055466436567 -0.5200137469318284 1.1399895127138917
3.17887210846 0.0791748791974106 -0.0108042097959778 -2.0110926601369865 1.115990530427066 2.050055466436567 -0.5200137469318284 1.1399895127138917
3.17887210846 0.0791748791974106 -0.0108042097959778 -2.0110926601369865 1.115990530427066 2.050055466436567 -0.5200137469318284 1.1399895127138917
3.18893504143 0.0791748791974106 -0.0108042097959778 -2.0110926601369865 1.115990530427066 2.050055466436567 -0.5200137469318284 1.1399895127138917
3.18893504143 0.0791748791974106 -0.0108042097959778 -2.0110926601369865 1.115990530427066 2.050055466436567 -0.5200137469318284 1.1399895127138917
3.19897794724 0.0791748791974106 -0.0108042097959778 -2.0110926601369865 1.115990530427066 2.050055466436567 -0.5200137469318284 1.1399895127138917
3.19897794724 0.0791748791974106 -0.0108042097959778 -2.0110926601369865 1.115990530427066 2.050055466436567 -0.5200137469318284 1.1399895127138917
3.20882797241 0.0791748791974106 -0.0108042097959778 -2.0110926601369865 1.115990530427066 2.050055466436567 -0.5200137469318284 1.1399895127138917
3.20882797241 0.0791748791974106 -0.0108042097959778 -2.0110926601369865 1.115990530427066 2.050055466436567 -0.5200137469318284 1.1399895127138917
3.21876502037 0.0791748791974106 -0.0108042097959778 -2.0110926601369865 1.115990530427066 2.050055466436567 -0.5200137469318284 1.1399895127138917
3.21876502037 0.0791748791974106 -0.0108042097959778 -2.0110926601369865 1.115990530427066 2.050055466436567 -0.5200137469318284 1.1399895127138917
3.22894597054 0.0791748791974106 -0.0108042097959778 -2.0110926601369865 1.115990530427066 2.050055466436567 -0.5200137469318284 1.1399895127138917
3.22894597054 0.0791748791974106 -0.0108042097959778 -2.0110926601369865 1.115990530427066 2.050055466436567 -0.5200137469318284 1.1399895127138917
3.23884892464 0.0791288591633558 -0.016633414109589 -1.9934976671166915 1.115990530427066 2.050055466436567 -0.5200365742296242 1.1400123400116875
3.23884892464 0.0791288591633558 -0.016633414109589 -1.9934976671166915 1.115990530427066 2.050055466436567 -0.5200365742296242 1.1400123400116875
3.24891805649 0.0791135191520042 -0.0213121175718296 -1.9747368332336743 1.115990530427066 2.050055466436567 -0.5200365742296242 1.1400123400116875
3.24891805649 0.0791135191520042 -0.0213121175718296 -1.9747368332336743 1.115990530427066 2.050055466436567 -0.5200365742296242 1.1400123400116875
3.25882291794 0.0790981791406526 -0.023214278979429 -1.9650879660935128 1.115990530427066 2.050055466436567 -0.5200228778509468 1.13999864363301
3.25882291794 0.0790981791406526 -0.023214278979429 -1.9650879660935128 1.115990530427066 2.050055466436567 -0.5200228778509468 1.13999864363301
3.26904010773 0.0790981791406526 -0.0253465405573026 -1.955162978749022 1.115990530427066 2.050055466436567 -0.5200137469318284 1.1399895127138917
3.26904010773 0.0790981791406526 -0.0253465405573026 -1.955162978749022 1.115990530427066 2.050055466436567 -0.5200137469318284 1.1399895127138917
3.27898406982 0.0790981791406526 -0.0253465405573026 -1.955162978749022 1.115990530427066 2.050055466436567 -0.5200137469318284 1.1399895127138917
3.27898406982 0.0790981791406526 -0.0253465405573026 -1.955162978749022 1.115990530427066 2.050055466436567 -0.5200137469318284 1.1399895127138917
3.2889919281 0.0790981791406526 -0.0253465405573026 -1.955162978749022 1.115990530427066 2.050055466436567 -0.5200137469318284 1.1399895127138917
3.2889919281 0.0790981791406526 -0.0253465405573026 -1.955162978749022 1.115990530427066 2.050055466436567 -0.5200137469318284 1.1399895127138917
3.29901099205 0.0790981791406526 -0.0253465405573026 -1.955162978749022 1.115990530427066 2.050055466436567 -0.5200137469318284 1.1399895127138917
3.29901099205 0.0790981791406526 -0.0253465405573026 -1.955162978749022 1.115990530427066 2.050055466436567 -0.5200137469318284 1.1399895127138917
3.30880904198 0.0790828391293009 -0.0274481221124729 -1.9462811121764407 1.115990530427066 2.050046335517449 -0.5200365742296242 1.1400123400116875
3.30880904198 0.0790828391293009 -0.0274481221124729 -1.9462811121764407 1.115990530427066 2.050046335517449 -0.5200365742296242 1.1400123400116875
3.31877613068 0.0790828391293009 -0.0274481221124729 -1.9462811121764407 1.115990530427066 2.050046335517449 -0.5200365742296242 1.1400123400116875
3.31877613068 0.0790828391293009 -0.0274481221124729 -1.9462811121764407 1.115990530427066 2.050046335517449 -0.5200365742296242 1.1400123400116875
3.32883095741 0.0790828391293009 -0.0298871839173787 -1.9370464253427724 1.115990530427066 2.050055466436567 -0.5200365742296242 1.1400123400116875
3.32883095741 0.0790828391293009 -0.0298871839173787 -1.9370464253427724 1.115990530427066 2.050055466436567 -0.5200365742296242 1.1400123400116875
3.33871793747 0.0790828391293009 -0.0298871839173787 -1.9370464253427724 1.115990530427066 2.050055466436567 -0.5200365742296242 1.1400123400116875
3.33871793747 0.0790828391293009 -0.0298871839173787 -1.9370464253427724 1.115990530427066 2.050055466436567 -0.5200365742296242 1.1400123400116875
3.34891295433 0.0790828391293009 -0.0298871839173787 -1.9370464253427724 1.115990530427066 2.050055466436567 -0.5200365742296242 1.1400123400116875
3.34891295433 0.0790828391293009 -0.0298871839173787 -1.9370464253427724 1.115990530427066 2.050055466436567 -0.5200365742296242 1.1400123400116875
3.35898113251 0.0790828391293009 -0.0298871839173787 -1.9370464253427724 1.115990530427066 2.050055466436567 -0.5200365742296242 1.1400123400116875
3.35898113251 0.0790828391293009 -0.0298871839173787 -1.9370464253427724 1.115990530427066 2.050055466436567 -0.5200365742296242 1.1400123400116875
3.36874294281 0.0790828391293009 -0.0346579274477288 -1.9179787912327235 1.115990530427066 2.050055466436567 -0.5200320087700652 1.1400077745521284
3.36874294281 0.0790828391293009 -0.0346579274477288 -1.9179787912327235 1.115990530427066 2.050055466436567 -0.5200320087700652 1.1400077745521284
3.37894392014 0.0790828391293009 -0.0346579274477288 -1.9179787912327235 1.115990530427066 2.050055466436567 -0.5200320087700652 1.1400077745521284
3.37894392014 0.0790828391293009 -0.0346579274477288 -1.9179787912327235 1.115990530427066 2.050055466436567 -0.5200320087700652 1.1400077745521284
3.388890028 0.0790828391293009 -0.0366214489007347 -1.908084483910936 1.115990530427066 2.050046335517449 -0.5200137469318284 1.1399895127138917
3.388890028 0.0790828391293009 -0.0366214489007347 -1.908084483910936 1.115990530427066 2.050046335517449 -0.5200137469318284 1.1399895127138917
3.3989109993 0.0790828391293009 -0.0391525507737501 -1.8976225961691389 1.115990530427066 2.0500645973556857 -0.5200365742296242 1.1400123400116875
3.3989109993 0.0790828391293009 -0.0391525507737501 -1.8976225961691389 1.115990530427066 2.0500645973556857 -0.5200365742296242 1.1400123400116875
3.40896701813 0.0790828391293009 -0.0391525507737501 -1.8976225961691389 1.115990530427066 2.0500645973556857 -0.5200365742296242 1.1400123400116875
3.40896701813 0.0790828391293009 -0.0391525507737501 -1.8976225961691389 1.115990530427066 2.0500645973556857 -0.5200365742296242 1.1400123400116875
3.41890096664 0.0790828391293009 -0.0415916125786559 -1.8882805292560088 1.115990530427066 2.0500645973556857 -0.5200365742296242 1.1400123400116875
3.41890096664 0.0790828391293009 -0.0415916125786559 -1.8882805292560088 1.115990530427066 2.0500645973556857 -0.5200365742296242 1.1400123400116875
3.4287750721 0.0790828391293009 -0.0415916125786559 -1.8882805292560088 1.115990530427066 2.0500645973556857 -0.5200365742296242 1.1400123400116875
3.4287750721 0.0790828391293009 -0.0415916125786559 -1.8882805292560088 1.115990530427066 2.0500645973556857 -0.5200365742296242 1.1400123400116875
3.43885493279 0.0790828391293009 -0.0415916125786559 -1.8882805292560088 1.115990530427066 2.0500645973556857 -0.5200365742296242 1.1400123400116875
3.43885493279 0.0790828391293009 -0.0415916125786559 -1.8882805292560088 1.115990530427066 2.0500645973556857 -0.5200365742296242 1.1400123400116875
3.44885110855 0.0790828391293009 -0.0443221345992422 -1.8785703020704407 1.115990530427066 2.050055466436567 -0.5200365742296242 1.1400123400116875
3.44885110855 0.0790828391293009 -0.0443221345992422 -1.8785703020704407 1.115990530427066 2.050055466436567 -0.5200365742296242 1.1400123400116875
3.45927190781 0.0790828391293009 -0.0467765364154995 -1.8689674549643345 1.115990530427066 2.050055466436567 -0.5200320087700652 1.1400077745521284
3.45927190781 0.0790828391293009 -0.0467765364154995 -1.8689674549643345 1.115990530427066 2.050055466436567 -0.5200320087700652 1.1400077745521284
3.4686961174 0.0790828391293009 -0.0488014179139118 -1.8586589673360536 1.115990530427066 2.0500645973556857 -0.5200183123913877 1.1399940781734508
3.4686961174 0.0790828391293009 -0.0488014179139118 -1.8586589673360536 1.115990530427066 2.0500645973556857 -0.5200183123913877 1.1399940781734508
3.47902202606 0.0790828391293009 -0.0506575592874564 -1.8476908592196533 1.115990530427066 2.0500645973556857 -0.5200365742296242 1.1400123400116875
3.47902202606 0.0790828391293009 -0.0506575592874564 -1.8476908592196533 1.115990530427066 2.0500645973556857 -0.5200365742296242 1.1400123400116875
3.48868703842 0.0790828391293009 -0.0506575592874564 -1.8476908592196533 1.115990530427066 2.0500645973556857 -0.5200365742296242 1.1400123400116875
3.48868703842 0.0790828391293009 -0.0506575592874564 -1.8476908592196533 1.115990530427066 2.0500645973556857 -0.5200365742296242 1.1400123400116875
3.49873304367 0.0790828391293009 -0.0506575592874564 -1.8476908592196533 1.115990530427066 2.0500645973556857 -0.5200365742296242 1.1400123400116875
3.49873304367 0.0790828391293009 -0.0506575592874564 -1.8476908592196533 1.115990530427066 2.0500645973556857 -0.5200365742296242 1.1400123400116875
3.50885295868 0.0790828391293009 -0.0506575592874564 -1.8476908592196533 1.115990530427066 2.0500645973556857 -0.5200365742296242 1.1400123400116875
3.50885295868 0.0790828391293009 -0.0506575592874564 -1.8476908592196533 1.115990530427066 2.0500645973556857 -0.5200365742296242 1.1400123400116875
3.51880598068 0.0790828391293009 -0.0506575592874564 -1.8476908592196533 1.115990530427066 2.0500645973556857 -0.5200365742296242 1.1400123400116875
3.51880598068 0.0790828391293009 -0.0506575592874564 -1.8476908592196533 1.115990530427066 2.0500645973556857 -0.5200365742296242 1.1400123400116875
3.52894496918 0.0790828391293009 -0.0513171797755756 -1.8365540109783856 1.115990530427066 2.050055466436567 -0.5200365742296242 1.1400123400116875
3.52894496918 0.0790828391293009 -0.0513171797755756 -1.8365540109783856 1.115990530427066 2.050055466436567 -0.5200365742296242 1.1400123400116875
3.53897404671 0.0790828391293009 -0.0520535003204528 -1.8248035622830536 1.115990530427066 2.050055466436567 -0.5200365742296242 1.1400123400116875
3.53897404671 0.0790828391293009 -0.0520535003204528 -1.8248035622830536 1.115990530427066 2.050055466436567 -0.5200365742296242 1.1400123400116875
3.54924798012 0.0790828391293009 -0.0524830206382978 -1.813774094121248 1.115990530427066 2.0500645973556857 -0.5200320087700652 1.1400077745521284
3.54924798012 0.0790828391293009 -0.0524830206382978 -1.813774094121248 1.115990530427066 2.0500645973556857 -0.5200320087700652 1.1400077745521284
3.55878710747 0.0790828391293009 -0.0524830206382978 -1.813774094121248 1.115990530427066 2.0500645973556857 -0.5200320087700652 1.1400077745521284
3.55878710747 0.0790828391293009 -0.0524830206382978 -1.813774094121248 1.115990530427066 2.0500645973556857 -0.5200320087700652 1.1400077745521284
3.56887602806 0.0790828391293009 -0.0527591408426268 -1.802821326016199 1.1160058704384177 2.0500645973556857 -0.5200137469318284 1.1399895127138917
3.56887602806 0.0790828391293009 -0.0527591408426268 -1.802821326016199 1.1160058704384177 2.0500645973556857 -0.5200137469318284 1.1399895127138917
3.5788629055 0.0790828391293009 -0.0527591408426268 -1.802821326016199 1.1160058704384177 2.0500645973556857 -0.5200137469318284 1.1399895127138917
3.5788629055 0.0790828391293009 -0.0527591408426268 -1.802821326016199 1.1160058704384177 2.0500645973556857 -0.5200137469318284 1.1399895127138917
3.58897304535 0.0790828391293009 -0.0527591408426268 -1.802821326016199 1.1160058704384177 2.0500645973556857 -0.5200137469318284 1.1399895127138917
3.58897304535 0.0790828391293009 -0.0527591408426268 -1.802821326016199 1.1160058704384177 2.0500645973556857 -0.5200137469318284 1.1399895127138917
3.59895706177 0.0790828391293009 -0.0527591408426268 -1.802821326016199 1.1160058704384177 2.0500645973556857 -0.5200137469318284 1.1399895127138917
3.59895706177 0.0790828391293009 -0.0527591408426268 -1.802821326016199 1.1160058704384177 2.0500645973556857 -0.5200137469318284 1.1399895127138917
3.60897111893 0.0790828391293009 -0.0531119611037138 -1.792006618013315 1.116021210449769 2.050055466436567 -0.5200320087700652 1.1400077745521284
3.60897111893 0.0790828391293009 -0.0531119611037138 -1.792006618013315 1.116021210449769 2.050055466436567 -0.5200320087700652 1.1400077745521284
3.61898112297 0.0790828391293009 -0.0531119611037138 -1.792006618013315 1.116021210449769 2.050055466436567 -0.5200320087700652 1.1400077745521284
3.61898112297 0.0790828391293009 -0.0531119611037138 -1.792006618013315 1.116021210449769 2.050055466436567 -0.5200320087700652 1.1400077745521284
3.62891292572 0.0790828391293009 -0.0533113812512847 -1.7818361904871989 1.116067230483824 2.050055466436567 -0.5200365742296242 1.1400123400116875
3.62891292572 0.0790828391293009 -0.0533113812512847 -1.7818361904871989 1.116067230483824 2.050055466436567 -0.5200365742296242 1.1400123400116875
3.63884496689 0.0790828391293009 -0.0537715815918329 -1.7718498430973015 1.1162359706086915 2.0500645973556857 -0.5200365742296242 1.1400123400116875
3.63884496689 0.0790828391293009 -0.0537715815918329 -1.7718498430973015 1.1162359706086915 2.0500645973556857 -0.5200365742296242 1.1400123400116875
3.64854693413 0.0790828391293009 -0.0547380023069842 -1.762707196331743 1.1163586906995044 2.0500645973556857 -0.5200365742296242 1.1400123400116875
3.64854693413 0.0790828391293009 -0.0547380023069842 -1.762707196331743 1.1163586906995044 2.0500645973556857 -0.5200365742296242 1.1400123400116875
3.65894293785 0.0790828391293009 -0.0547380023069842 -1.762707196331743 1.1163586906995044 2.0500645973556857 -0.5200365742296242 1.1400123400116875
3.65894293785 0.0790828391293009 -0.0547380023069842 -1.762707196331743 1.1163586906995044 2.0500645973556857 -0.5200365742296242 1.1400123400116875
3.66879296303 0.0790828391293009 -0.0547380023069842 -1.762707196331743 1.1163586906995044 2.0500645973556857 -0.5200365742296242 1.1400123400116875
3.66879296303 0.0790828391293009 -0.0547380023069842 -1.762707196331743 1.1163586906995044 2.0500645973556857 -0.5200365742296242 1.1400123400116875
3.67879509926 0.0790828391293009 -0.0559345231924097 -1.7542548500770068 1.1164814107903174 2.0500645973556857 -0.5200183123913877 1.1399940781734508
3.67879509926 0.0790828391293009 -0.0559345231924097 -1.7542548500770068 1.1164814107903174 2.0500645973556857 -0.5200183123913877 1.1399940781734508
3.68865394592 0.0790828391293009 -0.0574531843162189 -1.7461706640947092 1.1167575309946465 2.0500645973556857 -0.5200274433105061 1.1400032090925691
3.68865394592 0.0790828391293009 -0.0574531843162189 -1.7461706640947092 1.1167575309946465 2.0500645973556857 -0.5200274433105061 1.1400032090925691
3.69893693924 0.0790828391293009 -0.0574531843162189 -1.7461706640947092 1.1167575309946465 2.0500645973556857 -0.5200274433105061 1.1400032090925691
3.69893693924 0.0790828391293009 -0.0574531843162189 -1.7461706640947092 1.1167575309946465 2.0500645973556857 -0.5200274433105061 1.1400032090925691
3.70882797241 0.0790828391293009 -0.0597541860189602 -1.7386080384983662 1.117401811471414 2.0500645973556857 -0.5200365742296242 1.1400123400116875
3.70882797241 0.0790828391293009 -0.0597541860189602 -1.7386080384983662 1.117401811471414 2.0500645973556857 -0.5200365742296242 1.1400123400116875
3.71892905235 0.0790828391293009 -0.0597541860189602 -1.7386080384983662 1.117401811471414 2.0500645973556857 -0.5200365742296242 1.1400123400116875
3.71892905235 0.0790828391293009 -0.0597541860189602 -1.7386080384983662 1.117401811471414 2.0500645973556857 -0.5200365742296242 1.1400123400116875
3.72893500328 0.0790828391293009 -0.0625000480508981 -1.731996493605823 1.118490952277378 2.0500645973556857 -0.5200365742296242 1.1400123400116875
3.72893500328 0.0790828391293009 -0.0625000480508981 -1.731996493605823 1.118490952277378 2.0500645973556857 -0.5200365742296242 1.1400123400116875
3.73896312714 0.0790828391293009 -0.0625000480508981 -1.731996493605823 1.118490952277378 2.0500645973556857 -0.5200365742296242 1.1400123400116875
3.73896312714 0.0790828391293009 -0.0625000480508981 -1.731996493605823 1.118490952277378 2.0500645973556857 -0.5200365742296242 1.1400123400116875
3.74890995026 0.0790828391293009 -0.0625000480508981 -1.731996493605823 1.118490952277378 2.0500645973556857 -0.5200365742296242 1.1400123400116875
3.74890995026 0.0790828391293009 -0.0625000480508981 -1.731996493605823 1.118490952277378 2.0500645973556857 -0.5200365742296242 1.1400123400116875
3.75899004936 0.0790828391293009 -0.0625000480508981 -1.731996493605823 1.118490952277378 2.0500645973556857 -0.5200365742296242 1.1400123400116875
3.75899004936 0.0790828391293009 -0.0625000480508981 -1.731996493605823 1.118490952277378 2.0500645973556857 -0.5200365742296242 1.1400123400116875
3.76896095276 0.0790828391293009 -0.0625000480508981 -1.731996493605823 1.118490952277378 2.0500645973556857 -0.5200365742296242 1.1400123400116875
3.76896095276 0.0790828391293009 -0.0625000480508981 -1.731996493605823 1.118490952277378 2.0500645973556857 -0.5200365742296242 1.1400123400116875
3.77897691727 0.0790828391293009 -0.0625000480508981 -1.731996493605823 1.118490952277378 2.0500645973556857 -0.5200365742296242 1.1400123400116875
3.77897691727 0.0790828391293009 -0.0625000480508981 -1.731996493605823 1.118490952277378 2.0500645973556857 -0.5200365742296242 1.1400123400116875
3.78888511658 0.0790828391293009 -0.0740510765986593 -1.7138492601768702 1.121390214422832 2.050055466436567 -0.5200228778509468 1.13999864363301
3.78888511658 0.0790828391293009 -0.0740510765986593 -1.7138492601768702 1.121390214422832 2.050055466436567 -0.5200228778509468 1.13999864363301
3.79894804955 0.0790828391293009 -0.0740510765986593 -1.7138492601768702 1.121390214422832 2.050055466436567 -0.5200228778509468 1.13999864363301
3.79894804955 0.0790828391293009 -0.0740510765986593 -1.7138492601768702 1.121390214422832 2.050055466436567 -0.5200228778509468 1.13999864363301
3.80884194374 0.0790521591065977 -0.0788678401630643 -1.7093853168735522 1.1222645950698735 2.0500645973556857 -0.5200365742296242 1.1400123400116875
3.80884194374 0.0790521591065977 -0.0788678401630643 -1.7093853168735522 1.1222645950698735 2.0500645973556857 -0.5200365742296242 1.1400123400116875
3.81895303726 0.0790521591065977 -0.0788678401630643 -1.7093853168735522 1.1222645950698735 2.0500645973556857 -0.5200365742296242 1.1400123400116875
3.81895303726 0.0790521591065977 -0.0788678401630643 -1.7093853168735522 1.1222645950698735 2.0500645973556857 -0.5200365742296242 1.1400123400116875
3.82902097702 0.0790521591065977 -0.0788678401630643 -1.7093853168735522 1.1222645950698735 2.0500645973556857 -0.5200365742296242 1.1400123400116875
3.82902097702 0.0790521591065977 -0.0788678401630643 -1.7093853168735522 1.1222645950698735 2.0500645973556857 -0.5200365742296242 1.1400123400116875
3.83899903297 0.0790521591065977 -0.0788678401630643 -1.7093853168735522 1.1222645950698735 2.0500645973556857 -0.5200365742296242 1.1400123400116875
3.83899903297 0.0790521591065977 -0.0788678401630643 -1.7093853168735522 1.1222645950698735 2.0500645973556857 -0.5200365742296242 1.1400123400116875
3.84892296791 0.0789447790271364 -0.0899740083816287 -1.7004881102896194 1.123077615671509 2.0500645973556857 -0.5200365742296242 1.1400123400116875
3.84892296791 0.0789447790271364 -0.0899740083816287 -1.7004881102896194 1.123077615671509 2.0500645973556857 -0.5200365742296242 1.1400123400116875
