riccardo-csl/Motion-Planning-for-TIAGo-Manipulator/T3_G_7/head_scan/head_scan/tiago_traiettorie_SG/3a-3b/place_3b_rep2.txt
time arm_1_joint arm_2_joint arm_3_joint arm_4_joint arm_5_joint arm_6_joint arm_7_joint
2.57266402245 0.0493845771525871 -0.2011277306353833 -1.162928092495206 2.04258857610962 2.050091990113041 -0.5200046160127103 1.1399895127138917
2.58257889748 0.0496300173342127 -0.1994403293867063 -1.1678062161050176 2.0434015967112558 2.050091990113041 -0.5200046160127103 1.1399895127138917
2.58257889748 0.0496300173342127 -0.1994403293867063 -1.1678062161050176 2.0434015967112558 2.050091990113041 -0.5200046160127103 1.1399895127138917
2.59247899055 0.0496300173342127 -0.1994403293867063 -1.1678062161050176 2.0434015967112558 2.050091990113041 -0.5200046160127103 1.1399895127138917
2.59247899055 0.0496300173342127 -0.1994403293867063 -1.1678062161050176 2.0434015967112558 2.050091990113041 -0.5200046160127103 1.1399895127138917
2.60272192955 0.0498294374817837 -0.1979523482856003 -1.1727917197942903 2.0440151971653195 2.050091990113041 -0.5200046160127103 1.1399895127138917
2.60272192955 0.0498294374817837 -0.1979523482856003 -1.1727917197942903 2.0440151971653195 2.050091990113041 -0.5200046160127103 1.1399895127138917
2.61277794838 0.0499214775498934 -0.1963876671277363 -1.1776084833586955 2.044414037460461 2.050091990113041 -0.5200046160127103 1.1399895127138917
2.61277794838 0.0499214775498934 -0.1963876671277363 -1.1776084833586955 2.044414037460461 2.050091990113041 -0.5200046160127103 1.1399895127138917
2.62282991409 0.0499214775498934 -0.1963876671277363 -1.1776084833586955 2.044414037460461 2.050091990113041 -0.5200046160127103 1.1399895127138917
2.62282991409 0.0499214775498934 -0.1963876671277363 -1.1776084833586955 2.044414037460461 2.050091990113041 -0.5200046160127103 1.1399895127138917
2.63281583786 0.0499214775498934 -0.1963876671277363 -1.1776084833586955 2.044414037460461 2.050091990113041 -0.5200046160127103 1.1399895127138917
2.63281583786 0.0499214775498934 -0.1963876671277363 -1.1776084833586955 2.044414037460461 2.050091990113041 -0.5200046160127103 1.1399895127138917
2.64305996895 0.0499214775498934 -0.1963876671277363 -1.1776084833586955 2.044414037460461 2.050091990113041 -0.5200046160127103 1.1399895127138917
2.64305996895 0.0500595376521 -0.195037746129 -1.1827934072 2.04447539751 2.05009199011 -0.520004616013 1.13998951271
2.65266489983 0.0500595376520578 -0.1950377461287947 -1.182793407195539 2.044475397505868 2.050091990113041 -0.5200046160127103 1.1399895127138917
2.65266489983 0.0500595376520578 -0.1950377461287947 -1.182793407195539 2.044475397505868 2.050091990113041 -0.5200046160127103 1.1399895127138917
2.66289782524 0.0500595376520578 -0.1950377461287947 -1.182793407195539 2.044475397505868 2.050091990113041 -0.5200046160127103 1.1399895127138917
2.66289782524 0.0500595376520578 -0.1950377461287947 -1.182793407195539 2.044475397505868 2.050091990113041 -0.5200046160127103 1.1399895127138917
2.67287898064 0.0500595376520578 -0.1950377461287947 -1.182793407195539 2.044475397505868 2.050091990113041 -0.5200046160127103 1.1399895127138917
2.67287898064 0.0500595376520578 -0.1950377461287947 -1.182793407195539 2.044475397505868 2.050091990113041 -0.5200046160127103 1.1399895127138917
2.68253588676 0.0505350780039576 -0.1912641033362991 -1.193301314971391 2.044475397505868 2.050091990113041 -0.5200046160127103 1.1399895127138917
2.68253588676 0.0505350780039576 -0.1912641033362991 -1.193301314971391 2.044475397505868 2.050091990113041 -0.5200046160127103 1.1399895127138917
2.69248390198 0.0505350780039576 -0.1912641033362991 -1.193301314971391 2.044475397505868 2.050091990113041 -0.5200046160127103 1.1399895127138917
2.69248390198 0.0505350780039576 -0.1912641033362991 -1.193301314971391 2.044475397505868 2.050091990113041 -0.5200046160127103 1.1399895127138917
2.70263195038 0.0505350780039576 -0.1912641033362991 -1.193301314971391 2.044475397505868 2.050091990113041 -0.5200046160127103 1.1399895127138917
2.70263195038 0.0505350780039576 -0.1912641033362991 -1.193301314971391 2.044475397505868 2.050091990113041 -0.5200046160127103 1.1399895127138917
2.71493291855 0.0508111982082865 -0.1887636814859869 -1.198854399080673 2.044475397505868 2.050091990113041 -0.5200046160127103 1.1399895127138917
2.71493291855 0.0508111982082865 -0.1887636814859869 -1.198854399080673 2.044475397505868 2.050091990113041 -0.5200046160127103 1.1399895127138917
2.72254300117 0.051071978401264 -0.1857263592383684 -1.2047142834169875 2.044475397505868 2.050091990113041 -0.5200046160127103 1.1399895127138917
2.72254300117 0.051071978401264 -0.1857263592383684 -1.2047142834169875 2.044475397505868 2.050091990113041 -0.5200046160127103 1.1399895127138917
2.73244404793 0.051071978401264 -0.1857263592383684 -1.2047142834169875 2.044475397505868 2.050091990113041 -0.5200046160127103 1.1399895127138917
2.73244404793 0.051071978401264 -0.1857263592383684 -1.2047142834169875 2.044475397505868 2.050091990113041 -0.5200046160127103 1.1399895127138917
2.74250292778 0.051071978401264 -0.1857263592383684 -1.2047142834169875 2.044475397505868 2.050091990113041 -0.5200046160127103 1.1399895127138917
2.74250292778 0.051071978401264 -0.1857263592383684 -1.2047142834169875 2.044475397505868 2.050091990113041 -0.5200046160127103 1.1399895127138917
2.75269293785 0.0513327585942413 -0.1822901966956081 -1.210359407594379 2.044475397505868 2.050091990113041 -0.5200091814722694 1.1399849472543326
2.75269293785 0.0513327585942413 -0.1822901966956081 -1.210359407594379 2.044475397505868 2.050091990113041 -0.5200091814722694 1.1399849472543326
2.76249289513 0.0513327585942413 -0.1822901966956081 -1.210359407594379 2.044475397505868 2.050091990113041 -0.5200091814722694 1.1399849472543326
2.76249289513 0.0513327585942413 -0.1822901966956081 -1.210359407594379 2.044475397505868 2.050091990113041 -0.5200091814722694 1.1399849472543326
2.77268981934 0.0513327585942413 -0.1822901966956081 -1.210359407594379 2.044475397505868 2.050091990113041 -0.5200091814722694 1.1399849472543326
2.77268981934 0.0513327585942413 -0.1822901966956081 -1.210359407594379 2.044475397505868 2.050091990113041 -0.5200091814722694 1.1399849472543326
2.78252983093 0.0515321787418123 -0.1783938338122996 -1.2164340520896162 2.044475397505868 2.050091990113041 -0.5200046160127103 1.1399895127138917
2.78252983093 0.0515321787418123 -0.1783938338122996 -1.2164340520896162 2.044475397505868 2.050091990113041 -0.5200046160127103 1.1399895127138917
2.79249382019 0.0515321787418123 -0.1783938338122996 -1.2164340520896162 2.044475397505868 2.050091990113041 -0.5200046160127103 1.1399895127138917
2.79249382019 0.0515321787418123 -0.1783938338122996 -1.2164340520896162 2.044475397505868 2.050091990113041 -0.5200046160127103 1.1399895127138917
2.80271482468 0.051654898832625 -0.1742366907360137 -1.2225393766075563 2.044475397505868 2.0501011210321587 -0.5200046160127103 1.1399895127138917
2.80271482468 0.051654898832625 -0.1742366907360137 -1.2225393766075563 2.044475397505868 2.0501011210321587 -0.5200046160127103 1.1399895127138917
2.81268596649 0.0518236389574928 -0.1697574074213441 -1.229135581488748 2.044475397505868 2.050238084818934 -0.5200046160127103 1.1399895127138917
2.81268596649 0.0518236389574928 -0.1697574074213441 -1.229135581488748 2.044475397505868 2.050238084818934 -0.5200046160127103 1.1399895127138917
2.82278895378 0.0519156790256025 -0.1655082242769486 -1.235915866506159 2.044475397505868 2.0501741683851056 -0.5200046160127103 1.1399895127138917
2.82278895378 0.0519156790256025 -0.1655082242769486 -1.235915866506159 2.044475397505868 2.0501741683851056 -0.5200046160127103 1.1399895127138917
2.83280181885 0.05208441915047 -0.1611209810303885 -1.2429722717278988 2.044475397505868 2.0501193828703954 -0.5200046160127103 1.1399895127138917
2.83280181885 0.05208441915047 -0.1611209810303885 -1.2429722717278988 2.044475397505868 2.0501193828703954 -0.5200046160127103 1.1399895127138917
2.84275603294 0.05208441915047 -0.1611209810303885 -1.2429722717278988 2.044475397505868 2.0501193828703954 -0.5200046160127103 1.1399895127138917
2.84275603294 0.05208441915047 -0.1611209810303885 -1.2429722717278988 2.044475397505868 2.0501193828703954 -0.5200046160127103 1.1399895127138917
2.85266089439 0.05208441915047 -0.1611209810303885 -1.2429722717278988 2.044475397505868 2.0501193828703954 -0.5200046160127103 1.1399895127138917
2.85266089439 0.05208441915047 -0.1611209810303885 -1.2429722717278988 2.044475397505868 2.0501193828703954 -0.5200046160127103 1.1399895127138917
2.86292886734 0.05208441915047 -0.1611209810303885 -1.2429722717278988 2.044475397505868 2.0501193828703954 -0.5200046160127103 1.1399895127138917
2.86292886734 0.05208441915047 -0.1611209810303885 -1.2429722717278988 2.044475397505868 2.0501193828703954 -0.5200046160127103 1.1399895127138917
2.87291502953 0.0523298593320959 -0.1567183977724769 -1.2496451766658483 2.044475397505868 2.050192430223342 -0.5200046160127103 1.1399895127138917
2.87291502953 0.0523298593320959 -0.1567183977724769 -1.2496451766658483 2.044475397505868 2.050192430223342 -0.5200046160127103 1.1399895127138917
2.88298892975 0.0523298593320959 -0.1567183977724769 -1.2496451766658483 2.044475397505868 2.050192430223342 -0.5200046160127103 1.1399895127138917
2.88298892975 0.0523298593320959 -0.1567183977724769 -1.2496451766658483 2.044475397505868 2.050192430223342 -0.5200046160127103 1.1399895127138917
2.89275097847 0.0523298593320959 -0.1567183977724769 -1.2496451766658483 2.044475397505868 2.050192430223342 -0.5200046160127103 1.1399895127138917
2.89275097847 0.0523298593320959 -0.1567183977724769 -1.2496451766658483 2.044475397505868 2.050192430223342 -0.5200046160127103 1.1399895127138917
2.90294694901 0.0529281197748085 -0.1478058511771924 -1.263527886939054 2.044475397505868 2.0501102519512773 -0.5200046160127103 1.1399895127138917
2.90294694901 0.0529281197748085 -0.1478058511771924 -1.263527886939054 2.044475397505868 2.0501102519512773 -0.5200046160127103 1.1399895127138917
2.91276192665 0.0529281197748085 -0.1478058511771924 -1.263527886939054 2.044475397505868 2.0501102519512773 -0.5200046160127103 1.1399895127138917
2.91276192665 0.0529281197748085 -0.1478058511771924 -1.263527886939054 2.044475397505868 2.0501102519512773 -0.5200046160127103 1.1399895127138917
2.92279481888 0.0531735599564344 -0.1431885077603583 -1.2705536121380907 2.044475397505868 2.0502654775762887 -0.5200046160127103 1.1399895127138917
2.92279481888 0.0531735599564344 -0.1431885077603583 -1.2705536121380907 2.044475397505868 2.0502654775762887 -0.5200046160127103 1.1399895127138917
2.93282389641 0.0531735599564344 -0.1431885077603583 -1.2705536121380907 2.044475397505868 2.0502654775762887 -0.5200046160127103 1.1399895127138917
2.93282389641 0.0531735599564344 -0.1431885077603583 -1.2705536121380907 2.044475397505868 2.0502654775762887 -0.5200046160127103 1.1399895127138917
2.94281792641 0.0531735599564344 -0.1431885077603583 -1.2705536121380907 2.044475397505868 2.0502654775762887 -0.5200046160127103 1.1399895127138917
2.94281792641 0.0531735599564344 -0.1431885077603583 -1.2705536121380907 2.044475397505868 2.0502654775762887 -0.5200046160127103 1.1399895127138917
2.95285201073 0.0531735599564344 -0.1431885077603583 -1.2705536121380907 2.044475397505868 2.0502654775762887 -0.5200046160127103 1.1399895127138917
2.95285201073 0.0531735599564344 -0.1431885077603583 -1.2705536121380907 2.044475397505868 2.0502654775762887 -0.5200046160127103 1.1399895127138917
2.96283388138 0.0531735599564344 -0.1431885077603583 -1.2705536121380907 2.044475397505868 2.0502654775762887 -0.5200046160127103 1.1399895127138917
2.96283388138 0.0531735599564344 -0.1431885077603583 -1.2705536121380907 2.044475397505868 2.0502654775762887 -0.5200046160127103 1.1399895127138917
2.97285985947 0.0531735599564344 -0.1431885077603583 -1.2705536121380907 2.044475397505868 2.0502654775762887 -0.5200046160127103 1.1399895127138917
2.97285985947 0.0531735599564344 -0.1431885077603583 -1.2705536121380907 2.044475397505868 2.0502654775762887 -0.5200046160127103 1.1399895127138917
2.98287081718 0.0534957001948181 -0.1388472845478531 -1.2775793373371274 2.044475397505868 2.0502654775762887 -0.5200046160127103 1.1399895127138917
2.98287081718 0.0534957001948181 -0.1388472845478531 -1.2775793373371274 2.044475397505868 2.0502654775762887 -0.5200046160127103 1.1399895127138917
2.99295783043 0.0534957001948181 -0.1388472845478531 -1.2775793373371274 2.044475397505868 2.0502654775762887 -0.5200046160127103 1.1399895127138917
2.99295783043 0.0534957001948181 -0.1388472845478531 -1.2775793373371274 2.044475397505868 2.0502654775762887 -0.5200046160127103 1.1399895127138917
3.00281000137 0.0534957001948181 -0.1388472845478531 -1.2775793373371274 2.044475397505868 2.0502654775762887 -0.5200046160127103 1.1399895127138917
3.00281000137 0.0534957001948181 -0.1388472845478531 -1.2775793373371274 2.044475397505868 2.0502654775762887 -0.5200046160127103 1.1399895127138917
3.01277685165 0.0538178404332018 -0.1348128615623802 -1.2843903023772414 2.044475397505868 2.0502015611424604 -0.5200046160127103 1.1399895127138917
3.01277685165 0.0538178404332018 -0.1348128615623802 -1.2843903023772414 2.044475397505868 2.0502015611424604 -0.5200046160127103 1.1399895127138917
3.02284884453 0.0538178404332018 -0.1348128615623802 -1.2843903023772414 2.044475397505868 2.0502015611424604 -0.5200046160127103 1.1399895127138917
3.02284884453 0.0538178404332018 -0.1348128615623802 -1.2843903023772414 2.044475397505868 2.0502015611424604 -0.5200046160127103 1.1399895127138917
3.0325319767 0.0547229011029468 -0.1234152331281351 -1.306341858621393 2.044475397505868 2.050247215738052 -0.5200046160127103 1.1399895127138917
3.0325319767 0.0547229011029468 -0.1234152331281351 -1.306341858621393 2.044475397505868 2.050247215738052 -0.5200046160127103 1.1399895127138917
3.04282999039 0.0547229011029468 -0.1234152331281351 -1.306341858621393 2.044475397505868 2.050247215738052 -0.5200046160127103 1.1399895127138917
3.04282999039 0.0547229011029468 -0.1234152331281351 -1.306341858621393 2.044475397505868 2.050247215738052 -0.5200046160127103 1.1399895127138917
3.05255699158 0.0547229011029468 -0.1234152331281351 -1.306341858621393 2.044475397505868 2.050247215738052 -0.5200046160127103 1.1399895127138917
3.05255699158 0.0547229011029468 -0.1234152331281351 -1.306341858621393 2.044475397505868 2.050247215738052 -0.5200046160127103 1.1399895127138917
3.06253504753 0.0549376612618692 -0.1197949904491555 -1.3135056439225945 2.044475397505868 2.0500828591939224 -0.5200046160127103 1.1399895127138917
3.06253504753 0.0549376612618692 -0.1197949904491555 -1.3135056439225945 2.044475397505868 2.0500828591939224 -0.5200046160127103 1.1399895127138917
3.07248783112 0.0549376612618692 -0.1197949904491555 -1.3135056439225945 2.044475397505868 2.0500828591939224 -0.5200046160127103 1.1399895127138917
3.07248783112 0.0549376612618692 -0.1197949904491555 -1.3135056439225945 2.044475397505868 2.0500828591939224 -0.5200046160127103 1.1399895127138917
3.08253288269 0.0551524214207918 -0.1160366876680115 -1.3206847692351469 2.044475397505868 2.0502289538998157 -0.5200046160127103 1.1399895127138917
3.08253288269 0.0551524214207918 -0.1160366876680115 -1.3206847692351469 2.044475397505868 2.0502289538998157 -0.5200046160127103 1.1399895127138917
3.0926399231 0.0551524214207918 -0.1160366876680115 -1.3206847692351469 2.044475397505868 2.0502289538998157 -0.5200046160127103 1.1399895127138917
3.0926399231 0.0551524214207918 -0.1160366876680115 -1.3206847692351469 2.044475397505868 2.0502289538998157 -0.5200046160127103 1.1399895127138917
3.10254383087 0.0552751415116048 -0.1118948846030772 -1.3277565144682384 2.044475397505868 2.050219822980697 -0.5200046160127103 1.1399895127138917
3.10254383087 0.0552751415116048 -0.1118948846030772 -1.3277565144682384 2.044475397505868 2.050219822980697 -0.5200046160127103 1.1399895127138917
3.11249303818 0.055336501557011 -0.1074923013451655 -1.3345061194629462 2.044475397505868 2.0501467756277503 -0.5200046160127103 1.1399895127138917
3.11249303818 0.055336501557011 -0.1074923013451655 -1.3345061194629462 2.044475397505868 2.0501467756277503 -0.5200046160127103 1.1399895127138917
3.12255597115 0.055336501557011 -0.1074923013451655 -1.3345061194629462 2.044475397505868 2.0501467756277503 -0.5200046160127103 1.1399895127138917
3.12255597115 0.055336501557011 -0.1074923013451655 -1.3345061194629462 2.044475397505868 2.0501467756277503 -0.5200046160127103 1.1399895127138917
3.13244891167 0.055336501557011 -0.1074923013451655 -1.3345061194629462 2.044475397505868 2.0501467756277503 -0.5200046160127103 1.1399895127138917
3.13244891167 0.055336501557011 -0.1074923013451655 -1.3345061194629462 2.044475397505868 2.0501467756277503 -0.5200046160127103 1.1399895127138917
3.14251589775 0.055336501557011 -0.1074923013451655 -1.3345061194629462 2.044475397505868 2.0501467756277503 -0.5200046160127103 1.1399895127138917
3.14251589775 0.055336501557011 -0.1074923013451655 -1.3345061194629462 2.044475397505868 2.0501467756277503 -0.5200046160127103 1.1399895127138917
3.15247488022 0.055336501557011 -0.1074923013451655 -1.3345061194629462 2.044475397505868 2.0501467756277503 -0.5200046160127103 1.1399895127138917
3.15247488022 0.055336501557011 -0.1074923013451655 -1.3345061194629462 2.044475397505868 2.0501467756277503 -0.5200046160127103 1.1399895127138917
3.16254687309 0.055336501557011 -0.1029209779623863 -1.341485824627928 2.044475397505868 2.0503202630909985 -0.5200046160127103 1.1399895127138917
3.16254687309 0.055336501557011 -0.1029209779623863 -1.341485824627928 2.044475397505868 2.0503202630909985 -0.5200046160127103 1.1399895127138917
3.17269396782 0.055336501557011 -0.1029209779623863 -1.341485824627928 2.044475397505868 2.0503202630909985 -0.5200046160127103 1.1399895127138917
3.17269396782 0.055336501557011 -0.1029209779623863 -1.341485824627928 2.044475397505868 2.0503202630909985 -0.5200046160127103 1.1399895127138917
3.18254685402 0.055336501557011 -0.1029209779623863 -1.341485824627928 2.044475397505868 2.0503202630909985 -0.5200046160127103 1.1399895127138917
3.18254685402 0.055336501557011 -0.1029209779623863 -1.341485824627928 2.044475397505868 2.0503202630909985 -0.5200046160127103 1.1399895127138917
3.19247198105 0.0553518415683626 -0.0938703712649373 -1.3554452349578916 2.044475397505868 2.050219822980697 -0.5200046160127103 1.1399895127138917
3.19247198105 0.0553518415683626 -0.0938703712649373 -1.3554452349578916 2.044475397505868 2.050219822980697 -0.5200046160127103 1.1399895127138917
3.20258498192 0.0553518415683626 -0.0938703712649373 -1.3554452349578916 2.044475397505868 2.050219822980697 -0.5200046160127103 1.1399895127138917
3.20258498192 0.0553518415683626 -0.0938703712649373 -1.3554452349578916 2.044475397505868 2.050219822980697 -0.5200046160127103 1.1399895127138917
3.21252083778 0.0553518415683626 -0.0938703712649373 -1.3554452349578916 2.044475397505868 2.050219822980697 -0.5200046160127103 1.1399895127138917
3.21252083778 0.0553518415683626 -0.0938703712649373 -1.3554452349578916 2.044475397505868 2.050219822980697 -0.5200046160127103 1.1399895127138917
3.22252893448 0.0553518415683626 -0.0938703712649373 -1.3554452349578916 2.044475397505868 2.050219822980697 -0.5200046160127103 1.1399895127138917
3.22252893448 0.0553518415683626 -0.0938703712649373 -1.3554452349578916 2.044475397505868 2.050219822980697 -0.5200046160127103 1.1399895127138917
3.23259782791 0.0553518415683626 -0.0843749042382917 -1.3697728055602938 2.044429377471813 2.0503476558483533 -0.5200046160127103 1.1399895127138917
3.23259782791 0.0553518415683626 -0.0843749042382917 -1.3697728055602938 2.044429377471813 2.0503476558483533 -0.5200046160127103 1.1399895127138917
3.24247694016 0.0553518415683626 -0.0843749042382917 -1.3697728055602938 2.044429377471813 2.0503476558483533 -0.5200046160127103 1.1399895127138917
3.24247694016 0.0553518415683626 -0.0843749042382917 -1.3697728055602938 2.044429377471813 2.0503476558483533 -0.5200046160127103 1.1399895127138917
3.2525138855 0.0553518415683626 -0.0795428006625351 -1.3768905708274402 2.044429377471813 2.050238084818934 -0.5200046160127103 1.1399895127138917
3.2525138855 0.0553518415683626 -0.0795428006625351 -1.3768905708274402 2.044429377471813 2.050238084818934 -0.5200046160127103 1.1399895127138917
3.26253986359 0.0553518415683626 -0.0795428006625351 -1.3768905708274402 2.044429377471813 2.050238084818934 -0.5200046160127103 1.1399895127138917
3.26253986359 0.0553518415683626 -0.0795428006625351 -1.3768905708274402 2.044429377471813 2.050238084818934 -0.5200046160127103 1.1399895127138917
3.27251291275 0.0553518415683626 -0.0795428006625351 -1.3768905708274402 2.044429377471813 2.050238084818934 -0.5200046160127103 1.1399895127138917
3.27251291275 0.0553518415683626 -0.0795428006625351 -1.3768905708274402 2.044429377471813 2.050238084818934 -0.5200046160127103 1.1399895127138917
3.28250288963 0.0553518415683626 -0.0795428006625351 -1.3768905708274402 2.044429377471813 2.050238084818934 -0.5200046160127103 1.1399895127138917
3.28250288963 0.0553518415683626 -0.0795428006625351 -1.3768905708274402 2.044429377471813 2.050238084818934 -0.5200046160127103 1.1399895127138917
3.29247689247 0.0553518415683626 -0.0795428006625351 -1.3768905708274402 2.044429377471813 2.050238084818934 -0.5200046160127103 1.1399895127138917
3.29247689247 0.0553518415683626 -0.0795428006625351 -1.3768905708274402 2.044429377471813 2.050238084818934 -0.5200046160127103 1.1399895127138917
3.3025560379 0.0553518415683626 -0.0795428006625351 -1.3768905708274402 2.044429377471813 2.050238084818934 -0.5200046160127103 1.1399895127138917
3.3025560379 0.0553518415683626 -0.0795428006625351 -1.3768905708274402 2.044429377471813 2.050238084818934 -0.5200046160127103 1.1399895127138917
3.31248998642 0.0553518415683626 -0.0795428006625351 -1.3768905708274402 2.044429377471813 2.050238084818934 -0.5200046160127103 1.1399895127138917
3.31248998642 0.0553518415683626 -0.0795428006625351 -1.3768905708274402 2.044429377471813 2.050238084818934 -0.5200046160127103 1.1399895127138917
3.32254195213 0.0553518415683626 -0.0706609340899538 -1.3919084419406649 2.044153257267484 2.0503476558483533 -0.5200046160127103 1.1399895127138917
3.32254195213 0.0553518415683626 -0.0706609340899538 -1.3919084419406649 2.044153257267484 2.0503476558483533 -0.5200046160127103 1.1399895127138917
3.33249902725 0.0553518415683626 -0.0706609340899538 -1.3919084419406649 2.044153257267484 2.0503476558483533 -0.5200046160127103 1.1399895127138917
3.33249902725 0.0553518415683626 -0.0706609340899538 -1.3919084419406649 2.044153257267484 2.0503476558483533 -0.5200046160127103 1.1399895127138917
3.34252405167 0.0553518415683626 -0.0622085878352176 -1.4074632134511955 2.0437390769609904 2.0501011210321587 -0.5200046160127103 1.1399895127138917
3.34252405167 0.0553518415683626 -0.0622085878352176 -1.4074632134511955 2.0437390769609904 2.0501011210321587 -0.5200046160127103 1.1399895127138917
3.35252094269 0.0553518415683626 -0.0535875014556137 -1.4229106048822653 2.042910716348004 2.0502654775762887 -0.5200046160127103 1.1399895127138917
3.35252094269 0.0553518415683626 -0.0535875014556137 -1.4229106048822653 2.042910716348004 2.0502654775762887 -0.5200046160127103 1.1399895127138917
3.36245703697 0.0553671815797142 -0.0491388981636472 -1.4303811904104986 2.042235755848533 2.0501102519512773 -0.5200046160127103 1.1399895127138917
3.36245703697 0.0553671815797142 -0.0491388981636472 -1.4303811904104986 2.042235755848533 2.0501102519512773 -0.5200046160127103 1.1399895127138917
3.37247204781 0.0553671815797142 -0.0491388981636472 -1.4303811904104986 2.042235755848533 2.0501102519512773 -0.5200046160127103 1.1399895127138917
3.37247204781 0.0553671815797142 -0.0491388981636472 -1.4303811904104986 2.042235755848533 2.0501102519512773 -0.5200046160127103 1.1399895127138917
3.38250589371 0.0553671815797142 -0.0491388981636472 -1.4303811904104986 2.042235755848533 2.0501102519512773 -0.5200046160127103 1.1399895127138917
3.38250589371 0.0553671815797142 -0.0491388981636472 -1.4303811904104986 2.042235755848533 2.0501102519512773 -0.5200046160127103 1.1399895127138917
3.39248991013 0.0553671815797142 -0.044291454576539 -1.4378977959727868 2.0414380752582493 2.050238084818934 -0.5200046160127103 1.1399895127138917
3.39248991013 0.0553671815797142 -0.044291454576539 -1.4378977959727868 2.0414380752582493 2.050238084818934 -0.5200046160127103 1.1399895127138917
3.40255498886 0.0553671815797142 -0.044291454576539 -1.4378977959727868 2.0414380752582493 2.050238084818934 -0.5200046160127103 1.1399895127138917
3.40255498886 0.0553671815797142 -0.044291454576539 -1.4378977959727868 2.0414380752582493 2.050238084818934 -0.5200046160127103 1.1399895127138917
3.41247797012 0.0553671815797142 -0.0395053710348371 -1.4447241010242524 2.040471654543098 2.050238084818934 -0.5200046160127103 1.1399895127138917
3.41247797012 0.0553671815797142 -0.0395053710348371 -1.4447241010242524 2.040471654543098 2.050238084818934 -0.5200046160127103 1.1399895127138917
3.42255592346 0.0553671815797142 -0.034028986982313 -1.4520106064162666 2.03896833343064 2.0501741683851056 -0.5200046160127103 1.1399895127138917
3.42255592346 0.0553671815797142 -0.034028986982313 -1.4520106064162666 2.03896833343064 2.0501741683851056 -0.5200046160127103 1.1399895127138917
3.43247890472 0.0553671815797142 -0.034028986982313 -1.4520106064162666 2.03896833343064 2.0501741683851056 -0.5200046160127103 1.1399895127138917
3.43247890472 0.0553671815797142 -0.034028986982313 -1.4520106064162666 2.03896833343064 2.0501741683851056 -0.5200046160127103 1.1399895127138917
3.44249105453 0.0553671815797142 -0.034028986982313 -1.4520106064162666 2.03896833343064 2.0501741683851056 -0.5200046160127103 1.1399895127138917
3.44249105453 0.0553671815797142 -0.034028986982313 -1.4520106064162666 2.03896833343064 2.0501741683851056 -0.5200046160127103 1.1399895127138917
3.45248484612 0.0553671815797142 -0.0286906630319532 -1.4584994312179969 2.0370815120343924 2.0503020012527617 -0.5200046160127103 1.1399895127138917
3.45248484612 0.0553671815797142 -0.0286906630319532 -1.4584994312179969 2.0370815120343924 2.0503020012527617 -0.5200046160127103 1.1399895127138917
3.46255683899 0.0553825215910658 -0.0230455388545613 -1.4651263161218917 2.035010610501925 2.050329394010117 -0.5200046160127103 1.1399895127138917
3.46255683899 0.0553825215910658 -0.0230455388545613 -1.4651263161218917 2.035010610501925 2.050329394010117 -0.5200046160127103 1.1399895127138917
3.47265291214 0.0553825215910658 -0.0230455388545613 -1.4651263161218917 2.035010610501925 2.050329394010117 -0.5200046160127103 1.1399895127138917
3.47265291214 0.0553825215910658 -0.0230455388545613 -1.4651263161218917 2.035010610501925 2.050329394010117 -0.5200046160127103 1.1399895127138917
3.48276901245 0.0553825215910658 -0.0230455388545613 -1.4651263161218917 2.035010610501925 2.050329394010117 -0.5200046160127103 1.1399895127138917
3.48276901245 0.0553825215910658 -0.0230455388545613 -1.4651263161218917 2.035010610501925 2.050329394010117 -0.5200046160127103 1.1399895127138917
3.49279499054 0.0553825215910658 -0.0230455388545613 -1.4651263161218917 2.035010610501925 2.050329394010117 -0.5200046160127103 1.1399895127138917
3.49279499054 0.0553825215910658 -0.0230455388545613 -1.4651263161218917 2.035010610501925 2.050329394010117 -0.5200046160127103 1.1399895127138917
3.50317382812 0.0553825215910658 -0.0230455388545613 -1.4651263161218917 2.035010610501925 2.050329394010117 -0.5200046160127103 1.1399895127138917
3.50317382812 0.0553825215910658 -0.0230455388545613 -1.4651263161218917 2.035010610501925 2.050329394010117 -0.5200046160127103 1.1399895127138917
3.51279783249 0.0553825215910658 -0.0124916110446548 -1.477306285135069 2.030408607096443 2.050183299304224 -0.5200046160127103 1.1399895127138917
3.51279783249 0.0553825215910658 -0.0124916110446548 -1.477306285135069 2.030408607096443 2.050183299304224 -0.5200046160127103 1.1399895127138917
3.52270889282 0.0553825215910658 -0.0080430077526883 -1.4837490899027443 2.027785465155318 2.050338524929235 -0.5200046160127103 1.1399895127138917
3.52270889282 0.0553825215910658 -0.0080430077526883 -1.4837490899027443 2.027785465155318 2.050338524929235 -0.5200046160127103 1.1399895127138917
3.53279685974 0.0553825215910658 -0.0080430077526883 -1.4837490899027443 2.027785465155318 2.050338524929235 -0.5200046160127103 1.1399895127138917
3.53279685974 0.0553825215910658 -0.0080430077526883 -1.4837490899027443 2.027785465155318 2.050338524929235 -0.5200046160127103 1.1399895127138917
3.54284191132 0.0553825215910658 -0.0037171245515347 -1.4898237343979812 2.025116303180138 2.0502289538998157 -0.5200046160127103 1.1399895127138917
3.54284191132 0.0553825215910658 -0.0037171245515347 -1.4898237343979812 2.025116303180138 2.0502289538998157 -0.5200046160127103 1.1399895127138917
3.55271291733 0.0553825215910658 -0.0037171245515347 -1.4898237343979812 2.025116303180138 2.0502289538998157 -0.5200046160127103 1.1399895127138917
3.55271291733 0.0553825215910658 -0.0037171245515347 -1.4898237343979812 2.025116303180138 2.0502289538998157 -0.5200046160127103 1.1399895127138917
3.56267404556 0.0553825215910658 -0.0037171245515347 -1.4898237343979812 2.025116303180138 2.0502289538998157 -0.5200046160127103 1.1399895127138917
3.56267404556 0.0553825215910658 -0.0037171245515347 -1.4898237343979812 2.025116303180138 2.0502289538998157 -0.5200046160127103 1.1399895127138917
3.57267284393 0.0553825215910658 -0.0037171245515347 -1.4898237343979812 2.025116303180138 2.0502289538998157 -0.5200046160127103 1.1399895127138917
3.57267284393 0.0553825215910658 -0.0037171245515347 -1.4898237343979812 2.025116303180138 2.0502289538998157 -0.5200046160127103 1.1399895127138917
3.58291292191 0.0553825215910658 -0.0037171245515347 -1.4898237343979812 2.025116303180138 2.0502289538998157 -0.5200046160127103 1.1399895127138917
3.58291292191 0.0553825215910658 -0.0037171245515347 -1.4898237343979812 2.025116303180138 2.0502289538998157 -0.5200046160127103 1.1399895127138917
3.59284591675 0.0553825215910658 -0.0037171245515347 -1.4898237343979812 2.025116303180138 2.0502289538998157 -0.5200046160127103 1.1399895127138917
3.59284591675 0.0553825215910658 -0.0037171245515347 -1.4898237343979812 2.025116303180138 2.0502289538998157 -0.5200046160127103 1.1399895127138917
3.6030459404 0.0553825215910658 -0.0037171245515347 -1.4898237343979812 2.025116303180138 2.0502289538998157 -0.5200046160127103 1.1399895127138917
3.6030459404 0.0553825215910658 -0.0037171245515347 -1.4898237343979812 2.025116303180138 2.0502289538998157 -0.5200046160127103 1.1399895127138917
3.61277604103 0.0553825215910658 -0.0037171245515347 -1.4898237343979812 2.025116303180138 2.0502289538998157 -0.5200046160127103 1.1399895127138917
3.61277604103 0.0553825215910658 -0.0037171245515347 -1.4898237343979812 2.025116303180138 2.0502289538998157 -0.5200046160127103 1.1399895127138917
3.62293291092 0.0553825215910658 -0.0037171245515347 -1.4898237343979812 2.025116303180138 2.0502289538998157 -0.5200046160127103 1.1399895127138917
3.62293291092 0.0553825215910658 -0.0037171245515347 -1.4898237343979812 2.025116303180138 2.0502289538998157 -0.5200046160127103 1.1399895127138917
3.63268494606 0.0553825215910658 -0.0037171245515347 -1.4898237343979812 2.025116303180138 2.0502289538998157 -0.5200046160127103 1.1399895127138917
3.63268494606 0.0553825215910658 -0.0037171245515347 -1.4898237343979812 2.025116303180138 2.0502289538998157 -0.5200046160127103 1.1399895127138917
3.64295887947 0.0553825215910658 -0.0037171245515347 -1.4898237343979812 2.025116303180138 2.0502289538998157 -0.5200046160127103 1.1399895127138917
3.64295887947 0.0553825215910658 -0.0037171245515347 -1.4898237343979812 2.025116303180138 2.0502289538998157 -0.5200046160127103 1.1399895127138917
3.65272498131 0.0553825215910658 -0.0037171245515347 -1.4898237343979812 2.025116303180138 2.0502289538998157 -0.5200046160127103 1.1399895127138917
3.65272498131 0.0553825215910658 -0.0037171245515347 -1.4898237343979812 2.025116303180138 2.0502289538998157 -0.5200046160127103 1.1399895127138917
3.6629178524 0.0553825215910658 -0.0037171245515347 -1.4898237343979812 2.025116303180138 2.0502289538998157 -0.5200046160127103 1.1399895127138917
3.6629178524 0.0553825215910658 -0.0037171245515347 -1.4898237343979812 2.025116303180138 2.0502289538998157 -0.5200046160127103 1.1399895127138917
3.67287802696 0.0553825215910658 -0.0037171245515347 -1.4898237343979812 2.025116303180138 2.0502289538998157 -0.5200046160127103 1.1399895127138917
3.67287802696 0.0553825215910658 -0.0037171245515347 -1.4898237343979812 2.025116303180138 2.0502289538998157 -0.5200046160127103 1.1399895127138917
3.68279695511 0.0553825215910658 -0.0037171245515347 -1.4898237343979812 2.025116303180138 2.0502289538998157 -0.5200046160127103 1.1399895127138917
3.68279695511 0.0553825215910658 -0.0037171245515347 -1.4898237343979812 2.025116303180138 2.0502289538998157 -0.5200046160127103 1.1399895127138917
3.69284582138 0.0553825215910658 -0.0037171245515347 -1.4898237343979812 2.025116303180138 2.0502289538998157 -0.5200046160127103 1.1399895127138917
3.69284582138 0.0553825215910658 -0.0037171245515347 -1.4898237343979812 2.025116303180138 2.0502289538998157 -0.5200046160127103 1.1399895127138917
3.70275402069 0.0553825215910658 -0.0037171245515347 -1.4898237343979812 2.025116303180138 2.0502289538998157 -0.5200046160127103 1.1399895127138917
3.70275402069 0.0553825215910658 -0.0037171245515347 -1.4898237343979812 2.025116303180138 2.0502289538998157 -0.5200046160127103 1.1399895127138917
3.71284198761 0.0553825215910658 -0.0037171245515347 -1.4898237343979812 2.025116303180138 2.0502289538998157 -0.5200046160127103 1.1399895127138917
3.71284198761 0.0553825215910658 -0.0037171245515347 -1.4898237343979812 2.025116303180138 2.0502289538998157 -0.5200046160127103 1.1399895127138917
3.72293496132 0.0553825215910658 -0.0037171245515347 -1.4898237343979812 2.025116303180138 2.0502289538998157 -0.5200046160127103 1.1399895127138917
3.72293496132 0.0553825215910658 -0.0037171245515347 -1.4898237343979812 2.025116303180138 2.0502289538998157 -0.5200046160127103 1.1399895127138917
3.7328619957 0.0553825215910658 -0.0037171245515347 -1.4898237343979812 2.025116303180138 2.0502289538998157 -0.5200046160127103 1.1399895127138917
3.7328619957 0.0553825215910658 -0.0037171245515347 -1.4898237343979812 2.025116303180138 2.0502289538998157 -0.5200046160127103 1.1399895127138917
3.74261689186 0.0553825215910658 0.0005627386155639 -1.495744978779702 2.021940920830355 2.0501193828703954 -0.5200091814722694 1.1399849472543326
3.74261689186 0.0553825215910658 0.0005627386155639 -1.495744978779702 2.021940920830355 2.0501193828703954 -0.5200091814722694 1.1399849472543326
3.75361585617 0.0553825215910658 0.0005627386155639 -1.495744978779702 2.021940920830355 2.0501193828703954 -0.5200091814722694 1.1399849472543326
3.75361585617 0.0553825215910658 0.0005627386155639 -1.495744978779702 2.021940920830355 2.0501193828703954 -0.5200091814722694 1.1399849472543326
3.76265382767 0.0553825215910658 0.0005627386155639 -1.495744978779702 2.021940920830355 2.0501193828703954 -0.5200091814722694 1.1399849472543326
3.76265382767 0.0553825215910658 0.0005627386155639 -1.495744978779702 2.021940920830355 2.0501193828703954 -0.5200091814722694 1.1399849472543326
3.77283000946 0.0553825215910658 0.0005627386155639 -1.495744978779702 2.021940920830355 2.0501193828703954 -0.5200091814722694 1.1399849472543326
3.77283000946 0.0553825215910658 0.0005627386155639 -1.495744978779702 2.021940920830355 2.0501193828703954 -0.5200091814722694 1.1399849472543326
3.78291201591 0.0553825215910658 0.0005627386155639 -1.495744978779702 2.021940920830355 2.0501193828703954 -0.5200091814722694 1.1399849472543326
3.78291201591 0.0553825215910658 0.0005627386155639 -1.495744978779702 2.021940920830355 2.0501193828703954 -0.5200091814722694 1.1399849472543326
3.79299783707 0.0553825215910658 0.0005627386155639 -1.495744978779702 2.021940920830355 2.0501193828703954 -0.5200091814722694 1.1399849472543326
3.79299783707 0.0553825215910658 0.0005627386155639 -1.495744978779702 2.021940920830355 2.0501193828703954 -0.5200091814722694 1.1399849472543326
3.80295085907 0.0553825215910658 0.0005627386155639 -1.495744978779702 2.021940920830355 2.0501193828703954 -0.5200091814722694 1.1399849472543326
3.80295085907 0.0553825215910658 0.0005627386155639 -1.495744978779702 2.021940920830355 2.0501193828703954 -0.5200091814722694 1.1399849472543326
3.81284093857 0.0553825215910658 0.0005627386155639 -1.495744978779702 2.021940920830355 2.0501193828703954 -0.5200091814722694 1.1399849472543326
3.81284093857 0.0553825215910658 0.0005627386155639 -1.495744978779702 2.021940920830355 2.0501193828703954 -0.5200091814722694 1.1399849472543326
3.82301998138 0.0553825215910658 0.0005627386155639 -1.495744978779702 2.021940920830355 2.0501193828703954 -0.5200091814722694 1.1399849472543326
3.82301998138 0.0553825215910658 0.0005627386155639 -1.495744978779702 2.021940920830355 2.0501193828703954 -0.5200091814722694 1.1399849472543326
3.83286094666 0.0553825215910658 0.0005627386155639 -1.495744978779702 2.021940920830355 2.0501193828703954 -0.5200091814722694 1.1399849472543326
3.83286094666 0.0553825215910658 0.0005627386155639 -1.495744978779702 2.021940920830355 2.0501193828703954 -0.5200091814722694 1.1399849472543326
3.84295797348 0.0553825215910658 0.0005627386155639 -1.495744978779702 2.021940920830355 2.0501193828703954 -0.5200091814722694 1.1399849472543326
3.84295797348 0.0553825215910658 0.0005627386155639 -1.495744978779702 2.021940920830355 2.0501193828703954 -0.5200091814722694 1.1399849472543326
3.85271787643 0.0553825215910658 0.0005627386155639 -1.495744978779702 2.021940920830355 2.0501193828703954 -0.5200091814722694 1.1399849472543326
3.85271787643 0.0553825215910658 0.0005627386155639 -1.495744978779702 2.021940920830355 2.0501193828703954 -0.5200091814722694 1.1399849472543326
3.86299586296 0.0553825215910658 0.0005627386155639 -1.495744978779702 2.021940920830355 2.0501193828703954 -0.5200091814722694 1.1399849472543326
3.86299586296 0.0553825215910658 0.0005627386155639 -1.495744978779702 2.021940920830355 2.0501193828703954 -0.5200091814722694 1.1399849472543326
3.87282896042 0.0553825215910658 0.0005627386155639 -1.495744978779702 2.021940920830355 2.0501193828703954 -0.5200091814722694 1.1399849472543326
3.87282896042 0.0553825215910658 0.0005627386155639 -1.495744978779702 2.021940920830355 2.0501193828703954 -0.5200091814722694 1.1399849472543326
3.88291501999 0.0553825215910658 0.0005627386155639 -1.495744978779702 2.021940920830355 2.0501193828703954 -0.5200091814722694 1.1399849472543326
3.88291501999 0.0553825215910658 0.0005627386155639 -1.495744978779702 2.021940920830355 2.0501193828703954 -0.5200091814722694 1.1399849472543326
3.89284992218 0.0553825215910658 0.0005627386155639 -1.495744978779702 2.021940920830355 2.0501193828703954 -0.5200091814722694 1.1399849472543326
3.89284992218 0.0553825215910658 0.0005627386155639 -1.495744978779702 2.021940920830355 2.0501193828703954 -0.5200091814722694 1.1399849472543326
3.90294289589 0.0553825215910658 0.0005627386155639 -1.495744978779702 2.021940920830355 2.0501193828703954 -0.5200091814722694 1.1399849472543326
3.90294289589 0.0553825215910658 0.0005627386155639 -1.495744978779702 2.021940920830355 2.0501193828703954 -0.5200091814722694 1.1399849472543326
3.91287899017 0.0553825215910658 0.0005627386155639 -1.495744978779702 2.021940920830355 2.0501193828703954 -0.5200091814722694 1.1399849472543326
3.91287899017 0.0553825215910658 0.0005627386155639 -1.495744978779702 2.021940920830355 2.0501193828703954 -0.5200091814722694 1.1399849472543326
3.92293596268 0.0553825215910658 0.0005627386155639 -1.495744978779702 2.021940920830355 2.0501193828703954 -0.5200091814722694 1.1399849472543326
3.92293596268 0.0553825215910658 0.0005627386155639 -1.495744978779702 2.021940920830355 2.0501193828703954 -0.5200091814722694 1.1399849472543326
3.93284201622 0.0553825215910658 0.0005627386155639 -1.495744978779702 2.021940920830355 2.0501193828703954 -0.5200091814722694 1.1399849472543326
3.93284201622 0.0553825215910658 0.0005627386155639 -1.495744978779702 2.021940920830355 2.0501193828703954 -0.5200091814722694 1.1399849472543326
3.94296884537 0.0553825215910658 0.0005627386155639 -1.495744978779702 2.021940920830355 2.0501193828703954 -0.5200091814722694 1.1399849472543326
3.94296884537 0.0553825215910658 0.0005627386155639 -1.495744978779702 2.021940920830355 2.0501193828703954 -0.5200091814722694 1.1399849472543326
3.9528799057 0.0553825215910658 0.0005627386155639 -1.495744978779702 2.021940920830355 2.0501193828703954 -0.5200091814722694 1.1399849472543326
3.9528799057 0.0553825215910658 0.0005627386155639 -1.495744978779702 2.021940920830355 2.0501193828703954 -0.5200091814722694 1.1399849472543326
3.96272301674 0.0553825215910658 0.0005627386155639 -1.495744978779702 2.021940920830355 2.0501193828703954 -0.5200091814722694 1.1399849472543326
3.96272301674 0.0553825215910658 0.0005627386155639 -1.495744978779702 2.021940920830355 2.0501193828703954 -0.5200091814722694 1.1399849472543326
3.97282004356 0.0553825215910658 0.0005627386155639 -1.495744978779702 2.021940920830355 2.0501193828703954 -0.5200091814722694 1.1399849472543326
3.97282004356 0.0553825215910658 0.0005627386155639 -1.495744978779702 2.021940920830355 2.0501193828703954 -0.5200091814722694 1.1399849472543326
3.98287200928 0.0553825215910658 0.0005627386155639 -1.495744978779702 2.021940920830355 2.0501193828703954 -0.5200091814722694 1.1399849472543326
3.98287200928 0.0553825215910658 0.0005627386155639 -1.495744978779702 2.021940920830355 2.0501193828703954 -0.5200091814722694 1.1399849472543326
3.99267101288 0.0553825215910658 0.0223455547348478 -1.5274067622094218 1.987303175198423 2.050128513789514 -0.5200046160127103 1.1399895127138917
3.99267101288 0.0553825215910658 0.0223455547348478 -1.5274067622094218 1.987303175198423 2.050128513789514 -0.5200046160127103 1.1399895127138917
4.00273394585 0.0553825215910658 0.0223455547348478 -1.5274067622094218 1.987303175198423 2.050128513789514 -0.5200046160127103 1.1399895127138917
4.00273394585 0.0553825215910658 0.0223455547348478 -1.5274067622094218 1.987303175198423 2.050128513789514 -0.5200046160127103 1.1399895127138917
4.01270890236 0.0553825215910658 0.024769276528402 -1.5323922658986946 1.9796485095339704 2.0503476558483533 -0.5200046160127103 1.1399895127138917
4.01270890236 0.0553825215910658 0.024769276528402 -1.5323922658986946 1.9796485095339704 2.0503476558483533 -0.5200046160127103 1.1399895127138917
4.02279186249 0.0553825215910658 0.0336051230669284 -1.551015039679547 1.9426637421652424 2.050338524929235 -0.5200046160127103 1.1399895127138917
4.02279186249 0.0553825215910658 0.0336051230669284 -1.551015039679547 1.9426637421652424 2.050338524929235 -0.5200046160127103 1.1399895127138917
4.0326628685 0.0553825215910658 0.0336051230669284 -1.551015039679547 1.9426637421652424 2.050338524929235 -0.5200046160127103 1.1399895127138917
4.0326628685 0.0553825215910658 0.0336051230669284 -1.551015039679547 1.9426637421652424 2.050338524929235 -0.5200046160127103 1.1399895127138917
4.0429110527 0.0553825215910658 0.0336051230669284 -1.551015039679547 1.9426637421652424 2.050338524929235 -0.5200046160127103 1.1399895127138917
4.0429110527 0.0553825215910658 0.0336051230669284 -1.551015039679547 1.9426637421652424 2.050338524929235 -0.5200046160127103 1.1399895127138917
4.05290484428 0.0553825215910658 0.0504484555309944 -1.605349359886944 1.801735057878016 2.0503476558483533 -0.5200046160127103 1.1399895127138917
4.05290484428 0.0553825215910658 0.0504484555309944 -1.605349359886944 1.801735057878016 2.0503476558483533 -0.5200046160127103 1.1399895127138917
4.0625 0.0553825215910658 0.0504484555309944 -1.605349359886944 1.801735057878016 2.0503476558483533 -0.5200046160127103 1.1399895127138917
4.0625 0.0553825215910658 0.0504484555309944 -1.605349359886944 1.801735057878016 2.0503476558483533 -0.5200046160127103 1.1399895127138917
4.07244300842 0.0553518415683626 0.0507245757353234 -1.6093377628383625 1.790812969795671 2.05025634665717 -0.5200046160127103 1.1399895127138917
4.07244300842 0.0553518415683626 0.0507245757353234 -1.6093377628383625 1.790812969795671 2.05025634665717 -0.5200046160127103 1.1399895127138917
4.08250689507 0.0553518415683626 0.0507245757353234 -1.6093377628383625 1.790812969795671 2.05025634665717 -0.5200046160127103 1.1399895127138917
4.08250689507 0.0553518415683626 0.0507245757353234 -1.6093377628383625 1.790812969795671 2.05025634665717 -0.5200046160127103 1.1399895127138917
4.09245586395 0.0553518415683626 0.0508933158601911 -1.6129273254946386 1.7791545611684485 2.050091990113041 -0.5200046160127103 1.1399895127138917
4.09245586395 0.0553518415683626 0.0508933158601911 -1.6129273254946386 1.7791545611684485 2.050091990113041 -0.5200046160127103 1.1399895127138917
4.102465868 0.0553518415683626 0.0509700159169491 -1.6159493077309055 1.768355193176916 2.050238084818934 -0.5200046160127103 1.1399895127138917
4.102465868 0.0553518415683626 0.0509700159169491 -1.6159493077309055 1.768355193176916 2.050238084818934 -0.5200046160127103 1.1399895127138917
4.11245799065 0.0553518415683626 0.0510313759623556 -1.619339450239611 1.7571416448788906 2.0502289538998157 -0.5200091814722694 1.1399849472543326
4.11245799065 0.0553518415683626 0.0510313759623556 -1.619339450239611 1.7571416448788906 2.0502289538998157 -0.5200091814722694 1.1399849472543326
4.12247300148 0.0553518415683626 0.0510313759623556 -1.619339450239611 1.7571416448788906 2.0502289538998157 -0.5200091814722694 1.1399849472543326
4.12247300148 0.0553518415683626 0.0510313759623556 -1.619339450239611 1.7571416448788906 2.0502289538998157 -0.5200091814722694 1.1399849472543326
4.13265585899 0.0553518415683626 0.0510313759623556 -1.6223767724872291 1.7456673163878873 2.050165037465987 -0.5200046160127103 1.1399895127138917
4.13265585899 0.0553518415683626 0.0510313759623556 -1.6223767724872291 1.7456673163878873 2.050165037465987 -0.5200046160127103 1.1399895127138917
4.14296483994 0.0553518415683626 0.0510313759623556 -1.6223767724872291 1.7456673163878873 2.050165037465987 -0.5200046160127103 1.1399895127138917
4.14296483994 0.0553518415683626 0.0510313759623556 -1.6223767724872291 1.7456673163878873 2.050165037465987 -0.5200046160127103 1.1399895127138917
4.15286684036 0.0553518415683626 0.0510313759623556 -1.6223767724872291 1.7456673163878873 2.050165037465987 -0.5200046160127103 1.1399895127138917
4.15286684036 0.0553518415683626 0.0510313759623556 -1.6223767724872291 1.7456673163878873 2.050165037465987 -0.5200046160127103 1.1399895127138917
4.16301703453 0.0553518415683626 0.0510313759623556 -1.6252146745872769 1.7343463880104004 2.050192430223342 -0.5200046160127103 1.1399895127138917
4.16301703453 0.0553518415683626 0.0510313759623556 -1.6252146745872769 1.7343463880104004 2.050192430223342 -0.5200046160127103 1.1399895127138917
4.17282986641 0.0553518415683626 0.0510313759623556 -1.6252146745872769 1.7343463880104004 2.050192430223342 -0.5200046160127103 1.1399895127138917
4.17282986641 0.0553518415683626 0.0510313759623556 -1.6252146745872769 1.7343463880104004 2.050192430223342 -0.5200046160127103 1.1399895127138917
4.18309497833 0.0553518415683626 0.0510467159737072 -1.628067916698676 1.7227800194512877 2.050338524929235 -0.5200046160127103 1.1399895127138917
4.18309497833 0.0553518415683626 0.0510467159737072 -1.628067916698676 1.7227800194512877 2.050338524929235 -0.5200046160127103 1.1399895127138917
4.19288992882 0.0553518415683626 0.0510467159737072 -1.628067916698676 1.7227800194512877 2.050338524929235 -0.5200046160127103 1.1399895127138917
4.19288992882 0.0553518415683626 0.0510467159737072 -1.628067916698676 1.7227800194512877 2.050338524929235 -0.5200046160127103 1.1399895127138917
4.20299005508 0.0553518415683626 0.0510467159737072 -1.6305069785035815 1.7111983108808235 2.0502289538998157 -0.5200046160127103 1.1399895127138917
4.20299005508 0.0553518415683626 0.0510467159737072 -1.6305069785035815 1.7111983108808235 2.0502289538998157 -0.5200046160127103 1.1399895127138917
4.21282601357 0.055336501557011 0.0510467159737072 -1.6330534203879488 1.6994018421514363 2.050091990113041 -0.5200046160127103 1.1399895127138917
4.21282601357 0.055336501557011 0.0510467159737072 -1.6330534203879488 1.6994018421514363 2.050091990113041 -0.5200046160127103 1.1399895127138917
4.22295284271 0.055336501557011 0.0510467159737072 -1.6330534203879488 1.6994018421514363 2.050091990113041 -0.5200046160127103 1.1399895127138917
4.22295284271 0.055336501557011 0.0510467159737072 -1.6330534203879488 1.6994018421514363 2.050091990113041 -0.5200046160127103 1.1399895127138917
4.2328119278 0.055336501557011 0.0510620559850588 -1.6353390820793383 1.6876974134901592 2.0503476558483533 -0.5200046160127103 1.1399895127138917
4.2328119278 0.055336501557011 0.0510620559850588 -1.6353390820793383 1.6876974134901592 2.0503476558483533 -0.5200046160127103 1.1399895127138917
4.24287986755 0.055336501557011 0.0510620559850588 -1.6353390820793383 1.6876974134901592 2.0503476558483533 -0.5200046160127103 1.1399895127138917
4.24287986755 0.055336501557011 0.0510620559850588 -1.6353390820793383 1.6876974134901592 2.0503476558483533 -0.5200046160127103 1.1399895127138917
4.25286102295 0.055336501557011 0.0510620559850588 -1.637440663634509 1.675762884658608 2.05025634665717 -0.5200046160127103 1.1399895127138917
4.25286102295 0.055336501557011 0.0510620559850588 -1.637440663634509 1.675762884658608 2.05025634665717 -0.5200046160127103 1.1399895127138917
4.26285195351 0.055336501557011 0.0510620559850588 -1.637440663634509 1.675762884658608 2.05025634665717 -0.5200046160127103 1.1399895127138917
4.26285195351 0.055336501557011 0.0510620559850588 -1.637440663634509 1.675762884658608 2.05025634665717 -0.5200046160127103 1.1399895127138917
4.27285885811 0.0553211615456594 0.0510620559850588 -1.6397109853145468 1.66424253613355 2.0501102519512773 -0.5200046160127103 1.1399895127138917
4.27285885811 0.0553211615456594 0.0510620559850588 -1.6397109853145468 1.66424253613355 2.0501102519512773 -0.5200046160127103 1.1399895127138917
4.28279685974 0.0553211615456594 0.0510620559850588 -1.6397109853145468 1.66424253613355 2.0501102519512773 -0.5200046160127103 1.1399895127138917
4.28279685974 0.0553211615456594 0.0510620559850588 -1.6397109853145468 1.66424253613355 2.0501102519512773 -0.5200046160127103 1.1399895127138917
4.29278993607 0.0553211615456594 0.0510620559850588 -1.6397109853145468 1.66424253613355 2.0501102519512773 -0.5200046160127103 1.1399895127138917
4.29278993607 0.0553211615456594 0.0510620559850588 -1.6397109853145468 1.66424253613355 2.0501102519512773 -0.5200046160127103 1.1399895127138917
4.3028318882 0.0552751415116048 0.0510620559850588 -1.641858586903772 1.651985867063615 2.0503476558483533 -0.5200046160127103 1.1399895127138917
4.3028318882 0.0552751415116048 0.0510620559850588 -1.641858586903772 1.651985867063615 2.0503476558483533 -0.5200046160127103 1.1399895127138917
4.31282401085 0.0552751415116048 0.0510620559850588 -1.641858586903772 1.651985867063615 2.0503476558483533 -0.5200046160127103 1.1399895127138917
4.31282401085 0.0552751415116048 0.0510620559850588 -1.641858586903772 1.651985867063615 2.0503476558483533 -0.5200046160127103 1.1399895127138917
4.32280683517 0.0551984414548467 0.0510620559850588 -1.6438834684021844 1.6400206582093604 2.0503020012527617 -0.5200046160127103 1.1399895127138917
4.32280683517 0.0551984414548467 0.0510620559850588 -1.6438834684021844 1.6400206582093604 2.0503020012527617 -0.5200046160127103 1.1399895127138917
4.33270001411 0.0551984414548467 0.0510620559850588 -1.6438834684021844 1.6400206582093604 2.0503020012527617 -0.5200046160127103 1.1399895127138917
4.33270001411 0.0551984414548467 0.0510620559850588 -1.6438834684021844 1.6400206582093604 2.0503020012527617 -0.5200046160127103 1.1399895127138917
4.34274792671 0.0550910613753854 0.0510620559850588 -1.6456935897416742 1.6277026290940189 2.050165037465987 -0.5200046160127103 1.1399895127138917
4.34274792671 0.0550910613753854 0.0510620559850588 -1.6456935897416742 1.6277026290940189 2.050165037465987 -0.5200046160127103 1.1399895127138917
4.3527109623 0.054983681295924 0.0510620559850588 -1.6471969108541318 1.6155380000921935 2.050338524929235 -0.5200046160127103 1.1399895127138917
4.3527109623 0.054983681295924 0.0510620559850588 -1.6471969108541318 1.6155380000921935 2.050338524929235 -0.5200046160127103 1.1399895127138917
4.36294293404 0.054983681295924 0.0510620559850588 -1.6471969108541318 1.6155380000921935 2.050338524929235 -0.5200046160127103 1.1399895127138917
4.36294293404 0.054983681295924 0.0510620559850588 -1.6471969108541318 1.6155380000921935 2.050338524929235 -0.5200046160127103 1.1399895127138917
4.37286996841 0.054983681295924 0.0510620559850588 -1.6471969108541318 1.6155380000921935 2.050338524929235 -0.5200046160127103 1.1399895127138917
4.37286996841 0.054983681295924 0.0510620559850588 -1.6471969108541318 1.6155380000921935 2.050338524929235 -0.5200046160127103 1.1399895127138917
4.38285899162 0.054983681295924 0.0510620559850588 -1.6471969108541318 1.6155380000921935 2.050338524929235 -0.5200046160127103 1.1399895127138917
4.38285899162 0.054983681295924 0.0510620559850588 -1.6471969108541318 1.6155380000921935 2.050338524929235 -0.5200046160127103 1.1399895127138917
4.39272499084 0.054983681295924 0.0510620559850588 -1.6471969108541318 1.6155380000921935 2.050338524929235 -0.5200046160127103 1.1399895127138917
4.39272499084 0.054983681295924 0.0510620559850588 -1.6471969108541318 1.6155380000921935 2.050338524929235 -0.5200046160127103 1.1399895127138917
4.40296292305 0.0548302811824081 0.0510620559850588 -1.648868972091457 1.6033580310790163 2.0503202630909985 -0.5200046160127103 1.1399895127138917
4.40296292305 0.0548302811824081 0.0510620559850588 -1.648868972091457 1.6033580310790163 2.0503202630909985 -0.5200046160127103 1.1399895127138917
4.41298794746 0.0546922210802435 0.0510620559850588 -1.650356953192563 1.59137748221341 2.0502015611424604 -0.5200046160127103 1.1399895127138917
4.41298794746 0.0546922210802435 0.0510620559850588 -1.650356953192563 1.59137748221341 2.0502015611424604 -0.5200046160127103 1.1399895127138917
4.42275500298 0.0546922210802435 0.0510620559850588 -1.650356953192563 1.59137748221341 2.0502015611424604 -0.5200046160127103 1.1399895127138917
4.42275500298 0.0546922210802435 0.0510620559850588 -1.650356953192563 1.59137748221341 2.0502015611424604 -0.5200046160127103 1.1399895127138917
4.43274784088 0.0545081409440241 0.0510620559850588 -1.654038555916949 1.5675851246070656 2.050338524929235 -0.5200046160127103 1.1399895127138917
4.43274784088 0.0545081409440241 0.0510620559850588 -1.654038555916949 1.5675851246070656 2.050338524929235 -0.5200046160127103 1.1399895127138917
4.44277691841 0.0545081409440241 0.0510620559850588 -1.654038555916949 1.5675851246070656 2.050338524929235 -0.5200046160127103 1.1399895127138917
4.44277691841 0.0545081409440241 0.0510620559850588 -1.654038555916949 1.5675851246070656 2.050338524929235 -0.5200046160127103 1.1399895127138917
4.4529838562 0.0544467808986179 0.0510620559850588 -1.6561247974607678 1.55589603595714 2.0502289538998157 -0.5200046160127103 1.1399895127138917
4.4529838562 0.0544467808986179 0.0510620559850588 -1.6561247974607678 1.55589603595714 2.0502289538998157 -0.5200046160127103 1.1399895127138917
4.46290183067 0.0544467808986179 0.0510620559850588 -1.6561247974607678 1.55589603595714 2.0502289538998157 -0.5200046160127103 1.1399895127138917
4.46290183067 0.0544467808986179 0.0510620559850588 -1.6561247974607678 1.55589603595714 2.0502289538998157 -0.5200046160127103 1.1399895127138917
4.47284793854 0.0544467808986179 0.0510620559850588 -1.6561247974607678 1.55589603595714 2.0502289538998157 -0.5200046160127103 1.1399895127138917
4.47284793854 0.0544467808986179 0.0510620559850588 -1.6561247974607678 1.55589603595714 2.0502289538998157 -0.5200046160127103 1.1399895127138917
4.48291897774 0.0543854208532114 0.0510773959964104 -1.6585791992770251 1.5444370474774884 2.0501102519512773 -0.5200046160127103 1.1399895127138917
4.48291897774 0.0543854208532114 0.0510773959964104 -1.6585791992770251 1.5444370474774884 2.0501102519512773 -0.5200046160127103 1.1399895127138917
4.49299502373 0.0543854208532114 0.0510773959964104 -1.6585791992770251 1.5444370474774884 2.0501102519512773 -0.5200046160127103 1.1399895127138917
4.49299502373 0.0543854208532114 0.0510773959964104 -1.6585791992770251 1.5444370474774884 2.0501102519512773 -0.5200046160127103 1.1399895127138917
4.50282883644 0.0542933807851017 0.0510773959964104 -1.6610642811159857 1.532839998895673 2.0503476558483533 -0.5200046160127103 1.1399895127138917
4.50282883644 0.0542933807851017 0.0510773959964104 -1.6610642811159857 1.532839998895673 2.0503476558483533 -0.5200046160127103 1.1399895127138917
4.51280283928 0.0542166807283436 0.0510773959964104 -1.66387150319333 1.521074210188989 2.05025634665717 -0.5200046160127103 1.1399895127138917
4.51280283928 0.0542166807283436 0.0510773959964104 -1.66387150319333 1.521074210188989 2.05025634665717 -0.5200046160127103 1.1399895127138917
4.52296996117 0.0542166807283436 0.0510773959964104 -1.66387150319333 1.521074210188989 2.05025634665717 -0.5200046160127103 1.1399895127138917
4.52296996117 0.0542166807283436 0.0510773959964104 -1.66387150319333 1.521074210188989 2.05025634665717 -0.5200046160127103 1.1399895127138917
4.53284788132 0.0542166807283436 0.0510773959964104 -1.66387150319333 1.521074210188989 2.05025634665717 -0.5200046160127103 1.1399895127138917
4.53284788132 0.0542166807283436 0.0510773959964104 -1.66387150319333 1.521074210188989 2.05025634665717 -0.5200046160127103 1.1399895127138917
4.54284095764 0.054201340716992 0.0510773959964104 -1.6667400853160808 1.509676581754744 2.0501011210321587 -0.5200046160127103 1.1399895127138917
4.54284095764 0.054201340716992 0.0510773959964104 -1.6667400853160808 1.509676581754744 2.0501011210321587 -0.5200046160127103 1.1399895127138917
4.55287098885 0.0541860007056404 0.0510773959964104 -1.6695473073934253 1.4988158537178051 2.050356786767472 -0.5200091814722694 1.1399849472543326
4.55287098885 0.0541860007056404 0.0510773959964104 -1.6695473073934253 1.4988158537178051 2.050356786767472 -0.5200091814722694 1.1399849472543326
4.56288790703 0.0541860007056404 0.0510773959964104 -1.6695473073934253 1.4988158537178051 2.050356786767472 -0.5200091814722694 1.1399849472543326
4.56288790703 0.0541860007056404 0.0510773959964104 -1.6695473073934253 1.4988158537178051 2.050356786767472 -0.5200091814722694 1.1399849472543326
4.57273983955 0.0541860007056404 0.0510773959964104 -1.6695473073934253 1.4988158537178051 2.050356786767472 -0.5200091814722694 1.1399849472543326
4.57273983955 0.0541860007056404 0.0510773959964104 -1.6695473073934253 1.4988158537178051 2.050356786767472 -0.5200091814722694 1.1399849472543326
4.58275794983 0.0541706606942888 0.0510773959964104 -1.6723085094367147 1.4883079459419533 2.0503111321718803 -0.5200046160127103 1.1399895127138917
4.58275794983 0.0541706606942888 0.0510773959964104 -1.6723085094367147 1.4883079459419533 2.0503111321718803 -0.5200046160127103 1.1399895127138917
4.59289193153 0.0541706606942888 0.0510773959964104 -1.674993011423246 1.4780608183590789 2.050165037465987 -0.5200046160127103 1.1399895127138917
4.59289193153 0.0541706606942888 0.0510773959964104 -1.674993011423246 1.4780608183590789 2.050165037465987 -0.5200046160127103 1.1399895127138917
4.60280489922 0.0541706606942888 0.0510773959964104 -1.674993011423246 1.4780608183590789 2.050165037465987 -0.5200046160127103 1.1399895127138917
4.60280489922 0.0541706606942888 0.0510773959964104 -1.674993011423246 1.4780608183590789 2.050165037465987 -0.5200046160127103 1.1399895127138917
4.61283397675 0.0541553206829372 0.0510773959964104 -1.6768644928081424 1.4677676707421496 2.0503750486057086 -0.5200046160127103 1.1399895127138917
4.61283397675 0.0541553206829372 0.0510773959964104 -1.6768644928081424 1.4677676707421496 2.0503750486057086 -0.5200046160127103 1.1399895127138917
4.62279891968 0.0541553206829372 0.0510773959964104 -1.6768644928081424 1.4677676707421496 2.0503750486057086 -0.5200046160127103 1.1399895127138917
4.62279891968 0.0541553206829372 0.0510773959964104 -1.6768644928081424 1.4677676707421496 2.0503750486057086 -0.5200046160127103 1.1399895127138917
4.63290786743 0.0541399806715856 0.0510773959964104 -1.6782450938297873 1.4580881235792849 2.050356786767472 -0.5200046160127103 1.1399895127138917
4.63290786743 0.0541399806715856 0.0510773959964104 -1.6782450938297873 1.4580881235792849 2.050356786767472 -0.5200046160127103 1.1399895127138917
4.64292597771 0.0541399806715856 0.0510773959964104 -1.6782450938297873 1.4580881235792849 2.050356786767472 -0.5200046160127103 1.1399895127138917
4.64292597771 0.0541399806715856 0.0510773959964104 -1.6782450938297873 1.4580881235792849 2.050356786767472 -0.5200046160127103 1.1399895127138917
4.65278792381 0.0541093006488823 0.0510773959964104 -1.679426274703861 1.4483932364050682 2.0502289538998157 -0.5200046160127103 1.1399895127138917
4.65278792381 0.0541093006488823 0.0510773959964104 -1.679426274703861 1.4483932364050682 2.0502289538998157 -0.5200046160127103 1.1399895127138917
4.66271495819 0.0541093006488823 0.0510773959964104 -1.679426274703861 1.4483932364050682 2.0502289538998157 -0.5200046160127103 1.1399895127138917
4.66271495819 0.0541093006488823 0.0510773959964104 -1.679426274703861 1.4483932364050682 2.0502289538998157 -0.5200046160127103 1.1399895127138917
4.67283201218 0.0541093006488823 0.0510773959964104 -1.679426274703861 1.4483932364050682 2.0502289538998157 -0.5200046160127103 1.1399895127138917
4.67283201218 0.0541093006488823 0.0510773959964104 -1.679426274703861 1.4483932364050682 2.0502289538998157 -0.5200046160127103 1.1399895127138917
4.68294787407 0.0540939606375307 0.0510773959964104 -1.6798711350330575 1.438959129423829 2.0501011210321587 -0.5200046160127103 1.1399895127138917
4.68294787407 0.0540939606375307 0.0510773959964104 -1.6798711350330575 1.438959129423829 2.0501011210321587 -0.5200046160127103 1.1399895127138917
4.69272589684 0.0540632806148275 0.0510773959964104 -1.679932495078464 1.4295403624539416 2.0503841795248268 -0.5200046160127103 1.1399895127138917
4.69272589684 0.0540632806148275 0.0510773959964104 -1.679932495078464 1.4295403624539416 2.0503841795248268 -0.5200046160127103 1.1399895127138917
4.70290184021 0.0540632806148275 0.0510773959964104 -1.679932495078464 1.4295403624539416 2.0503841795248268 -0.5200046160127103 1.1399895127138917
4.70290184021 0.0540632806148275 0.0510773959964104 -1.679932495078464 1.4295403624539416 2.0503841795248268 -0.5200046160127103 1.1399895127138917
4.7127559185 0.0540632806148275 0.0510773959964104 -1.679932495078464 1.4295403624539416 2.0503841795248268 -0.5200046160127103 1.1399895127138917
4.7127559185 0.0540632806148275 0.0510773959964104 -1.679932495078464 1.4295403624539416 2.0503841795248268 -0.5200046160127103 1.1399895127138917
4.72286200523 0.0539865805580696 0.0510773959964104 -1.6799478350898156 1.4201062554727024 2.050292870333644 -0.5200046160127103 1.1399895127138917
4.72286200523 0.0539865805580696 0.0510773959964104 -1.6799478350898156 1.4201062554727024 2.050292870333644 -0.5200046160127103 1.1399895127138917
4.73248887062 0.053971240546718 0.0510773959964104 -1.6799478350898156 1.4111783688660664 2.050128513789514 -0.5200046160127103 1.1399895127138917
4.73248887062 0.053971240546718 0.0510773959964104 -1.6799478350898156 1.4111783688660664 2.050128513789514 -0.5200046160127103 1.1399895127138917
4.74246287346 0.053971240546718 0.0510773959964104 -1.6799478350898156 1.4111783688660664 2.050128513789514 -0.5200046160127103 1.1399895127138917
4.74246287346 0.053971240546718 0.0510773959964104 -1.6799478350898156 1.4111783688660664 2.050128513789514 -0.5200046160127103 1.1399895127138917
4.75255084038 0.053971240546718 0.0510773959964104 -1.6799478350898156 1.4111783688660664 2.050128513789514 -0.5200046160127103 1.1399895127138917
4.75255084038 0.053971240546718 0.0510773959964104 -1.6799478350898156 1.4111783688660664 2.050128513789514 -0.5200046160127103 1.1399895127138917
4.76269102097 0.053971240546718 0.0510773959964104 -1.6799478350898156 1.4017289218734754 2.0502654775762887 -0.5200046160127103 1.1399895127138917
4.76269102097 0.053971240546718 0.0510773959964104 -1.6799478350898156 1.4017289218734754 2.0502654775762887 -0.5200046160127103 1.1399895127138917
4.77267384529 0.053971240546718 0.0510773959964104 -1.6799478350898156 1.4017289218734754 2.0502654775762887 -0.5200046160127103 1.1399895127138917
4.77267384529 0.053971240546718 0.0510773959964104 -1.6799478350898156 1.4017289218734754 2.0502654775762887 -0.5200046160127103 1.1399895127138917
4.78283190727 0.053971240546718 0.0510773959964104 -1.6799478350898156 1.4017289218734754 2.0502654775762887 -0.5200046160127103 1.1399895127138917
4.78283190727 0.053971240546718 0.0510773959964104 -1.6799478350898156 1.4017289218734754 2.0502654775762887 -0.5200046160127103 1.1399895127138917
4.79282093048 0.053971240546718 0.0510773959964104 -1.6799478350898156 1.4017289218734754 2.0502654775762887 -0.5200046160127103 1.1399895127138917
4.79282093048 0.053971240546718 0.0510773959964104 -1.6799478350898156 1.4017289218734754 2.0502654775762887 -0.5200046160127103 1.1399895127138917
4.80291891098 0.053971240546718 0.0510773959964104 -1.6799478350898156 1.4017289218734754 2.0502654775762887 -0.5200046160127103 1.1399895127138917
4.80291891098 0.053971240546718 0.0510773959964104 -1.6799478350898156 1.4017289218734754 2.0502654775762887 -0.5200046160127103 1.1399895127138917
4.81281995773 0.053971240546718 0.0510773959964104 -1.6799478350898156 1.4017289218734754 2.0502654775762887 -0.5200046160127103 1.1399895127138917
4.81281995773 0.053971240546718 0.0510773959964104 -1.6799478350898156 1.4017289218734754 2.0502654775762887 -0.5200046160127103 1.1399895127138917
4.82276082039 0.053971240546718 0.0510773959964104 -1.6799478350898156 1.3837350885580388 2.050238084818934 -0.5200046160127103 1.1399895127138917
4.82276082039 0.053971240546718 0.0510773959964104 -1.6799478350898156 1.3837350885580388 2.050238084818934 -0.5200046160127103 1.1399895127138917
4.83281087875 0.053971240546718 0.0510773959964104 -1.6799478350898156 1.365986695424228 2.05025634665717 -0.5200046160127103 1.1399895127138917
4.83281087875 0.053971240546718 0.0510773959964104 -1.6799478350898156 1.365986695424228 2.05025634665717 -0.5200046160127103 1.1399895127138917
4.84277796745 0.053971240546718 0.0510773959964104 -1.6799478350898156 1.365986695424228 2.05025634665717 -0.5200046160127103 1.1399895127138917
4.84277796745 0.053971240546718 0.0510773959964104 -1.6799478350898156 1.365986695424228 2.05025634665717 -0.5200046160127103 1.1399895127138917
4.85271000862 0.053971240546718 0.0510773959964104 -1.6799478350898156 1.365986695424228 2.05025634665717 -0.5200046160127103 1.1399895127138917
4.85271000862 0.053971240546718 0.0510773959964104 -1.6799478350898156 1.365986695424228 2.05025634665717 -0.5200046160127103 1.1399895127138917
4.86291694641 0.053971240546718 0.0510773959964104 -1.6799478350898156 1.365986695424228 2.05025634665717 -0.5200046160127103 1.1399895127138917
4.86291694641 0.053971240546718 0.0510773959964104 -1.6799478350898156 1.365986695424228 2.05025634665717 -0.5200046160127103 1.1399895127138917
4.87291383743 0.053971240546718 0.0510773959964104 -1.6799478350898156 1.365986695424228 2.05025634665717 -0.5200046160127103 1.1399895127138917
4.87291383743 0.053971240546718 0.0510773959964104 -1.6799478350898156 1.365986695424228 2.05025634665717 -0.5200046160127103 1.1399895127138917
4.8829228878 0.053971240546718 0.0510773959964104 -1.6799478350898156 1.365986695424228 2.05025634665717 -0.5200046160127103 1.1399895127138917
4.8829228878 0.053971240546718 0.0510773959964104 -1.6799478350898156 1.365986695424228 2.05025634665717 -0.5200046160127103 1.1399895127138917
4.89286184311 0.053971240546718 0.0510773959964104 -1.6799478350898156 1.365986695424228 2.05025634665717 -0.5200046160127103 1.1399895127138917
4.89286184311 0.053971240546718 0.0510773959964104 -1.6799478350898156 1.365986695424228 2.05025634665717 -0.5200046160127103 1.1399895127138917
4.9029109478 0.0539559005353664 0.0510773959964104 -1.6799478350898156 1.3573502690332724 2.05025634665717 -0.5200046160127103 1.1399895127138917
4.9029109478 0.0539559005353664 0.0510773959964104 -1.6799478350898156 1.3573502690332724 2.05025634665717 -0.5200046160127103 1.1399895127138917
4.91288399696 0.0539559005353664 0.0510773959964104 -1.6799478350898156 1.3573502690332724 2.05025634665717 -0.5200046160127103 1.1399895127138917
4.91288399696 0.0539559005353664 0.0510773959964104 -1.6799478350898156 1.3573502690332724 2.05025634665717 -0.5200046160127103 1.1399895127138917
4.92279195786 0.0539098805013115 0.0510773959964104 -1.6799478350898156 1.3393257556951326 2.0500828591939224 -0.5200046160127103 1.1399895127138917
4.92279195786 0.0539098805013115 0.0510773959964104 -1.6799478350898156 1.3393257556951326 2.0500828591939224 -0.5200046160127103 1.1399895127138917
4.93284296989 0.0538178404332018 0.0510773959964104 -1.6799478350898156 1.330259808986332 2.050356786767472 -0.5200046160127103 1.1399895127138917
4.93284296989 0.0538178404332018 0.0510773959964104 -1.6799478350898156 1.330259808986332 2.050356786767472 -0.5200046160127103 1.1399895127138917
4.94296383858 0.0536030802742794 0.0510773959964104 -1.6799478350898156 1.3215160025159152 2.050283739414525 -0.5200046160127103 1.1399895127138917
4.94296383858 0.0536030802742794 0.0510773959964104 -1.6799478350898156 1.3215160025159152 2.050283739414525 -0.5200046160127103 1.1399895127138917
4.95289897919 0.0533116200585987 0.0510773959964104 -1.6799478350898156 1.3126801559773889 2.0501102519512773 -0.5200046160127103 1.1399895127138917
4.95289897919 0.0533116200585987 0.0510773959964104 -1.6799478350898156 1.3126801559773889 2.0501102519512773 -0.5200046160127103 1.1399895127138917
4.96294593811 0.0533116200585987 0.0510773959964104 -1.6799478350898156 1.3126801559773889 2.0501102519512773 -0.5200046160127103 1.1399895127138917
4.96294593811 0.0533116200585987 0.0510773959964104 -1.6799478350898156 1.3126801559773889 2.0501102519512773 -0.5200046160127103 1.1399895127138917
4.97289586067 0.0533116200585987 0.0510773959964104 -1.6799478350898156 1.3126801559773889 2.0501102519512773 -0.5200046160127103 1.1399895127138917
4.97289586067 0.0533116200585987 0.0510773959964104 -1.6799478350898156 1.3126801559773889 2.0501102519512773 -0.5200046160127103 1.1399895127138917
4.98297786713 0.0533116200585987 0.0510773959964104 -1.6799478350898156 1.3126801559773889 2.0501102519512773 -0.5200046160127103 1.1399895127138917
4.98297786713 0.0533116200585987 0.0510773959964104 -1.6799478350898156 1.3126801559773889 2.0501102519512773 -0.5200046160127103 1.1399895127138917
4.99376296997 0.0529434597861601 0.0510773959964104 -1.6799478350898156 1.303598869257237 2.050356786767472 -0.5200046160127103 1.1399895127138917
4.99376296997 0.0529434597861601 0.0510773959964104 -1.6799478350898156 1.303598869257237 2.050356786767472 -0.5200046160127103 1.1399895127138917
5.0027320385 0.0524065593888538 0.0510773959964104 -1.6799478350898156 1.295085162957094 2.0503111321718803 -0.5200046160127103 1.1399895127138917
5.0027320385 0.0524065593888538 0.0510773959964104 -1.6799478350898156 1.295085162957094 2.0503111321718803 -0.5200046160127103 1.1399895127138917
5.01498198509 0.0516088787985701 0.0510773959964104 -1.6799478350898156 1.2865254366228964 2.0501741683851056 -0.5200046160127103 1.1399895127138917
5.01498198509 0.0516088787985701 0.0510773959964104 -1.6799478350898156 1.2865254366228964 2.0501741683851056 -0.5200046160127103 1.1399895127138917
5.02263689041 0.0516088787985701 0.0510773959964104 -1.6799478350898156 1.2865254366228964 2.0501741683851056 -0.5200046160127103 1.1399895127138917
5.02263689041 0.0516088787985701 0.0510773959964104 -1.6799478350898156 1.2865254366228964 2.0501741683851056 -0.5200046160127103 1.1399895127138917
5.03290390968 0.0505043979812544 0.0510773959964104 -1.679932495078464 1.2776589100616669 2.0503111321718803 -0.5200046160127103 1.1399895127138917
5.03290390968 0.0505043979812544 0.0510773959964104 -1.679932495078464 1.2776589100616669 2.0503111321718803 -0.5200046160127103 1.1399895127138917
5.04300284386 0.0505043979812544 0.0510773959964104 -1.679932495078464 1.2776589100616669 2.0503111321718803 -0.5200046160127103 1.1399895127138917
5.04300284386 0.0505043979812544 0.0510773959964104 -1.679932495078464 1.2776589100616669 2.0503111321718803 -0.5200046160127103 1.1399895127138917
5.05287599564 0.0505043979812544 0.0510773959964104 -1.679932495078464 1.2776589100616669 2.0503111321718803 -0.5200046160127103 1.1399895127138917
5.05287599564 0.0505043979812544 0.0510773959964104 -1.679932495078464 1.2776589100616669 2.0503111321718803 -0.5200046160127103 1.1399895127138917
5.06287002563 0.0505043979812544 0.0510773959964104 -1.679932495078464 1.2776589100616669 2.0503111321718803 -0.5200046160127103 1.1399895127138917
5.06287002563 0.0505043979812544 0.0510773959964104 -1.679932495078464 1.2776589100616669 2.0503111321718803 -0.5200046160127103 1.1399895127138917
5.0727648735 0.0493385571185322 0.0510773959964104 -1.6799171550671126 1.2693139438863918 2.050329394010117 -0.5200046160127103 1.1399895127138917
5.0727648735 0.0493385571185322 0.0510773959964104 -1.6799171550671126 1.2693139438863918 2.050329394010117 -0.5200046160127103 1.1399895127138917
5.08295083046 0.04817271625581 0.0510773959964104 -1.679901815055761 1.2611070378132814 2.0502015611424604 -0.5200046160127103 1.1399895127138917
5.08295083046 0.04817271625581 0.0510773959964104 -1.679901815055761 1.2611070378132814 2.0502015611424604 -0.5200046160127103 1.1399895127138917
5.09290194511 0.0469761953703846 0.0510773959964104 -1.6798711350330575 1.253130231910445 2.050219822980697 -0.5200046160127103 1.1399895127138917
5.09290194511 0.0469761953703846 0.0510773959964104 -1.6798711350330575 1.253130231910445 2.050219822980697 -0.5200046160127103 1.1399895127138917
5.10291981697 0.0469761953703846 0.0510773959964104 -1.6798711350330575 1.253130231910445 2.050219822980697 -0.5200046160127103 1.1399895127138917
5.10291981697 0.0469761953703846 0.0510773959964104 -1.6798711350330575 1.253130231910445 2.050219822980697 -0.5200046160127103 1.1399895127138917
5.11281704903 0.0469761953703846 0.0510773959964104 -1.6798711350330575 1.253130231910445 2.050219822980697 -0.5200046160127103 1.1399895127138917
5.11281704903 0.0469761953703846 0.0510773959964104 -1.6798711350330575 1.253130231910445 2.050219822980697 -0.5200046160127103 1.1399895127138917
5.12284302711 0.047037555415791 0.0510773959964104 -1.6797944349762997 1.244861965791928 2.050329394010117 -0.5200046160127103 1.1399895127138917
5.12284302711 0.047037555415791 0.0510773959964104 -1.6797944349762997 1.244861965791928 2.050329394010117 -0.5200046160127103 1.1399895127138917
5.1328368187 0.047037555415791 0.0510773959964104 -1.6797944349762997 1.244861965791928 2.050329394010117 -0.5200046160127103 1.1399895127138917
5.1328368187 0.047037555415791 0.0510773959964104 -1.6797944349762997 1.244861965791928 2.050329394010117 -0.5200046160127103 1.1399895127138917
5.14296388626 0.047037555415791 0.0510773959964104 -1.6797944349762997 1.244861965791928 2.050329394010117 -0.5200046160127103 1.1399895127138917
5.14296388626 0.047037555415791 0.0510773959964104 -1.6797944349762997 1.244861965791928 2.050329394010117 -0.5200046160127103 1.1399895127138917
5.15288496017 0.047037555415791 0.0510773959964104 -1.6797484149422448 1.227665813066775 2.0501467756277503 -0.5200046160127103 1.1399895127138917
5.15288496017 0.047037555415791 0.0510773959964104 -1.6797484149422448 1.227665813066775 2.0501467756277503 -0.5200046160127103 1.1399895127138917
5.16271901131 0.047037555415791 0.0510773959964104 -1.6797484149422448 1.227665813066775 2.0501467756277503 -0.5200046160127103 1.1399895127138917
5.16271901131 0.047037555415791 0.0510773959964104 -1.6797484149422448 1.227665813066775 2.0501467756277503 -0.5200046160127103 1.1399895127138917
5.17285895348 0.047037555415791 0.0510620559850588 -1.6796410348627837 1.218431126233107 2.050329394010117 -0.5200046160127103 1.1399895127138917
5.17285895348 0.047037555415791 0.0510620559850588 -1.6796410348627837 1.218431126233107 2.050329394010117 -0.5200046160127103 1.1399895127138917
5.18295693398 0.047037555415791 0.0510620559850588 -1.6796410348627837 1.218431126233107 2.050329394010117 -0.5200046160127103 1.1399895127138917
5.18295693398 0.047037555415791 0.0510620559850588 -1.6796410348627837 1.218431126233107 2.050329394010117 -0.5200046160127103 1.1399895127138917
5.19273090363 0.047037555415791 0.0510620559850588 -1.6796410348627837 1.218431126233107 2.050329394010117 -0.5200046160127103 1.1399895127138917
5.19273090363 0.047037555415791 0.0510620559850588 -1.6796410348627837 1.218431126233107 2.050329394010117 -0.5200046160127103 1.1399895127138917
5.20355391502 0.047037555415791 0.0510620559850588 -1.6794569547265643 1.2091964393994383 2.050238084818934 -0.5200046160127103 1.1399895127138917
5.20355391502 0.047037555415791 0.0510620559850588 -1.6794569547265643 1.2091964393994383 2.050238084818934 -0.5200046160127103 1.1399895127138917
5.21274089813 0.047037555415791 0.0510620559850588 -1.6794569547265643 1.2091964393994383 2.050238084818934 -0.5200046160127103 1.1399895127138917
5.21274089813 0.047037555415791 0.0510620559850588 -1.6794569547265643 1.2091964393994383 2.050238084818934 -0.5200046160127103 1.1399895127138917
5.22265601158 0.047037555415791 0.0510620559850588 -1.6794569547265643 1.2091964393994383 2.050238084818934 -0.5200046160127103 1.1399895127138917
5.22265601158 0.047037555415791 0.0510620559850588 -1.6794569547265643 1.2091964393994383 2.050238084818934 -0.5200046160127103 1.1399895127138917
5.23281097412 0.047037555415791 0.0510620559850588 -1.6794569547265643 1.2091964393994383 2.050238084818934 -0.5200046160127103 1.1399895127138917
5.23281097412 0.047037555415791 0.0510620559850588 -1.6794569547265643 1.2091964393994383 2.050238084818934 -0.5200046160127103 1.1399895127138917
5.24280285835 0.047037555415791 0.0510467159737072 -1.6793802546698062 1.2002071927473958 2.050091990113041 -0.5200046160127103 1.1399895127138917
5.24280285835 0.047037555415791 0.0510467159737072 -1.6793802546698062 1.2002071927473958 2.050091990113041 -0.5200046160127103 1.1399895127138917
5.25290894508 0.047037555415791 0.0509546759055975 -1.6793342346357514 1.1914940662996825 2.0503202630909985 -0.5200046160127103 1.1399895127138917
5.25290894508 0.047037555415791 0.0509546759055975 -1.6793342346357514 1.1914940662996825 2.0503202630909985 -0.5200046160127103 1.1399895127138917
5.26292490959 0.047037555415791 0.0506632156899169 -1.6793188946243998 1.1831491001244074 2.05025634665717 -0.5200046160127103 1.1399895127138917
5.26292490959 0.047037555415791 0.0506632156899169 -1.6793188946243998 1.1831491001244074 2.05025634665717 -0.5200046160127103 1.1399895127138917
5.27306485176 0.047037555415791 0.0505711756218073 -1.679303554613048 1.1753256943350872 2.0501102519512773 -0.5200046160127103 1.1399895127138917
5.27306485176 0.047037555415791 0.0505711756218073 -1.679303554613048 1.1753256943350872 2.0501102519512773 -0.5200046160127103 1.1399895127138917
5.28275084496 0.047037555415791 0.0505711756218073 -1.679303554613048 1.1753256943350872 2.0501102519512773 -0.5200046160127103 1.1399895127138917
5.28275084496 0.047037555415791 0.0505711756218073 -1.679303554613048 1.1753256943350872 2.0501102519512773 -0.5200046160127103 1.1399895127138917
5.29292488098 0.047037555415791 0.0505711756218073 -1.679303554613048 1.1753256943350872 2.0501102519512773 -0.5200046160127103 1.1399895127138917
5.29292488098 0.047037555415791 0.0505711756218073 -1.679303554613048 1.1753256943350872 2.0501102519512773 -0.5200046160127103 1.1399895127138917
5.30279493332 0.047037555415791 0.0505711756218073 -1.679303554613048 1.1753256943350872 2.0501102519512773 -0.5200046160127103 1.1399895127138917
5.30279493332 0.047037555415791 0.0505711756218073 -1.679303554613048 1.1753256943350872 2.0501102519512773 -0.5200046160127103 1.1399895127138917
5.3126809597 0.047037555415791 0.050463795542346 -1.6790427744200709 1.1675636485911731 2.050338524929235 -0.5200046160127103 1.1399895127138917
5.3126809597 0.047037555415791 0.050463795542346 -1.6790427744200709 1.1675636485911731 2.050338524929235 -0.5200046160127103 1.1399895127138917
5.32275485992 0.047037555415791 0.0504177755082912 -1.678291113863842 1.1593567425180629 2.050274608495407 -0.5200046160127103 1.1399895127138917
5.32275485992 0.047037555415791 0.0504177755082912 -1.678291113863842 1.1593567425180629 2.050274608495407 -0.5200046160127103 1.1399895127138917
5.33280587196 0.047037555415791 0.0504177755082912 -1.678291113863842 1.1593567425180629 2.050274608495407 -0.5200046160127103 1.1399895127138917
5.33280587196 0.047037555415791 0.0504177755082912 -1.678291113863842 1.1593567425180629 2.050274608495407 -0.5200046160127103 1.1399895127138917
5.34275388718 0.047037555415791 0.0504177755082912 -1.678291113863842 1.1593567425180629 2.050274608495407 -0.5200046160127103 1.1399895127138917
5.34275388718 0.047037555415791 0.0504177755082912 -1.678291113863842 1.1593567425180629 2.050274608495407 -0.5200046160127103 1.1399895127138917
5.35317182541 0.047037555415791 0.0504177755082912 -1.6770639129557132 1.1509350762860298 2.0501193828703954 -0.5200046160127103 1.1399895127138917
5.35317182541 0.047037555415791 0.0504177755082912 -1.6770639129557132 1.1509350762860298 2.0501193828703954 -0.5200046160127103 1.1399895127138917
5.36248993874 0.047037555415791 0.0504177755082912 -1.675806032024881 1.142467390019942 2.050329394010117 -0.5200046160127103 1.1399895127138917
5.36248993874 0.047037555415791 0.0504177755082912 -1.675806032024881 1.142467390019942 2.050329394010117 -0.5200046160127103 1.1399895127138917
5.37250494957 0.047037555415791 0.0504177755082912 -1.675806032024881 1.142467390019942 2.050329394010117 -0.5200046160127103 1.1399895127138917
5.37250494957 0.047037555415791 0.0504177755082912 -1.675806032024881 1.142467390019942 2.050329394010117 -0.5200046160127103 1.1399895127138917
5.38250589371 0.047037555415791 0.0504177755082912 -1.675806032024881 1.142467390019942 2.050329394010117 -0.5200046160127103 1.1399895127138917
5.38250589371 0.047037555415791 0.0504177755082912 -1.675806032024881 1.142467390019942 2.050329394010117 -0.5200046160127103 1.1399895127138917
5.39289999008 0.047037555415791 0.0503717554742364 -1.6739498906513368 1.133999703753854 2.050292870333644 -0.5200046160127103 1.1399895127138917
5.39289999008 0.047037555415791 0.0503717554742364 -1.6739498906513368 1.133999703753854 2.050292870333644 -0.5200046160127103 1.1399895127138917
5.40277695656 0.047037555415791 0.0502950554174784 -1.67178694905076 1.1256700775899309 2.050165037465987 -0.5200046160127103 1.1399895127138917
5.40277695656 0.047037555415791 0.0502950554174784 -1.67178694905076 1.1256700775899309 2.050165037465987 -0.5200046160127103 1.1399895127138917
5.41276288033 0.047037555415791 0.0501569953153139 -1.6691177870755802 1.117048991210327 2.0503111321718803 -0.5200046160127103 1.1399895127138917
5.41276288033 0.047037555415791 0.0501569953153139 -1.6691177870755802 1.117048991210327 2.0503111321718803 -0.5200046160127103 1.1399895127138917
5.42285895348 0.047037555415791 0.0501569953153139 -1.6691177870755802 1.117048991210327 2.0503111321718803 -0.5200046160127103 1.1399895127138917
5.42285895348 0.047037555415791 0.0501569953153139 -1.6691177870755802 1.117048991210327 2.0503111321718803 -0.5200046160127103 1.1399895127138917
5.43293595314 0.047037555415791 0.0501263152926106 -1.6662492049528297 1.1091488853642486 2.0503111321718803 -0.5200091814722694 1.1399849472543326
5.43293595314 0.047037555415791 0.0501263152926106 -1.6662492049528297 1.1091488853642486 2.0503111321718803 -0.5200091814722694 1.1399849472543326
5.44293904305 0.047037555415791 0.0501263152926106 -1.6662492049528297 1.1091488853642486 2.0503111321718803 -0.5200091814722694 1.1399849472543326
5.44293904305 0.047037555415791 0.0501263152926106 -1.6662492049528297 1.1091488853642486 2.0503111321718803 -0.5200091814722694 1.1399849472543326
5.45286798477 0.047037555415791 0.0501263152926106 -1.6662492049528297 1.1091488853642486 2.0503111321718803 -0.5200091814722694 1.1399849472543326
5.45286798477 0.047037555415791 0.0501263152926106 -1.6662492049528297 1.1091488853642486 2.0503111321718803 -0.5200091814722694 1.1399849472543326
5.4629638195 0.047037555415791 0.0501263152926106 -1.6662492049528297 1.1091488853642486 2.0503111321718803 -0.5200091814722694 1.1399849472543326
5.4629638195 0.047037555415791 0.0501263152926106 -1.6662492049528297 1.1091488853642486 2.0503111321718803 -0.5200091814722694 1.1399849472543326
5.4729950428 0.047037555415791 0.0500649552472042 -1.6629971225462885 1.1013868396203346 2.0502015611424604 -0.5200046160127103 1.1399895127138917
5.4729950428 0.047037555415791 0.0500649552472042 -1.6629971225462885 1.1013868396203346 2.0502015611424604 -0.5200046160127103 1.1399895127138917
5.48290300369 0.047037555415791 0.0498195150655785 -1.6593922198786604 1.0940696542056174 2.050165037465987 -0.5200046160127103 1.1399895127138917
5.48290300369 0.047037555415791 0.0498195150655785 -1.6593922198786604 1.0940696542056174 2.050165037465987 -0.5200046160127103 1.1399895127138917
5.49277687073 0.047037555415791 0.0493439747136786 -1.6556645971202195 1.0870592690179324 2.0503020012527617 -0.5200046160127103 1.1399895127138917
5.49277687073 0.047037555415791 0.0493439747136786 -1.6556645971202195 1.0870592690179324 2.0503020012527617 -0.5200046160127103 1.1399895127138917
5.50297999382 0.047037555415791 0.0493439747136786 -1.6556645971202195 1.0870592690179324 2.0503020012527617 -0.5200046160127103 1.1399895127138917
5.50297999382 0.047037555415791 0.0493439747136786 -1.6556645971202195 1.0870592690179324 2.0503020012527617 -0.5200046160127103 1.1399895127138917
5.51333594322 0.047037555415791 0.0488224143277239 -1.651814254270966 1.0807852043751247 2.0502289538998157 -0.5200046160127103 1.1399895127138917
5.51333594322 0.047037555415791 0.0488224143277239 -1.651814254270966 1.0807852043751247 2.0502289538998157 -0.5200046160127103 1.1399895127138917
5.52296805382 0.047037555415791 0.0488224143277239 -1.651814254270966 1.0807852043751247 2.0502289538998157 -0.5200046160127103 1.1399895127138917
5.52296805382 0.047037555415791 0.0488224143277239 -1.651814254270966 1.0807852043751247 2.0502289538998157 -0.5200046160127103 1.1399895127138917
5.53282904625 0.047037555415791 0.0488224143277239 -1.651814254270966 1.0807852043751247 2.0502289538998157 -0.5200046160127103 1.1399895127138917
5.53282904625 0.047037555415791 0.0488224143277239 -1.651814254270966 1.0807852043751247 2.0502289538998157 -0.5200046160127103 1.1399895127138917
5.54296302795 0.047037555415791 0.0488224143277239 -1.651814254270966 1.0807852043751247 2.0502289538998157 -0.5200046160127103 1.1399895127138917
5.54296302795 0.047037555415791 0.0488224143277239 -1.651814254270966 1.0807852043751247 2.0502289538998157 -0.5200046160127103 1.1399895127138917
5.55347084999 0.047037555415791 0.0478713336239242 -1.6477644912741414 1.0750633801409746 2.0500828591939224 -0.5200046160127103 1.1399895127138917
5.55347084999 0.047037555415791 0.0478713336239242 -1.6477644912741414 1.0750633801409746 2.0500828591939224 -0.5200046160127103 1.1399895127138917
5.56258487701 0.047037555415791 0.046352672500115 -1.6437300682886682 1.06967903615656 2.0503020012527617 -0.5200046160127103 1.1399895127138917
5.56258487701 0.047037555415791 0.046352672500115 -1.6437300682886682 1.06967903615656 2.0503020012527617 -0.5200046160127103 1.1399895127138917
5.57266592979 0.047037555415791 0.0447726513308993 -1.6393428250421085 1.0645861523878262 2.0502289538998157 -0.5200046160127103 1.1399895127138917
5.57266592979 0.047037555415791 0.0447726513308993 -1.6393428250421085 1.0645861523878262 2.0502289538998157 -0.5200046160127103 1.1399895127138917
5.58284783363 0.047037555415791 0.0447726513308993 -1.6393428250421085 1.0645861523878262 2.0502289538998157 -0.5200046160127103 1.1399895127138917
5.58284783363 0.047037555415791 0.0447726513308993 -1.6393428250421085 1.0645861523878262 2.0502289538998157 -0.5200046160127103 1.1399895127138917
5.5927438736 0.047037555415791 0.0426557297643774 -1.6348175216933838 1.059493268619092 2.050128513789514 -0.5200046160127103 1.1399895127138917
5.5927438736 0.047037555415791 0.0426557297643774 -1.6348175216933838 1.059493268619092 2.050128513789514 -0.5200046160127103 1.1399895127138917
5.60287690163 0.047037555415791 0.0426557297643774 -1.6348175216933838 1.059493268619092 2.050128513789514 -0.5200046160127103 1.1399895127138917
5.60287690163 0.047037555415791 0.0426557297643774 -1.6348175216933838 1.059493268619092 2.050128513789514 -0.5200046160127103 1.1399895127138917
5.61288905144 0.047037555415791 0.0426557297643774 -1.6348175216933838 1.059493268619092 2.050128513789514 -0.5200046160127103 1.1399895127138917
5.61288905144 0.047037555415791 0.0426557297643774 -1.6348175216933838 1.059493268619092 2.050128513789514 -0.5200046160127103 1.1399895127138917
5.62271904945 0.047037555415791 0.0426557297643774 -1.6348175216933838 1.059493268619092 2.050128513789514 -0.5200046160127103 1.1399895127138917
5.62271904945 0.047037555415791 0.0426557297643774 -1.6348175216933838 1.059493268619092 2.050128513789514 -0.5200046160127103 1.1399895127138917
5.63374090195 0.047037555415791 0.0426557297643774 -1.6348175216933838 1.059493268619092 2.050128513789514 -0.5200046160127103 1.1399895127138917
5.63374090195 0.047037555415791 0.0426557297643774 -1.6348175216933838 1.059493268619092 2.050128513789514 -0.5200046160127103 1.1399895127138917
5.64293289185 0.047037555415791 0.0426557297643774 -1.6348175216933838 1.059493268619092 2.050128513789514 -0.5200046160127103 1.1399895127138917
5.64293289185 0.047037555415791 0.0426557297643774 -1.6348175216933838 1.059493268619092 2.050128513789514 -0.5200046160127103 1.1399895127138917
5.6540620327 0.047037555415791 0.0375321659729402 -1.6250766144851123 1.0500284816151495 2.0502106920615786 -0.5200046160127103 1.1399895127138917
5.6540620327 0.047037555415791 0.0375321659729402 -1.6250766144851123 1.0500284816151495 2.0502106920615786 -0.5200046160127103 1.1399895127138917
5.66253089905 0.047037555415791 0.0347402839069474 -1.6205973311704427 1.0456565783799414 2.050073728274804 -0.5200046160127103 1.1399895127138917
5.66253089905 0.047037555415791 0.0347402839069474 -1.6205973311704427 1.0456565783799414 2.050073728274804 -0.5200046160127103 1.1399895127138917
5.67280602455 0.047037555415791 0.0347402839069474 -1.6205973311704427 1.0456565783799414 2.050073728274804 -0.5200046160127103 1.1399895127138917
5.67280602455 0.047037555415791 0.0347402839069474 -1.6205973311704427 1.0456565783799414 2.050073728274804 -0.5200046160127103 1.1399895127138917
5.6830868721 0.047037555415791 0.0313348013868904 -1.6157498875833345 1.041438075258249 2.0502289538998157 -0.5200046160127103 1.1399895127138917
5.6830868721 0.047037555415791 0.0313348013868904 -1.6157498875833345 1.041438075258249 2.0502289538998157 -0.5200046160127103 1.1399895127138917
5.69286584854 0.047037555415791 0.0313348013868904 -1.6157498875833345 1.041438075258249 2.0502289538998157 -0.5200046160127103 1.1399895127138917
5.69286584854 0.047037555415791 0.0313348013868904 -1.6157498875833345 1.041438075258249 2.0502289538998157 -0.5200046160127103 1.1399895127138917
5.70294690132 0.047037555415791 0.0313348013868904 -1.6157498875833345 1.041438075258249 2.0502289538998157 -0.5200046160127103 1.1399895127138917
5.70294690132 0.047037555415791 0.0313348013868904 -1.6157498875833345 1.041438075258249 2.0502289538998157 -0.5200046160127103 1.1399895127138917
5.71289992332 0.047037555415791 0.0313348013868904 -1.6157498875833345 1.041438075258249 2.0502289538998157 -0.5200046160127103 1.1399895127138917
5.71289992332 0.047037555415791 0.0313348013868904 -1.6157498875833345 1.041438075258249 2.0502289538998157 -0.5200046160127103 1.1399895127138917
5.72418498993 0.047037555415791 0.0251834568348954 -1.6060243203864148 1.0339828297413671 2.050073728274804 -0.5200046160127103 1.1399895127138917
5.72418498993 0.047037555415791 0.0251834568348954 -1.6060243203864148 1.0339828297413671 2.050073728274804 -0.5200046160127103 1.1399895127138917
5.73266100883 0.047037555415791 0.0251834568348954 -1.6060243203864148 1.0339828297413671 2.050073728274804 -0.5200046160127103 1.1399895127138917
5.73266100883 0.047037555415791 0.0251834568348954 -1.6060243203864148 1.0339828297413671 2.050073728274804 -0.5200046160127103 1.1399895127138917
5.74271702766 0.047037555415791 0.0221921546213318 -1.600179776061452 1.03066938728942 2.050128513789514 -0.5200046160127103 1.1399895127138917
5.74271702766 0.047037555415791 0.0221921546213318 -1.600179776061452 1.03066938728942 2.050128513789514 -0.5200046160127103 1.1399895127138917
5.7528488636 0.047037555415791 0.0199678529753485 -1.5943965917818956 1.027724105109911 2.050128513789514 -0.5200046160127103 1.1399895127138917
5.7528488636 0.047037555415791 0.0199678529753485 -1.5943965917818956 1.027724105109911 2.050128513789514 -0.5200046160127103 1.1399895127138917
5.76294589043 0.047037555415791 0.0199678529753485 -1.5943965917818956 1.027724105109911 2.050128513789514 -0.5200046160127103 1.1399895127138917
5.76294589043 0.047037555415791 0.0199678529753485 -1.5943965917818956 1.027724105109911 2.050128513789514 -0.5200046160127103 1.1399895127138917
5.77284002304 0.047037555415791 0.0199678529753485 -1.5943965917818956 1.027724105109911 2.050128513789514 -0.5200046160127103 1.1399895127138917
5.77284002304 0.047037555415791 0.0199678529753485 -1.5943965917818956 1.027724105109911 2.050128513789514 -0.5200046160127103 1.1399895127138917
5.78339385986 0.047037555415791 0.0199678529753485 -1.5943965917818956 1.027724105109911 2.050128513789514 -0.5200046160127103 1.1399895127138917
5.78339385986 0.047037555415791 0.0199678529753485 -1.5943965917818956 1.027724105109911 2.050128513789514 -0.5200046160127103 1.1399895127138917
5.79266405106 0.047037555415791 0.0176515112612557 -1.5886901075590971 1.025653203577444 2.0501193828703954 -0.5200046160127103 1.1399895127138917
5.79266405106 0.047037555415791 0.0176515112612557 -1.5886901075590971 1.025653203577444 2.0501193828703954 -0.5200046160127103 1.1399895127138917
5.80350184441 0.047037555415791 0.0160101300466336 -1.5833978036427925 1.0241038624309315 2.0501467756277503 -0.5200046160127103 1.1399895127138917
5.80350184441 0.047037555415791 0.0160101300466336 -1.5833978036427925 1.0241038624309315 2.0501467756277503 -0.5200046160127103 1.1399895127138917
5.81324100494 0.047037555415791 0.0144914689228243 -1.5774458792383683 1.02275394143199 2.0501467756277503 -0.5200046160127103 1.1399895127138917
5.81324100494 0.047037555415791 0.0144914689228243 -1.5774458792383683 1.02275394143199 2.0501467756277503 -0.5200046160127103 1.1399895127138917
5.822660923 0.047037555415791 0.0144914689228243 -1.5774458792383683 1.02275394143199 2.0501467756277503 -0.5200046160127103 1.1399895127138917
5.822660923 0.047037555415791 0.0144914689228243 -1.5774458792383683 1.02275394143199 2.0501467756277503 -0.5200046160127103 1.1399895127138917
5.83288502693 0.047037555415791 0.0141233086503857 -1.5710951145388026 1.0218949007963 2.0501467756277503 -0.5200046160127103 1.1399895127138917
5.83288502693 0.047037555415791 0.0141233086503857 -1.5710951145388026 1.0218949007963 2.0501467756277503 -0.5200046160127103 1.1399895127138917
5.84285402298 0.047037555415791 0.0141233086503857 -1.5710951145388026 1.0218949007963 2.0501467756277503 -0.5200046160127103 1.1399895127138917
5.84285402298 0.047037555415791 0.0141233086503857 -1.5710951145388026 1.0218949007963 2.0501467756277503 -0.5200046160127103 1.1399895127138917
5.85285401344 0.047037555415791 0.0141233086503857 -1.5710951145388026 1.0218949007963 2.0501467756277503 -0.5200046160127103 1.1399895127138917
5.85285401344 0.047037555415791 0.0141233086503857 -1.5710951145388026 1.0218949007963 2.0501467756277503 -0.5200046160127103 1.1399895127138917
5.86284899712 0.047037555415791 0.0141233086503857 -1.5710951145388026 1.0218949007963 2.0501467756277503 -0.5200046160127103 1.1399895127138917
5.86284899712 0.047037555415791 0.0141233086503857 -1.5710951145388026 1.0218949007963 2.0501467756277503 -0.5200046160127103 1.1399895127138917
5.87275600433 0.047037555415791 0.0140772886163309 -1.5575345445039808 1.021189260274126 2.0501193828703954 -0.5200046160127103 1.1399895127138917
5.87275600433 0.047037555415791 0.0140772886163309 -1.5575345445039808 1.021189260274126 2.0501193828703954 -0.5200046160127103 1.1399895127138917
5.88290596008 0.047037555415791 0.0140772886163309 -1.5575345445039808 1.021189260274126 2.0501193828703954 -0.5200046160127103 1.1399895127138917
5.88290596008 0.047037555415791 0.0140772886163309 -1.5575345445039808 1.021189260274126 2.0501193828703954 -0.5200046160127103 1.1399895127138917
5.89351892471 0.047037555415791 0.0140619486049793 -1.5514599000087437 1.0210818801946646 2.0501193828703954 -0.5200046160127103 1.1399895127138917
5.89351892471 0.047037555415791 0.0140619486049793 -1.5514599000087437 1.0210818801946646 2.0501193828703954 -0.5200046160127103 1.1399895127138917
5.90264391899 0.047037555415791 0.0140619486049793 -1.5514599000087437 1.0210818801946646 2.0501193828703954 -0.5200046160127103 1.1399895127138917
5.90264391899 0.047037555415791 0.0140619486049793 -1.5514599000087437 1.0210818801946646 2.0501193828703954 -0.5200046160127103 1.1399895127138917
5.91263103485 0.047037555415791 0.0140619486049793 -1.5514599000087437 1.0210818801946646 2.0501193828703954 -0.5200046160127103 1.1399895127138917
5.91263103485 0.047037555415791 0.0140619486049793 -1.5514599000087437 1.0210818801946646 2.0501193828703954 -0.5200046160127103 1.1399895127138917
5.92276096344 0.047037555415791 0.0139545685255181 -1.5443881547756522 1.020959160103852 2.0501193828703954 -0.5200046160127103 1.1399895127138917
5.92276096344 0.047037555415791 0.0139545685255181 -1.5443881547756522 1.020959160103852 2.0501193828703954 -0.5200046160127103 1.1399895127138917
5.93287801743 0.047037555415791 0.0139545685255181 -1.5443881547756522 1.020959160103852 2.0501193828703954 -0.5200046160127103 1.1399895127138917
5.93287801743 0.047037555415791 0.0139545685255181 -1.5443881547756522 1.020959160103852 2.0501193828703954 -0.5200046160127103 1.1399895127138917
