riccardo-csl/Motion-Planning-for-TIAGo-Manipulator/T3_G_7/head_scan/head_scan/tiago_traiettorie_SG/3a-3b/place_3b_rep1.txt
time arm_1_joint arm_2_joint arm_3_joint arm_4_joint arm_5_joint arm_6_joint arm_7_joint
1.46868896484 0.0730235346454155 -0.1447378489068707 -1.2607360048730614 2.0827640658394824 2.050091990113041 -0.5200046160127103 1.1399895127138917
1.47873902321 0.0730235346454155 -0.1447378489068707 -1.2607360048730614 2.0827640658394824 2.050091990113041 -0.5200046160127103 1.1399895127138917
1.47873902321 0.0730235346454155 -0.1447378489068707 -1.2607360048730614 2.0827640658394824 2.050091990113041 -0.5200046160127103 1.1399895127138917
1.48868513107 0.0744501557011152 -0.1421607269998006 -1.2663351090163983 2.0827640658394824 2.050091990113041 -0.5200046160127103 1.1399895127138917
1.48868513107 0.0744501557011152 -0.1421607269998006 -1.2663351090163983 2.0827640658394824 2.050091990113041 -0.5200046160127103 1.1399895127138917
1.49884200096 0.0759688168249243 -0.1395836050927303 -1.2721182932959547 2.0827640658394824 2.050091990113041 -0.5200091814722694 1.1399849472543326
1.49884200096 0.0759688168249243 -0.1395836050927303 -1.2721182932959547 2.0827640658394824 2.050091990113041 -0.5200091814722694 1.1399849472543326
1.50867295265 0.0759688168249243 -0.1395836050927303 -1.2721182932959547 2.0827640658394824 2.050091990113041 -0.5200091814722694 1.1399849472543326
1.50867295265 0.0759688168249243 -0.1395836050927303 -1.2721182932959547 2.0827640658394824 2.050091990113041 -0.5200091814722694 1.1399849472543326
1.51886296272 0.0759688168249243 -0.1395836050927303 -1.2721182932959547 2.0827640658394824 2.050091990113041 -0.5200091814722694 1.1399849472543326
1.51886296272 0.0759688168249243 -0.1395836050927303 -1.2721182932959547 2.0827640658394824 2.050091990113041 -0.5200091814722694 1.1399849472543326
1.52893900871 0.077748258141711 -0.1373132834126922 -1.2782082778025432 2.0827640658394824 2.050091990113041 -0.5200046160127103 1.1399895127138917
1.52893900871 0.077748258141711 -0.1373132834126922 -1.2782082778025432 2.0827640658394824 2.050091990113041 -0.5200046160127103 1.1399895127138917
1.5399620533 0.080524800196352 -0.1340458609947997 -1.2908177671335654 2.0827640658394824 2.050091990113041 -0.5200046160127103 1.1399895127138917
1.5399620533 0.080524800196352 -0.1340458609947997 -1.2908177671335654 2.0827640658394824 2.050091990113041 -0.5200046160127103 1.1399895127138917
1.54855012894 0.080524800196352 -0.1340458609947997 -1.2908177671335654 2.0827640658394824 2.050091990113041 -0.5200046160127103 1.1399895127138917
1.54855012894 0.080524800196352 -0.1340458609947997 -1.2908177671335654 2.0827640658394824 2.050091990113041 -0.5200046160127103 1.1399895127138917
1.55868315697 0.0814912209115034 -0.1331714803477581 -1.2975827121396246 2.0827640658394824 2.050091990113041 -0.5200046160127103 1.1399895127138917
1.55868315697 0.0814912209115034 -0.1331714803477581 -1.2975827121396246 2.0827640658394824 2.050091990113041 -0.5200046160127103 1.1399895127138917
1.56864094734 0.0814912209115034 -0.1331714803477581 -1.2975827121396246 2.0827640658394824 2.050091990113041 -0.5200046160127103 1.1399895127138917
1.56864094734 0.0814912209115034 -0.1331714803477581 -1.2975827121396246 2.0827640658394824 2.050091990113041 -0.5200046160127103 1.1399895127138917
1.57871508598 0.0823656015585451 -0.1326805999845066 -1.3043323171343324 2.0827640658394824 2.050091990113041 -0.5200046160127103 1.1399895127138917
1.57871508598 0.0823656015585451 -0.1326805999845066 -1.3043323171343324 2.0827640658394824 2.050091990113041 -0.5200046160127103 1.1399895127138917
1.58854007721 0.0823656015585451 -0.1326805999845066 -1.3043323171343324 2.0827640658394824 2.050091990113041 -0.5200046160127103 1.1399895127138917
1.58854007721 0.0823656015585451 -0.1326805999845066 -1.3043323171343324 2.0827640658394824 2.050091990113041 -0.5200046160127103 1.1399895127138917
1.59875202179 0.0832399822055868 -0.1322970997007164 -1.3111432821744466 2.0827640658394824 2.050091990113041 -0.5200046160127103 1.1399895127138917
1.59875202179 0.0832399822055868 -0.1322970997007164 -1.3111432821744466 2.0827640658394824 2.050091990113041 -0.5200046160127103 1.1399895127138917
1.60853600502 0.0832399822055868 -0.1322970997007164 -1.3111432821744466 2.0827640658394824 2.050091990113041 -0.5200046160127103 1.1399895127138917
1.60853600502 0.0832399822055868 -0.1322970997007164 -1.3111432821744466 2.0827640658394824 2.050091990113041 -0.5200046160127103 1.1399895127138917
1.61881995201 0.0832399822055868 -0.1322970997007164 -1.3111432821744466 2.0827640658394824 2.050091990113041 -0.5200046160127103 1.1399895127138917
1.61881995201 0.0832399822055868 -0.1322970997007164 -1.3111432821744466 2.0827640658394824 2.050091990113041 -0.5200046160127103 1.1399895127138917
1.62895703316 0.0832399822055868 -0.1322970997007164 -1.3111432821744466 2.0827640658394824 2.050091990113041 -0.5200046160127103 1.1399895127138917
1.62895703316 0.0832399822055868 -0.1322970997007164 -1.3111432821744466 2.0827640658394824 2.050091990113041 -0.5200046160127103 1.1399895127138917
1.63889098167 0.0840069827731672 -0.1319902994736841 -1.317509386885364 2.0827640658394824 2.050091990113041 -0.5200046160127103 1.1399895127138917
1.63889098167 0.0840069827731672 -0.1319902994736841 -1.317509386885364 2.0827640658394824 2.050091990113041 -0.5200046160127103 1.1399895127138917
1.64865899086 0.0846666032612863 -0.1311619388606973 -1.3241822918233137 2.0827487258281305 2.050091990113041 -0.5200046160127103 1.1399895127138917
1.64865899086 0.0846666032612863 -0.1311619388606973 -1.3241822918233137 2.0827487258281305 2.050091990113041 -0.5200046160127103 1.1399895127138917
1.65881800652 0.0846666032612863 -0.1311619388606973 -1.3241822918233137 2.0827487258281305 2.050091990113041 -0.5200046160127103 1.1399895127138917
1.65881800652 0.0846666032612863 -0.1311619388606973 -1.3241822918233137 2.0827487258281305 2.050091990113041 -0.5200046160127103 1.1399895127138917
1.6686501503 0.0851421436131862 -0.1302415381796008 -1.3302876163412538 2.082733385816779 2.050091990113041 -0.5200046160127103 1.1399895127138917
1.6686501503 0.0851421436131862 -0.1302415381796008 -1.3302876163412538 2.082733385816779 2.050091990113041 -0.5200046160127103 1.1399895127138917
1.67887210846 0.0856943840218442 -0.1288149171239013 -1.3363315808137874 2.082733385816779 2.050091990113041 -0.5200046160127103 1.1399895127138917
1.67887210846 0.0856943840218442 -0.1288149171239013 -1.3363315808137874 2.082733385816779 2.050091990113041 -0.5200046160127103 1.1399895127138917
1.68874311447 0.0856943840218442 -0.1288149171239013 -1.3363315808137874 2.082733385816779 2.050091990113041 -0.5200046160127103 1.1399895127138917
1.68874311447 0.0856943840218442 -0.1288149171239013 -1.3363315808137874 2.082733385816779 2.050091990113041 -0.5200046160127103 1.1399895127138917
1.69876694679 0.0862926444645568 -0.1274189760909048 -1.342160785127399 2.0827180458054277 2.050091990113041 -0.5200046160127103 1.1399895127138917
1.69876694679 0.0862926444645568 -0.1274189760909048 -1.342160785127399 2.0827180458054277 2.050091990113041 -0.5200046160127103 1.1399895127138917
1.7085609436 0.0862926444645568 -0.1274189760909048 -1.342160785127399 2.0827180458054277 2.050091990113041 -0.5200046160127103 1.1399895127138917
1.7085609436 0.0862926444645568 -0.1274189760909048 -1.342160785127399 2.0827180458054277 2.050091990113041 -0.5200046160127103 1.1399895127138917
1.71878910065 0.0868295448618631 -0.1259463350011505 -1.348143389554526 2.082687365782724 2.050091990113041 -0.5200046160127103 1.1399895127138917
1.71878910065 0.0868295448618631 -0.1259463350011505 -1.348143389554526 2.082687365782724 2.050091990113041 -0.5200046160127103 1.1399895127138917
1.72897696495 0.0868295448618631 -0.1259463350011505 -1.348143389554526 2.082687365782724 2.050091990113041 -0.5200046160127103 1.1399895127138917
1.72897696495 0.0868295448618631 -0.1259463350011505 -1.348143389554526 2.082687365782724 2.050091990113041 -0.5200046160127103 1.1399895127138917
1.73862695694 0.087305085213763 -0.1244276738773412 -1.354218034049763 2.0826260057373176 2.050091990113041 -0.5200046160127103 1.1399895127138917
1.73862695694 0.087305085213763 -0.1244276738773412 -1.354218034049763 2.0826260057373176 2.050091990113041 -0.5200046160127103 1.1399895127138917
1.7488451004 0.087305085213763 -0.1244276738773412 -1.354218034049763 2.0826260057373176 2.050091990113041 -0.5200046160127103 1.1399895127138917
1.7488451004 0.087305085213763 -0.1244276738773412 -1.354218034049763 2.0826260057373176 2.050091990113041 -0.5200046160127103 1.1399895127138917
1.76017999649 0.087305085213763 -0.1244276738773412 -1.354218034049763 2.0826260057373176 2.050091990113041 -0.5200046160127103 1.1399895127138917
1.76017999649 0.087305085213763 -0.1244276738773412 -1.354218034049763 2.0826260057373176 2.050091990113041 -0.5200046160127103 1.1399895127138917
1.76890492439 0.087305085213763 -0.1244276738773412 -1.354218034049763 2.0826260057373176 2.050091990113041 -0.5200046160127103 1.1399895127138917
1.76890492439 0.087305085213763 -0.1244276738773412 -1.354218034049763 2.0826260057373176 2.050091990113041 -0.5200046160127103 1.1399895127138917
1.77849602699 0.088210145883508 -0.1215437517432389 -1.3661065428472594 2.082395905567044 2.050091990113041 -0.5200046160127103 1.1399895127138917
1.77849602699 0.088210145883508 -0.1215437517432389 -1.3661065428472594 2.082395905567044 2.050091990113041 -0.5200046160127103 1.1399895127138917
1.78852295876 0.088210145883508 -0.1215437517432389 -1.3661065428472594 2.082395905567044 2.050091990113041 -0.5200046160127103 1.1399895127138917
1.78852295876 0.088210145883508 -0.1215437517432389 -1.3661065428472594 2.082395905567044 2.050091990113041 -0.5200046160127103 1.1399895127138917
1.79887413979 0.088210145883508 -0.1215437517432389 -1.3661065428472594 2.082395905567044 2.050091990113041 -0.5200046160127103 1.1399895127138917
1.79887413979 0.088210145883508 -0.1215437517432389 -1.3661065428472594 2.082395905567044 2.050091990113041 -0.5200046160127103 1.1399895127138917
1.80876612663 0.088210145883508 -0.1215437517432389 -1.3661065428472594 2.082395905567044 2.050091990113041 -0.5200046160127103 1.1399895127138917
1.80876612663 0.088210145883508 -0.1215437517432389 -1.3661065428472594 2.082395905567044 2.050091990113041 -0.5200046160127103 1.1399895127138917
1.81876897812 0.0886856862354076 -0.1202551907897037 -1.3718897271268158 2.082211825430824 2.050091990113041 -0.5200046160127103 1.1399895127138917
1.81876897812 0.0886856862354076 -0.1202551907897037 -1.3718897271268158 2.082211825430824 2.050091990113041 -0.5200046160127103 1.1399895127138917
1.82867693901 0.0886856862354076 -0.1202551907897037 -1.3718897271268158 2.082211825430824 2.050091990113041 -0.5200046160127103 1.1399895127138917
1.82867693901 0.0886856862354076 -0.1202551907897037 -1.3718897271268158 2.082211825430824 2.050091990113041 -0.5200046160127103 1.1399895127138917
1.83878707886 0.0886856862354076 -0.1202551907897037 -1.3718897271268158 2.082211825430824 2.050091990113041 -0.5200046160127103 1.1399895127138917
1.83878707886 0.0886856862354076 -0.1202551907897037 -1.3718897271268158 2.082211825430824 2.050091990113041 -0.5200046160127103 1.1399895127138917
1.84867691994 0.0886856862354076 -0.1202551907897037 -1.3718897271268158 2.082211825430824 2.050091990113041 -0.5200046160127103 1.1399895127138917
1.84867691994 0.0886856862354076 -0.1202551907897037 -1.3718897271268158 2.082211825430824 2.050091990113041 -0.5200046160127103 1.1399895127138917
1.85887598991 0.0886856862354076 -0.1202551907897037 -1.3718897271268158 2.082211825430824 2.050091990113041 -0.5200046160127103 1.1399895127138917
1.85887598991 0.0886856862354076 -0.1202551907897037 -1.3718897271268158 2.082211825430824 2.050091990113041 -0.5200046160127103 1.1399895127138917
1.86889100075 0.0886856862354076 -0.1202551907897037 -1.3718897271268158 2.082211825430824 2.050091990113041 -0.5200046160127103 1.1399895127138917
1.86889100075 0.0886856862354076 -0.1202551907897037 -1.3718897271268158 2.082211825430824 2.050091990113041 -0.5200046160127103 1.1399895127138917
1.87918114662 0.0890691865191981 -0.1193347901086073 -1.3772280510771755 2.0820124052832534 2.050091990113041 -0.5200046160127103 1.1399895127138917
1.87918114662 0.0890691865191981 -0.1193347901086073 -1.3772280510771755 2.0820124052832534 2.050091990113041 -0.5200046160127103 1.1399895127138917
1.88864612579 0.0890691865191981 -0.1193347901086073 -1.3772280510771755 2.0820124052832534 2.050091990113041 -0.5200046160127103 1.1399895127138917
1.88864612579 0.0890691865191981 -0.1193347901086073 -1.3772280510771755 2.0820124052832534 2.050091990113041 -0.5200046160127103 1.1399895127138917
1.89869713783 0.0890691865191981 -0.1193347901086073 -1.3772280510771755 2.0820124052832534 2.050091990113041 -0.5200046160127103 1.1399895127138917
1.89869713783 0.0890691865191981 -0.1193347901086073 -1.3772280510771755 2.0820124052832534 2.050091990113041 -0.5200046160127103 1.1399895127138917
1.90867900848 0.0890691865191981 -0.1193347901086073 -1.3772280510771755 2.0820124052832534 2.050091990113041 -0.5200046160127103 1.1399895127138917
1.90867900848 0.0890691865191981 -0.1193347901086073 -1.3772280510771755 2.0820124052832534 2.050091990113041 -0.5200046160127103 1.1399895127138917
1.91887712479 0.0890691865191981 -0.1193347901086073 -1.3772280510771755 2.0820124052832534 2.050091990113041 -0.5200046160127103 1.1399895127138917
1.91887712479 0.0890691865191981 -0.1193347901086073 -1.3772280510771755 2.0820124052832534 2.050091990113041 -0.5200046160127103 1.1399895127138917
1.92894005775 0.0890691865191981 -0.1193347901086073 -1.3772280510771755 2.0820124052832534 2.050091990113041 -0.5200046160127103 1.1399895127138917
1.92894005775 0.0890691865191981 -0.1193347901086073 -1.3772280510771755 2.0820124052832534 2.050091990113041 -0.5200046160127103 1.1399895127138917
1.93882012367 0.0890691865191981 -0.1193347901086073 -1.3772280510771755 2.0820124052832534 2.050091990113041 -0.5200046160127103 1.1399895127138917
1.93882012367 0.0890691865191981 -0.1193347901086073 -1.3772280510771755 2.0820124052832534 2.050091990113041 -0.5200046160127103 1.1399895127138917
1.94869995117 0.0890691865191981 -0.1193347901086073 -1.3772280510771755 2.0820124052832534 2.050091990113041 -0.5200046160127103 1.1399895127138917
1.94869995117 0.0890691865191981 -0.1193347901086073 -1.3772280510771755 2.0820124052832534 2.050091990113041 -0.5200046160127103 1.1399895127138917
1.95885705948 0.0890691865191981 -0.1193347901086073 -1.3772280510771755 2.0820124052832534 2.050091990113041 -0.5200046160127103 1.1399895127138917
1.95885705948 0.0890691865191981 -0.1193347901086073 -1.3772280510771755 2.0820124052832534 2.050091990113041 -0.5200046160127103 1.1399895127138917
1.96895003319 0.0890691865191981 -0.1193347901086073 -1.3772280510771755 2.0820124052832534 2.050091990113041 -0.5200046160127103 1.1399895127138917
1.96895003319 0.0890691865191981 -0.1193347901086073 -1.3772280510771755 2.0820124052832534 2.050091990113041 -0.5200046160127103 1.1399895127138917
1.97887396812 0.0890691865191981 -0.1193347901086073 -1.3772280510771755 2.0820124052832534 2.050091990113041 -0.5200046160127103 1.1399895127138917
1.97887396812 0.0890691865191981 -0.1193347901086073 -1.3772280510771755 2.0820124052832534 2.050091990113041 -0.5200046160127103 1.1399895127138917
1.98890209198 0.0890691865191981 -0.1193347901086073 -1.3772280510771755 2.0820124052832534 2.050091990113041 -0.5200046160127103 1.1399895127138917
1.98890209198 0.0890691865191981 -0.1193347901086073 -1.3772280510771755 2.0820124052832534 2.050091990113041 -0.5200046160127103 1.1399895127138917
1.99883913994 0.0890691865191981 -0.1193347901086073 -1.3772280510771755 2.0820124052832534 2.050091990113041 -0.5200046160127103 1.1399895127138917
1.99883913994 0.0890691865191981 -0.1193347901086073 -1.3772280510771755 2.0820124052832534 2.050091990113041 -0.5200046160127103 1.1399895127138917
2.00883507729 0.0890691865191981 -0.1193347901086073 -1.3772280510771755 2.0820124052832534 2.050091990113041 -0.5200046160127103 1.1399895127138917
2.00883507729 0.0890691865191981 -0.1193347901086073 -1.3772280510771755 2.0820124052832534 2.050091990113041 -0.5200046160127103 1.1399895127138917
2.01892995834 0.0893299667121753 -0.1183070093480495 -1.3825970550502384 2.0817976451243307 2.050091990113041 -0.5200046160127103 1.1399895127138917
2.01892995834 0.0893299667121753 -0.1183070093480495 -1.3825970550502384 2.0817976451243307 2.050091990113041 -0.5200046160127103 1.1399895127138917
2.02894306183 0.0893299667121753 -0.1183070093480495 -1.3825970550502384 2.0817976451243307 2.050091990113041 -0.5200046160127103 1.1399895127138917
2.02894306183 0.0893299667121753 -0.1183070093480495 -1.3825970550502384 2.0817976451243307 2.050091990113041 -0.5200046160127103 1.1399895127138917
2.03894400597 0.0893299667121753 -0.1183070093480495 -1.3825970550502384 2.0817976451243307 2.050091990113041 -0.5200046160127103 1.1399895127138917
2.03894400597 0.0893299667121753 -0.1183070093480495 -1.3825970550502384 2.0817976451243307 2.050091990113041 -0.5200046160127103 1.1399895127138917
2.04883599281 0.0894987068370429 -0.1173252486215465 -1.3876132387622144 2.081582884965409 2.050091990113041 -0.5200046160127103 1.1399895127138917
2.04883599281 0.0894987068370429 -0.1173252486215465 -1.3876132387622144 2.081582884965409 2.050091990113041 -0.5200046160127103 1.1399895127138917
2.0587849617 0.0894987068370429 -0.1173252486215465 -1.3876132387622144 2.081582884965409 2.050091990113041 -0.5200046160127103 1.1399895127138917
2.0587849617 0.0894987068370429 -0.1173252486215465 -1.3876132387622144 2.081582884965409 2.050091990113041 -0.5200046160127103 1.1399895127138917
2.068557024 0.0894987068370429 -0.1173252486215465 -1.3876132387622144 2.081582884965409 2.050091990113041 -0.5200046160127103 1.1399895127138917
2.068557024 0.0894987068370429 -0.1173252486215465 -1.3876132387622144 2.081582884965409 2.050091990113041 -0.5200046160127103 1.1399895127138917
2.0788371563 0.0894987068370429 -0.1173252486215465 -1.3876132387622144 2.081582884965409 2.050091990113041 -0.5200046160127103 1.1399895127138917
2.0788371563 0.0894987068370429 -0.1173252486215465 -1.3876132387622144 2.081582884965409 2.050091990113041 -0.5200046160127103 1.1399895127138917
2.08889603615 0.0894987068370429 -0.1173252486215465 -1.3876132387622144 2.081582884965409 2.050091990113041 -0.5200046160127103 1.1399895127138917
2.08889603615 0.0894987068370429 -0.1173252486215465 -1.3876132387622144 2.081582884965409 2.050091990113041 -0.5200046160127103 1.1399895127138917
2.09886193275 0.0894987068370429 -0.1173252486215465 -1.3876132387622144 2.081582884965409 2.050091990113041 -0.5200046160127103 1.1399895127138917
2.09886193275 0.0894987068370429 -0.1173252486215465 -1.3876132387622144 2.081582884965409 2.050091990113041 -0.5200046160127103 1.1399895127138917
2.10878801346 0.0894987068370429 -0.1173252486215465 -1.3876132387622144 2.081582884965409 2.050091990113041 -0.5200046160127103 1.1399895127138917
2.10878801346 0.0894987068370429 -0.1173252486215465 -1.3876132387622144 2.081582884965409 2.050091990113041 -0.5200046160127103 1.1399895127138917
2.11867403984 0.0894987068370429 -0.1173252486215465 -1.3876132387622144 2.081582884965409 2.050091990113041 -0.5200046160127103 1.1399895127138917
2.11867403984 0.0894987068370429 -0.1173252486215465 -1.3876132387622144 2.081582884965409 2.050091990113041 -0.5200046160127103 1.1399895127138917
2.12880802155 0.0894987068370429 -0.1173252486215465 -1.3876132387622144 2.081582884965409 2.050091990113041 -0.5200046160127103 1.1399895127138917
2.12880802155 0.0894987068370429 -0.1173252486215465 -1.3876132387622144 2.081582884965409 2.050091990113041 -0.5200046160127103 1.1399895127138917
2.13889598846 0.0894987068370429 -0.1173252486215465 -1.3876132387622144 2.081582884965409 2.050091990113041 -0.5200046160127103 1.1399895127138917
2.13889598846 0.0894987068370429 -0.1173252486215465 -1.3876132387622144 2.081582884965409 2.050091990113041 -0.5200046160127103 1.1399895127138917
2.14894604683 0.0894987068370429 -0.1173252486215465 -1.3876132387622144 2.081582884965409 2.050091990113041 -0.5200046160127103 1.1399895127138917
2.14894604683 0.0894987068370429 -0.1173252486215465 -1.3876132387622144 2.081582884965409 2.050091990113041 -0.5200046160127103 1.1399895127138917
2.1587870121 0.0894987068370429 -0.1173252486215465 -1.3876132387622144 2.081582884965409 2.050091990113041 -0.5200046160127103 1.1399895127138917
2.1587870121 0.0894987068370429 -0.1173252486215465 -1.3876132387622144 2.081582884965409 2.050091990113041 -0.5200046160127103 1.1399895127138917
2.16886997223 0.0894987068370429 -0.1173252486215465 -1.3876132387622144 2.081582884965409 2.050091990113041 -0.5200046160127103 1.1399895127138917
2.16886997223 0.0894987068370429 -0.1173252486215465 -1.3876132387622144 2.081582884965409 2.050091990113041 -0.5200046160127103 1.1399895127138917
2.17871904373 0.0894987068370429 -0.1173252486215465 -1.3876132387622144 2.081582884965409 2.050091990113041 -0.5200046160127103 1.1399895127138917
2.17871904373 0.0894987068370429 -0.1173252486215465 -1.3876132387622144 2.081582884965409 2.050091990113041 -0.5200046160127103 1.1399895127138917
2.18861603737 0.0894987068370429 -0.1173252486215465 -1.3876132387622144 2.081582884965409 2.050091990113041 -0.5200046160127103 1.1399895127138917
2.18861603737 0.0894987068370429 -0.1173252486215465 -1.3876132387622144 2.081582884965409 2.050091990113041 -0.5200046160127103 1.1399895127138917
2.19874811172 0.0894987068370429 -0.1173252486215465 -1.3876132387622144 2.081582884965409 2.050091990113041 -0.5200046160127103 1.1399895127138917
2.19874811172 0.0894987068370429 -0.1173252486215465 -1.3876132387622144 2.081582884965409 2.050091990113041 -0.5200046160127103 1.1399895127138917
2.20890808105 0.0894987068370429 -0.1173252486215465 -1.3876132387622144 2.081582884965409 2.050091990113041 -0.5200046160127103 1.1399895127138917
2.20890808105 0.0894987068370429 -0.1173252486215465 -1.3876132387622144 2.081582884965409 2.050091990113041 -0.5200046160127103 1.1399895127138917
2.2189040184 0.0894987068370429 -0.1173252486215465 -1.3876132387622144 2.081582884965409 2.050091990113041 -0.5200046160127103 1.1399895127138917
2.2189040184 0.0894987068370429 -0.1173252486215465 -1.3876132387622144 2.081582884965409 2.050091990113041 -0.5200046160127103 1.1399895127138917
2.22894501686 0.0894987068370429 -0.1173252486215465 -1.3876132387622144 2.081582884965409 2.050091990113041 -0.5200046160127103 1.1399895127138917
2.22894501686 0.0894987068370429 -0.1173252486215465 -1.3876132387622144 2.081582884965409 2.050091990113041 -0.5200046160127103 1.1399895127138917
2.23890900612 0.0894987068370429 -0.1173252486215465 -1.3876132387622144 2.081582884965409 2.050091990113041 -0.5200046160127103 1.1399895127138917
2.23890900612 0.0894987068370429 -0.1173252486215465 -1.3876132387622144 2.081582884965409 2.050091990113041 -0.5200046160127103 1.1399895127138917
2.24879002571 0.0894987068370429 -0.1173252486215465 -1.3876132387622144 2.081582884965409 2.050091990113041 -0.5200046160127103 1.1399895127138917
2.24879002571 0.0894987068370429 -0.1173252486215465 -1.3876132387622144 2.081582884965409 2.050091990113041 -0.5200046160127103 1.1399895127138917
2.25895309448 0.0894987068370429 -0.1173252486215465 -1.3876132387622144 2.081582884965409 2.050091990113041 -0.5200046160127103 1.1399895127138917
2.25895309448 0.0894987068370429 -0.1173252486215465 -1.3876132387622144 2.081582884965409 2.050091990113041 -0.5200046160127103 1.1399895127138917
2.26894211769 0.0894987068370429 -0.1173252486215465 -1.3876132387622144 2.081582884965409 2.050091990113041 -0.5200046160127103 1.1399895127138917
2.26894211769 0.0894987068370429 -0.1173252486215465 -1.3876132387622144 2.081582884965409 2.050091990113041 -0.5200046160127103 1.1399895127138917
2.27876996994 0.0894987068370429 -0.1173252486215465 -1.3876132387622144 2.081582884965409 2.050091990113041 -0.5200046160127103 1.1399895127138917
2.27876996994 0.0894987068370429 -0.1173252486215465 -1.3876132387622144 2.081582884965409 2.050091990113041 -0.5200046160127103 1.1399895127138917
2.28888106346 0.0894987068370429 -0.1173252486215465 -1.3876132387622144 2.081582884965409 2.050091990113041 -0.5200046160127103 1.1399895127138917
2.28888106346 0.0894987068370429 -0.1173252486215465 -1.3876132387622144 2.081582884965409 2.050091990113041 -0.5200046160127103 1.1399895127138917
2.29871797562 0.0894987068370429 -0.1173252486215465 -1.3876132387622144 2.081582884965409 2.050091990113041 -0.5200046160127103 1.1399895127138917
2.29871797562 0.0894987068370429 -0.1173252486215465 -1.3876132387622144 2.081582884965409 2.050091990113041 -0.5200046160127103 1.1399895127138917
2.30868792534 0.0894987068370429 -0.1173252486215465 -1.3876132387622144 2.081582884965409 2.050091990113041 -0.5200046160127103 1.1399895127138917
2.30868792534 0.0894987068370429 -0.1173252486215465 -1.3876132387622144 2.081582884965409 2.050091990113041 -0.5200046160127103 1.1399895127138917
2.31874203682 0.0907412477565232 -0.10543673982405 -1.4460280019891392 2.0721027579501143 2.050091990113041 -0.5200046160127103 1.1399895127138917
2.31874203682 0.0907412477565232 -0.10543673982405 -1.4460280019891392 2.0721027579501143 2.050091990113041 -0.5200046160127103 1.1399895127138917
2.32892608643 0.0907412477565232 -0.10543673982405 -1.4460280019891392 2.0721027579501143 2.050091990113041 -0.5200046160127103 1.1399895127138917
2.32892608643 0.0907412477565232 -0.10543673982405 -1.4460280019891392 2.0721027579501143 2.050091990113041 -0.5200046160127103 1.1399895127138917
2.33877110481 0.0907412477565232 -0.10543673982405 -1.4460280019891392 2.0721027579501143 2.050091990113041 -0.5200046160127103 1.1399895127138917
2.33877110481 0.0907412477565232 -0.10543673982405 -1.4460280019891392 2.0721027579501143 2.050091990113041 -0.5200046160127103 1.1399895127138917
2.34889698029 0.0907412477565232 -0.10543673982405 -1.4460280019891392 2.0721027579501143 2.050091990113041 -0.5200046160127103 1.1399895127138917
2.34889698029 0.0907412477565232 -0.10543673982405 -1.4460280019891392 2.0721027579501143 2.050091990113041 -0.5200046160127103 1.1399895127138917
2.35890102386 0.0907412477565232 -0.10543673982405 -1.4460280019891392 2.0721027579501143 2.050091990113041 -0.5200046160127103 1.1399895127138917
2.35890102386 0.0907412477565232 -0.10543673982405 -1.4460280019891392 2.0721027579501143 2.050091990113041 -0.5200046160127103 1.1399895127138917
2.3688120842 0.0907412477565232 -0.10543673982405 -1.4460280019891392 2.0721027579501143 2.050091990113041 -0.5200046160127103 1.1399895127138917
2.3688120842 0.0907412477565232 -0.10543673982405 -1.4460280019891392 2.0721027579501143 2.050091990113041 -0.5200046160127103 1.1399895127138917
2.37890100479 0.0907412477565232 -0.10543673982405 -1.4460280019891392 2.0721027579501143 2.050091990113041 -0.5200046160127103 1.1399895127138917
2.37890100479 0.0907412477565232 -0.10543673982405 -1.4460280019891392 2.0721027579501143 2.050091990113041 -0.5200046160127103 1.1399895127138917
2.38867807388 0.0908179478132813 -0.1041635188818666 -1.4499243648724478 2.0700778764517023 2.050091990113041 -0.5200046160127103 1.1399895127138917
2.38867807388 0.0908179478132813 -0.1041635188818666 -1.4499243648724478 2.0700778764517023 2.050091990113041 -0.5200046160127103 1.1399895127138917
2.39894413948 0.0908179478132813 -0.1041635188818666 -1.4499243648724478 2.0700778764517023 2.050091990113041 -0.5200046160127103 1.1399895127138917
2.39894413948 0.0908179478132813 -0.1041635188818666 -1.4499243648724478 2.0700778764517023 2.050091990113041 -0.5200046160127103 1.1399895127138917
2.4087600708 0.0908179478132813 -0.1041635188818666 -1.4499243648724478 2.0700778764517023 2.050091990113041 -0.5200046160127103 1.1399895127138917
2.4087600708 0.0908179478132813 -0.1041635188818666 -1.4499243648724478 2.0700778764517023 2.050091990113041 -0.5200046160127103 1.1399895127138917
2.41872596741 0.0909560079154458 -0.1029976780191443 -1.453636647619537 2.067930274862477 2.050091990113041 -0.5200046160127103 1.1399895127138917
2.41872596741 0.0909560079154458 -0.1029976780191443 -1.453636647619537 2.067930274862477 2.050091990113041 -0.5200046160127103 1.1399895127138917
2.42864394188 0.0909560079154458 -0.1029976780191443 -1.453636647619537 2.067930274862477 2.050091990113041 -0.5200046160127103 1.1399895127138917
2.42864394188 0.0909560079154458 -0.1029976780191443 -1.453636647619537 2.067930274862477 2.050091990113041 -0.5200046160127103 1.1399895127138917
2.43884992599 0.0909560079154458 -0.1029976780191443 -1.453636647619537 2.067930274862477 2.050091990113041 -0.5200046160127103 1.1399895127138917
2.43884992599 0.0909560079154458 -0.1029976780191443 -1.453636647619537 2.067930274862477 2.050091990113041 -0.5200046160127103 1.1399895127138917
2.44876909256 0.0909560079154458 -0.1029976780191443 -1.453636647619537 2.067930274862477 2.050091990113041 -0.5200046160127103 1.1399895127138917
2.44876909256 0.0909560079154458 -0.1029976780191443 -1.453636647619537 2.067930274862477 2.050091990113041 -0.5200046160127103 1.1399895127138917
2.45883011818 0.0909560079154458 -0.1029976780191443 -1.453636647619537 2.067930274862477 2.050091990113041 -0.5200046160127103 1.1399895127138917
2.45883011818 0.0909560079154458 -0.1029976780191443 -1.453636647619537 2.067930274862477 2.050091990113041 -0.5200046160127103 1.1399895127138917
2.46879792213 0.0909560079154458 -0.1029976780191443 -1.453636647619537 2.067930274862477 2.050091990113041 -0.5200046160127103 1.1399895127138917
2.46879792213 0.0909560079154458 -0.1029976780191443 -1.453636647619537 2.067930274862477 2.050091990113041 -0.5200046160127103 1.1399895127138917
2.47891497612 0.0911554280630166 -0.1008654164412708 -1.4678721781538295 2.0589410282104343 2.050091990113041 -0.5200046160127103 1.1399895127138917
2.47891497612 0.0911554280630166 -0.1008654164412708 -1.4678721781538295 2.0589410282104343 2.050091990113041 -0.5200046160127103 1.1399895127138917
2.48902010918 0.0911554280630166 -0.1008654164412708 -1.4678721781538295 2.0589410282104343 2.050091990113041 -0.5200046160127103 1.1399895127138917
2.48902010918 0.0911554280630166 -0.1008654164412708 -1.4678721781538295 2.0589410282104343 2.050091990113041 -0.5200046160127103 1.1399895127138917
2.49889612198 0.0911554280630166 -0.1008654164412708 -1.4678721781538295 2.0589410282104343 2.050091990113041 -0.5200046160127103 1.1399895127138917
2.49889612198 0.0911554280630166 -0.1008654164412708 -1.4678721781538295 2.0589410282104343 2.050091990113041 -0.5200046160127103 1.1399895127138917
2.50892400742 0.0911554280630166 -0.1008654164412708 -1.4678721781538295 2.0589410282104343 2.050091990113041 -0.5200046160127103 1.1399895127138917
2.50892400742 0.0911554280630166 -0.1008654164412708 -1.4678721781538295 2.0589410282104343 2.050091990113041 -0.5200046160127103 1.1399895127138917
2.51891303062 0.0911554280630166 -0.1008654164412708 -1.4678721781538295 2.0589410282104343 2.050091990113041 -0.5200046160127103 1.1399895127138917
2.51891303062 0.0911554280630166 -0.1008654164412708 -1.4678721781538295 2.0589410282104343 2.050091990113041 -0.5200046160127103 1.1399895127138917
2.52883315086 0.0911554280630166 -0.1008654164412708 -1.4678721781538295 2.0589410282104343 2.050091990113041 -0.5200046160127103 1.1399895127138917
2.52883315086 0.0911554280630166 -0.1008654164412708 -1.4678721781538295 2.0589410282104343 2.050091990113041 -0.5200046160127103 1.1399895127138917
2.53864812851 0.0911554280630166 -0.1008654164412708 -1.4678721781538295 2.0589410282104343 2.050091990113041 -0.5200046160127103 1.1399895127138917
2.53864812851 0.0911554280630166 -0.1008654164412708 -1.4678721781538295 2.0589410282104343 2.050091990113041 -0.5200046160127103 1.1399895127138917
2.54884696007 0.0911554280630166 -0.1008654164412708 -1.4678721781538295 2.0589410282104343 2.050091990113041 -0.5200046160127103 1.1399895127138917
2.54884696007 0.0911554280630166 -0.1008654164412708 -1.4678721781538295 2.0589410282104343 2.050091990113041 -0.5200046160127103 1.1399895127138917
2.55895614624 0.0911554280630166 -0.1008654164412708 -1.4678721781538295 2.0589410282104343 2.050091990113041 -0.5200046160127103 1.1399895127138917
2.55895614624 0.0911554280630166 -0.1008654164412708 -1.4678721781538295 2.0589410282104343 2.050091990113041 -0.5200046160127103 1.1399895127138917
2.56884908676 0.0911554280630166 -0.1008654164412708 -1.4678721781538295 2.0589410282104343 2.050091990113041 -0.5200046160127103 1.1399895127138917
2.56884908676 0.0911554280630166 -0.1008654164412708 -1.4678721781538295 2.0589410282104343 2.050091990113041 -0.5200046160127103 1.1399895127138917
2.57888793945 0.0911554280630166 -0.1008654164412708 -1.4678721781538295 2.0589410282104343 2.050091990113041 -0.5200046160127103 1.1399895127138917
2.57888793945 0.0911554280630166 -0.1008654164412708 -1.4678721781538295 2.0589410282104343 2.050091990113041 -0.5200046160127103 1.1399895127138917
2.58899402618 0.0911554280630166 -0.1008654164412708 -1.4678721781538295 2.0589410282104343 2.050091990113041 -0.5200046160127103 1.1399895127138917
2.58899402618 0.0911554280630166 -0.1008654164412708 -1.4678721781538295 2.0589410282104343 2.050091990113041 -0.5200046160127103 1.1399895127138917
2.59890604019 0.0911554280630166 -0.1008654164412708 -1.4678721781538295 2.0589410282104343 2.050091990113041 -0.5200046160127103 1.1399895127138917
2.59890604019 0.0911554280630166 -0.1008654164412708 -1.4678721781538295 2.0589410282104343 2.050091990113041 -0.5200046160127103 1.1399895127138917
2.60886311531 0.0911554280630166 -0.1008654164412708 -1.4678721781538295 2.0589410282104343 2.050091990113041 -0.5200046160127103 1.1399895127138917
2.60886311531 0.0911554280630166 -0.1008654164412708 -1.4678721781538295 2.0589410282104343 2.050091990113041 -0.5200046160127103 1.1399895127138917
2.61883115768 0.0911554280630166 -0.1008654164412708 -1.4678721781538295 2.0589410282104343 2.050091990113041 -0.5200046160127103 1.1399895127138917
2.61883115768 0.0911554280630166 -0.1008654164412708 -1.4678721781538295 2.0589410282104343 2.050091990113041 -0.5200046160127103 1.1399895127138917
2.62873792648 0.0911554280630166 -0.1008654164412708 -1.4678721781538295 2.0589410282104343 2.050091990113041 -0.5200046160127103 1.1399895127138917
2.62873792648 0.0911554280630166 -0.1008654164412708 -1.4678721781538295 2.0589410282104343 2.050091990113041 -0.5200046160127103 1.1399895127138917
2.63888311386 0.0911554280630166 -0.1008654164412708 -1.4678721781538295 2.0589410282104343 2.050091990113041 -0.5200046160127103 1.1399895127138917
2.63888311386 0.0911554280630166 -0.1008654164412708 -1.4678721781538295 2.0589410282104343 2.050091990113041 -0.5200046160127103 1.1399895127138917
2.64878702164 0.0911554280630166 -0.1008654164412708 -1.4678721781538295 2.0589410282104343 2.050091990113041 -0.5200046160127103 1.1399895127138917
2.64878702164 0.0911554280630166 -0.1008654164412708 -1.4678721781538295 2.0589410282104343 2.050091990113041 -0.5200046160127103 1.1399895127138917
2.65859913826 0.0911554280630166 -0.1008654164412708 -1.4678721781538295 2.0589410282104343 2.050091990113041 -0.5200046160127103 1.1399895127138917
2.65859913826 0.0911554280630166 -0.1008654164412708 -1.4678721781538295 2.0589410282104343 2.050091990113041 -0.5200046160127103 1.1399895127138917
2.66877794266 0.0911554280630166 -0.1008654164412708 -1.4678721781538295 2.0589410282104343 2.050091990113041 -0.5200046160127103 1.1399895127138917
2.66877794266 0.0911554280630166 -0.1008654164412708 -1.4678721781538295 2.0589410282104343 2.050091990113041 -0.5200046160127103 1.1399895127138917
2.67888212204 0.0911554280630166 -0.1008654164412708 -1.4678721781538295 2.0589410282104343 2.050091990113041 -0.5200046160127103 1.1399895127138917
2.67888212204 0.0911554280630166 -0.1008654164412708 -1.4678721781538295 2.0589410282104343 2.050091990113041 -0.5200046160127103 1.1399895127138917
2.68867492676 0.0911707680743682 -0.0984570346590682 -1.4822764488129898 2.05136306260274 2.050091990113041 -0.5200046160127103 1.1399895127138917
2.68867492676 0.0911707680743682 -0.0984570346590682 -1.4822764488129898 2.05136306260274 2.050091990113041 -0.5200046160127103 1.1399895127138917
2.69886994362 0.0911707680743682 -0.0984570346590682 -1.4822764488129898 2.05136306260274 2.050091990113041 -0.5200046160127103 1.1399895127138917
2.69886994362 0.0911707680743682 -0.0984570346590682 -1.4822764488129898 2.05136306260274 2.050091990113041 -0.5200046160127103 1.1399895127138917
2.70885014534 0.0911861080857198 -0.0971838137168847 -1.4860500916054855 2.0488319607297245 2.050091990113041 -0.5200046160127103 1.1399895127138917
2.70885014534 0.0911861080857198 -0.0971838137168847 -1.4860500916054855 2.0488319607297245 2.050091990113041 -0.5200046160127103 1.1399895127138917
2.71893000603 0.0911861080857198 -0.0971838137168847 -1.4860500916054855 2.0488319607297245 2.050091990113041 -0.5200046160127103 1.1399895127138917
2.71893000603 0.0911861080857198 -0.0971838137168847 -1.4860500916054855 2.0488319607297245 2.050091990113041 -0.5200046160127103 1.1399895127138917
2.72882914543 0.0911861080857198 -0.0971838137168847 -1.4860500916054855 2.0488319607297245 2.050091990113041 -0.5200046160127103 1.1399895127138917
2.72882914543 0.0911861080857198 -0.0971838137168847 -1.4860500916054855 2.0488319607297245 2.050091990113041 -0.5200046160127103 1.1399895127138917
2.73880314827 0.0911861080857198 -0.0971838137168847 -1.4860500916054855 2.0488319607297245 2.050091990113041 -0.5200046160127103 1.1399895127138917
2.73880314827 0.0911861080857198 -0.0971838137168847 -1.4860500916054855 2.0488319607297245 2.050091990113041 -0.5200046160127103 1.1399895127138917
2.74871110916 0.0911861080857198 -0.0971838137168847 -1.4860500916054855 2.0488319607297245 2.050091990113041 -0.5200046160127103 1.1399895127138917
2.74871110916 0.0911861080857198 -0.0971838137168847 -1.4860500916054855 2.0488319607297245 2.050091990113041 -0.5200046160127103 1.1399895127138917
2.7588660717 0.0911861080857198 -0.0971838137168847 -1.4860500916054855 2.0488319607297245 2.050091990113041 -0.5200046160127103 1.1399895127138917
2.7588660717 0.0911861080857198 -0.0971838137168847 -1.4860500916054855 2.0488319607297245 2.050091990113041 -0.5200046160127103 1.1399895127138917
2.76870107651 0.0911861080857198 -0.0948061119573854 -1.493167856872632 2.043340236665849 2.050091990113041 -0.5200046160127103 1.1399895127138917
2.76870107651 0.0911861080857198 -0.0948061119573854 -1.493167856872632 2.043340236665849 2.050091990113041 -0.5200046160127103 1.1399895127138917
2.77859711647 0.0912014480970715 -0.0913546094032735 -1.504764905454448 2.0334766093667644 2.050091990113041 -0.5200046160127103 1.1399895127138917
2.77859711647 0.0912014480970715 -0.0913546094032735 -1.504764905454448 2.0334766093667644 2.050091990113041 -0.5200046160127103 1.1399895127138917
2.78848195076 0.0912014480970715 -0.0913546094032735 -1.504764905454448 2.0334766093667644 2.050091990113041 -0.5200046160127103 1.1399895127138917
2.78848195076 0.0912014480970715 -0.0913546094032735 -1.504764905454448 2.0334766093667644 2.050091990113041 -0.5200046160127103 1.1399895127138917
2.79878997803 0.0912014480970715 -0.0913546094032735 -1.504764905454448 2.0334766093667644 2.050091990113041 -0.5200046160127103 1.1399895127138917
2.79878997803 0.0912014480970715 -0.0913546094032735 -1.504764905454448 2.0334766093667644 2.050091990113041 -0.5200046160127103 1.1399895127138917
2.80884099007 0.0912014480970715 -0.0913546094032735 -1.504764905454448 2.0334766093667644 2.050091990113041 -0.5200046160127103 1.1399895127138917
2.80884099007 0.0912014480970715 -0.0913546094032735 -1.504764905454448 2.0334766093667644 2.050091990113041 -0.5200046160127103 1.1399895127138917
2.81890892982 0.0912014480970715 -0.0913546094032735 -1.504764905454448 2.0334766093667644 2.050091990113041 -0.5200046160127103 1.1399895127138917
2.81890892982 0.0912014480970715 -0.0913546094032735 -1.504764905454448 2.0334766093667644 2.050091990113041 -0.5200046160127103 1.1399895127138917
2.8288371563 0.0912014480970715 -0.0913546094032735 -1.504764905454448 2.0334766093667644 2.050091990113041 -0.5200046160127103 1.1399895127138917
2.8288371563 0.0912014480970715 -0.0913546094032735 -1.504764905454448 2.0334766093667644 2.050091990113041 -0.5200046160127103 1.1399895127138917
2.83885502815 0.0912014480970715 -0.0897439082113547 -1.5132786117545904 2.026297484054212 2.050091990113041 -0.5200046160127103 1.1399895127138917
2.83885502815 0.0912014480970715 -0.0897439082113547 -1.5132786117545904 2.026297484054212 2.050091990113041 -0.5200046160127103 1.1399895127138917
2.84887909889 0.0912014480970715 -0.0897439082113547 -1.5132786117545904 2.026297484054212 2.050091990113041 -0.5200046160127103 1.1399895127138917
2.84887909889 0.0912014480970715 -0.0897439082113547 -1.5132786117545904 2.026297484054212 2.050091990113041 -0.5200046160127103 1.1399895127138917
2.85891413689 0.0912014480970715 -0.0897439082113547 -1.5132786117545904 2.026297484054212 2.050091990113041 -0.5200046160127103 1.1399895127138917
2.85891413689 0.0912014480970715 -0.0897439082113547 -1.5132786117545904 2.026297484054212 2.050091990113041 -0.5200046160127103 1.1399895127138917
2.86880707741 0.0912014480970715 -0.0897439082113547 -1.5132786117545904 2.026297484054212 2.050091990113041 -0.5200046160127103 1.1399895127138917
2.86880707741 0.0912014480970715 -0.0897439082113547 -1.5132786117545904 2.026297484054212 2.050091990113041 -0.5200046160127103 1.1399895127138917
2.87889313698 0.0912014480970715 -0.0897439082113547 -1.5132786117545904 2.026297484054212 2.050091990113041 -0.5200046160127103 1.1399895127138917
2.87889313698 0.0912014480970715 -0.0897439082113547 -1.5132786117545904 2.026297484054212 2.050091990113041 -0.5200046160127103 1.1399895127138917
2.88944292068 0.0912321281197747 -0.0866298859069781 -1.5267471417213023 2.0133044944393994 2.050091990113041 -0.5200046160127103 1.1399895127138917
2.88944292068 0.0912321281197747 -0.0866298859069781 -1.5267471417213023 2.0133044944393994 2.050091990113041 -0.5200046160127103 1.1399895127138917
2.89854812622 0.0912321281197747 -0.0866298859069781 -1.5267471417213023 2.0133044944393994 2.050091990113041 -0.5200046160127103 1.1399895127138917
2.89854812622 0.0912321281197747 -0.0866298859069781 -1.5267471417213023 2.0133044944393994 2.050091990113041 -0.5200046160127103 1.1399895127138917
2.90884113312 0.0912321281197747 -0.0866298859069781 -1.5267471417213023 2.0133044944393994 2.050091990113041 -0.5200046160127103 1.1399895127138917
2.90884113312 0.0912321281197747 -0.0866298859069781 -1.5267471417213023 2.0133044944393994 2.050091990113041 -0.5200046160127103 1.1399895127138917
2.91888213158 0.0912321281197747 -0.0866298859069781 -1.5267471417213023 2.0133044944393994 2.050091990113041 -0.5200046160127103 1.1399895127138917
2.91888213158 0.0912321281197747 -0.0866298859069781 -1.5267471417213023 2.0133044944393994 2.050091990113041 -0.5200046160127103 1.1399895127138917
2.9289059639 0.0912321281197747 -0.0866298859069781 -1.5267471417213023 2.0133044944393994 2.050091990113041 -0.5200046160127103 1.1399895127138917
2.9289059639 0.0912321281197747 -0.0866298859069781 -1.5267471417213023 2.0133044944393994 2.050091990113041 -0.5200046160127103 1.1399895127138917
2.93886613846 0.0912321281197747 -0.0866298859069781 -1.5267471417213023 2.0133044944393994 2.050091990113041 -0.5200046160127103 1.1399895127138917
2.93886613846 0.0912321281197747 -0.0866298859069781 -1.5267471417213023 2.0133044944393994 2.050091990113041 -0.5200046160127103 1.1399895127138917
2.94887208939 0.0912321281197747 -0.0866298859069781 -1.5267471417213023 2.0133044944393994 2.050091990113041 -0.5200046160127103 1.1399895127138917
2.94887208939 0.0912321281197747 -0.0866298859069781 -1.5267471417213023 2.0133044944393994 2.050091990113041 -0.5200046160127103 1.1399895127138917
2.95881199837 0.0912321281197747 -0.0866298859069781 -1.5267471417213023 2.0133044944393994 2.050091990113041 -0.5200046160127103 1.1399895127138917
2.95881199837 0.0912321281197747 -0.0866298859069781 -1.5267471417213023 2.0133044944393994 2.050091990113041 -0.5200046160127103 1.1399895127138917
2.96886301041 0.0912321281197747 -0.0866298859069781 -1.5267471417213023 2.0133044944393994 2.050091990113041 -0.5200046160127103 1.1399895127138917
2.96886301041 0.0912321281197747 -0.0866298859069781 -1.5267471417213023 2.0133044944393994 2.050091990113041 -0.5200046160127103 1.1399895127138917
2.97872209549 0.0912321281197747 -0.0866298859069781 -1.5267471417213023 2.0133044944393994 2.050091990113041 -0.5200046160127103 1.1399895127138917
2.97872209549 0.0912321281197747 -0.0866298859069781 -1.5267471417213023 2.0133044944393994 2.050091990113041 -0.5200046160127103 1.1399895127138917
2.98885011673 0.0912628081424779 -0.0856788052031784 -1.5309349648202917 2.008549090920401 2.050091990113041 -0.5200046160127103 1.1399895127138917
2.98885011673 0.0912628081424779 -0.0856788052031784 -1.5309349648202917 2.008549090920401 2.050091990113041 -0.5200046160127103 1.1399895127138917
2.99886012077 0.0912628081424779 -0.0856788052031784 -1.5309349648202917 2.008549090920401 2.050091990113041 -0.5200046160127103 1.1399895127138917
2.99886012077 0.0912628081424779 -0.0856788052031784 -1.5309349648202917 2.008549090920401 2.050091990113041 -0.5200046160127103 1.1399895127138917
3.00861692429 0.0912628081424779 -0.0856788052031784 -1.5309349648202917 2.008549090920401 2.050091990113041 -0.5200046160127103 1.1399895127138917
3.00861692429 0.0912628081424779 -0.0856788052031784 -1.5309349648202917 2.008549090920401 2.050091990113041 -0.5200046160127103 1.1399895127138917
3.01871204376 0.0912628081424779 -0.0856788052031784 -1.5309349648202917 2.008549090920401 2.050091990113041 -0.5200046160127103 1.1399895127138917
3.01871204376 0.0912628081424779 -0.0856788052031784 -1.5309349648202917 2.008549090920401 2.050091990113041 -0.5200046160127103 1.1399895127138917
3.02878904343 0.0912628081424779 -0.0856788052031784 -1.5309349648202917 2.008549090920401 2.050091990113041 -0.5200046160127103 1.1399895127138917
3.02878904343 0.0912628081424779 -0.0856788052031784 -1.5309349648202917 2.008549090920401 2.050091990113041 -0.5200046160127103 1.1399895127138917
3.03884506226 0.0912628081424779 -0.0856788052031784 -1.5309349648202917 2.008549090920401 2.050091990113041 -0.5200046160127103 1.1399895127138917
3.03884506226 0.0912628081424779 -0.0856788052031784 -1.5309349648202917 2.008549090920401 2.050091990113041 -0.5200046160127103 1.1399895127138917
3.04888701439 0.091339508199236 -0.0845436443631594 -1.5357977484187515 2.003333487060854 2.050091990113041 -0.5200046160127103 1.1399895127138917
3.04888701439 0.091339508199236 -0.0845436443631594 -1.5357977484187515 2.003333487060854 2.050091990113041 -0.5200046160127103 1.1399895127138917
3.05878305435 0.091339508199236 -0.0845436443631594 -1.5357977484187515 2.003333487060854 2.050091990113041 -0.5200046160127103 1.1399895127138917
3.05878305435 0.091339508199236 -0.0845436443631594 -1.5357977484187515 2.003333487060854 2.050091990113041 -0.5200046160127103 1.1399895127138917
3.06854104996 0.091538928346807 -0.0799416409576769 -1.549925898873583 1.986873654880578 2.050091990113041 -0.5200046160127103 1.1399895127138917
3.06854104996 0.091538928346807 -0.0799416409576769 -1.549925898873583 1.986873654880578 2.050091990113041 -0.5200046160127103 1.1399895127138917
3.07853198051 0.091538928346807 -0.0799416409576769 -1.549925898873583 1.986873654880578 2.050091990113041 -0.5200046160127103 1.1399895127138917
3.07853198051 0.091538928346807 -0.0799416409576769 -1.549925898873583 1.986873654880578 2.050091990113041 -0.5200046160127103 1.1399895127138917
3.088752985 0.091538928346807 -0.0799416409576769 -1.549925898873583 1.986873654880578 2.050091990113041 -0.5200046160127103 1.1399895127138917
3.088752985 0.091538928346807 -0.0799416409576769 -1.549925898873583 1.986873654880578 2.050091990113041 -0.5200046160127103 1.1399895127138917
3.09886813164 0.091538928346807 -0.0799416409576769 -1.549925898873583 1.986873654880578 2.050091990113041 -0.5200046160127103 1.1399895127138917
3.09886813164 0.091538928346807 -0.0799416409576769 -1.549925898873583 1.986873654880578 2.050091990113041 -0.5200046160127103 1.1399895127138917
3.10877513885 0.091538928346807 -0.0799416409576769 -1.549925898873583 1.986873654880578 2.050091990113041 -0.5200046160127103 1.1399895127138917
3.10877513885 0.091538928346807 -0.0799416409576769 -1.549925898873583 1.986873654880578 2.050091990113041 -0.5200046160127103 1.1399895127138917
3.1188390255 0.091538928346807 -0.0799416409576769 -1.549925898873583 1.986873654880578 2.050091990113041 -0.5200046160127103 1.1399895127138917
3.1188390255 0.091538928346807 -0.0799416409576769 -1.549925898873583 1.986873654880578 2.050091990113041 -0.5200046160127103 1.1399895127138917
3.12863707542 0.091538928346807 -0.0799416409576769 -1.549925898873583 1.986873654880578 2.050091990113041 -0.5200046160127103 1.1399895127138917
3.12863707542 0.091538928346807 -0.0799416409576769 -1.549925898873583 1.986873654880578 2.050091990113041 -0.5200046160127103 1.1399895127138917
3.13884902 0.091538928346807 -0.0799416409576769 -1.549925898873583 1.986873654880578 2.050091990113041 -0.5200046160127103 1.1399895127138917
3.13884902 0.091538928346807 -0.0799416409576769 -1.549925898873583 1.986873654880578 2.050091990113041 -0.5200046160127103 1.1399895127138917
3.14878892899 0.0919531086533004 -0.0765208184262682 -1.5581634849693966 1.975000486094433 2.050091990113041 -0.5200046160127103 1.1399895127138917
3.14878892899 0.0919531086533004 -0.0765208184262682 -1.5581634849693966 1.975000486094433 2.050091990113041 -0.5200046160127103 1.1399895127138917
3.15886092186 0.0930729294819678 -0.0727318356224209 -1.5684259525636226 1.956116932120603 2.050091990113041 -0.5200046160127103 1.1399895127138917
3.15886092186 0.0930729294819678 -0.0727318356224209 -1.5684259525636226 1.956116932120603 2.050091990113041 -0.5200046160127103 1.1399895127138917
3.16885304451 0.0930729294819678 -0.0727318356224209 -1.5684259525636226 1.956116932120603 2.050091990113041 -0.5200046160127103 1.1399895127138917
3.16885304451 0.0930729294819678 -0.0727318356224209 -1.5684259525636226 1.956116932120603 2.050091990113041 -0.5200046160127103 1.1399895127138917
3.17849111557 0.0930729294819678 -0.0727318356224209 -1.5684259525636226 1.956116932120603 2.050091990113041 -0.5200046160127103 1.1399895127138917
3.17849111557 0.0930729294819678 -0.0727318356224209 -1.5684259525636226 1.956116932120603 2.050091990113041 -0.5200046160127103 1.1399895127138917
3.18883395195 0.0930729294819678 -0.0727318356224209 -1.5684259525636226 1.956116932120603 2.050091990113041 -0.5200046160127103 1.1399895127138917
3.18883395195 0.0930729294819678 -0.0727318356224209 -1.5684259525636226 1.956116932120603 2.050091990113041 -0.5200046160127103 1.1399895127138917
3.19898414612 0.0930729294819678 -0.0727318356224209 -1.5684259525636226 1.956116932120603 2.050091990113041 -0.5200046160127103 1.1399895127138917
3.19898414612 0.0930729294819678 -0.0727318356224209 -1.5684259525636226 1.956116932120603 2.050091990113041 -0.5200046160127103 1.1399895127138917
3.20884609222 0.0932109895841321 -0.0692956730796606 -1.577338499158907 1.936190257374864 2.050091990113041 -0.5200046160127103 1.1399895127138917
3.20884609222 0.0932109895841321 -0.0692956730796606 -1.577338499158907 1.936190257374864 2.050091990113041 -0.5200046160127103 1.1399895127138917
3.21887207031 0.0932109895841321 -0.0692956730796606 -1.577338499158907 1.936190257374864 2.050091990113041 -0.5200046160127103 1.1399895127138917
3.21887207031 0.0932109895841321 -0.0692956730796606 -1.577338499158907 1.936190257374864 2.050091990113041 -0.5200046160127103 1.1399895127138917
3.22887992859 0.0932109895841321 -0.0692956730796606 -1.577338499158907 1.936190257374864 2.050091990113041 -0.5200046160127103 1.1399895127138917
3.22887992859 0.0932109895841321 -0.0692956730796606 -1.577338499158907 1.936190257374864 2.050091990113041 -0.5200046160127103 1.1399895127138917
3.23879694939 0.0932109895841321 -0.0692956730796606 -1.577338499158907 1.936190257374864 2.050091990113041 -0.5200046160127103 1.1399895127138917
3.23879694939 0.0932109895841321 -0.0692956730796606 -1.577338499158907 1.936190257374864 2.050091990113041 -0.5200046160127103 1.1399895127138917
3.24857807159 0.0932109895841321 -0.0692956730796606 -1.577338499158907 1.936190257374864 2.050091990113041 -0.5200046160127103 1.1399895127138917
3.24857807159 0.0932109895841321 -0.0692956730796606 -1.577338499158907 1.936190257374864 2.050091990113041 -0.5200046160127103 1.1399895127138917
3.25878310204 0.0932109895841321 -0.0692956730796606 -1.577338499158907 1.936190257374864 2.050091990113041 -0.5200046160127103 1.1399895127138917
3.25878310204 0.0932109895841321 -0.0692956730796606 -1.577338499158907 1.936190257374864 2.050091990113041 -0.5200046160127103 1.1399895127138917
3.26891493797 0.0932109895841321 -0.0692956730796606 -1.577338499158907 1.936190257374864 2.050091990113041 -0.5200046160127103 1.1399895127138917
3.26891493797 0.0932109895841321 -0.0692956730796606 -1.577338499158907 1.936190257374864 2.050091990113041 -0.5200046160127103 1.1399895127138917
3.27867102623 0.0932109895841321 -0.0692956730796606 -1.577338499158907 1.936190257374864 2.050091990113041 -0.5200046160127103 1.1399895127138917
3.27867102623 0.0932109895841321 -0.0692956730796606 -1.577338499158907 1.936190257374864 2.050091990113041 -0.5200046160127103 1.1399895127138917
3.28878998756 0.0932109895841321 -0.0692956730796606 -1.577338499158907 1.936190257374864 2.050091990113041 -0.5200046160127103 1.1399895127138917
3.28878998756 0.0932109895841321 -0.0692956730796606 -1.577338499158907 1.936190257374864 2.050091990113041 -0.5200046160127103 1.1399895127138917
3.29877614975 0.0932109895841321 -0.0692956730796606 -1.577338499158907 1.936190257374864 2.050091990113041 -0.5200046160127103 1.1399895127138917
3.29877614975 0.0932109895841321 -0.0692956730796606 -1.577338499158907 1.936190257374864 2.050091990113041 -0.5200046160127103 1.1399895127138917
3.30881214142 0.0932109895841321 -0.0692956730796606 -1.577338499158907 1.936190257374864 2.050091990113041 -0.5200046160127103 1.1399895127138917
3.30881214142 0.0932109895841321 -0.0692956730796606 -1.577338499158907 1.936190257374864 2.050091990113041 -0.5200046160127103 1.1399895127138917
3.31888699532 0.0932109895841321 -0.0692956730796606 -1.577338499158907 1.936190257374864 2.050091990113041 -0.5200046160127103 1.1399895127138917
3.31888699532 0.0932109895841321 -0.0692956730796606 -1.577338499158907 1.936190257374864 2.050091990113041 -0.5200046160127103 1.1399895127138917
3.328799963 0.0932109895841321 -0.0692956730796606 -1.577338499158907 1.936190257374864 2.050091990113041 -0.5200046160127103 1.1399895127138917
3.328799963 0.0932109895841321 -0.0692956730796606 -1.577338499158907 1.936190257374864 2.050091990113041 -0.5200046160127103 1.1399895127138917
3.3389070034 0.0932109895841321 -0.0692956730796606 -1.577338499158907 1.936190257374864 2.050091990113041 -0.5200046160127103 1.1399895127138917
3.3389070034 0.0932109895841321 -0.0692956730796606 -1.577338499158907 1.936190257374864 2.050091990113041 -0.5200046160127103 1.1399895127138917
3.34889411926 0.0932109895841321 -0.0692956730796606 -1.577338499158907 1.936190257374864 2.050091990113041 -0.5200046160127103 1.1399895127138917
3.34889411926 0.0932109895841321 -0.0692956730796606 -1.577338499158907 1.936190257374864 2.050091990113041 -0.5200046160127103 1.1399895127138917
3.35880208015 0.0932109895841321 -0.0692956730796606 -1.577338499158907 1.936190257374864 2.050091990113041 -0.5200046160127103 1.1399895127138917
3.35880208015 0.0932109895841321 -0.0692956730796606 -1.577338499158907 1.936190257374864 2.050091990113041 -0.5200046160127103 1.1399895127138917
3.36855101585 0.0932109895841321 -0.0692956730796606 -1.577338499158907 1.936190257374864 2.050091990113041 -0.5200046160127103 1.1399895127138917
3.36855101585 0.0932109895841321 -0.0692956730796606 -1.577338499158907 1.936190257374864 2.050091990113041 -0.5200046160127103 1.1399895127138917
3.37884092331 0.0932109895841321 -0.0692956730796606 -1.577338499158907 1.936190257374864 2.050091990113041 -0.5200046160127103 1.1399895127138917
3.37884092331 0.0932109895841321 -0.0692956730796606 -1.577338499158907 1.936190257374864 2.050091990113041 -0.5200046160127103 1.1399895127138917
3.38896512985 0.0932109895841321 -0.0692956730796606 -1.577338499158907 1.936190257374864 2.050091990113041 -0.5200046160127103 1.1399895127138917
3.38896512985 0.0932109895841321 -0.0692956730796606 -1.577338499158907 1.936190257374864 2.050091990113041 -0.5200046160127103 1.1399895127138917
3.39873504639 0.0932109895841321 -0.0692956730796606 -1.577338499158907 1.936190257374864 2.050091990113041 -0.5200046160127103 1.1399895127138917
3.39873504639 0.0932109895841321 -0.0692956730796606 -1.577338499158907 1.936190257374864 2.050091990113041 -0.5200046160127103 1.1399895127138917
3.40879201889 0.0932109895841321 -0.0692956730796606 -1.577338499158907 1.936190257374864 2.050091990113041 -0.5200046160127103 1.1399895127138917
3.40879201889 0.0932109895841321 -0.0692956730796606 -1.577338499158907 1.936190257374864 2.050091990113041 -0.5200046160127103 1.1399895127138917
3.41890501976 0.0932109895841321 -0.0692956730796606 -1.577338499158907 1.936190257374864 2.050091990113041 -0.5200046160127103 1.1399895127138917
3.41890501976 0.0932109895841321 -0.0692956730796606 -1.577338499158907 1.936190257374864 2.050091990113041 -0.5200046160127103 1.1399895127138917
3.42887210846 0.0932109895841321 -0.0692956730796606 -1.577338499158907 1.936190257374864 2.050091990113041 -0.5200046160127103 1.1399895127138917
3.42887210846 0.0932109895841321 -0.0692956730796606 -1.577338499158907 1.936190257374864 2.050091990113041 -0.5200046160127103 1.1399895127138917
3.43886303902 0.0932109895841321 -0.0692956730796606 -1.577338499158907 1.936190257374864 2.050091990113041 -0.5200046160127103 1.1399895127138917
3.43886303902 0.0932109895841321 -0.0692956730796606 -1.577338499158907 1.936190257374864 2.050091990113041 -0.5200046160127103 1.1399895127138917
3.44883394241 0.0932109895841321 -0.0692956730796606 -1.577338499158907 1.936190257374864 2.050091990113041 -0.5200046160127103 1.1399895127138917
3.44883394241 0.0932109895841321 -0.0692956730796606 -1.577338499158907 1.936190257374864 2.050091990113041 -0.5200046160127103 1.1399895127138917
3.45869207382 0.0932109895841321 -0.0692956730796606 -1.577338499158907 1.936190257374864 2.050091990113041 -0.5200046160127103 1.1399895127138917
3.45869207382 0.0932109895841321 -0.0692956730796606 -1.577338499158907 1.936190257374864 2.050091990113041 -0.5200046160127103 1.1399895127138917
3.46879506111 0.0932109895841321 -0.0692956730796606 -1.577338499158907 1.936190257374864 2.050091990113041 -0.5200046160127103 1.1399895127138917
3.46879506111 0.0932109895841321 -0.0692956730796606 -1.577338499158907 1.936190257374864 2.050091990113041 -0.5200046160127103 1.1399895127138917
3.47880411148 0.0932109895841321 -0.0692956730796606 -1.577338499158907 1.936190257374864 2.050091990113041 -0.5200046160127103 1.1399895127138917
3.47880411148 0.0932109895841321 -0.0692956730796606 -1.577338499158907 1.936190257374864 2.050091990113041 -0.5200046160127103 1.1399895127138917
3.48866605759 0.0932109895841321 -0.0692956730796606 -1.577338499158907 1.936190257374864 2.050091990113041 -0.5200046160127103 1.1399895127138917
3.48866605759 0.0932109895841321 -0.0692956730796606 -1.577338499158907 1.936190257374864 2.050091990113041 -0.5200046160127103 1.1399895127138917
3.49882507324 0.0932109895841321 -0.0692956730796606 -1.577338499158907 1.936190257374864 2.050091990113041 -0.5200046160127103 1.1399895127138917
3.49882507324 0.0932109895841321 -0.0692956730796606 -1.577338499158907 1.936190257374864 2.050091990113041 -0.5200046160127103 1.1399895127138917
3.50885510445 0.0932109895841321 -0.0692956730796606 -1.577338499158907 1.936190257374864 2.050091990113041 -0.5200046160127103 1.1399895127138917
3.50885510445 0.0932109895841321 -0.0692956730796606 -1.577338499158907 1.936190257374864 2.050091990113041 -0.5200046160127103 1.1399895127138917
3.51867294312 0.0932109895841321 -0.0692956730796606 -1.577338499158907 1.936190257374864 2.050091990113041 -0.5200046160127103 1.1399895127138917
3.51867294312 0.0932109895841321 -0.0692956730796606 -1.577338499158907 1.936190257374864 2.050091990113041 -0.5200046160127103 1.1399895127138917
3.5288670063 0.0932109895841321 -0.0692956730796606 -1.577338499158907 1.936190257374864 2.050091990113041 -0.5200046160127103 1.1399895127138917
3.5288670063 0.0932109895841321 -0.0692956730796606 -1.577338499158907 1.936190257374864 2.050091990113041 -0.5200046160127103 1.1399895127138917
3.53888893127 0.0932109895841321 -0.0692956730796606 -1.577338499158907 1.936190257374864 2.050091990113041 -0.5200046160127103 1.1399895127138917
3.53888893127 0.0932109895841321 -0.0692956730796606 -1.577338499158907 1.936190257374864 2.050091990113041 -0.5200046160127103 1.1399895127138917
3.54875898361 0.0932109895841321 -0.0692956730796606 -1.577338499158907 1.936190257374864 2.050091990113041 -0.5200046160127103 1.1399895127138917
3.54875898361 0.0932109895841321 -0.0692956730796606 -1.577338499158907 1.936190257374864 2.050091990113041 -0.5200046160127103 1.1399895127138917
3.55885314941 0.0932109895841321 -0.0692956730796606 -1.577338499158907 1.936190257374864 2.050091990113041 -0.5200046160127103 1.1399895127138917
3.55885314941 0.0932109895841321 -0.0692956730796606 -1.577338499158907 1.936190257374864 2.050091990113041 -0.5200046160127103 1.1399895127138917
3.56887793541 0.0932109895841321 -0.0692956730796606 -1.577338499158907 1.936190257374864 2.050091990113041 -0.5200046160127103 1.1399895127138917
3.56887793541 0.0932109895841321 -0.0692956730796606 -1.577338499158907 1.936190257374864 2.050091990113041 -0.5200046160127103 1.1399895127138917
3.57871007919 0.0932109895841321 -0.0692956730796606 -1.577338499158907 1.936190257374864 2.050091990113041 -0.5200046160127103 1.1399895127138917
3.57871007919 0.0932109895841321 -0.0692956730796606 -1.577338499158907 1.936190257374864 2.050091990113041 -0.5200046160127103 1.1399895127138917
3.58887410164 0.0932109895841321 -0.0692956730796606 -1.577338499158907 1.936190257374864 2.050091990113041 -0.5200046160127103 1.1399895127138917
3.58887410164 0.0932109895841321 -0.0692956730796606 -1.577338499158907 1.936190257374864 2.050091990113041 -0.5200046160127103 1.1399895127138917
3.59877514839 0.0932109895841321 -0.0692956730796606 -1.577338499158907 1.936190257374864 2.050091990113041 -0.5200046160127103 1.1399895127138917
3.59877514839 0.0932109895841321 -0.0692956730796606 -1.577338499158907 1.936190257374864 2.050091990113041 -0.5200046160127103 1.1399895127138917
3.6087269783 0.0932109895841321 -0.0692956730796606 -1.577338499158907 1.936190257374864 2.050091990113041 -0.5200046160127103 1.1399895127138917
3.6087269783 0.0932109895841321 -0.0692956730796606 -1.577338499158907 1.936190257374864 2.050091990113041 -0.5200046160127103 1.1399895127138917
3.61887693405 0.0932109895841321 -0.0692956730796606 -1.577338499158907 1.936190257374864 2.050091990113041 -0.5200046160127103 1.1399895127138917
3.61887693405 0.0932109895841321 -0.0692956730796606 -1.577338499158907 1.936190257374864 2.050091990113041 -0.5200046160127103 1.1399895127138917
3.62869811058 0.0932109895841321 -0.0692956730796606 -1.577338499158907 1.936190257374864 2.050091990113041 -0.5200046160127103 1.1399895127138917
3.62869811058 0.0932109895841321 -0.0692956730796606 -1.577338499158907 1.936190257374864 2.050091990113041 -0.5200046160127103 1.1399895127138917
3.63885211945 0.0932109895841321 -0.0692956730796606 -1.577338499158907 1.936190257374864 2.050091990113041 -0.5200046160127103 1.1399895127138917
3.63885211945 0.0932109895841321 -0.0692956730796606 -1.577338499158907 1.936190257374864 2.050091990113041 -0.5200046160127103 1.1399895127138917
3.64897203445 0.0932109895841321 -0.0692956730796606 -1.577338499158907 1.936190257374864 2.050091990113041 -0.5200046160127103 1.1399895127138917
3.64897203445 0.0932109895841321 -0.0692956730796606 -1.577338499158907 1.936190257374864 2.050091990113041 -0.5200046160127103 1.1399895127138917
3.6588909626 0.0932109895841321 -0.0692956730796606 -1.577338499158907 1.936190257374864 2.050091990113041 -0.5200046160127103 1.1399895127138917
3.6588909626 0.0932109895841321 -0.0692956730796606 -1.577338499158907 1.936190257374864 2.050091990113041 -0.5200046160127103 1.1399895127138917
3.66889715195 0.0932109895841321 -0.0692956730796606 -1.577338499158907 1.936190257374864 2.050091990113041 -0.5200046160127103 1.1399895127138917
3.66889715195 0.0932109895841321 -0.0692956730796606 -1.577338499158907 1.936190257374864 2.050091990113041 -0.5200046160127103 1.1399895127138917
3.67889809608 0.0932109895841321 -0.0692956730796606 -1.577338499158907 1.936190257374864 2.050091990113041 -0.5200046160127103 1.1399895127138917
3.67889809608 0.0932109895841321 -0.0692956730796606 -1.577338499158907 1.936190257374864 2.050091990113041 -0.5200046160127103 1.1399895127138917
3.68880200386 0.0932109895841321 -0.0692956730796606 -1.577338499158907 1.936190257374864 2.050091990113041 -0.5200046160127103 1.1399895127138917
3.68880200386 0.0932109895841321 -0.0692956730796606 -1.577338499158907 1.936190257374864 2.050091990113041 -0.5200046160127103 1.1399895127138917
3.69890403748 0.0932109895841321 -0.0692956730796606 -1.577338499158907 1.936190257374864 2.050091990113041 -0.5200046160127103 1.1399895127138917
3.69890403748 0.0932109895841321 -0.0692956730796606 -1.577338499158907 1.936190257374864 2.050091990113041 -0.5200046160127103 1.1399895127138917
3.70885300636 0.0932109895841321 -0.0692956730796606 -1.577338499158907 1.936190257374864 2.050091990113041 -0.5200046160127103 1.1399895127138917
3.70885300636 0.0932109895841321 -0.0692956730796606 -1.577338499158907 1.936190257374864 2.050091990113041 -0.5200046160127103 1.1399895127138917
3.71872806549 0.0932109895841321 -0.0692956730796606 -1.577338499158907 1.936190257374864 2.050091990113041 -0.5200046160127103 1.1399895127138917
3.71872806549 0.0932109895841321 -0.0692956730796606 -1.577338499158907 1.936190257374864 2.050091990113041 -0.5200046160127103 1.1399895127138917
3.7287299633 0.0932109895841321 -0.0692956730796606 -1.577338499158907 1.936190257374864 2.050091990113041 -0.5200046160127103 1.1399895127138917
3.7287299633 0.0932109895841321 -0.0692956730796606 -1.577338499158907 1.936190257374864 2.050091990113041 -0.5200046160127103 1.1399895127138917
3.73873496056 0.0932109895841321 -0.0692956730796606 -1.577338499158907 1.936190257374864 2.050091990113041 -0.5200046160127103 1.1399895127138917
3.73873496056 0.0932109895841321 -0.0692956730796606 -1.577338499158907 1.936190257374864 2.050091990113041 -0.5200046160127103 1.1399895127138917
3.74880194664 0.0932109895841321 -0.0692956730796606 -1.577338499158907 1.936190257374864 2.050091990113041 -0.5200046160127103 1.1399895127138917
3.74880194664 0.0932109895841321 -0.0692956730796606 -1.577338499158907 1.936190257374864 2.050091990113041 -0.5200046160127103 1.1399895127138917
3.75885796547 0.0932109895841321 -0.0692956730796606 -1.577338499158907 1.936190257374864 2.050091990113041 -0.5200046160127103 1.1399895127138917
3.75885796547 0.0932109895841321 -0.0692956730796606 -1.577338499158907 1.936190257374864 2.050091990113041 -0.5200046160127103 1.1399895127138917
3.76881814003 0.0932109895841321 -0.0692956730796606 -1.577338499158907 1.936190257374864 2.050091990113041 -0.5200046160127103 1.1399895127138917
3.76881814003 0.0932109895841321 -0.0692956730796606 -1.577338499158907 1.936190257374864 2.050091990113041 -0.5200046160127103 1.1399895127138917
3.77880811691 0.0932109895841321 -0.0692956730796606 -1.577338499158907 1.936190257374864 2.050091990113041 -0.5200046160127103 1.1399895127138917
3.77880811691 0.0932109895841321 -0.0692956730796606 -1.577338499158907 1.936190257374864 2.050091990113041 -0.5200046160127103 1.1399895127138917
3.7887430191 0.0932109895841321 -0.0692956730796606 -1.577338499158907 1.936190257374864 2.050091990113041 -0.5200046160127103 1.1399895127138917
3.7887430191 0.0932109895841321 -0.0692956730796606 -1.577338499158907 1.936190257374864 2.050091990113041 -0.5200046160127103 1.1399895127138917
3.79888105392 0.0932109895841321 -0.0692956730796606 -1.577338499158907 1.936190257374864 2.050091990113041 -0.5200046160127103 1.1399895127138917
3.79888105392 0.0932109895841321 -0.0692956730796606 -1.577338499158907 1.936190257374864 2.050091990113041 -0.5200046160127103 1.1399895127138917
3.80875492096 0.0932109895841321 -0.0692956730796606 -1.577338499158907 1.936190257374864 2.050091990113041 -0.5200046160127103 1.1399895127138917
3.80875492096 0.0932109895841321 -0.0692956730796606 -1.577338499158907 1.936190257374864 2.050091990113041 -0.5200046160127103 1.1399895127138917
3.81876397133 0.0932109895841321 -0.0692956730796606 -1.577338499158907 1.936190257374864 2.050091990113041 -0.5200046160127103 1.1399895127138917
3.81876397133 0.0932109895841321 -0.0692956730796606 -1.577338499158907 1.936190257374864 2.050091990113041 -0.5200046160127103 1.1399895127138917
3.82881498337 0.0932109895841321 -0.0675929318196321 -1.5804218414405804 1.9295173524369145 2.050091990113041 -0.5200046160127103 1.1399895127138917
3.82881498337 0.0932109895841321 -0.0675929318196321 -1.5804218414405804 1.9295173524369145 2.050091990113041 -0.5200046160127103 1.1399895127138917
3.8387670517 0.0932109895841321 -0.0675929318196321 -1.5804218414405804 1.9295173524369145 2.050091990113041 -0.5200046160127103 1.1399895127138917
3.8387670517 0.0932109895841321 -0.0675929318196321 -1.5804218414405804 1.9295173524369145 2.050091990113041 -0.5200046160127103 1.1399895127138917
3.84852004051 0.0932109895841321 -0.0675929318196321 -1.5804218414405804 1.9295173524369145 2.050091990113041 -0.5200046160127103 1.1399895127138917
3.84852004051 0.0932109895841321 -0.0675929318196321 -1.5804218414405804 1.9295173524369145 2.050091990113041 -0.5200046160127103 1.1399895127138917
3.85882806778 0.0932109895841321 -0.0675929318196321 -1.5804218414405804 1.9295173524369145 2.050091990113041 -0.5200046160127103 1.1399895127138917
3.85882806778 0.0932109895841321 -0.0675929318196321 -1.5804218414405804 1.9295173524369145 2.050091990113041 -0.5200046160127103 1.1399895127138917
3.86890006065 0.0932109895841321 -0.0675929318196321 -1.5804218414405804 1.9295173524369145 2.050091990113041 -0.5200046160127103 1.1399895127138917
3.86890006065 0.0932109895841321 -0.0675929318196321 -1.5804218414405804 1.9295173524369145 2.050091990113041 -0.5200046160127103 1.1399895127138917
3.87887907028 0.0932109895841321 -0.0675929318196321 -1.5804218414405804 1.9295173524369145 2.050091990113041 -0.5200046160127103 1.1399895127138917
3.87887907028 0.0932109895841321 -0.0675929318196321 -1.5804218414405804 1.9295173524369145 2.050091990113041 -0.5200046160127103 1.1399895127138917
3.88879203796 0.0932109895841321 -0.0675929318196321 -1.5804218414405804 1.9295173524369145 2.050091990113041 -0.5200046160127103 1.1399895127138917
3.88879203796 0.0932109895841321 -0.0675929318196321 -1.5804218414405804 1.9295173524369145 2.050091990113041 -0.5200046160127103 1.1399895127138917
3.89888310432 0.0932109895841321 -0.0675929318196321 -1.5804218414405804 1.9295173524369145 2.050091990113041 -0.5200046160127103 1.1399895127138917
3.89888310432 0.0932109895841321 -0.0675929318196321 -1.5804218414405804 1.9295173524369145 2.050091990113041 -0.5200046160127103 1.1399895127138917
3.90885710716 0.0932109895841321 -0.0675929318196321 -1.5804218414405804 1.9295173524369145 2.050091990113041 -0.5200046160127103 1.1399895127138917
3.90885710716 0.0932109895841321 -0.0675929318196321 -1.5804218414405804 1.9295173524369145 2.050091990113041 -0.5200046160127103 1.1399895127138917
3.91876792908 0.0932109895841321 -0.0675929318196321 -1.5804218414405804 1.9295173524369145 2.050091990113041 -0.5200046160127103 1.1399895127138917
3.91876792908 0.0932109895841321 -0.0675929318196321 -1.5804218414405804 1.9295173524369145 2.050091990113041 -0.5200046160127103 1.1399895127138917
3.92887806892 0.0932109895841321 -0.0675929318196321 -1.5804218414405804 1.9295173524369145 2.050091990113041 -0.5200046160127103 1.1399895127138917
3.92887806892 0.0932109895841321 -0.0675929318196321 -1.5804218414405804 1.9295173524369145 2.050091990113041 -0.5200046160127103 1.1399895127138917
3.93890213966 0.0932109895841321 -0.0675929318196321 -1.5804218414405804 1.9295173524369145 2.050091990113041 -0.5200046160127103 1.1399895127138917
3.93890213966 0.0932109895841321 -0.0675929318196321 -1.5804218414405804 1.9295173524369145 2.050091990113041 -0.5200046160127103 1.1399895127138917
3.94880008698 0.0932109895841321 -0.0675929318196321 -1.5804218414405804 1.9295173524369145 2.050091990113041 -0.5200046160127103 1.1399895127138917
3.94880008698 0.0932109895841321 -0.0675929318196321 -1.5804218414405804 1.9295173524369145 2.050091990113041 -0.5200046160127103 1.1399895127138917
3.95866703987 0.0932109895841321 -0.0675929318196321 -1.5804218414405804 1.9295173524369145 2.050091990113041 -0.5200046160127103 1.1399895127138917
3.95866703987 0.0932109895841321 -0.0675929318196321 -1.5804218414405804 1.9295173524369145 2.050091990113041 -0.5200046160127103 1.1399895127138917
3.96851992607 0.0932109895841321 -0.0675929318196321 -1.5804218414405804 1.9295173524369145 2.050091990113041 -0.5200046160127103 1.1399895127138917
3.96851992607 0.0932109895841321 -0.0675929318196321 -1.5804218414405804 1.9295173524369145 2.050091990113041 -0.5200046160127103 1.1399895127138917
3.97875809669 0.0932109895841321 -0.0675929318196321 -1.5804218414405804 1.9295173524369145 2.050091990113041 -0.5200046160127103 1.1399895127138917
3.97875809669 0.0932109895841321 -0.0675929318196321 -1.5804218414405804 1.9295173524369145 2.050091990113041 -0.5200046160127103 1.1399895127138917
3.98877906799 0.0932109895841321 -0.0675929318196321 -1.5804218414405804 1.9295173524369145 2.050091990113041 -0.5200046160127103 1.1399895127138917
3.98877906799 0.0932109895841321 -0.0675929318196321 -1.5804218414405804 1.9295173524369145 2.050091990113041 -0.5200046160127103 1.1399895127138917
3.99886202812 0.0932109895841321 -0.0675929318196321 -1.5804218414405804 1.9295173524369145 2.050091990113041 -0.5200046160127103 1.1399895127138917
3.99886202812 0.0932109895841321 -0.0675929318196321 -1.5804218414405804 1.9295173524369145 2.050091990113041 -0.5200046160127103 1.1399895127138917
4.00884604454 0.0932109895841321 -0.0675929318196321 -1.5804218414405804 1.9295173524369145 2.050091990113041 -0.5200046160127103 1.1399895127138917
4.00884604454 0.0932109895841321 -0.0675929318196321 -1.5804218414405804 1.9295173524369145 2.050091990113041 -0.5200046160127103 1.1399895127138917
4.01889514923 0.0932109895841321 -0.0675929318196321 -1.5804218414405804 1.9295173524369145 2.050091990113041 -0.5200046160127103 1.1399895127138917
4.01889514923 0.0932109895841321 -0.0675929318196321 -1.5804218414405804 1.9295173524369145 2.050091990113041 -0.5200046160127103 1.1399895127138917
4.02881598473 0.0932109895841321 -0.0675929318196321 -1.5804218414405804 1.9295173524369145 2.050091990113041 -0.5200046160127103 1.1399895127138917
4.02881598473 0.0932109895841321 -0.0675929318196321 -1.5804218414405804 1.9295173524369145 2.050091990113041 -0.5200046160127103 1.1399895127138917
4.03892111778 0.0932109895841321 -0.0675929318196321 -1.5804218414405804 1.9295173524369145 2.050091990113041 -0.5200046160127103 1.1399895127138917
4.03892111778 0.0932109895841321 -0.0675929318196321 -1.5804218414405804 1.9295173524369145 2.050091990113041 -0.5200046160127103 1.1399895127138917
4.04881715775 0.0932109895841321 -0.0675929318196321 -1.5804218414405804 1.9295173524369145 2.050091990113041 -0.5200046160127103 1.1399895127138917
4.04881715775 0.0932109895841321 -0.0675929318196321 -1.5804218414405804 1.9295173524369145 2.050091990113041 -0.5200046160127103 1.1399895127138917
4.05892705917 0.0932109895841321 -0.0675929318196321 -1.5804218414405804 1.9295173524369145 2.050091990113041 -0.5200046160127103 1.1399895127138917
4.05892705917 0.0932109895841321 -0.0675929318196321 -1.5804218414405804 1.9295173524369145 2.050091990113041 -0.5200046160127103 1.1399895127138917
4.06894898415 0.0932109895841321 -0.0675929318196321 -1.5804218414405804 1.9295173524369145 2.050091990113041 -0.5200046160127103 1.1399895127138917
4.06894898415 0.0932109895841321 -0.0675929318196321 -1.5804218414405804 1.9295173524369145 2.050091990113041 -0.5200046160127103 1.1399895127138917
4.0787961483 0.0932109895841321 -0.0675929318196321 -1.5804218414405804 1.9295173524369145 2.050091990113041 -0.5200046160127103 1.1399895127138917
4.0787961483 0.0932109895841321 -0.0675929318196321 -1.5804218414405804 1.9295173524369145 2.050091990113041 -0.5200046160127103 1.1399895127138917
4.08876395226 0.0932109895841321 -0.0675929318196321 -1.5804218414405804 1.9295173524369145 2.050091990113041 -0.5200046160127103 1.1399895127138917
4.08876395226 0.0932109895841321 -0.0675929318196321 -1.5804218414405804 1.9295173524369145 2.050091990113041 -0.5200046160127103 1.1399895127138917
4.0988919735 0.0932109895841321 -0.0675929318196321 -1.5804218414405804 1.9295173524369145 2.050091990113041 -0.5200046160127103 1.1399895127138917
4.0988919735 0.0932109895841321 -0.0675929318196321 -1.5804218414405804 1.9295173524369145 2.050091990113041 -0.5200046160127103 1.1399895127138917
4.10878515244 0.0932109895841321 -0.0675929318196321 -1.5804218414405804 1.9295173524369145 2.050091990113041 -0.5200046160127103 1.1399895127138917
4.10878515244 0.0932109895841321 -0.0675929318196321 -1.5804218414405804 1.9295173524369145 2.050091990113041 -0.5200046160127103 1.1399895127138917
4.11890006065 0.0932109895841321 -0.0675929318196321 -1.5804218414405804 1.9295173524369145 2.050091990113041 -0.5200046160127103 1.1399895127138917
4.11890006065 0.0932109895841321 -0.0675929318196321 -1.5804218414405804 1.9295173524369145 2.050091990113041 -0.5200046160127103 1.1399895127138917
4.12887001038 0.0932109895841321 -0.0675929318196321 -1.5804218414405804 1.9295173524369145 2.050091990113041 -0.5200046160127103 1.1399895127138917
4.12887001038 0.0932109895841321 -0.0675929318196321 -1.5804218414405804 1.9295173524369145 2.050091990113041 -0.5200046160127103 1.1399895127138917
4.1387860775 0.0932109895841321 -0.0675929318196321 -1.5804218414405804 1.9295173524369145 2.050091990113041 -0.5200046160127103 1.1399895127138917
4.1387860775 0.0932109895841321 -0.0675929318196321 -1.5804218414405804 1.9295173524369145 2.050091990113041 -0.5200046160127103 1.1399895127138917
4.14888596535 0.0932109895841321 -0.0675929318196321 -1.5804218414405804 1.9295173524369145 2.050091990113041 -0.5200046160127103 1.1399895127138917
4.14888596535 0.0932109895841321 -0.0675929318196321 -1.5804218414405804 1.9295173524369145 2.050091990113041 -0.5200046160127103 1.1399895127138917
4.15893602371 0.0932109895841321 -0.0675929318196321 -1.5804218414405804 1.9295173524369145 2.050091990113041 -0.5200046160127103 1.1399895127138917
4.15893602371 0.0932109895841321 -0.0675929318196321 -1.5804218414405804 1.9295173524369145 2.050091990113041 -0.5200046160127103 1.1399895127138917
4.16870808601 0.0932109895841321 -0.0675929318196321 -1.5804218414405804 1.9295173524369145 2.050091990113041 -0.5200046160127103 1.1399895127138917
4.16870808601 0.0932109895841321 -0.0675929318196321 -1.5804218414405804 1.9295173524369145 2.050091990113041 -0.5200046160127103 1.1399895127138917
4.17885303497 0.0932109895841321 -0.0675929318196321 -1.5804218414405804 1.9295173524369145 2.050091990113041 -0.5200046160127103 1.1399895127138917
4.17885303497 0.0932109895841321 -0.0675929318196321 -1.5804218414405804 1.9295173524369145 2.050091990113041 -0.5200046160127103 1.1399895127138917
4.18884396553 0.0932109895841321 -0.0675929318196321 -1.5804218414405804 1.9295173524369145 2.050091990113041 -0.5200046160127103 1.1399895127138917
4.18884396553 0.0932109895841321 -0.0675929318196321 -1.5804218414405804 1.9295173524369145 2.050091990113041 -0.5200046160127103 1.1399895127138917
4.19871211052 0.0932109895841321 -0.0675929318196321 -1.5804218414405804 1.9295173524369145 2.050091990113041 -0.5200046160127103 1.1399895127138917
4.19871211052 0.0932109895841321 -0.0675929318196321 -1.5804218414405804 1.9295173524369145 2.050091990113041 -0.5200046160127103 1.1399895127138917
4.20858001709 0.0932109895841321 -0.0675929318196321 -1.5804218414405804 1.9295173524369145 2.050091990113041 -0.5200046160127103 1.1399895127138917
4.20858001709 0.0932109895841321 -0.0675929318196321 -1.5804218414405804 1.9295173524369145 2.050091990113041 -0.5200046160127103 1.1399895127138917
4.21885895729 0.0932109895841321 -0.0675929318196321 -1.5804218414405804 1.9295173524369145 2.050091990113041 -0.5200046160127103 1.1399895127138917
4.21885895729 0.0932109895841321 -0.0675929318196321 -1.5804218414405804 1.9295173524369145 2.050091990113041 -0.5200046160127103 1.1399895127138917
4.22879600525 0.0932109895841321 -0.0675929318196321 -1.5804218414405804 1.9295173524369145 2.050091990113041 -0.5200046160127103 1.1399895127138917
4.22879600525 0.0932109895841321 -0.0675929318196321 -1.5804218414405804 1.9295173524369145 2.050091990113041 -0.5200046160127103 1.1399895127138917
4.23885011673 0.0932109895841321 -0.0675929318196321 -1.5804218414405804 1.9295173524369145 2.050091990113041 -0.5200046160127103 1.1399895127138917
4.23885011673 0.0932109895841321 -0.0675929318196321 -1.5804218414405804 1.9295173524369145 2.050091990113041 -0.5200046160127103 1.1399895127138917
4.24887299538 0.0932109895841321 -0.0675929318196321 -1.5804218414405804 1.9295173524369145 2.050091990113041 -0.5200046160127103 1.1399895127138917
4.24887299538 0.0932109895841321 -0.0675929318196321 -1.5804218414405804 1.9295173524369145 2.050091990113041 -0.5200046160127103 1.1399895127138917
4.25873398781 0.0932109895841321 -0.0675929318196321 -1.5804218414405804 1.9295173524369145 2.050091990113041 -0.5200046160127103 1.1399895127138917
4.25873398781 0.0932109895841321 -0.0675929318196321 -1.5804218414405804 1.9295173524369145 2.050091990113041 -0.5200046160127103 1.1399895127138917
4.26888895035 0.0932109895841321 -0.0675929318196321 -1.5804218414405804 1.9295173524369145 2.050091990113041 -0.5200046160127103 1.1399895127138917
4.26888895035 0.0932109895841321 -0.0675929318196321 -1.5804218414405804 1.9295173524369145 2.050091990113041 -0.5200046160127103 1.1399895127138917
4.27892208099 0.0932109895841321 -0.0675929318196321 -1.5804218414405804 1.9295173524369145 2.050091990113041 -0.5200046160127103 1.1399895127138917
4.27892208099 0.0932109895841321 -0.0675929318196321 -1.5804218414405804 1.9295173524369145 2.050091990113041 -0.5200046160127103 1.1399895127138917
4.28874802589 0.0932109895841321 -0.0675929318196321 -1.5804218414405804 1.9295173524369145 2.050091990113041 -0.5200046160127103 1.1399895127138917
4.28874802589 0.0932109895841321 -0.0675929318196321 -1.5804218414405804 1.9295173524369145 2.050091990113041 -0.5200046160127103 1.1399895127138917
4.29890108109 0.0932109895841321 -0.0675929318196321 -1.5804218414405804 1.9295173524369145 2.050091990113041 -0.5200046160127103 1.1399895127138917
4.29890108109 0.0932109895841321 -0.0675929318196321 -1.5804218414405804 1.9295173524369145 2.050091990113041 -0.5200046160127103 1.1399895127138917
4.30880498886 0.0932109895841321 -0.0675929318196321 -1.5804218414405804 1.9295173524369145 2.050091990113041 -0.5200046160127103 1.1399895127138917
4.30880498886 0.0932109895841321 -0.0675929318196321 -1.5804218414405804 1.9295173524369145 2.050091990113041 -0.5200046160127103 1.1399895127138917
4.31878614426 0.0932109895841321 -0.0675929318196321 -1.5804218414405804 1.9295173524369145 2.050091990113041 -0.5200046160127103 1.1399895127138917
4.31878614426 0.0932109895841321 -0.0675929318196321 -1.5804218414405804 1.9295173524369145 2.050091990113041 -0.5200046160127103 1.1399895127138917
4.32857012749 0.0932109895841321 -0.0675929318196321 -1.5804218414405804 1.9295173524369145 2.050091990113041 -0.5200046160127103 1.1399895127138917
4.32857012749 0.0932109895841321 -0.0675929318196321 -1.5804218414405804 1.9295173524369145 2.050091990113041 -0.5200046160127103 1.1399895127138917
4.33867192268 0.0932109895841321 -0.0675929318196321 -1.5804218414405804 1.9295173524369145 2.050091990113041 -0.5200046160127103 1.1399895127138917
4.33867192268 0.0932109895841321 -0.0675929318196321 -1.5804218414405804 1.9295173524369145 2.050091990113041 -0.5200046160127103 1.1399895127138917
4.34876513481 0.0932109895841321 -0.0675929318196321 -1.5804218414405804 1.9295173524369145 2.050091990113041 -0.5200046160127103 1.1399895127138917
4.34876513481 0.0932109895841321 -0.0675929318196321 -1.5804218414405804 1.9295173524369145 2.050091990113041 -0.5200046160127103 1.1399895127138917
4.35881900787 0.0932109895841321 -0.0675929318196321 -1.5804218414405804 1.9295173524369145 2.050091990113041 -0.5200046160127103 1.1399895127138917
4.35881900787 0.0932109895841321 -0.0675929318196321 -1.5804218414405804 1.9295173524369145 2.050091990113041 -0.5200046160127103 1.1399895127138917
4.36878299713 0.0932109895841321 -0.0675929318196321 -1.5804218414405804 1.9295173524369145 2.050091990113041 -0.5200046160127103 1.1399895127138917
4.36878299713 0.0932109895841321 -0.0675929318196321 -1.5804218414405804 1.9295173524369145 2.050091990113041 -0.5200046160127103 1.1399895127138917
4.37876200676 0.0932109895841321 -0.0675929318196321 -1.5804218414405804 1.9295173524369145 2.050091990113041 -0.5200046160127103 1.1399895127138917
4.37876200676 0.0932109895841321 -0.0675929318196321 -1.5804218414405804 1.9295173524369145 2.050091990113041 -0.5200046160127103 1.1399895127138917
4.38878893852 0.0932109895841321 -0.0675929318196321 -1.5804218414405804 1.9295173524369145 2.050091990113041 -0.5200046160127103 1.1399895127138917
4.38878893852 0.0932109895841321 -0.0675929318196321 -1.5804218414405804 1.9295173524369145 2.050091990113041 -0.5200046160127103 1.1399895127138917
4.39885210991 0.0932109895841321 -0.0675929318196321 -1.5804218414405804 1.9295173524369145 2.050091990113041 -0.5200046160127103 1.1399895127138917
4.39885210991 0.0932109895841321 -0.0675929318196321 -1.5804218414405804 1.9295173524369145 2.050091990113041 -0.5200046160127103 1.1399895127138917
4.40887904167 0.0932109895841321 -0.0675929318196321 -1.5804218414405804 1.9295173524369145 2.050091990113041 -0.5200046160127103 1.1399895127138917
4.40887904167 0.0932109895841321 -0.0675929318196321 -1.5804218414405804 1.9295173524369145 2.050091990113041 -0.5200046160127103 1.1399895127138917
4.41876411438 0.0932109895841321 -0.0675929318196321 -1.5804218414405804 1.9295173524369145 2.050091990113041 -0.5200046160127103 1.1399895127138917
4.41876411438 0.0932109895841321 -0.0675929318196321 -1.5804218414405804 1.9295173524369145 2.050091990113041 -0.5200046160127103 1.1399895127138917
4.42887711525 0.0932109895841321 -0.0675929318196321 -1.5804218414405804 1.9295173524369145 2.050091990113041 -0.5200046160127103 1.1399895127138917
4.42887711525 0.0932109895841321 -0.0675929318196321 -1.5804218414405804 1.9295173524369145 2.050091990113041 -0.5200046160127103 1.1399895127138917
4.43872594833 0.0932109895841321 -0.0675929318196321 -1.5804218414405804 1.9295173524369145 2.050091990113041 -0.5200046160127103 1.1399895127138917
4.43872594833 0.0932109895841321 -0.0675929318196321 -1.5804218414405804 1.9295173524369145 2.050091990113041 -0.5200046160127103 1.1399895127138917
4.44844698906 0.0932109895841321 -0.0675929318196321 -1.5804218414405804 1.9295173524369145 2.050091990113041 -0.5200046160127103 1.1399895127138917
4.44844698906 0.0932109895841321 -0.0675929318196321 -1.5804218414405804 1.9295173524369145 2.050091990113041 -0.5200046160127103 1.1399895127138917
4.45864200592 0.0932109895841321 -0.0675929318196321 -1.5804218414405804 1.9295173524369145 2.050091990113041 -0.5200046160127103 1.1399895127138917
4.45864200592 0.0932109895841321 -0.0675929318196321 -1.5804218414405804 1.9295173524369145 2.050091990113041 -0.5200046160127103 1.1399895127138917
4.46881508827 0.0932109895841321 -0.0675929318196321 -1.5804218414405804 1.9295173524369145 2.050091990113041 -0.5200046160127103 1.1399895127138917
4.46881508827 0.0932109895841321 -0.0675929318196321 -1.5804218414405804 1.9295173524369145 2.050091990113041 -0.5200046160127103 1.1399895127138917
4.47885894775 0.0932109895841321 -0.0675929318196321 -1.5804218414405804 1.9295173524369145 2.050091990113041 -0.5200046160127103 1.1399895127138917
4.47885894775 0.0932109895841321 -0.0675929318196321 -1.5804218414405804 1.9295173524369145 2.050091990113041 -0.5200046160127103 1.1399895127138917
4.48883104324 0.0932109895841321 -0.0675929318196321 -1.5804218414405804 1.9295173524369145 2.050091990113041 -0.5200046160127103 1.1399895127138917
4.48883104324 0.0932109895841321 -0.0675929318196321 -1.5804218414405804 1.9295173524369145 2.050091990113041 -0.5200046160127103 1.1399895127138917
4.49873709679 0.0932109895841321 -0.0675929318196321 -1.5804218414405804 1.9295173524369145 2.050091990113041 -0.5200046160127103 1.1399895127138917
4.49873709679 0.0932109895841321 -0.0675929318196321 -1.5804218414405804 1.9295173524369145 2.050091990113041 -0.5200046160127103 1.1399895127138917
4.50879812241 0.0932109895841321 -0.0675929318196321 -1.5804218414405804 1.9295173524369145 2.050091990113041 -0.5200046160127103 1.1399895127138917
4.50879812241 0.0932109895841321 -0.0675929318196321 -1.5804218414405804 1.9295173524369145 2.050091990113041 -0.5200046160127103 1.1399895127138917
4.51889014244 0.0932109895841321 -0.0675929318196321 -1.5804218414405804 1.9295173524369145 2.050091990113041 -0.5200046160127103 1.1399895127138917
4.51889014244 0.0932109895841321 -0.0675929318196321 -1.5804218414405804 1.9295173524369145 2.050091990113041 -0.5200046160127103 1.1399895127138917
4.52890396118 0.0932109895841321 -0.0675929318196321 -1.5804218414405804 1.9295173524369145 2.050091990113041 -0.5200046160127103 1.1399895127138917
4.52890396118 0.0932109895841321 -0.0675929318196321 -1.5804218414405804 1.9295173524369145 2.050091990113041 -0.5200046160127103 1.1399895127138917
4.5388879776 0.0932109895841321 -0.0675929318196321 -1.5804218414405804 1.9295173524369145 2.050091990113041 -0.5200046160127103 1.1399895127138917
4.5388879776 0.0932109895841321 -0.0675929318196321 -1.5804218414405804 1.9295173524369145 2.050091990113041 -0.5200046160127103 1.1399895127138917
4.54874110222 0.0932109895841321 -0.0675929318196321 -1.5804218414405804 1.9295173524369145 2.050091990113041 -0.5200046160127103 1.1399895127138917
4.54874110222 0.0932109895841321 -0.0675929318196321 -1.5804218414405804 1.9295173524369145 2.050091990113041 -0.5200046160127103 1.1399895127138917
4.55863809586 0.0932109895841321 -0.0675929318196321 -1.5804218414405804 1.9295173524369145 2.050091990113041 -0.5200046160127103 1.1399895127138917
4.55863809586 0.0932109895841321 -0.0675929318196321 -1.5804218414405804 1.9295173524369145 2.050091990113041 -0.5200046160127103 1.1399895127138917
4.56886410713 0.0932109895841321 -0.0675929318196321 -1.5804218414405804 1.9295173524369145 2.050091990113041 -0.5200046160127103 1.1399895127138917
4.56886410713 0.0932109895841321 -0.0675929318196321 -1.5804218414405804 1.9295173524369145 2.050091990113041 -0.5200046160127103 1.1399895127138917
4.57883310318 0.0932109895841321 -0.0675929318196321 -1.5804218414405804 1.9295173524369145 2.050091990113041 -0.5200046160127103 1.1399895127138917
4.57883310318 0.0932109895841321 -0.0675929318196321 -1.5804218414405804 1.9295173524369145 2.050091990113041 -0.5200046160127103 1.1399895127138917
4.58892393112 0.0932109895841321 -0.0675929318196321 -1.5804218414405804 1.9295173524369145 2.050091990113041 -0.5200046160127103 1.1399895127138917
4.58892393112 0.0932109895841321 -0.0675929318196321 -1.5804218414405804 1.9295173524369145 2.050091990113041 -0.5200046160127103 1.1399895127138917
4.59890294075 0.0932109895841321 -0.0675929318196321 -1.5804218414405804 1.9295173524369145 2.050091990113041 -0.5200046160127103 1.1399895127138917
4.59890294075 0.0932109895841321 -0.0675929318196321 -1.5804218414405804 1.9295173524369145 2.050091990113041 -0.5200046160127103 1.1399895127138917
4.60881209373 0.0932109895841321 -0.0675929318196321 -1.5804218414405804 1.9295173524369145 2.050091990113041 -0.5200046160127103 1.1399895127138917
4.60881209373 0.0932109895841321 -0.0675929318196321 -1.5804218414405804 1.9295173524369145 2.050091990113041 -0.5200046160127103 1.1399895127138917
4.61892604828 0.0932109895841321 -0.0675929318196321 -1.5804218414405804 1.9295173524369145 2.050091990113041 -0.5200046160127103 1.1399895127138917
4.61892604828 0.0932109895841321 -0.0675929318196321 -1.5804218414405804 1.9295173524369145 2.050091990113041 -0.5200046160127103 1.1399895127138917
4.6288330555 0.0932109895841321 -0.0675929318196321 -1.5804218414405804 1.9295173524369145 2.050091990113041 -0.5200046160127103 1.1399895127138917
4.6288330555 0.0932109895841321 -0.0675929318196321 -1.5804218414405804 1.9295173524369145 2.050091990113041 -0.5200046160127103 1.1399895127138917
4.6388399601 0.0932109895841321 -0.0675929318196321 -1.5804218414405804 1.9295173524369145 2.050091990113041 -0.5200046160127103 1.1399895127138917
4.6388399601 0.0932109895841321 -0.0675929318196321 -1.5804218414405804 1.9295173524369145 2.050091990113041 -0.5200046160127103 1.1399895127138917
4.64893102646 0.0932109895841321 -0.0675929318196321 -1.5804218414405804 1.9295173524369145 2.050091990113041 -0.5200046160127103 1.1399895127138917
4.64893102646 0.0932109895841321 -0.0675929318196321 -1.5804218414405804 1.9295173524369145 2.050091990113041 -0.5200046160127103 1.1399895127138917
4.65882492065 0.0932109895841321 -0.0675929318196321 -1.5804218414405804 1.9295173524369145 2.050091990113041 -0.5200046160127103 1.1399895127138917
4.65882492065 0.0932109895841321 -0.0675929318196321 -1.5804218414405804 1.9295173524369145 2.050091990113041 -0.5200046160127103 1.1399895127138917
4.66875505447 0.0932109895841321 -0.0675929318196321 -1.5804218414405804 1.9295173524369145 2.050091990113041 -0.5200046160127103 1.1399895127138917
4.66875505447 0.0932109895841321 -0.0675929318196321 -1.5804218414405804 1.9295173524369145 2.050091990113041 -0.5200046160127103 1.1399895127138917
4.67861294746 0.0932109895841321 -0.0675929318196321 -1.5804218414405804 1.9295173524369145 2.050091990113041 -0.5200046160127103 1.1399895127138917
4.67861294746 0.0932109895841321 -0.0675929318196321 -1.5804218414405804 1.9295173524369145 2.050091990113041 -0.5200046160127103 1.1399895127138917
4.68897914886 0.0932109895841321 -0.0675929318196321 -1.5804218414405804 1.9295173524369145 2.050091990113041 -0.5200046160127103 1.1399895127138917
4.68897914886 0.0932109895841321 -0.0675929318196321 -1.5804218414405804 1.9295173524369145 2.050091990113041 -0.5200046160127103 1.1399895127138917
4.69882202148 0.0932109895841321 -0.0675929318196321 -1.5804218414405804 1.9295173524369145 2.050091990113041 -0.5200046160127103 1.1399895127138917
4.69882202148 0.0932109895841321 -0.0675929318196321 -1.5804218414405804 1.9295173524369145 2.050091990113041 -0.5200046160127103 1.1399895127138917
4.70868897438 0.0932109895841321 -0.0675929318196321 -1.5804218414405804 1.9295173524369145 2.050091990113041 -0.5200046160127103 1.1399895127138917
4.70868897438 0.0932109895841321 -0.0675929318196321 -1.5804218414405804 1.9295173524369145 2.050091990113041 -0.5200046160127103 1.1399895127138917
4.71885299683 0.0932109895841321 -0.0675929318196321 -1.5804218414405804 1.9295173524369145 2.050091990113041 -0.5200046160127103 1.1399895127138917
4.71885299683 0.0932109895841321 -0.0675929318196321 -1.5804218414405804 1.9295173524369145 2.050091990113041 -0.5200046160127103 1.1399895127138917
4.72872900963 0.0932109895841321 -0.0675929318196321 -1.5804218414405804 1.9295173524369145 2.050091990113041 -0.5200046160127103 1.1399895127138917
4.72872900963 0.0932109895841321 -0.0675929318196321 -1.5804218414405804 1.9295173524369145 2.050091990113041 -0.5200046160127103 1.1399895127138917
4.73883199692 0.0932109895841321 -0.0675929318196321 -1.5804218414405804 1.9295173524369145 2.050091990113041 -0.5200046160127103 1.1399895127138917
4.73883199692 0.0932109895841321 -0.0675929318196321 -1.5804218414405804 1.9295173524369145 2.050091990113041 -0.5200046160127103 1.1399895127138917
4.7486641407 0.0932109895841321 -0.0675929318196321 -1.5804218414405804 1.9295173524369145 2.050091990113041 -0.5200046160127103 1.1399895127138917
4.7486641407 0.0932109895841321 -0.0675929318196321 -1.5804218414405804 1.9295173524369145 2.050091990113041 -0.5200046160127103 1.1399895127138917
4.75889015198 0.0932109895841321 -0.0675929318196321 -1.5804218414405804 1.9295173524369145 2.050091990113041 -0.5200046160127103 1.1399895127138917
4.75889015198 0.0932109895841321 -0.0675929318196321 -1.5804218414405804 1.9295173524369145 2.050091990113041 -0.5200046160127103 1.1399895127138917
4.76888608932 0.0932109895841321 -0.0675929318196321 -1.5804218414405804 1.9295173524369145 2.050091990113041 -0.5200046160127103 1.1399895127138917
4.76888608932 0.0932109895841321 -0.0675929318196321 -1.5804218414405804 1.9295173524369145 2.050091990113041 -0.5200046160127103 1.1399895127138917
4.7788169384 0.0932109895841321 -0.0675929318196321 -1.5804218414405804 1.9295173524369145 2.050091990113041 -0.5200046160127103 1.1399895127138917
4.7788169384 0.0932109895841321 -0.0675929318196321 -1.5804218414405804 1.9295173524369145 2.050091990113041 -0.5200046160127103 1.1399895127138917
4.78878593445 0.0932109895841321 -0.0675929318196321 -1.5804218414405804 1.9295173524369145 2.050091990113041 -0.5200046160127103 1.1399895127138917
4.78878593445 0.0932109895841321 -0.0675929318196321 -1.5804218414405804 1.9295173524369145 2.050091990113041 -0.5200046160127103 1.1399895127138917
4.79856514931 0.0932109895841321 -0.0675929318196321 -1.5804218414405804 1.9295173524369145 2.050091990113041 -0.5200046160127103 1.1399895127138917
4.79856514931 0.0932109895841321 -0.0675929318196321 -1.5804218414405804 1.9295173524369145 2.050091990113041 -0.5200046160127103 1.1399895127138917
4.80875301361 0.0932109895841321 -0.0675929318196321 -1.5804218414405804 1.9295173524369145 2.050091990113041 -0.5200046160127103 1.1399895127138917
4.80875301361 0.0932109895841321 -0.0675929318196321 -1.5804218414405804 1.9295173524369145 2.050091990113041 -0.5200046160127103 1.1399895127138917
4.81882309914 0.0932109895841321 -0.0675929318196321 -1.5804218414405804 1.9295173524369145 2.050091990113041 -0.5200046160127103 1.1399895127138917
