riccardo-csl/Motion-Planning-for-TIAGo-Manipulator/T3_G_7/head_scan/head_scan/tiago_traiettorie_SG/2a-1b/place_1b_rep1.txt
time arm_1_joint arm_2_joint arm_3_joint arm_4_joint arm_5_joint arm_6_joint arm_7_joint
1.06791591644 0.4124979858565096 -0.2146576206475018 -1.1593538698502814 2.1175705515962817 2.050055466436567 -0.5200046160127103 1.1399895127138917
1.06804800034 0.4124979858565096 -0.2146576206475018 -1.1593538698502814 2.1175705515962817 2.050055466436567 -0.5200046160127103 1.1399895127138917
1.06804800034 0.4124979858565096 -0.2146576206475018 -1.1593538698502814 2.1175705515962817 2.050055466436567 -0.5200046160127103 1.1399895127138917
1.07815098763 0.4124979858565096 -0.2146576206475018 -1.1593538698502814 2.1175705515962817 2.050055466436567 -0.5200046160127103 1.1399895127138917
1.07815098763 0.4124979858565096 -0.2146576206475018 -1.1593538698502814 2.1175705515962817 2.050055466436567 -0.5200046160127103 1.1399895127138917
1.08814907074 0.4124979858565096 -0.2146576206475018 -1.1593538698502814 2.1175705515962817 2.050055466436567 -0.5200046160127103 1.1399895127138917
1.08814907074 0.4124979858565096 -0.2146576206475018 -1.1593538698502814 2.1175705515962817 2.050055466436567 -0.5200046160127103 1.1399895127138917
1.09832191467 0.4124979858565096 -0.2146576206475018 -1.1593538698502814 2.1175705515962817 2.050055466436567 -0.5200046160127103 1.1399895127138917
1.09832191467 0.4124979858565096 -0.2146576206475018 -1.1593538698502814 2.1175705515962817 2.050055466436567 -0.5200046160127103 1.1399895127138917
1.10859107971 0.4124979858565096 -0.2146576206475018 -1.1593538698502814 2.1175705515962817 2.050055466436567 -0.5200046160127103 1.1399895127138917
1.10859107971 0.4124979858565096 -0.2146576206475018 -1.1593538698502814 2.1175705515962817 2.050055466436567 -0.5200046160127103 1.1399895127138917
1.11862397194 0.4124979858565096 -0.2146576206475018 -1.1593538698502814 2.1175705515962817 2.050055466436567 -0.5200046160127103 1.1399895127138917
1.11862397194 0.4124979858565096 -0.2146576206475018 -1.1593538698502814 2.1175705515962817 2.050055466436567 -0.5200046160127103 1.1399895127138917
1.12856698036 0.4124979858565096 -0.2146576206475018 -1.1593538698502814 2.1175705515962817 2.050055466436567 -0.5200046160127103 1.1399895127138917
1.12856698036 0.4124979858565096 -0.2146576206475018 -1.1593538698502814 2.1175705515962817 2.050055466436567 -0.5200046160127103 1.1399895127138917
1.1389439106 0.4124979858565096 -0.2146576206475018 -1.1593538698502814 2.1175705515962817 2.050055466436567 -0.5200046160127103 1.1399895127138917
1.1389439106 0.4124979858565096 -0.2146576206475018 -1.1593538698502814 2.1175705515962817 2.050055466436567 -0.5200046160127103 1.1399895127138917
1.15154790878 0.4124979858565096 -0.2146576206475018 -1.1593538698502814 2.1175705515962817 2.050055466436567 -0.5200046160127103 1.1399895127138917
1.15154790878 0.4124979858565096 -0.2146576206475018 -1.1593538698502814 2.1175705515962817 2.050055466436567 -0.5200046160127103 1.1399895127138917
1.15846896172 0.4124979858565096 -0.2146576206475018 -1.1593538698502814 2.1175705515962817 2.050055466436567 -0.5200046160127103 1.1399895127138917
1.15846896172 0.4124979858565096 -0.2146576206475018 -1.1593538698502814 2.1175705515962817 2.050055466436567 -0.5200046160127103 1.1399895127138917
1.16855406761 0.4124979858565096 -0.2146576206475018 -1.1593538698502814 2.1175705515962817 2.050055466436567 -0.5200046160127103 1.1399895127138917
1.16855406761 0.4124979858565096 -0.2146576206475018 -1.1593538698502814 2.1175705515962817 2.050055466436567 -0.5200046160127103 1.1399895127138917
1.17862296104 0.4124979858565096 -0.2146576206475018 -1.1593538698502814 2.1175705515962817 2.050055466436567 -0.5200046160127103 1.1399895127138917
1.17862296104 0.4124979858565096 -0.2146576206475018 -1.1593538698502814 2.1175705515962817 2.050055466436567 -0.5200046160127103 1.1399895127138917
1.18874001503 0.4124979858565096 -0.2146576206475018 -1.1593538698502814 2.1175705515962817 2.050055466436567 -0.5200046160127103 1.1399895127138917
1.18874001503 0.4124979858565096 -0.2146576206475018 -1.1593538698502814 2.1175705515962817 2.050055466436567 -0.5200046160127103 1.1399895127138917
1.19827103615 0.4124979858565096 -0.2146576206475018 -1.1593538698502814 2.1175705515962817 2.050055466436567 -0.5200046160127103 1.1399895127138917
1.19827103615 0.4124979858565096 -0.2146576206475018 -1.1593538698502814 2.1175705515962817 2.050055466436567 -0.5200046160127103 1.1399895127138917
1.20854496956 0.4124979858565096 -0.2146576206475018 -1.1593538698502814 2.1175705515962817 2.050055466436567 -0.5200046160127103 1.1399895127138917
1.20854496956 0.4124979858565096 -0.2146576206475018 -1.1593538698502814 2.1175705515962817 2.050055466436567 -0.5200046160127103 1.1399895127138917
1.21869301796 0.4124979858565096 -0.2146576206475018 -1.1593538698502814 2.1175705515962817 2.050055466436567 -0.5200046160127103 1.1399895127138917
1.21869301796 0.4124979858565096 -0.2146576206475018 -1.1593538698502814 2.1175705515962817 2.050055466436567 -0.5200046160127103 1.1399895127138917
1.22843289375 0.4124979858565096 -0.2146576206475018 -1.1593538698502814 2.1175705515962817 2.050055466436567 -0.5200046160127103 1.1399895127138917
1.22843289375 0.4124979858565096 -0.2146576206475018 -1.1593538698502814 2.1175705515962817 2.050055466436567 -0.5200046160127103 1.1399895127138917
1.23860311508 0.4124979858565096 -0.2146576206475018 -1.1593538698502814 2.1175705515962817 2.050055466436567 -0.5200046160127103 1.1399895127138917
1.23860311508 0.4124979858565096 -0.2146576206475018 -1.1593538698502814 2.1175705515962817 2.050055466436567 -0.5200046160127103 1.1399895127138917
1.24858498573 0.4124979858565096 -0.2146576206475018 -1.1593538698502814 2.1175705515962817 2.050055466436567 -0.5200046160127103 1.1399895127138917
1.24858498573 0.4124979858565096 -0.2146576206475018 -1.1593538698502814 2.1175705515962817 2.050055466436567 -0.5200046160127103 1.1399895127138917
1.25863909721 0.4124979858565096 -0.2146576206475018 -1.1593538698502814 2.1175705515962817 2.050055466436567 -0.5200046160127103 1.1399895127138917
1.25863909721 0.4124979858565096 -0.2146576206475018 -1.1593538698502814 2.1175705515962817 2.050055466436567 -0.5200046160127103 1.1399895127138917
1.26864910126 0.4124979858565096 -0.2146576206475018 -1.1593538698502814 2.1175705515962817 2.050055466436567 -0.5200046160127103 1.1399895127138917
1.26864910126 0.4124979858565096 -0.2146576206475018 -1.1593538698502814 2.1175705515962817 2.050055466436567 -0.5200046160127103 1.1399895127138917
1.278621912 0.4124979858565096 -0.2146576206475018 -1.1593538698502814 2.1175705515962817 2.050055466436567 -0.5200046160127103 1.1399895127138917
1.278621912 0.4124979858565096 -0.2146576206475018 -1.1593538698502814 2.1175705515962817 2.050055466436567 -0.5200046160127103 1.1399895127138917
1.28842401505 0.4124979858565096 -0.2146576206475018 -1.1593538698502814 2.1175705515962817 2.050055466436567 -0.5200046160127103 1.1399895127138917
1.28842401505 0.4124979858565096 -0.2146576206475018 -1.1593538698502814 2.1175705515962817 2.050055466436567 -0.5200046160127103 1.1399895127138917
1.29863905907 0.4124979858565096 -0.2146576206475018 -1.1593538698502814 2.1175705515962817 2.050055466436567 -0.5200046160127103 1.1399895127138917
1.29863905907 0.4124979858565096 -0.2146576206475018 -1.1593538698502814 2.1175705515962817 2.050055466436567 -0.5200046160127103 1.1399895127138917
1.30864191055 0.4124979858565096 -0.2146576206475018 -1.1593538698502814 2.1175705515962817 2.050055466436567 -0.5200046160127103 1.1399895127138917
1.30864191055 0.4124979858565096 -0.2146576206475018 -1.1593538698502814 2.1175705515962817 2.050055466436567 -0.5200046160127103 1.1399895127138917
1.31869292259 0.4124979858565096 -0.2146576206475018 -1.1593538698502814 2.1175705515962817 2.050055466436567 -0.5200046160127103 1.1399895127138917
1.31869292259 0.4124979858565096 -0.2146576206475018 -1.1593538698502814 2.1175705515962817 2.050055466436567 -0.5200046160127103 1.1399895127138917
1.32859802246 0.4124979858565096 -0.2146576206475018 -1.1593538698502814 2.1175705515962817 2.050055466436567 -0.5200046160127103 1.1399895127138917
1.32859802246 0.4124979858565096 -0.2146576206475018 -1.1593538698502814 2.1175705515962817 2.050055466436567 -0.5200046160127103 1.1399895127138917
1.33863997459 0.4124979858565096 -0.2146576206475018 -1.1593538698502814 2.1175705515962817 2.050055466436567 -0.5200046160127103 1.1399895127138917
1.33863997459 0.4124979858565096 -0.2146576206475018 -1.1593538698502814 2.1175705515962817 2.050055466436567 -0.5200046160127103 1.1399895127138917
1.34869503975 0.4124979858565096 -0.2146576206475018 -1.1593538698502814 2.1175705515962817 2.050055466436567 -0.5200046160127103 1.1399895127138917
1.34869503975 0.4124979858565096 -0.2146576206475018 -1.1593538698502814 2.1175705515962817 2.050055466436567 -0.5200046160127103 1.1399895127138917
1.35862398148 0.4124979858565096 -0.2146576206475018 -1.1593538698502814 2.1175705515962817 2.050055466436567 -0.5200046160127103 1.1399895127138917
1.35862398148 0.4124979858565096 -0.2146576206475018 -1.1593538698502814 2.1175705515962817 2.050055466436567 -0.5200046160127103 1.1399895127138917
1.36865401268 0.4124979858565096 -0.2146576206475018 -1.1593538698502814 2.1175705515962817 2.050055466436567 -0.5200046160127103 1.1399895127138917
1.36865401268 0.4124979858565096 -0.2146576206475018 -1.1593538698502814 2.1175705515962817 2.050055466436567 -0.5200046160127103 1.1399895127138917
1.37867307663 0.4124979858565096 -0.2146576206475018 -1.1593538698502814 2.1175705515962817 2.050055466436567 -0.5200046160127103 1.1399895127138917
1.37867307663 0.4124979858565096 -0.2146576206475018 -1.1593538698502814 2.1175705515962817 2.050055466436567 -0.5200046160127103 1.1399895127138917
1.38866090775 0.4124979858565096 -0.2146576206475018 -1.1593538698502814 2.1175705515962817 2.050055466436567 -0.5200046160127103 1.1399895127138917
1.38866090775 0.4124979858565096 -0.2146576206475018 -1.1593538698502814 2.1175705515962817 2.050055466436567 -0.5200046160127103 1.1399895127138917
1.39865803719 0.4124979858565096 -0.2146576206475018 -1.1593538698502814 2.1175705515962817 2.050055466436567 -0.5200046160127103 1.1399895127138917
1.39865803719 0.4124979858565096 -0.2146576206475018 -1.1593538698502814 2.1175705515962817 2.050055466436567 -0.5200046160127103 1.1399895127138917
1.40857601166 0.4124979858565096 -0.2146576206475018 -1.1593538698502814 2.1175705515962817 2.050055466436567 -0.5200046160127103 1.1399895127138917
1.40857601166 0.4124979858565096 -0.2146576206475018 -1.1593538698502814 2.1175705515962817 2.050055466436567 -0.5200046160127103 1.1399895127138917
1.41867089272 0.4124979858565096 -0.2146576206475018 -1.1593538698502814 2.1175705515962817 2.050055466436567 -0.5200046160127103 1.1399895127138917
1.41867089272 0.4124979858565096 -0.2146576206475018 -1.1593538698502814 2.1175705515962817 2.050055466436567 -0.5200046160127103 1.1399895127138917
1.42865610123 0.4124979858565096 -0.2146576206475018 -1.1593538698502814 2.1175705515962817 2.050055466436567 -0.5200046160127103 1.1399895127138917
1.42865610123 0.4124979858565096 -0.2146576206475018 -1.1593538698502814 2.1175705515962817 2.050055466436567 -0.5200046160127103 1.1399895127138917
1.43869400024 0.4124979858565096 -0.2146576206475018 -1.1593538698502814 2.1175705515962817 2.050055466436567 -0.5200046160127103 1.1399895127138917
1.43869400024 0.4124979858565096 -0.2146576206475018 -1.1593538698502814 2.1175705515962817 2.050055466436567 -0.5200046160127103 1.1399895127138917
1.4486579895 0.4124979858565096 -0.2146576206475018 -1.1593538698502814 2.1175705515962817 2.050055466436567 -0.5200046160127103 1.1399895127138917
1.4486579895 0.4124979858565096 -0.2146576206475018 -1.1593538698502814 2.1175705515962817 2.050055466436567 -0.5200046160127103 1.1399895127138917
1.4586288929 0.4124979858565096 -0.2146576206475018 -1.1593538698502814 2.1175705515962817 2.050055466436567 -0.5200046160127103 1.1399895127138917
1.4586288929 0.4124979858565096 -0.2146576206475018 -1.1593538698502814 2.1175705515962817 2.050055466436567 -0.5200046160127103 1.1399895127138917
1.46875596046 0.4124979858565096 -0.2146576206475018 -1.1593538698502814 2.1175705515962817 2.050055466436567 -0.5200046160127103 1.1399895127138917
1.46875596046 0.4124979858565096 -0.2146576206475018 -1.1593538698502814 2.1175705515962817 2.050055466436567 -0.5200046160127103 1.1399895127138917
1.47862291336 0.4124979858565096 -0.2146576206475018 -1.1593538698502814 2.1175705515962817 2.050055466436567 -0.5200046160127103 1.1399895127138917
1.47862291336 0.4124979858565096 -0.2146576206475018 -1.1593538698502814 2.1175705515962817 2.050055466436567 -0.5200046160127103 1.1399895127138917
1.48864793777 0.4124979858565096 -0.2146576206475018 -1.1593538698502814 2.1175705515962817 2.050055466436567 -0.5200046160127103 1.1399895127138917
1.48864793777 0.4124979858565096 -0.2146576206475018 -1.1593538698502814 2.1175705515962817 2.050055466436567 -0.5200046160127103 1.1399895127138917
1.49860692024 0.4124979858565096 -0.2146576206475018 -1.1593538698502814 2.1175705515962817 2.050055466436567 -0.5200046160127103 1.1399895127138917
1.49860692024 0.4124979858565096 -0.2146576206475018 -1.1593538698502814 2.1175705515962817 2.050055466436567 -0.5200046160127103 1.1399895127138917
1.50860691071 0.4124979858565096 -0.2146576206475018 -1.1593538698502814 2.1175705515962817 2.050055466436567 -0.5200046160127103 1.1399895127138917
1.50860691071 0.4124979858565096 -0.2146576206475018 -1.1593538698502814 2.1175705515962817 2.050055466436567 -0.5200046160127103 1.1399895127138917
1.51860809326 0.4124979858565096 -0.2146576206475018 -1.1593538698502814 2.1175705515962817 2.050055466436567 -0.5200046160127103 1.1399895127138917
1.51860809326 0.4124979858565096 -0.2146576206475018 -1.1593538698502814 2.1175705515962817 2.050055466436567 -0.5200046160127103 1.1399895127138917
1.52869606018 0.4124979858565096 -0.2146576206475018 -1.1593538698502814 2.1175705515962817 2.050055466436567 -0.5200046160127103 1.1399895127138917
1.52869606018 0.4124979858565096 -0.2146576206475018 -1.1593538698502814 2.1175705515962817 2.050055466436567 -0.5200046160127103 1.1399895127138917
1.53867292404 0.4124979858565096 -0.2146576206475018 -1.1593538698502814 2.1175705515962817 2.050055466436567 -0.5200046160127103 1.1399895127138917
1.53867292404 0.4124979858565096 -0.2146576206475018 -1.1593538698502814 2.1175705515962817 2.050055466436567 -0.5200046160127103 1.1399895127138917
1.54870796204 0.4124979858565096 -0.2146576206475018 -1.1593538698502814 2.1175705515962817 2.050055466436567 -0.5200046160127103 1.1399895127138917
1.54870796204 0.4124979858565096 -0.2146576206475018 -1.1593538698502814 2.1175705515962817 2.050055466436567 -0.5200046160127103 1.1399895127138917
1.5586400032 0.4124979858565096 -0.2146576206475018 -1.1593538698502814 2.1175705515962817 2.050055466436567 -0.5200046160127103 1.1399895127138917
1.5586400032 0.4124979858565096 -0.2146576206475018 -1.1593538698502814 2.1175705515962817 2.050055466436567 -0.5200046160127103 1.1399895127138917
1.56850194931 0.4124979858565096 -0.2146576206475018 -1.1593538698502814 2.1175705515962817 2.050055466436567 -0.5200046160127103 1.1399895127138917
1.56850194931 0.4124979858565096 -0.2146576206475018 -1.1593538698502814 2.1175705515962817 2.050055466436567 -0.5200046160127103 1.1399895127138917
1.57867288589 0.4124979858565096 -0.2146576206475018 -1.1593538698502814 2.1175705515962817 2.050055466436567 -0.5200046160127103 1.1399895127138917
1.57867288589 0.4124979858565096 -0.2146576206475018 -1.1593538698502814 2.1175705515962817 2.050055466436567 -0.5200046160127103 1.1399895127138917
1.58869290352 0.4124979858565096 -0.2146576206475018 -1.1593538698502814 2.1175705515962817 2.050055466436567 -0.5200046160127103 1.1399895127138917
1.58869290352 0.4124979858565096 -0.2146576206475018 -1.1593538698502814 2.1175705515962817 2.050055466436567 -0.5200046160127103 1.1399895127138917
1.59846901894 0.4124979858565096 -0.2146576206475018 -1.1593538698502814 2.1175705515962817 2.050055466436567 -0.5200046160127103 1.1399895127138917
1.59846901894 0.4124979858565096 -0.2146576206475018 -1.1593538698502814 2.1175705515962817 2.050055466436567 -0.5200046160127103 1.1399895127138917
1.60866594315 0.4124979858565096 -0.2146576206475018 -1.1593538698502814 2.1175705515962817 2.050055466436567 -0.5200046160127103 1.1399895127138917
1.60866594315 0.4124979858565096 -0.2146576206475018 -1.1593538698502814 2.1175705515962817 2.050055466436567 -0.5200046160127103 1.1399895127138917
1.61865711212 0.4124979858565096 -0.2146576206475018 -1.1593538698502814 2.1175705515962817 2.050055466436567 -0.5200046160127103 1.1399895127138917
1.61865711212 0.4124979858565096 -0.2146576206475018 -1.1593538698502814 2.1175705515962817 2.050055466436567 -0.5200046160127103 1.1399895127138917
1.62852406502 0.4124979858565096 -0.2146576206475018 -1.1593538698502814 2.1175705515962817 2.050055466436567 -0.5200046160127103 1.1399895127138917
1.62852406502 0.4124979858565096 -0.2146576206475018 -1.1593538698502814 2.1175705515962817 2.050055466436567 -0.5200046160127103 1.1399895127138917
1.63861393929 0.4124979858565096 -0.2146576206475018 -1.1593538698502814 2.1175705515962817 2.050055466436567 -0.5200046160127103 1.1399895127138917
1.63861393929 0.4124979858565096 -0.2146576206475018 -1.1593538698502814 2.1175705515962817 2.050055466436567 -0.5200046160127103 1.1399895127138917
1.64870500565 0.4124979858565096 -0.2146576206475018 -1.1593538698502814 2.1175705515962817 2.050055466436567 -0.5200046160127103 1.1399895127138917
1.64870500565 0.4124979858565096 -0.2146576206475018 -1.1593538698502814 2.1175705515962817 2.050055466436567 -0.5200046160127103 1.1399895127138917
1.65865898132 0.4124979858565096 -0.2146576206475018 -1.1593538698502814 2.1175705515962817 2.050055466436567 -0.5200046160127103 1.1399895127138917
1.65865898132 0.4124979858565096 -0.2146576206475018 -1.1593538698502814 2.1175705515962817 2.050055466436567 -0.5200046160127103 1.1399895127138917
1.66860294342 0.4124979858565096 -0.2146576206475018 -1.1593538698502814 2.1175705515962817 2.050055466436567 -0.5200046160127103 1.1399895127138917
1.66860294342 0.4124979858565096 -0.2146576206475018 -1.1593538698502814 2.1175705515962817 2.050055466436567 -0.5200046160127103 1.1399895127138917
1.67865395546 0.4124979858565096 -0.2146576206475018 -1.1593538698502814 2.1175705515962817 2.050055466436567 -0.5200046160127103 1.1399895127138917
1.67865395546 0.4124979858565096 -0.2146576206475018 -1.1593538698502814 2.1175705515962817 2.050055466436567 -0.5200046160127103 1.1399895127138917
1.68868899345 0.4124979858565096 -0.2146576206475018 -1.1593538698502814 2.1175705515962817 2.050055466436567 -0.5200046160127103 1.1399895127138917
1.68868899345 0.4124979858565096 -0.2146576206475018 -1.1593538698502814 2.1175705515962817 2.050055466436567 -0.5200046160127103 1.1399895127138917
1.69849205017 0.4124979858565096 -0.2146576206475018 -1.1593538698502814 2.1175705515962817 2.050055466436567 -0.5200046160127103 1.1399895127138917
1.69849205017 0.4124979858565096 -0.2146576206475018 -1.1593538698502814 2.1175705515962817 2.050055466436567 -0.5200046160127103 1.1399895127138917
1.70861196518 0.4124979858565096 -0.2146576206475018 -1.1593538698502814 2.1175705515962817 2.050055466436567 -0.5200046160127103 1.1399895127138917
1.70861196518 0.4124979858565096 -0.2146576206475018 -1.1593538698502814 2.1175705515962817 2.050055466436567 -0.5200046160127103 1.1399895127138917
1.71857309341 0.4124979858565096 -0.2146576206475018 -1.1593538698502814 2.1175705515962817 2.050055466436567 -0.5200046160127103 1.1399895127138917
1.71857309341 0.4124979858565096 -0.2146576206475018 -1.1593538698502814 2.1175705515962817 2.050055466436567 -0.5200046160127103 1.1399895127138917
1.72860097885 0.4124979858565096 -0.2146576206475018 -1.1593538698502814 2.1175705515962817 2.050055466436567 -0.5200046160127103 1.1399895127138917
1.72860097885 0.4124979858565096 -0.2146576206475018 -1.1593538698502814 2.1175705515962817 2.050055466436567 -0.5200046160127103 1.1399895127138917
1.73861289024 0.4124979858565096 -0.2146576206475018 -1.1593538698502814 2.1175705515962817 2.050055466436567 -0.5200046160127103 1.1399895127138917
1.73861289024 0.4124979858565096 -0.2146576206475018 -1.1593538698502814 2.1175705515962817 2.050055466436567 -0.5200046160127103 1.1399895127138917
1.74841308594 0.4124979858565096 -0.2146576206475018 -1.1593538698502814 2.1175705515962817 2.050055466436567 -0.5200046160127103 1.1399895127138917
1.74841308594 0.4124979858565096 -0.2146576206475018 -1.1593538698502814 2.1175705515962817 2.050055466436567 -0.5200046160127103 1.1399895127138917
1.75860309601 0.4124979858565096 -0.2146576206475018 -1.1593538698502814 2.1175705515962817 2.050055466436567 -0.5200046160127103 1.1399895127138917
1.75860309601 0.4124979858565096 -0.2146576206475018 -1.1593538698502814 2.1175705515962817 2.050055466436567 -0.5200046160127103 1.1399895127138917
1.7685110569 0.4124979858565096 -0.2146576206475018 -1.1593538698502814 2.1175705515962817 2.050055466436567 -0.5200091814722694 1.1399849472543326
1.7685110569 0.4124979858565096 -0.2146576206475018 -1.1593538698502814 2.1175705515962817 2.050055466436567 -0.5200091814722694 1.1399849472543326
1.77872896194 0.4124979858565096 -0.2146576206475018 -1.1593538698502814 2.1175705515962817 2.050055466436567 -0.5200046160127103 1.1399895127138917
1.77872896194 0.4124979858565096 -0.2146576206475018 -1.1593538698502814 2.1175705515962817 2.050055466436567 -0.5200046160127103 1.1399895127138917
1.78851699829 0.4124979858565096 -0.2146576206475018 -1.1593538698502814 2.1175705515962817 2.050055466436567 -0.5200046160127103 1.1399895127138917
1.78851699829 0.4124979858565096 -0.2146576206475018 -1.1593538698502814 2.1175705515962817 2.050055466436567 -0.5200046160127103 1.1399895127138917
1.79861497879 0.4124979858565096 -0.2146576206475018 -1.1593538698502814 2.1175705515962817 2.050055466436567 -0.5200046160127103 1.1399895127138917
1.79861497879 0.4124979858565096 -0.2146576206475018 -1.1593538698502814 2.1175705515962817 2.050055466436567 -0.5200046160127103 1.1399895127138917
1.8085899353 0.4124979858565096 -0.2146576206475018 -1.1593538698502814 2.1175705515962817 2.050055466436567 -0.5200046160127103 1.1399895127138917
1.8085899353 0.4124979858565096 -0.2146576206475018 -1.1593538698502814 2.1175705515962817 2.050055466436567 -0.5200046160127103 1.1399895127138917
1.81846404076 0.4124979858565096 -0.2146422806361502 -1.1593538698502814 2.1175705515962817 2.050055466436567 -0.5200046160127103 1.1399895127138917
1.81846404076 0.4124979858565096 -0.2146422806361502 -1.1593538698502814 2.1175705515962817 2.050055466436567 -0.5200046160127103 1.1399895127138917
1.82860589027 0.4124979858565096 -0.2146422806361502 -1.1593538698502814 2.1175705515962817 2.050055466436567 -0.5200046160127103 1.1399895127138917
1.82860589027 0.4124979858565096 -0.2146422806361502 -1.1593538698502814 2.1175705515962817 2.050055466436567 -0.5200046160127103 1.1399895127138917
1.83864998817 0.4124979858565096 -0.2146422806361502 -1.1593538698502814 2.1175705515962817 2.050055466436567 -0.5200046160127103 1.1399895127138917
1.83864998817 0.4124979858565096 -0.2146422806361502 -1.1593538698502814 2.1175705515962817 2.050055466436567 -0.5200046160127103 1.1399895127138917
1.84848594666 0.4124979858565096 -0.2146422806361502 -1.1593538698502814 2.1175705515962817 2.050055466436567 -0.5200046160127103 1.1399895127138917
1.84848594666 0.4124979858565096 -0.2146422806361502 -1.1593538698502814 2.1175705515962817 2.050055466436567 -0.5200046160127103 1.1399895127138917
1.85855007172 0.4124979858565096 -0.2146422806361502 -1.1593538698502814 2.1175705515962817 2.050055466436567 -0.5200046160127103 1.1399895127138917
1.85855007172 0.4124979858565096 -0.2146422806361502 -1.1593538698502814 2.1175705515962817 2.050055466436567 -0.5200046160127103 1.1399895127138917
1.86858701706 0.4124979858565096 -0.2146422806361502 -1.1593538698502814 2.1175705515962817 2.050055466436567 -0.5200046160127103 1.1399895127138917
1.86858701706 0.4124979858565096 -0.2146422806361502 -1.1593538698502814 2.1175705515962817 2.050055466436567 -0.5200046160127103 1.1399895127138917
1.87848496437 0.4124979858565096 -0.2146269406247986 -1.1593538698502814 2.1175705515962817 2.050055466436567 -0.5200046160127103 1.1399895127138917
1.87848496437 0.4124979858565096 -0.2146269406247986 -1.1593538698502814 2.1175705515962817 2.050055466436567 -0.5200046160127103 1.1399895127138917
1.88853907585 0.4124979858565096 -0.2146269406247986 -1.1593538698502814 2.1175705515962817 2.050055466436567 -0.5200046160127103 1.1399895127138917
1.88853907585 0.4124979858565096 -0.2146269406247986 -1.1593538698502814 2.1175705515962817 2.050055466436567 -0.5200046160127103 1.1399895127138917
1.89866709709 0.4124979858565096 -0.2146269406247986 -1.1593538698502814 2.1175705515962817 2.050055466436567 -0.5200046160127103 1.1399895127138917
1.89866709709 0.4124979858565096 -0.2146269406247986 -1.1593538698502814 2.1175705515962817 2.050055466436567 -0.5200046160127103 1.1399895127138917
1.90854597092 0.4124979858565096 -0.2146269406247986 -1.1593538698502814 2.1175705515962817 2.050055466436567 -0.5200046160127103 1.1399895127138917
1.90854597092 0.4124979858565096 -0.2146269406247986 -1.1593538698502814 2.1175705515962817 2.050055466436567 -0.5200046160127103 1.1399895127138917
1.91862797737 0.4124979858565096 -0.2146269406247986 -1.1593538698502814 2.1175705515962817 2.050055466436567 -0.5200046160127103 1.1399895127138917
1.91862797737 0.4124979858565096 -0.2146269406247986 -1.1593538698502814 2.1175705515962817 2.050055466436567 -0.5200046160127103 1.1399895127138917
1.92868494987 0.4124979858565096 -0.2146269406247986 -1.1593538698502814 2.1175705515962817 2.050055466436567 -0.5200046160127103 1.1399895127138917
1.92868494987 0.4124979858565096 -0.2146269406247986 -1.1593538698502814 2.1175705515962817 2.050055466436567 -0.5200046160127103 1.1399895127138917
1.93851590157 0.4124979858565096 -0.2146269406247986 -1.1593538698502814 2.1175705515962817 2.050055466436567 -0.5200046160127103 1.1399895127138917
1.93851590157 0.4124979858565096 -0.2146269406247986 -1.1593538698502814 2.1175705515962817 2.050055466436567 -0.5200046160127103 1.1399895127138917
1.94860911369 0.4124979858565096 -0.2146269406247986 -1.1593538698502814 2.1175705515962817 2.050055466436567 -0.5200046160127103 1.1399895127138917
1.94860911369 0.4124979858565096 -0.2146269406247986 -1.1593538698502814 2.1175705515962817 2.050055466436567 -0.5200046160127103 1.1399895127138917
1.95861005783 0.4124979858565096 -0.2146269406247986 -1.1593538698502814 2.1175705515962817 2.050055466436567 -0.5200046160127103 1.1399895127138917
1.95861005783 0.4124979858565096 -0.2146269406247986 -1.1593538698502814 2.1175705515962817 2.050055466436567 -0.5200046160127103 1.1399895127138917
1.96832203865 0.4124979858565096 -0.2146269406247986 -1.1593538698502814 2.1175705515962817 2.050055466436567 -0.5200046160127103 1.1399895127138917
1.96832203865 0.4124979858565096 -0.2146269406247986 -1.1593538698502814 2.1175705515962817 2.050055466436567 -0.5200046160127103 1.1399895127138917
1.97858405113 0.4124979858565096 -0.2146269406247986 -1.1593538698502814 2.1175705515962817 2.050055466436567 -0.5200046160127103 1.1399895127138917
1.97858405113 0.4124979858565096 -0.2146269406247986 -1.1593538698502814 2.1175705515962817 2.050055466436567 -0.5200046160127103 1.1399895127138917
1.98868107796 0.4124979858565096 -0.2146269406247986 -1.1593538698502814 2.1175705515962817 2.050055466436567 -0.5200046160127103 1.1399895127138917
1.98868107796 0.4124979858565096 -0.2146269406247986 -1.1593538698502814 2.1175705515962817 2.050055466436567 -0.5200046160127103 1.1399895127138917
1.99867391586 0.4124979858565096 -0.2146269406247986 -1.1593538698502814 2.1175705515962817 2.050055466436567 -0.5200046160127103 1.1399895127138917
1.99867391586 0.4124979858565096 -0.2146269406247986 -1.1593538698502814 2.1175705515962817 2.050055466436567 -0.5200046160127103 1.1399895127138917
2.00869607925 0.412497985857 -0.214626940625 -1.15935386985 2.1175705516 2.05005546644 -0.520004616013 1.13998951271
2.00869607925 0.412497985857 -0.214626940625 -1.15935386985 2.1175705516 2.05005546644 -0.520004616013 1.13998951271
2.01822209358 0.4124979858565096 -0.2146269406247986 -1.1593538698502814 2.1175705515962817 2.050055466436567 -0.5200046160127103 1.1399895127138917
2.01822209358 0.4124979858565096 -0.2146269406247986 -1.1593538698502814 2.1175705515962817 2.050055466436567 -0.5200046160127103 1.1399895127138917
2.02816796303 0.4124979858565096 -0.2146269406247986 -1.1593538698502814 2.1175705515962817 2.050055466436567 -0.5200046160127103 1.1399895127138917
2.02816796303 0.4124979858565096 -0.2146269406247986 -1.1593538698502814 2.1175705515962817 2.050055466436567 -0.5200046160127103 1.1399895127138917
2.03819608688 0.4124979858565096 -0.2146269406247986 -1.1593538698502814 2.1175705515962817 2.050055466436567 -0.5200046160127103 1.1399895127138917
2.03819608688 0.4124979858565096 -0.2146269406247986 -1.1593538698502814 2.1175705515962817 2.050055466436567 -0.5200046160127103 1.1399895127138917
2.0485470295 0.4124979858565096 -0.2146269406247986 -1.1593538698502814 2.1175705515962817 2.050055466436567 -0.5200046160127103 1.1399895127138917
2.0485470295 0.4124979858565096 -0.2146269406247986 -1.1593538698502814 2.1175705515962817 2.050055466436567 -0.5200046160127103 1.1399895127138917
2.05849504471 0.4124979858565096 -0.2146269406247986 -1.1593538698502814 2.1175705515962817 2.050055466436567 -0.5200046160127103 1.1399895127138917
2.05849504471 0.4124979858565096 -0.2146269406247986 -1.1593538698502814 2.1175705515962817 2.050055466436567 -0.5200046160127103 1.1399895127138917
2.06858992577 0.4124979858565096 -0.2146269406247986 -1.1593538698502814 2.1175705515962817 2.050055466436567 -0.5200046160127103 1.1399895127138917
2.06858992577 0.4124979858565096 -0.2146269406247986 -1.1593538698502814 2.1175705515962817 2.050055466436567 -0.5200046160127103 1.1399895127138917
2.0786190033 0.4124979858565096 -0.2146269406247986 -1.1593538698502814 2.1175705515962817 2.050055466436567 -0.5200046160127103 1.1399895127138917
2.0786190033 0.4124979858565096 -0.2146269406247986 -1.1593538698502814 2.1175705515962817 2.050055466436567 -0.5200046160127103 1.1399895127138917
2.08874511719 0.4124979858565096 -0.2146269406247986 -1.1593538698502814 2.1175705515962817 2.050055466436567 -0.5200046160127103 1.1399895127138917
2.08874511719 0.4124979858565096 -0.2146269406247986 -1.1593538698502814 2.1175705515962817 2.050055466436567 -0.5200046160127103 1.1399895127138917
2.09862709045 0.4124979858565096 -0.2146269406247986 -1.1593538698502814 2.1175705515962817 2.050055466436567 -0.5200046160127103 1.1399895127138917
2.09862709045 0.4124979858565096 -0.2146269406247986 -1.1593538698502814 2.1175705515962817 2.050055466436567 -0.5200046160127103 1.1399895127138917
2.10860991478 0.4124979858565096 -0.2146269406247986 -1.1593538698502814 2.1175705515962817 2.050055466436567 -0.5200046160127103 1.1399895127138917
2.10860991478 0.4124979858565096 -0.2146269406247986 -1.1593538698502814 2.1175705515962817 2.050055466436567 -0.5200046160127103 1.1399895127138917
2.11862897873 0.4124979858565096 -0.2146269406247986 -1.1593538698502814 2.1175705515962817 2.050055466436567 -0.5200046160127103 1.1399895127138917
2.11862897873 0.4124979858565096 -0.2146269406247986 -1.1593538698502814 2.1175705515962817 2.050055466436567 -0.5200046160127103 1.1399895127138917
2.12851810455 0.4124979858565096 -0.2146269406247986 -1.1593538698502814 2.1175705515962817 2.050055466436567 -0.5200046160127103 1.1399895127138917
2.12851810455 0.4124979858565096 -0.2146269406247986 -1.1593538698502814 2.1175705515962817 2.050055466436567 -0.5200046160127103 1.1399895127138917
2.13861107826 0.4124979858565096 -0.2146269406247986 -1.1593538698502814 2.1175705515962817 2.050055466436567 -0.5200046160127103 1.1399895127138917
2.13861107826 0.4124979858565096 -0.2146269406247986 -1.1593538698502814 2.1175705515962817 2.050055466436567 -0.5200046160127103 1.1399895127138917
2.14867711067 0.4124979858565096 -0.2146269406247986 -1.1593538698502814 2.1175705515962817 2.050055466436567 -0.5200046160127103 1.1399895127138917
2.14867711067 0.4124979858565096 -0.2146269406247986 -1.1593538698502814 2.1175705515962817 2.050055466436567 -0.5200046160127103 1.1399895127138917
2.15863108635 0.4124979858565096 -0.2146269406247986 -1.1593538698502814 2.1175705515962817 2.050055466436567 -0.5200046160127103 1.1399895127138917
2.15863108635 0.4124979858565096 -0.2146269406247986 -1.1593538698502814 2.1175705515962817 2.050055466436567 -0.5200046160127103 1.1399895127138917
2.16861391068 0.4124979858565096 -0.2146269406247986 -1.1593538698502814 2.1175705515962817 2.050055466436567 -0.5200046160127103 1.1399895127138917
2.16861391068 0.4124979858565096 -0.2146269406247986 -1.1593538698502814 2.1175705515962817 2.050055466436567 -0.5200046160127103 1.1399895127138917
2.17863988876 0.4124979858565096 -0.2146269406247986 -1.1593538698502814 2.1175705515962817 2.050055466436567 -0.5200046160127103 1.1399895127138917
2.17863988876 0.4124979858565096 -0.2146269406247986 -1.1593538698502814 2.1175705515962817 2.050055466436567 -0.5200046160127103 1.1399895127138917
2.18844389915 0.4124979858565096 -0.2146269406247986 -1.1593538698502814 2.1175705515962817 2.050055466436567 -0.5200046160127103 1.1399895127138917
2.18844389915 0.4124979858565096 -0.2146269406247986 -1.1593538698502814 2.1175705515962817 2.050055466436567 -0.5200046160127103 1.1399895127138917
2.19866490364 0.4124979858565096 -0.2146269406247986 -1.1593538698502814 2.1175705515962817 2.050055466436567 -0.5200046160127103 1.1399895127138917
2.19866490364 0.4124979858565096 -0.2146269406247986 -1.1593538698502814 2.1175705515962817 2.050055466436567 -0.5200046160127103 1.1399895127138917
2.20864391327 0.4124979858565096 -0.2146269406247986 -1.1593538698502814 2.1175705515962817 2.050055466436567 -0.5200046160127103 1.1399895127138917
2.20864391327 0.4124979858565096 -0.2146269406247986 -1.1593538698502814 2.1175705515962817 2.050055466436567 -0.5200046160127103 1.1399895127138917
2.21833205223 0.4124979858565096 -0.214611600613447 -1.1593538698502814 2.1175705515962817 2.050055466436567 -0.5200046160127103 1.1399895127138917
2.21833205223 0.4124979858565096 -0.214611600613447 -1.1593538698502814 2.1175705515962817 2.050055466436567 -0.5200046160127103 1.1399895127138917
2.22846102715 0.4124979858565096 -0.214611600613447 -1.1593538698502814 2.1175705515962817 2.050055466436567 -0.5200046160127103 1.1399895127138917
2.22846102715 0.4124979858565096 -0.214611600613447 -1.1593538698502814 2.1175705515962817 2.050055466436567 -0.5200046160127103 1.1399895127138917
2.2386059761 0.4124979858565096 -0.214611600613447 -1.1593538698502814 2.1175705515962817 2.050055466436567 -0.5200046160127103 1.1399895127138917
2.2386059761 0.4124979858565096 -0.214611600613447 -1.1593538698502814 2.1175705515962817 2.050055466436567 -0.5200046160127103 1.1399895127138917
2.24842691422 0.4124979858565096 -0.214611600613447 -1.1593538698502814 2.1175705515962817 2.050055466436567 -0.5200046160127103 1.1399895127138917
2.24842691422 0.4124979858565096 -0.214611600613447 -1.1593538698502814 2.1175705515962817 2.050055466436567 -0.5200046160127103 1.1399895127138917
2.25858092308 0.4124979858565096 -0.214611600613447 -1.1593538698502814 2.1175705515962817 2.050055466436567 -0.5200046160127103 1.1399895127138917
2.25858092308 0.4124979858565096 -0.214611600613447 -1.1593538698502814 2.1175705515962817 2.050055466436567 -0.5200046160127103 1.1399895127138917
2.26855111122 0.4124979858565096 -0.214611600613447 -1.1593538698502814 2.1175705515962817 2.050055466436567 -0.5200046160127103 1.1399895127138917
2.26855111122 0.4124979858565096 -0.214611600613447 -1.1593538698502814 2.1175705515962817 2.050055466436567 -0.5200046160127103 1.1399895127138917
2.27862691879 0.4124979858565096 -0.214611600613447 -1.1593538698502814 2.1175705515962817 2.050055466436567 -0.5200046160127103 1.1399895127138917
2.27862691879 0.4124979858565096 -0.214611600613447 -1.1593538698502814 2.1175705515962817 2.050055466436567 -0.5200046160127103 1.1399895127138917
2.2887699604 0.4124979858565096 -0.214611600613447 -1.1593538698502814 2.1175705515962817 2.050055466436567 -0.5200046160127103 1.1399895127138917
2.2887699604 0.4124979858565096 -0.214611600613447 -1.1593538698502814 2.1175705515962817 2.050055466436567 -0.5200046160127103 1.1399895127138917
2.29816389084 0.4124979858565096 -0.214611600613447 -1.1593538698502814 2.1175705515962817 2.050055466436567 -0.5200046160127103 1.1399895127138917
2.29816389084 0.4124979858565096 -0.214611600613447 -1.1593538698502814 2.1175705515962817 2.050055466436567 -0.5200046160127103 1.1399895127138917
2.30825996399 0.4124979858565096 -0.214611600613447 -1.1593538698502814 2.1175705515962817 2.050055466436567 -0.5200046160127103 1.1399895127138917
2.30825996399 0.4124979858565096 -0.214611600613447 -1.1593538698502814 2.1175705515962817 2.050055466436567 -0.5200046160127103 1.1399895127138917
2.31842398643 0.4124979858565096 -0.214611600613447 -1.1593538698502814 2.1175705515962817 2.050055466436567 -0.5200046160127103 1.1399895127138917
2.31842398643 0.4124979858565096 -0.214611600613447 -1.1593538698502814 2.1175705515962817 2.050055466436567 -0.5200046160127103 1.1399895127138917
2.32865190506 0.4124979858565096 -0.214611600613447 -1.1593538698502814 2.1175705515962817 2.050055466436567 -0.5200046160127103 1.1399895127138917
2.32865190506 0.4124979858565096 -0.214611600613447 -1.1593538698502814 2.1175705515962817 2.050055466436567 -0.5200046160127103 1.1399895127138917
2.33849596977 0.4124979858565096 -0.214611600613447 -1.1593538698502814 2.1175705515962817 2.050055466436567 -0.5200046160127103 1.1399895127138917
2.33849596977 0.4124979858565096 -0.214611600613447 -1.1593538698502814 2.1175705515962817 2.050055466436567 -0.5200046160127103 1.1399895127138917
2.34873199463 0.4124979858565096 -0.214611600613447 -1.1593538698502814 2.1175705515962817 2.050055466436567 -0.5200046160127103 1.1399895127138917
2.34873199463 0.4124979858565096 -0.214611600613447 -1.1593538698502814 2.1175705515962817 2.050055466436567 -0.5200046160127103 1.1399895127138917
2.35867404938 0.4124979858565096 -0.214611600613447 -1.1593538698502814 2.1175705515962817 2.050055466436567 -0.5200046160127103 1.1399895127138917
2.35867404938 0.4124979858565096 -0.214611600613447 -1.1593538698502814 2.1175705515962817 2.050055466436567 -0.5200046160127103 1.1399895127138917
2.36859297752 0.4124979858565096 -0.214611600613447 -1.1593538698502814 2.1175705515962817 2.050055466436567 -0.5200046160127103 1.1399895127138917
2.36859297752 0.4124979858565096 -0.214611600613447 -1.1593538698502814 2.1175705515962817 2.050055466436567 -0.5200046160127103 1.1399895127138917
2.37862300873 0.4124979858565096 -0.214611600613447 -1.1593538698502814 2.1175705515962817 2.050055466436567 -0.5200046160127103 1.1399895127138917
2.37862300873 0.4124979858565096 -0.214611600613447 -1.1593538698502814 2.1175705515962817 2.050055466436567 -0.5200046160127103 1.1399895127138917
2.38865804672 0.4124979858565096 -0.214611600613447 -1.1593538698502814 2.1175705515962817 2.050055466436567 -0.5200046160127103 1.1399895127138917
2.38865804672 0.4124979858565096 -0.214611600613447 -1.1593538698502814 2.1175705515962817 2.050055466436567 -0.5200046160127103 1.1399895127138917
2.39843797684 0.4124979858565096 -0.214611600613447 -1.1593538698502814 2.1175705515962817 2.050055466436567 -0.5200046160127103 1.1399895127138917
2.39843797684 0.4124979858565096 -0.214611600613447 -1.1593538698502814 2.1175705515962817 2.050055466436567 -0.5200046160127103 1.1399895127138917
2.40824198723 0.4124979858565096 -0.214611600613447 -1.1593538698502814 2.1175705515962817 2.050055466436567 -0.5200046160127103 1.1399895127138917
2.40824198723 0.4124979858565096 -0.214611600613447 -1.1593538698502814 2.1175705515962817 2.050055466436567 -0.5200046160127103 1.1399895127138917
2.41824698448 0.4124979858565096 -0.214611600613447 -1.1593538698502814 2.1175705515962817 2.050055466436567 -0.5200046160127103 1.1399895127138917
2.41824698448 0.4124979858565096 -0.214611600613447 -1.1593538698502814 2.1175705515962817 2.050055466436567 -0.5200046160127103 1.1399895127138917
2.4285800457 0.4124979858565096 -0.2144582004999309 -1.1593538698502814 2.1175705515962817 2.050055466436567 -0.5200046160127103 1.1399895127138917
2.4285800457 0.4124979858565096 -0.2144582004999309 -1.1593538698502814 2.1175705515962817 2.050055466436567 -0.5200046160127103 1.1399895127138917
2.43863892555 0.4124979858565096 -0.2144582004999309 -1.1593538698502814 2.1175705515962817 2.050055466436567 -0.5200046160127103 1.1399895127138917
2.43863892555 0.4124979858565096 -0.2144582004999309 -1.1593538698502814 2.1175705515962817 2.050055466436567 -0.5200046160127103 1.1399895127138917
2.44867610931 0.4124979858565096 -0.2144582004999309 -1.1593538698502814 2.1175705515962817 2.050055466436567 -0.5200046160127103 1.1399895127138917
2.44867610931 0.4124979858565096 -0.2144582004999309 -1.1593538698502814 2.1175705515962817 2.050055466436567 -0.5200046160127103 1.1399895127138917
2.4587059021 0.4124979858565096 -0.2144582004999309 -1.1593538698502814 2.1175705515962817 2.050055466436567 -0.5200046160127103 1.1399895127138917
2.4587059021 0.4124979858565096 -0.2144582004999309 -1.1593538698502814 2.1175705515962817 2.050055466436567 -0.5200046160127103 1.1399895127138917
2.46870303154 0.4124979858565096 -0.2144582004999309 -1.1593538698502814 2.1175705515962817 2.050055466436567 -0.5200046160127103 1.1399895127138917
2.46870303154 0.4124979858565096 -0.2144582004999309 -1.1593538698502814 2.1175705515962817 2.050055466436567 -0.5200046160127103 1.1399895127138917
2.47863793373 0.4124979858565096 -0.2144582004999309 -1.1593538698502814 2.1175705515962817 2.050055466436567 -0.5200046160127103 1.1399895127138917
2.47863793373 0.4124979858565096 -0.2144582004999309 -1.1593538698502814 2.1175705515962817 2.050055466436567 -0.5200046160127103 1.1399895127138917
2.48874807358 0.4124979858565096 -0.2144582004999309 -1.1593538698502814 2.1175705515962817 2.050055466436567 -0.5200046160127103 1.1399895127138917
2.48874807358 0.4124979858565096 -0.2144582004999309 -1.1593538698502814 2.1175705515962817 2.050055466436567 -0.5200046160127103 1.1399895127138917
2.49851703644 0.4124979858565096 -0.2144582004999309 -1.1593538698502814 2.1175705515962817 2.050055466436567 -0.5200046160127103 1.1399895127138917
2.49851703644 0.4124979858565096 -0.2144582004999309 -1.1593538698502814 2.1175705515962817 2.050055466436567 -0.5200046160127103 1.1399895127138917
2.50866007805 0.4124979858565096 -0.2144582004999309 -1.1593538698502814 2.1175705515962817 2.050055466436567 -0.5200046160127103 1.1399895127138917
2.50866007805 0.4124979858565096 -0.2144582004999309 -1.1593538698502814 2.1175705515962817 2.050055466436567 -0.5200046160127103 1.1399895127138917
2.51875495911 0.4124979858565096 -0.2144582004999309 -1.1593538698502814 2.1175705515962817 2.050055466436567 -0.5200046160127103 1.1399895127138917
2.51875495911 0.4124979858565096 -0.2144582004999309 -1.1593538698502814 2.1175705515962817 2.050055466436567 -0.5200046160127103 1.1399895127138917
2.52855801582 0.4124979858565096 -0.2144582004999309 -1.1593538698502814 2.1175705515962817 2.050055466436567 -0.5200046160127103 1.1399895127138917
2.52855801582 0.4124979858565096 -0.2144582004999309 -1.1593538698502814 2.1175705515962817 2.050055466436567 -0.5200046160127103 1.1399895127138917
2.53861188889 0.4124979858565096 -0.2144582004999309 -1.1593538698502814 2.1175705515962817 2.050055466436567 -0.5200046160127103 1.1399895127138917
2.53861188889 0.4124979858565096 -0.2144582004999309 -1.1593538698502814 2.1175705515962817 2.050055466436567 -0.5200046160127103 1.1399895127138917
2.54866909981 0.4124979858565096 -0.2144582004999309 -1.1593538698502814 2.1175705515962817 2.050055466436567 -0.5200046160127103 1.1399895127138917
2.54866909981 0.4124979858565096 -0.2144582004999309 -1.1593538698502814 2.1175705515962817 2.050055466436567 -0.5200046160127103 1.1399895127138917
2.55845189095 0.4124979858565096 -0.2144582004999309 -1.1593538698502814 2.1175705515962817 2.050055466436567 -0.5200046160127103 1.1399895127138917
2.55845189095 0.4124979858565096 -0.2144582004999309 -1.1593538698502814 2.1175705515962817 2.050055466436567 -0.5200046160127103 1.1399895127138917
2.56860899925 0.4124979858565096 -0.2144582004999309 -1.1593538698502814 2.1175705515962817 2.050055466436567 -0.5200046160127103 1.1399895127138917
2.56860899925 0.4124979858565096 -0.2144582004999309 -1.1593538698502814 2.1175705515962817 2.050055466436567 -0.5200046160127103 1.1399895127138917
2.57865810394 0.4124979858565096 -0.2144582004999309 -1.1593538698502814 2.1175705515962817 2.050055466436567 -0.5200046160127103 1.1399895127138917
2.57865810394 0.4124979858565096 -0.2144582004999309 -1.1593538698502814 2.1175705515962817 2.050055466436567 -0.5200046160127103 1.1399895127138917
2.5885579586 0.4124979858565096 -0.2144582004999309 -1.1593538698502814 2.1175705515962817 2.050055466436567 -0.5200046160127103 1.1399895127138917
2.5885579586 0.4124979858565096 -0.2144582004999309 -1.1593538698502814 2.1175705515962817 2.050055466436567 -0.5200046160127103 1.1399895127138917
2.59865808487 0.4124979858565096 -0.2144582004999309 -1.1593538698502814 2.1175705515962817 2.050055466436567 -0.5200046160127103 1.1399895127138917
2.59865808487 0.4124979858565096 -0.2144582004999309 -1.1593538698502814 2.1175705515962817 2.050055466436567 -0.5200046160127103 1.1399895127138917
2.60865592957 0.4124979858565096 -0.2144582004999309 -1.1593538698502814 2.1175705515962817 2.050055466436567 -0.5200046160127103 1.1399895127138917
2.60865592957 0.4124979858565096 -0.2144582004999309 -1.1593538698502814 2.1175705515962817 2.050055466436567 -0.5200046160127103 1.1399895127138917
2.61869692802 0.4124979858565096 -0.2144582004999309 -1.1593538698502814 2.1175705515962817 2.050055466436567 -0.5200046160127103 1.1399895127138917
2.61869692802 0.4124979858565096 -0.2144582004999309 -1.1593538698502814 2.1175705515962817 2.050055466436567 -0.5200046160127103 1.1399895127138917
2.62867593765 0.4124979858565096 -0.2144582004999309 -1.1593538698502814 2.1175705515962817 2.050055466436567 -0.5200046160127103 1.1399895127138917
2.62867593765 0.4124979858565096 -0.2144582004999309 -1.1593538698502814 2.1175705515962817 2.050055466436567 -0.5200046160127103 1.1399895127138917
2.63864088058 0.4124979858565096 -0.2144582004999309 -1.1593538698502814 2.1175705515962817 2.050055466436567 -0.5200046160127103 1.1399895127138917
2.63864088058 0.4124979858565096 -0.2144582004999309 -1.1593538698502814 2.1175705515962817 2.050055466436567 -0.5200046160127103 1.1399895127138917
2.64856004715 0.4124979858565096 -0.2144582004999309 -1.1593538698502814 2.1175705515962817 2.050055466436567 -0.5200046160127103 1.1399895127138917
2.64856004715 0.4124979858565096 -0.2144582004999309 -1.1593538698502814 2.1175705515962817 2.050055466436567 -0.5200046160127103 1.1399895127138917
2.65860891342 0.4124979858565096 -0.2144582004999309 -1.1593538698502814 2.1175705515962817 2.050055466436567 -0.5200046160127103 1.1399895127138917
2.65860891342 0.4124979858565096 -0.2144582004999309 -1.1593538698502814 2.1175705515962817 2.050055466436567 -0.5200046160127103 1.1399895127138917
2.66861510277 0.4124979858565096 -0.2144582004999309 -1.1593538698502814 2.1175705515962817 2.050055466436567 -0.5200046160127103 1.1399895127138917
2.66861510277 0.4124979858565096 -0.2144582004999309 -1.1593538698502814 2.1175705515962817 2.050055466436567 -0.5200046160127103 1.1399895127138917
2.67873692513 0.4124979858565096 -0.2144582004999309 -1.1593538698502814 2.1175705515962817 2.050055466436567 -0.5200046160127103 1.1399895127138917
2.67873692513 0.4124979858565096 -0.2144582004999309 -1.1593538698502814 2.1175705515962817 2.050055466436567 -0.5200046160127103 1.1399895127138917
2.68864703178 0.4124979858565096 -0.2144582004999309 -1.1593538698502814 2.1175705515962817 2.050055466436567 -0.5200046160127103 1.1399895127138917
2.68864703178 0.4124979858565096 -0.2144582004999309 -1.1593538698502814 2.1175705515962817 2.050055466436567 -0.5200046160127103 1.1399895127138917
2.69859099388 0.4124979858565096 -0.2144582004999309 -1.1593538698502814 2.1175705515962817 2.050055466436567 -0.5200046160127103 1.1399895127138917
2.69859099388 0.4124979858565096 -0.2144582004999309 -1.1593538698502814 2.1175705515962817 2.050055466436567 -0.5200046160127103 1.1399895127138917
2.70854306221 0.4124979858565096 -0.2144582004999309 -1.1593538698502814 2.1175705515962817 2.050055466436567 -0.5200046160127103 1.1399895127138917
2.70854306221 0.4124979858565096 -0.2144582004999309 -1.1593538698502814 2.1175705515962817 2.050055466436567 -0.5200046160127103 1.1399895127138917
2.71862602234 0.4124979858565096 -0.2144582004999309 -1.1593538698502814 2.1175705515962817 2.050055466436567 -0.5200046160127103 1.1399895127138917
2.71862602234 0.4124979858565096 -0.2144582004999309 -1.1593538698502814 2.1175705515962817 2.050055466436567 -0.5200046160127103 1.1399895127138917
2.728703022 0.4124979858565096 -0.2144582004999309 -1.1593538698502814 2.1175705515962817 2.050055466436567 -0.5200046160127103 1.1399895127138917
2.728703022 0.4124979858565096 -0.2144582004999309 -1.1593538698502814 2.1175705515962817 2.050055466436567 -0.5200046160127103 1.1399895127138917
2.73879289627 0.4124979858565096 -0.2144582004999309 -1.1593538698502814 2.1175705515962817 2.050055466436567 -0.5200046160127103 1.1399895127138917
2.73879289627 0.4124979858565096 -0.2144582004999309 -1.1593538698502814 2.1175705515962817 2.050055466436567 -0.5200046160127103 1.1399895127138917
2.74868702888 0.4124979858565096 -0.2144582004999309 -1.1593538698502814 2.1175705515962817 2.050055466436567 -0.5200046160127103 1.1399895127138917
2.74868702888 0.4124979858565096 -0.2144582004999309 -1.1593538698502814 2.1175705515962817 2.050055466436567 -0.5200046160127103 1.1399895127138917
2.75863194466 0.4124979858565096 -0.2144582004999309 -1.1593538698502814 2.1175705515962817 2.050055466436567 -0.5200046160127103 1.1399895127138917
2.75863194466 0.4124979858565096 -0.2144582004999309 -1.1593538698502814 2.1175705515962817 2.050055466436567 -0.5200046160127103 1.1399895127138917
2.7686560154 0.4124979858565096 -0.2144582004999309 -1.1593538698502814 2.1175705515962817 2.050055466436567 -0.5200046160127103 1.1399895127138917
2.7686560154 0.4124979858565096 -0.2144582004999309 -1.1593538698502814 2.1175705515962817 2.050055466436567 -0.5200046160127103 1.1399895127138917
2.77864098549 0.4124979858565096 -0.2144582004999309 -1.1593538698502814 2.1175705515962817 2.050055466436567 -0.5200046160127103 1.1399895127138917
2.77864098549 0.4124979858565096 -0.2144582004999309 -1.1593538698502814 2.1175705515962817 2.050055466436567 -0.5200046160127103 1.1399895127138917
2.78870010376 0.4124979858565096 -0.2144582004999309 -1.1593538698502814 2.1175705515962817 2.050055466436567 -0.5200046160127103 1.1399895127138917
2.78870010376 0.4124979858565096 -0.2144582004999309 -1.1593538698502814 2.1175705515962817 2.050055466436567 -0.5200046160127103 1.1399895127138917
2.79864907265 0.4124979858565096 -0.2144582004999309 -1.1593538698502814 2.1175705515962817 2.050055466436567 -0.5200046160127103 1.1399895127138917
2.79864907265 0.4124979858565096 -0.2144582004999309 -1.1593538698502814 2.1175705515962817 2.050055466436567 -0.5200046160127103 1.1399895127138917
2.80840611458 0.4124979858565096 -0.2144582004999309 -1.1593538698502814 2.1175705515962817 2.050055466436567 -0.5200046160127103 1.1399895127138917
2.80840611458 0.4124979858565096 -0.2144582004999309 -1.1593538698502814 2.1175705515962817 2.050055466436567 -0.5200046160127103 1.1399895127138917
2.81864905357 0.4124979858565096 -0.2144582004999309 -1.1593538698502814 2.1175705515962817 2.050055466436567 -0.5200046160127103 1.1399895127138917
2.81864905357 0.4124979858565096 -0.2144582004999309 -1.1593538698502814 2.1175705515962817 2.050055466436567 -0.5200046160127103 1.1399895127138917
2.82841897011 0.4124979858565096 -0.2144582004999309 -1.1593538698502814 2.1175705515962817 2.050055466436567 -0.5200046160127103 1.1399895127138917
2.82841897011 0.4124979858565096 -0.2144582004999309 -1.1593538698502814 2.1175705515962817 2.050055466436567 -0.5200046160127103 1.1399895127138917
2.83827996254 0.4124979858565096 -0.2144582004999309 -1.1593538698502814 2.1175705515962817 2.050055466436567 -0.5200046160127103 1.1399895127138917
2.83827996254 0.4124979858565096 -0.2144582004999309 -1.1593538698502814 2.1175705515962817 2.050055466436567 -0.5200046160127103 1.1399895127138917
2.84855794907 0.4124979858565096 -0.2144582004999309 -1.1593538698502814 2.1175705515962817 2.050055466436567 -0.5200046160127103 1.1399895127138917
2.84855794907 0.4124979858565096 -0.2144582004999309 -1.1593538698502814 2.1175705515962817 2.050055466436567 -0.5200046160127103 1.1399895127138917
2.85859107971 0.4124979858565096 -0.2144582004999309 -1.1593538698502814 2.1175705515962817 2.050055466436567 -0.5200046160127103 1.1399895127138917
2.85859107971 0.4124979858565096 -0.2144582004999309 -1.1593538698502814 2.1175705515962817 2.050055466436567 -0.5200046160127103 1.1399895127138917
2.86840605736 0.4124979858565096 -0.2144582004999309 -1.1593538698502814 2.1175705515962817 2.050055466436567 -0.5200046160127103 1.1399895127138917
2.86840605736 0.4124979858565096 -0.2144582004999309 -1.1593538698502814 2.1175705515962817 2.050055466436567 -0.5200046160127103 1.1399895127138917
2.87857890129 0.4124979858565096 -0.2144582004999309 -1.1593538698502814 2.1175705515962817 2.050055466436567 -0.5200046160127103 1.1399895127138917
2.87857890129 0.4124979858565096 -0.2144582004999309 -1.1593538698502814 2.1175705515962817 2.050055466436567 -0.5200046160127103 1.1399895127138917
2.88859510422 0.4124979858565096 -0.2144582004999309 -1.1593538698502814 2.1175705515962817 2.050055466436567 -0.5200046160127103 1.1399895127138917
2.88859510422 0.4124979858565096 -0.2144582004999309 -1.1593538698502814 2.1175705515962817 2.050055466436567 -0.5200046160127103 1.1399895127138917
2.89840698242 0.4124979858565096 -0.2144582004999309 -1.1593538698502814 2.1175705515962817 2.050055466436567 -0.5200046160127103 1.1399895127138917
2.89840698242 0.4124979858565096 -0.2144582004999309 -1.1593538698502814 2.1175705515962817 2.050055466436567 -0.5200046160127103 1.1399895127138917
2.90856909752 0.4124979858565096 -0.2144582004999309 -1.1593538698502814 2.1175705515962817 2.050055466436567 -0.5200046160127103 1.1399895127138917
2.90856909752 0.4124979858565096 -0.2144582004999309 -1.1593538698502814 2.1175705515962817 2.050055466436567 -0.5200046160127103 1.1399895127138917
2.91863107681 0.4124979858565096 -0.2144582004999309 -1.1593538698502814 2.1175705515962817 2.050055466436567 -0.5200046160127103 1.1399895127138917
2.91863107681 0.4124979858565096 -0.2144582004999309 -1.1593538698502814 2.1175705515962817 2.050055466436567 -0.5200046160127103 1.1399895127138917
2.92853999138 0.4124979858565096 -0.2144582004999309 -1.1593538698502814 2.1175705515962817 2.050055466436567 -0.5200046160127103 1.1399895127138917
2.92853999138 0.4124979858565096 -0.2144582004999309 -1.1593538698502814 2.1175705515962817 2.050055466436567 -0.5200046160127103 1.1399895127138917
2.93864011765 0.4124979858565096 -0.2144582004999309 -1.1593538698502814 2.1175705515962817 2.050055466436567 -0.5200046160127103 1.1399895127138917
2.93864011765 0.4124979858565096 -0.2144582004999309 -1.1593538698502814 2.1175705515962817 2.050055466436567 -0.5200046160127103 1.1399895127138917
2.94869089127 0.4124979858565096 -0.2144582004999309 -1.1593538698502814 2.1175705515962817 2.050055466436567 -0.5200046160127103 1.1399895127138917
2.94869089127 0.4124979858565096 -0.2144582004999309 -1.1593538698502814 2.1175705515962817 2.050055466436567 -0.5200046160127103 1.1399895127138917
2.95868301392 0.4124979858565096 -0.2144582004999309 -1.1593538698502814 2.1175705515962817 2.050055466436567 -0.5200046160127103 1.1399895127138917
2.95868301392 0.4124979858565096 -0.2144582004999309 -1.1593538698502814 2.1175705515962817 2.050055466436567 -0.5200046160127103 1.1399895127138917
2.96867108345 0.4124979858565096 -0.2144582004999309 -1.1593538698502814 2.1175705515962817 2.050055466436567 -0.5200046160127103 1.1399895127138917
2.96867108345 0.4124979858565096 -0.2144582004999309 -1.1593538698502814 2.1175705515962817 2.050055466436567 -0.5200046160127103 1.1399895127138917
2.97862792015 0.4124979858565096 -0.2144582004999309 -1.1593538698502814 2.1175705515962817 2.050055466436567 -0.5200046160127103 1.1399895127138917
2.97862792015 0.4124979858565096 -0.2144582004999309 -1.1593538698502814 2.1175705515962817 2.050055466436567 -0.5200046160127103 1.1399895127138917
2.98855209351 0.4124979858565096 -0.2144582004999309 -1.1593538698502814 2.1175705515962817 2.050055466436567 -0.5200046160127103 1.1399895127138917
2.98855209351 0.4124979858565096 -0.2144582004999309 -1.1593538698502814 2.1175705515962817 2.050055466436567 -0.5200046160127103 1.1399895127138917
2.99864602089 0.4124979858565096 -0.2144582004999309 -1.1593538698502814 2.1175705515962817 2.050055466436567 -0.5200046160127103 1.1399895127138917
2.99864602089 0.4124979858565096 -0.2144582004999309 -1.1593538698502814 2.1175705515962817 2.050055466436567 -0.5200046160127103 1.1399895127138917
3.00867605209 0.4124979858565096 -0.2144582004999309 -1.1593538698502814 2.1175705515962817 2.050055466436567 -0.5200046160127103 1.1399895127138917
3.00867605209 0.4124979858565096 -0.2144582004999309 -1.1593538698502814 2.1175705515962817 2.050055466436567 -0.5200046160127103 1.1399895127138917
3.01853609085 0.4124979858565096 -0.2144582004999309 -1.1593538698502814 2.1175705515962817 2.050055466436567 -0.5200046160127103 1.1399895127138917
3.01853609085 0.4124979858565096 -0.2144582004999309 -1.1593538698502814 2.1175705515962817 2.050055466436567 -0.5200046160127103 1.1399895127138917
3.02864003181 0.4124979858565096 -0.2144582004999309 -1.1593538698502814 2.1175705515962817 2.050055466436567 -0.5200046160127103 1.1399895127138917
3.02864003181 0.4124979858565096 -0.2144582004999309 -1.1593538698502814 2.1175705515962817 2.050055466436567 -0.5200046160127103 1.1399895127138917
3.03861498833 0.4124979858565096 -0.2144582004999309 -1.1593538698502814 2.1175705515962817 2.050055466436567 -0.5200046160127103 1.1399895127138917
3.03861498833 0.4124979858565096 -0.2144582004999309 -1.1593538698502814 2.1175705515962817 2.050055466436567 -0.5200046160127103 1.1399895127138917
3.04874205589 0.4124979858565096 -0.2144582004999309 -1.1593538698502814 2.1175705515962817 2.050055466436567 -0.5200046160127103 1.1399895127138917
3.04874205589 0.4124979858565096 -0.2144582004999309 -1.1593538698502814 2.1175705515962817 2.050055466436567 -0.5200046160127103 1.1399895127138917
3.05848193169 0.4124979858565096 -0.2144582004999309 -1.1593538698502814 2.1175705515962817 2.050055466436567 -0.5200046160127103 1.1399895127138917
3.05848193169 0.4124979858565096 -0.2144582004999309 -1.1593538698502814 2.1175705515962817 2.050055466436567 -0.5200046160127103 1.1399895127138917
3.06864404678 0.4124979858565096 -0.2144582004999309 -1.1593538698502814 2.1175705515962817 2.050055466436567 -0.5200046160127103 1.1399895127138917
3.06864404678 0.4124979858565096 -0.2144582004999309 -1.1593538698502814 2.1175705515962817 2.050055466436567 -0.5200046160127103 1.1399895127138917
3.07863998413 0.4124979858565096 -0.2144582004999309 -1.1593538698502814 2.1175705515962817 2.050055466436567 -0.5200046160127103 1.1399895127138917
3.07863998413 0.4124979858565096 -0.2144582004999309 -1.1593538698502814 2.1175705515962817 2.050055466436567 -0.5200046160127103 1.1399895127138917
3.08850693703 0.4124979858565096 -0.2144582004999309 -1.1593538698502814 2.1175705515962817 2.050055466436567 -0.5200046160127103 1.1399895127138917
3.08850693703 0.4124979858565096 -0.2144582004999309 -1.1593538698502814 2.1175705515962817 2.050055466436567 -0.5200046160127103 1.1399895127138917
3.09862804413 0.4124979858565096 -0.2144582004999309 -1.1593538698502814 2.1175705515962817 2.050055466436567 -0.5200046160127103 1.1399895127138917
3.09862804413 0.4124979858565096 -0.2144582004999309 -1.1593538698502814 2.1175705515962817 2.050055466436567 -0.5200046160127103 1.1399895127138917
3.10867595673 0.4124979858565096 -0.2144582004999309 -1.1593538698502814 2.1175705515962817 2.050055466436567 -0.5200046160127103 1.1399895127138917
3.10867595673 0.4124979858565096 -0.2144582004999309 -1.1593538698502814 2.1175705515962817 2.050055466436567 -0.5200046160127103 1.1399895127138917
3.11862206459 0.412482645845158 -0.2112521381274448 -1.1593998898843365 2.1175705515962817 2.050055466436567 -0.5200046160127103 1.1399895127138917
3.11862206459 0.412482645845158 -0.2112521381274448 -1.1593998898843365 2.1175705515962817 2.050055466436567 -0.5200046160127103 1.1399895127138917
3.1282889843 0.412482645845158 -0.2112521381274448 -1.1593998898843365 2.1175705515962817 2.050055466436567 -0.5200046160127103 1.1399895127138917
3.1282889843 0.412482645845158 -0.2112521381274448 -1.1593998898843365 2.1175705515962817 2.050055466436567 -0.5200046160127103 1.1399895127138917
3.13860106468 0.412482645845158 -0.2112521381274448 -1.1593998898843365 2.1175705515962817 2.050055466436567 -0.5200046160127103 1.1399895127138917
3.13860106468 0.412482645845158 -0.2112521381274448 -1.1593998898843365 2.1175705515962817 2.050055466436567 -0.5200046160127103 1.1399895127138917
3.14842510223 0.412482645845158 -0.2112521381274448 -1.1593998898843365 2.1175705515962817 2.050055466436567 -0.5200046160127103 1.1399895127138917
3.14842510223 0.412482645845158 -0.2112521381274448 -1.1593998898843365 2.1175705515962817 2.050055466436567 -0.5200046160127103 1.1399895127138917
3.15858602524 0.412482645845158 -0.2112521381274448 -1.1593998898843365 2.1175705515962817 2.050055466436567 -0.5200046160127103 1.1399895127138917
3.15858602524 0.412482645845158 -0.2112521381274448 -1.1593998898843365 2.1175705515962817 2.050055466436567 -0.5200046160127103 1.1399895127138917
3.16859006882 0.412482645845158 -0.2112521381274448 -1.1593998898843365 2.1175705515962817 2.050055466436567 -0.5200046160127103 1.1399895127138917
3.16859006882 0.412482645845158 -0.2112521381274448 -1.1593998898843365 2.1175705515962817 2.050055466436567 -0.5200046160127103 1.1399895127138917
3.17840409279 0.4124366258111031 -0.1952525062877172 -1.1692174971493656 2.1175705515962817 2.050055466436567 -0.5200046160127103 1.1399895127138917
3.17840409279 0.4124366258111031 -0.1952525062877172 -1.1692174971493656 2.1175705515962817 2.050055466436567 -0.5200046160127103 1.1399895127138917
3.18864989281 0.4124366258111031 -0.1952525062877172 -1.1692174971493656 2.1175705515962817 2.050055466436567 -0.5200046160127103 1.1399895127138917
3.18864989281 0.4124366258111031 -0.1952525062877172 -1.1692174971493656 2.1175705515962817 2.050055466436567 -0.5200046160127103 1.1399895127138917
3.19861388206 0.4124366258111031 -0.1952525062877172 -1.1692174971493656 2.1175705515962817 2.050055466436567 -0.5200046160127103 1.1399895127138917
3.19861388206 0.4124366258111031 -0.1952525062877172 -1.1692174971493656 2.1175705515962817 2.050055466436567 -0.5200046160127103 1.1399895127138917
3.20855093002 0.4124366258111031 -0.1952525062877172 -1.1692174971493656 2.1175705515962817 2.050055466436567 -0.5200046160127103 1.1399895127138917
3.20855093002 0.4124366258111031 -0.1952525062877172 -1.1692174971493656 2.1175705515962817 2.050055466436567 -0.5200046160127103 1.1399895127138917
3.21860408783 0.4124366258111031 -0.1952525062877172 -1.1692174971493656 2.1175705515962817 2.050055466436567 -0.5200046160127103 1.1399895127138917
3.21860408783 0.4124366258111031 -0.1952525062877172 -1.1692174971493656 2.1175705515962817 2.050055466436567 -0.5200046160127103 1.1399895127138917
3.22865104675 0.4124366258111031 -0.1952525062877172 -1.1692174971493656 2.1175705515962817 2.050055466436567 -0.5200046160127103 1.1399895127138917
3.22865104675 0.4124366258111031 -0.1952525062877172 -1.1692174971493656 2.1175705515962817 2.050055466436567 -0.5200046160127103 1.1399895127138917
3.23862504959 0.4124366258111031 -0.1952525062877172 -1.1692174971493656 2.1175705515962817 2.050055466436567 -0.5200046160127103 1.1399895127138917
3.23862504959 0.4124366258111031 -0.1952525062877172 -1.1692174971493656 2.1175705515962817 2.050055466436567 -0.5200046160127103 1.1399895127138917
3.24864506721 0.4124366258111031 -0.1952525062877172 -1.1692174971493656 2.1175705515962817 2.050055466436567 -0.5200046160127103 1.1399895127138917
3.24864506721 0.4124366258111031 -0.1952525062877172 -1.1692174971493656 2.1175705515962817 2.050055466436567 -0.5200046160127103 1.1399895127138917
3.25866389275 0.4124366258111031 -0.1952525062877172 -1.1692174971493656 2.1175705515962817 2.050055466436567 -0.5200046160127103 1.1399895127138917
3.25866389275 0.4124366258111031 -0.1952525062877172 -1.1692174971493656 2.1175705515962817 2.050055466436567 -0.5200046160127103 1.1399895127138917
3.26854705811 0.4124366258111031 -0.1952525062877172 -1.1692174971493656 2.1175705515962817 2.050055466436567 -0.5200046160127103 1.1399895127138917
3.26854705811 0.4124366258111031 -0.1952525062877172 -1.1692174971493656 2.1175705515962817 2.050055466436567 -0.5200046160127103 1.1399895127138917
3.27858710289 0.4124366258111031 -0.1952525062877172 -1.1692174971493656 2.1175705515962817 2.050055466436567 -0.5200046160127103 1.1399895127138917
3.27858710289 0.4124366258111031 -0.1952525062877172 -1.1692174971493656 2.1175705515962817 2.050055466436567 -0.5200046160127103 1.1399895127138917
3.28869009018 0.4124366258111031 -0.1952525062877172 -1.1692174971493656 2.1175705515962817 2.050055466436567 -0.5200046160127103 1.1399895127138917
3.28869009018 0.4124366258111031 -0.1952525062877172 -1.1692174971493656 2.1175705515962817 2.050055466436567 -0.5200046160127103 1.1399895127138917
3.29865288734 0.4124366258111031 -0.1952525062877172 -1.1692174971493656 2.1175705515962817 2.050055466436567 -0.5200046160127103 1.1399895127138917
3.29865288734 0.4124366258111031 -0.1952525062877172 -1.1692174971493656 2.1175705515962817 2.050055466436567 -0.5200046160127103 1.1399895127138917
3.30866003036 0.4124366258111031 -0.1952525062877172 -1.1692174971493656 2.1175705515962817 2.050055466436567 -0.5200046160127103 1.1399895127138917
3.30866003036 0.4124366258111031 -0.1952525062877172 -1.1692174971493656 2.1175705515962817 2.050055466436567 -0.5200046160127103 1.1399895127138917
3.31860804558 0.4124366258111031 -0.1952525062877172 -1.1692174971493656 2.1175705515962817 2.050055466436567 -0.5200046160127103 1.1399895127138917
3.31860804558 0.4124366258111031 -0.1952525062877172 -1.1692174971493656 2.1175705515962817 2.050055466436567 -0.5200046160127103 1.1399895127138917
3.32850790024 0.4124366258111031 -0.1952525062877172 -1.1692174971493656 2.1175705515962817 2.050055466436567 -0.5200046160127103 1.1399895127138917
3.32850790024 0.4124366258111031 -0.1952525062877172 -1.1692174971493656 2.1175705515962817 2.050055466436567 -0.5200046160127103 1.1399895127138917
3.33863306046 0.4124366258111031 -0.1952525062877172 -1.1692174971493656 2.1175705515962817 2.050055466436567 -0.5200046160127103 1.1399895127138917
3.33863306046 0.4124366258111031 -0.1952525062877172 -1.1692174971493656 2.1175705515962817 2.050055466436567 -0.5200046160127103 1.1399895127138917
3.34871006012 0.4124366258111031 -0.1952525062877172 -1.1692174971493656 2.1175705515962817 2.050055466436567 -0.5200046160127103 1.1399895127138917
3.34871006012 0.4124366258111031 -0.1952525062877172 -1.1692174971493656 2.1175705515962817 2.050055466436567 -0.5200046160127103 1.1399895127138917
3.3586499691 0.4124366258111031 -0.1952525062877172 -1.1692174971493656 2.1175705515962817 2.050055466436567 -0.5200046160127103 1.1399895127138917
3.3586499691 0.4124366258111031 -0.1952525062877172 -1.1692174971493656 2.1175705515962817 2.050055466436567 -0.5200046160127103 1.1399895127138917
3.36868000031 0.4124366258111031 -0.1952525062877172 -1.1692174971493656 2.1175705515962817 2.050055466436567 -0.5200046160127103 1.1399895127138917
3.36868000031 0.4124366258111031 -0.1952525062877172 -1.1692174971493656 2.1175705515962817 2.050055466436567 -0.5200046160127103 1.1399895127138917
3.37868690491 0.4124366258111031 -0.1952525062877172 -1.1692174971493656 2.1175705515962817 2.050055466436567 -0.5200046160127103 1.1399895127138917
3.37868690491 0.4124366258111031 -0.1952525062877172 -1.1692174971493656 2.1175705515962817 2.050055466436567 -0.5200046160127103 1.1399895127138917
3.38863992691 0.4124366258111031 -0.1952525062877172 -1.1692174971493656 2.1175705515962817 2.050055466436567 -0.5200046160127103 1.1399895127138917
3.38863992691 0.4124366258111031 -0.1952525062877172 -1.1692174971493656 2.1175705515962817 2.050055466436567 -0.5200046160127103 1.1399895127138917
3.39859199524 0.4124366258111031 -0.1952525062877172 -1.1692174971493656 2.1175705515962817 2.050055466436567 -0.5200046160127103 1.1399895127138917
3.39859199524 0.4124366258111031 -0.1952525062877172 -1.1692174971493656 2.1175705515962817 2.050055466436567 -0.5200046160127103 1.1399895127138917
3.40865588188 0.4124366258111031 -0.1952525062877172 -1.1692174971493656 2.1175705515962817 2.050055466436567 -0.5200046160127103 1.1399895127138917
3.40865588188 0.4124366258111031 -0.1952525062877172 -1.1692174971493656 2.1175705515962817 2.050055466436567 -0.5200046160127103 1.1399895127138917
3.41865110397 0.4124366258111031 -0.1952525062877172 -1.1692174971493656 2.1175705515962817 2.050055466436567 -0.5200046160127103 1.1399895127138917
3.41865110397 0.4124366258111031 -0.1952525062877172 -1.1692174971493656 2.1175705515962817 2.050055466436567 -0.5200046160127103 1.1399895127138917
3.42850494385 0.4124366258111031 -0.1952525062877172 -1.1692174971493656 2.1175705515962817 2.050055466436567 -0.5200046160127103 1.1399895127138917
3.42850494385 0.4124366258111031 -0.1952525062877172 -1.1692174971493656 2.1175705515962817 2.050055466436567 -0.5200046160127103 1.1399895127138917
3.43864107132 0.4124366258111031 -0.1952525062877172 -1.1692174971493656 2.1175705515962817 2.050055466436567 -0.5200046160127103 1.1399895127138917
3.43864107132 0.4124366258111031 -0.1952525062877172 -1.1692174971493656 2.1175705515962817 2.050055466436567 -0.5200046160127103 1.1399895127138917
3.44859290123 0.4124366258111031 -0.1952525062877172 -1.1692174971493656 2.1175705515962817 2.050055466436567 -0.5200046160127103 1.1399895127138917
3.44859290123 0.4124366258111031 -0.1952525062877172 -1.1692174971493656 2.1175705515962817 2.050055466436567 -0.5200046160127103 1.1399895127138917
3.45845293999 0.4124366258111031 -0.1952525062877172 -1.1692174971493656 2.1175705515962817 2.050055466436567 -0.5200046160127103 1.1399895127138917
3.45845293999 0.4124366258111031 -0.1952525062877172 -1.1692174971493656 2.1175705515962817 2.050055466436567 -0.5200046160127103 1.1399895127138917
3.46865797043 0.4124366258111031 -0.1952525062877172 -1.1692174971493656 2.1175705515962817 2.050055466436567 -0.5200046160127103 1.1399895127138917
3.46865797043 0.4124366258111031 -0.1952525062877172 -1.1692174971493656 2.1175705515962817 2.050055466436567 -0.5200046160127103 1.1399895127138917
3.47866892815 0.4124366258111031 -0.1952525062877172 -1.1692174971493656 2.1175705515962817 2.050055466436567 -0.5200046160127103 1.1399895127138917
3.47866892815 0.4124366258111031 -0.1952525062877172 -1.1692174971493656 2.1175705515962817 2.050055466436567 -0.5200046160127103 1.1399895127138917
3.48856496811 0.4124366258111031 -0.1952525062877172 -1.1692174971493656 2.1175705515962817 2.050055466436567 -0.5200046160127103 1.1399895127138917
3.48856496811 0.4124366258111031 -0.1952525062877172 -1.1692174971493656 2.1175705515962817 2.050055466436567 -0.5200046160127103 1.1399895127138917
3.49862098694 0.4124366258111031 -0.1952525062877172 -1.1692174971493656 2.1175705515962817 2.050055466436567 -0.5200046160127103 1.1399895127138917
3.49862098694 0.4124366258111031 -0.1952525062877172 -1.1692174971493656 2.1175705515962817 2.050055466436567 -0.5200046160127103 1.1399895127138917
3.5086979866 0.4124366258111031 -0.1952525062877172 -1.1692174971493656 2.1175705515962817 2.050055466436567 -0.5200046160127103 1.1399895127138917
3.5086979866 0.4124366258111031 -0.1952525062877172 -1.1692174971493656 2.1175705515962817 2.050055466436567 -0.5200046160127103 1.1399895127138917
3.51855492592 0.4124366258111031 -0.1952525062877172 -1.1692174971493656 2.1175705515962817 2.050055466436567 -0.5200046160127103 1.1399895127138917
3.51855492592 0.4124366258111031 -0.1952525062877172 -1.1692174971493656 2.1175705515962817 2.050055466436567 -0.5200046160127103 1.1399895127138917
3.52865409851 0.4124366258111031 -0.1952525062877172 -1.1692174971493656 2.1175705515962817 2.050055466436567 -0.5200046160127103 1.1399895127138917
3.52865409851 0.4124366258111031 -0.1952525062877172 -1.1692174971493656 2.1175705515962817 2.050055466436567 -0.5200046160127103 1.1399895127138917
3.5386390686 0.4124366258111031 -0.1952525062877172 -1.1692174971493656 2.1175705515962817 2.050055466436567 -0.5200046160127103 1.1399895127138917
3.5386390686 0.4124366258111031 -0.1952525062877172 -1.1692174971493656 2.1175705515962817 2.050055466436567 -0.5200046160127103 1.1399895127138917
3.54855394363 0.4124366258111031 -0.1952525062877172 -1.1692174971493656 2.1175705515962817 2.050055466436567 -0.5200046160127103 1.1399895127138917
3.54855394363 0.4124366258111031 -0.1952525062877172 -1.1692174971493656 2.1175705515962817 2.050055466436567 -0.5200046160127103 1.1399895127138917
3.55867409706 0.4124366258111031 -0.1952525062877172 -1.1692174971493656 2.1175705515962817 2.050055466436567 -0.5200046160127103 1.1399895127138917
3.55867409706 0.4124366258111031 -0.1952525062877172 -1.1692174971493656 2.1175705515962817 2.050055466436567 -0.5200046160127103 1.1399895127138917
3.56869506836 0.4124366258111031 -0.1952525062877172 -1.1692174971493656 2.1175705515962817 2.050055466436567 -0.5200046160127103 1.1399895127138917
3.56869506836 0.4124366258111031 -0.1952525062877172 -1.1692174971493656 2.1175705515962817 2.050055466436567 -0.5200046160127103 1.1399895127138917
3.57869005203 0.4124366258111031 -0.1952525062877172 -1.1692174971493656 2.1175705515962817 2.050055466436567 -0.5200046160127103 1.1399895127138917
3.57869005203 0.4124366258111031 -0.1952525062877172 -1.1692174971493656 2.1175705515962817 2.050055466436567 -0.5200046160127103 1.1399895127138917
3.58869409561 0.4124366258111031 -0.1952525062877172 -1.1692174971493656 2.1175705515962817 2.050055466436567 -0.5200046160127103 1.1399895127138917
3.58869409561 0.4124366258111031 -0.1952525062877172 -1.1692174971493656 2.1175705515962817 2.050055466436567 -0.5200046160127103 1.1399895127138917
3.59862089157 0.4124366258111031 -0.1952525062877172 -1.1692174971493656 2.1175705515962817 2.050055466436567 -0.5200046160127103 1.1399895127138917
3.59862089157 0.4124366258111031 -0.1952525062877172 -1.1692174971493656 2.1175705515962817 2.050055466436567 -0.5200046160127103 1.1399895127138917
3.60858488083 0.4124366258111031 -0.1952525062877172 -1.1692174971493656 2.1175705515962817 2.050055466436567 -0.5200046160127103 1.1399895127138917
3.60858488083 0.4124366258111031 -0.1952525062877172 -1.1692174971493656 2.1175705515962817 2.050055466436567 -0.5200046160127103 1.1399895127138917
3.61861896515 0.4124366258111031 -0.1952525062877172 -1.1692174971493656 2.1175705515962817 2.050055466436567 -0.5200046160127103 1.1399895127138917
3.61861896515 0.4124366258111031 -0.1952525062877172 -1.1692174971493656 2.1175705515962817 2.050055466436567 -0.5200046160127103 1.1399895127138917
3.62865996361 0.4124366258111031 -0.1952525062877172 -1.1692174971493656 2.1175705515962817 2.050055466436567 -0.5200046160127103 1.1399895127138917
3.62865996361 0.4124366258111031 -0.1952525062877172 -1.1692174971493656 2.1175705515962817 2.050055466436567 -0.5200046160127103 1.1399895127138917
3.6385140419 0.4124366258111031 -0.1952525062877172 -1.1692174971493656 2.1175705515962817 2.050055466436567 -0.5200046160127103 1.1399895127138917
3.6385140419 0.4124366258111031 -0.1952525062877172 -1.1692174971493656 2.1175705515962817 2.050055466436567 -0.5200046160127103 1.1399895127138917
3.64865803719 0.4124366258111031 -0.1952525062877172 -1.1692174971493656 2.1175705515962817 2.050055466436567 -0.5200046160127103 1.1399895127138917
3.64865803719 0.4124366258111031 -0.1952525062877172 -1.1692174971493656 2.1175705515962817 2.050055466436567 -0.5200046160127103 1.1399895127138917
3.65866494179 0.4124366258111031 -0.1952525062877172 -1.1692174971493656 2.1175705515962817 2.050055466436567 -0.5200046160127103 1.1399895127138917
3.65866494179 0.4124366258111031 -0.1952525062877172 -1.1692174971493656 2.1175705515962817 2.050055466436567 -0.5200046160127103 1.1399895127138917
3.66873002052 0.4124366258111031 -0.1952525062877172 -1.1692174971493656 2.1175705515962817 2.050055466436567 -0.5200046160127103 1.1399895127138917
3.66873002052 0.4124366258111031 -0.1952525062877172 -1.1692174971493656 2.1175705515962817 2.050055466436567 -0.5200046160127103 1.1399895127138917
3.6786301136 0.4124366258111031 -0.1952525062877172 -1.1692174971493656 2.1175705515962817 2.050055466436567 -0.5200046160127103 1.1399895127138917
3.6786301136 0.4124366258111031 -0.1952525062877172 -1.1692174971493656 2.1175705515962817 2.050055466436567 -0.5200046160127103 1.1399895127138917
3.68869400024 0.4124366258111031 -0.1952525062877172 -1.1692174971493656 2.1175705515962817 2.050055466436567 -0.5200046160127103 1.1399895127138917
3.68869400024 0.4124366258111031 -0.1952525062877172 -1.1692174971493656 2.1175705515962817 2.050055466436567 -0.5200046160127103 1.1399895127138917
3.6986310482 0.4124366258111031 -0.1952525062877172 -1.1692174971493656 2.1175705515962817 2.050055466436567 -0.5200046160127103 1.1399895127138917
3.6986310482 0.4124366258111031 -0.1952525062877172 -1.1692174971493656 2.1175705515962817 2.050055466436567 -0.5200046160127103 1.1399895127138917
3.70865392685 0.4124366258111031 -0.1952525062877172 -1.1692174971493656 2.1175705515962817 2.050055466436567 -0.5200046160127103 1.1399895127138917
3.70865392685 0.4124366258111031 -0.1952525062877172 -1.1692174971493656 2.1175705515962817 2.050055466436567 -0.5200046160127103 1.1399895127138917
3.71866703033 0.4124366258111031 -0.1952525062877172 -1.1692174971493656 2.1175705515962817 2.050055466436567 -0.5200046160127103 1.1399895127138917
3.71866703033 0.4124366258111031 -0.1952525062877172 -1.1692174971493656 2.1175705515962817 2.050055466436567 -0.5200046160127103 1.1399895127138917
3.72868800163 0.4124366258111031 -0.1952525062877172 -1.1692174971493656 2.1175705515962817 2.050055466436567 -0.5200046160127103 1.1399895127138917
3.72868800163 0.4124366258111031 -0.1952525062877172 -1.1692174971493656 2.1175705515962817 2.050055466436567 -0.5200046160127103 1.1399895127138917
3.73843002319 0.4124366258111031 -0.1952525062877172 -1.1692174971493656 2.1175705515962817 2.050055466436567 -0.5200046160127103 1.1399895127138917
3.73843002319 0.4124366258111031 -0.1952525062877172 -1.1692174971493656 2.1175705515962817 2.050055466436567 -0.5200046160127103 1.1399895127138917
3.74868106842 0.4124366258111031 -0.1952525062877172 -1.1692174971493656 2.1175705515962817 2.050055466436567 -0.5200046160127103 1.1399895127138917
3.74868106842 0.4124366258111031 -0.1952525062877172 -1.1692174971493656 2.1175705515962817 2.050055466436567 -0.5200046160127103 1.1399895127138917
3.75863790512 0.4124366258111031 -0.1952525062877172 -1.1692174971493656 2.1175705515962817 2.050055466436567 -0.5200046160127103 1.1399895127138917
3.75863790512 0.4124366258111031 -0.1952525062877172 -1.1692174971493656 2.1175705515962817 2.050055466436567 -0.5200046160127103 1.1399895127138917
3.76856708527 0.4124366258111031 -0.1952525062877172 -1.1692174971493656 2.1175705515962817 2.050055466436567 -0.5200046160127103 1.1399895127138917
3.76856708527 0.4124366258111031 -0.1952525062877172 -1.1692174971493656 2.1175705515962817 2.050055466436567 -0.5200046160127103 1.1399895127138917
3.7786719799 0.4124366258111031 -0.1952525062877172 -1.1692174971493656 2.1175705515962817 2.050055466436567 -0.5200046160127103 1.1399895127138917
3.7786719799 0.4124366258111031 -0.1952525062877172 -1.1692174971493656 2.1175705515962817 2.050055466436567 -0.5200046160127103 1.1399895127138917
3.78870010376 0.4124366258111031 -0.1952525062877172 -1.1692174971493656 2.1175705515962817 2.050055466436567 -0.5200046160127103 1.1399895127138917
3.78870010376 0.4124366258111031 -0.1952525062877172 -1.1692174971493656 2.1175705515962817 2.050055466436567 -0.5200046160127103 1.1399895127138917
3.79868888855 0.4124366258111031 -0.1952525062877172 -1.1692174971493656 2.1175705515962817 2.050055466436567 -0.5200046160127103 1.1399895127138917
3.79868888855 0.4124366258111031 -0.1952525062877172 -1.1692174971493656 2.1175705515962817 2.050055466436567 -0.5200046160127103 1.1399895127138917
3.80866599083 0.4124366258111031 -0.1952525062877172 -1.1692174971493656 2.1175705515962817 2.050055466436567 -0.5200046160127103 1.1399895127138917
3.80866599083 0.4124366258111031 -0.1952525062877172 -1.1692174971493656 2.1175705515962817 2.050055466436567 -0.5200046160127103 1.1399895127138917
3.81867909431 0.4124366258111031 -0.1952525062877172 -1.1692174971493656 2.1175705515962817 2.050055466436567 -0.5200046160127103 1.1399895127138917
3.81867909431 0.4124366258111031 -0.1952525062877172 -1.1692174971493656 2.1175705515962817 2.050055466436567 -0.5200046160127103 1.1399895127138917
3.82852101326 0.4124366258111031 -0.1952525062877172 -1.1692174971493656 2.1175705515962817 2.050055466436567 -0.5200046160127103 1.1399895127138917
3.82852101326 0.4124366258111031 -0.1952525062877172 -1.1692174971493656 2.1175705515962817 2.050055466436567 -0.5200046160127103 1.1399895127138917
3.83866000175 0.4124366258111031 -0.1952525062877172 -1.1692174971493656 2.1175705515962817 2.050055466436567 -0.5200046160127103 1.1399895127138917
3.83866000175 0.4124366258111031 -0.1952525062877172 -1.1692174971493656 2.1175705515962817 2.050055466436567 -0.5200046160127103 1.1399895127138917
3.84871506691 0.4124366258111031 -0.1952525062877172 -1.1692174971493656 2.1175705515962817 2.050055466436567 -0.5200046160127103 1.1399895127138917
3.84871506691 0.4124366258111031 -0.1952525062877172 -1.1692174971493656 2.1175705515962817 2.050055466436567 -0.5200046160127103 1.1399895127138917
3.85868310928 0.4124366258111031 -0.1952525062877172 -1.1692174971493656 2.1175705515962817 2.050055466436567 -0.5200046160127103 1.1399895127138917
3.85868310928 0.4124366258111031 -0.1952525062877172 -1.1692174971493656 2.1175705515962817 2.050055466436567 -0.5200046160127103 1.1399895127138917
3.86867904663 0.4124366258111031 -0.1952525062877172 -1.1692174971493656 2.1175705515962817 2.050055466436567 -0.5200046160127103 1.1399895127138917
3.86867904663 0.4124366258111031 -0.1952525062877172 -1.1692174971493656 2.1175705515962817 2.050055466436567 -0.5200046160127103 1.1399895127138917
3.87866806984 0.4124366258111031 -0.1952525062877172 -1.1692174971493656 2.1175705515962817 2.050055466436567 -0.5200046160127103 1.1399895127138917
3.87866806984 0.4124366258111031 -0.1952525062877172 -1.1692174971493656 2.1175705515962817 2.050055466436567 -0.5200046160127103 1.1399895127138917
3.88868904114 0.4124366258111031 -0.1952525062877172 -1.1692174971493656 2.1175705515962817 2.050055466436567 -0.5200046160127103 1.1399895127138917
3.88868904114 0.4124366258111031 -0.1952525062877172 -1.1692174971493656 2.1175705515962817 2.050055466436567 -0.5200046160127103 1.1399895127138917
3.89869904518 0.4124366258111031 -0.1952525062877172 -1.1692174971493656 2.1175705515962817 2.050055466436567 -0.5200046160127103 1.1399895127138917
3.89869904518 0.4124366258111031 -0.1952525062877172 -1.1692174971493656 2.1175705515962817 2.050055466436567 -0.5200046160127103 1.1399895127138917
3.90873408318 0.4124366258111031 -0.1952525062877172 -1.1692174971493656 2.1175705515962817 2.050055466436567 -0.5200046160127103 1.1399895127138917
3.90873408318 0.4124366258111031 -0.1952525062877172 -1.1692174971493656 2.1175705515962817 2.050055466436567 -0.5200046160127103 1.1399895127138917
3.91866993904 0.4124366258111031 -0.1952525062877172 -1.1692174971493656 2.1175705515962817 2.050055466436567 -0.5200046160127103 1.1399895127138917
3.91866993904 0.4124366258111031 -0.1952525062877172 -1.1692174971493656 2.1175705515962817 2.050055466436567 -0.5200046160127103 1.1399895127138917
3.9285030365 0.4124366258111031 -0.1952525062877172 -1.1692174971493656 2.1175705515962817 2.050055466436567 -0.5200046160127103 1.1399895127138917
3.9285030365 0.4124366258111031 -0.1952525062877172 -1.1692174971493656 2.1175705515962817 2.050055466436567 -0.5200046160127103 1.1399895127138917
3.93862199783 0.4124366258111031 -0.1952525062877172 -1.1692174971493656 2.1175705515962817 2.050055466436567 -0.5200046160127103 1.1399895127138917
3.93862199783 0.4124366258111031 -0.1952525062877172 -1.1692174971493656 2.1175705515962817 2.050055466436567 -0.5200046160127103 1.1399895127138917
3.94853591919 0.4124366258111031 -0.1952525062877172 -1.1692174971493656 2.1175705515962817 2.050055466436567 -0.5200046160127103 1.1399895127138917
3.94853591919 0.4124366258111031 -0.1952525062877172 -1.1692174971493656 2.1175705515962817 2.050055466436567 -0.5200046160127103 1.1399895127138917
3.95863008499 0.4124366258111031 -0.1952525062877172 -1.1692174971493656 2.1175705515962817 2.050055466436567 -0.5200046160127103 1.1399895127138917
3.95863008499 0.4124366258111031 -0.1952525062877172 -1.1692174971493656 2.1175705515962817 2.050055466436567 -0.5200046160127103 1.1399895127138917
3.96865701675 0.4124366258111031 -0.1952525062877172 -1.1692174971493656 2.1175705515962817 2.050055466436567 -0.5200046160127103 1.1399895127138917
3.96865701675 0.4124366258111031 -0.1952525062877172 -1.1692174971493656 2.1175705515962817 2.050055466436567 -0.5200046160127103 1.1399895127138917
3.97870993614 0.4124366258111031 -0.1952525062877172 -1.1692174971493656 2.1175705515962817 2.050055466436567 -0.5200046160127103 1.1399895127138917
3.97870993614 0.4124366258111031 -0.1952525062877172 -1.1692174971493656 2.1175705515962817 2.050055466436567 -0.5200046160127103 1.1399895127138917
3.98870205879 0.4124366258111031 -0.1952525062877172 -1.1692174971493656 2.1175705515962817 2.050055466436567 -0.5200046160127103 1.1399895127138917
3.98870205879 0.4124366258111031 -0.1952525062877172 -1.1692174971493656 2.1175705515962817 2.050055466436567 -0.5200046160127103 1.1399895127138917
3.99866604805 0.4124366258111031 -0.1952525062877172 -1.1692174971493656 2.1175705515962817 2.050055466436567 -0.5200046160127103 1.1399895127138917
3.99866604805 0.4124366258111031 -0.1952525062877172 -1.1692174971493656 2.1175705515962817 2.050055466436567 -0.5200046160127103 1.1399895127138917
4.00867700577 0.4124366258111031 -0.1952525062877172 -1.1692174971493656 2.1175705515962817 2.050055466436567 -0.5200046160127103 1.1399895127138917
4.00867700577 0.4124366258111031 -0.1952525062877172 -1.1692174971493656 2.1175705515962817 2.050055466436567 -0.5200046160127103 1.1399895127138917
4.01844096184 0.4124366258111031 -0.1952525062877172 -1.1692174971493656 2.1175705515962817 2.050055466436567 -0.5200046160127103 1.1399895127138917
4.01844096184 0.4124366258111031 -0.1952525062877172 -1.1692174971493656 2.1175705515962817 2.050055466436567 -0.5200046160127103 1.1399895127138917
4.02861309052 0.4124366258111031 -0.1952525062877172 -1.1692174971493656 2.1175705515962817 2.050055466436567 -0.5200046160127103 1.1399895127138917
4.02861309052 0.4124366258111031 -0.1952525062877172 -1.1692174971493656 2.1175705515962817 2.050055466436567 -0.5200046160127103 1.1399895127138917
4.03863191605 0.4124366258111031 -0.1952525062877172 -1.1692174971493656 2.1175705515962817 2.050055466436567 -0.5200046160127103 1.1399895127138917
4.03863191605 0.4124366258111031 -0.1952525062877172 -1.1692174971493656 2.1175705515962817 2.050055466436567 -0.5200046160127103 1.1399895127138917
4.04850697517 0.4124366258111031 -0.1952525062877172 -1.1692174971493656 2.1175705515962817 2.050055466436567 -0.5200046160127103 1.1399895127138917
4.04850697517 0.4124366258111031 -0.1952525062877172 -1.1692174971493656 2.1175705515962817 2.050055466436567 -0.5200046160127103 1.1399895127138917
4.05866789818 0.4124366258111031 -0.1952525062877172 -1.1692174971493656 2.1175705515962817 2.050055466436567 -0.5200046160127103 1.1399895127138917
4.05866789818 0.4124366258111031 -0.1952525062877172 -1.1692174971493656 2.1175705515962817 2.050055466436567 -0.5200046160127103 1.1399895127138917
4.06869506836 0.4124366258111031 -0.1952525062877172 -1.1692174971493656 2.1175705515962817 2.050055466436567 -0.5200046160127103 1.1399895127138917
4.06869506836 0.4124366258111031 -0.1952525062877172 -1.1692174971493656 2.1175705515962817 2.050055466436567 -0.5200046160127103 1.1399895127138917
4.07854008675 0.4124366258111031 -0.1952525062877172 -1.1692174971493656 2.1175705515962817 2.050055466436567 -0.5200046160127103 1.1399895127138917
4.07854008675 0.4124366258111031 -0.1952525062877172 -1.1692174971493656 2.1175705515962817 2.050055466436567 -0.5200046160127103 1.1399895127138917
4.08869791031 0.4124366258111031 -0.1952525062877172 -1.1692174971493656 2.1175705515962817 2.050055466436567 -0.5200046160127103 1.1399895127138917
4.08869791031 0.4124366258111031 -0.1952525062877172 -1.1692174971493656 2.1175705515962817 2.050055466436567 -0.5200046160127103 1.1399895127138917
4.09867501259 0.4124366258111031 -0.1952525062877172 -1.1692174971493656 2.1175705515962817 2.050055466436567 -0.5200046160127103 1.1399895127138917
4.09867501259 0.4124366258111031 -0.1952525062877172 -1.1692174971493656 2.1175705515962817 2.050055466436567 -0.5200046160127103 1.1399895127138917
4.10855102539 0.4124366258111031 -0.1952525062877172 -1.1692174971493656 2.1175705515962817 2.050055466436567 -0.5200046160127103 1.1399895127138917
4.10855102539 0.4124366258111031 -0.1952525062877172 -1.1692174971493656 2.1175705515962817 2.050055466436567 -0.5200046160127103 1.1399895127138917
4.11861896515 0.4124366258111031 -0.1952525062877172 -1.1692174971493656 2.1175705515962817 2.050055466436567 -0.5200046160127103 1.1399895127138917
4.11861896515 0.4124366258111031 -0.1952525062877172 -1.1692174971493656 2.1175705515962817 2.050055466436567 -0.5200046160127103 1.1399895127138917
4.12870788574 0.4124366258111031 -0.1952525062877172 -1.1692174971493656 2.1175705515962817 2.050055466436567 -0.5200046160127103 1.1399895127138917
4.12870788574 0.4124366258111031 -0.1952525062877172 -1.1692174971493656 2.1175705515962817 2.050055466436567 -0.5200046160127103 1.1399895127138917
4.1384780407 0.4124366258111031 -0.1952525062877172 -1.1692174971493656 2.1175705515962817 2.050055466436567 -0.5200046160127103 1.1399895127138917
4.1384780407 0.4124366258111031 -0.1952525062877172 -1.1692174971493656 2.1175705515962817 2.050055466436567 -0.5200046160127103 1.1399895127138917
4.14865088463 0.4124366258111031 -0.1952525062877172 -1.1692174971493656 2.1175705515962817 2.050055466436567 -0.5200046160127103 1.1399895127138917
4.14865088463 0.4124366258111031 -0.1952525062877172 -1.1692174971493656 2.1175705515962817 2.050055466436567 -0.5200046160127103 1.1399895127138917
4.1586830616 0.4124366258111031 -0.1952525062877172 -1.1692174971493656 2.1175705515962817 2.050055466436567 -0.5200046160127103 1.1399895127138917
4.1586830616 0.4124366258111031 -0.1952525062877172 -1.1692174971493656 2.1175705515962817 2.050055466436567 -0.5200046160127103 1.1399895127138917
4.16871404648 0.4124366258111031 -0.1952525062877172 -1.1692174971493656 2.1175705515962817 2.050055466436567 -0.5200046160127103 1.1399895127138917
4.16871404648 0.4124366258111031 -0.1952525062877172 -1.1692174971493656 2.1175705515962817 2.050055466436567 -0.5200046160127103 1.1399895127138917
4.17864108086 0.4124366258111031 -0.1952525062877172 -1.1692174971493656 2.1175705515962817 2.050055466436567 -0.5200046160127103 1.1399895127138917
4.17864108086 0.4124366258111031 -0.1952525062877172 -1.1692174971493656 2.1175705515962817 2.050055466436567 -0.5200046160127103 1.1399895127138917
4.1886548996 0.4124366258111031 -0.1952525062877172 -1.1692174971493656 2.1175705515962817 2.050055466436567 -0.5200046160127103 1.1399895127138917
4.1886548996 0.4124366258111031 -0.1952525062877172 -1.1692174971493656 2.1175705515962817 2.050055466436567 -0.5200046160127103 1.1399895127138917
4.19866204262 0.4124366258111031 -0.1952525062877172 -1.1692174971493656 2.1175705515962817 2.050055466436567 -0.5200046160127103 1.1399895127138917
4.19866204262 0.4124366258111031 -0.1952525062877172 -1.1692174971493656 2.1175705515962817 2.050055466436567 -0.5200046160127103 1.1399895127138917
4.20866990089 0.4124366258111031 -0.1952525062877172 -1.1692174971493656 2.1175705515962817 2.050055466436567 -0.5200046160127103 1.1399895127138917
4.20866990089 0.4124366258111031 -0.1952525062877172 -1.1692174971493656 2.1175705515962817 2.050055466436567 -0.5200046160127103 1.1399895127138917
4.21866488457 0.4124366258111031 -0.1952525062877172 -1.1692174971493656 2.1175705515962817 2.050055466436567 -0.5200046160127103 1.1399895127138917
4.21866488457 0.4124366258111031 -0.1952525062877172 -1.1692174971493656 2.1175705515962817 2.050055466436567 -0.5200046160127103 1.1399895127138917
4.22847104073 0.4124366258111031 -0.1952525062877172 -1.1692174971493656 2.1175705515962817 2.050055466436567 -0.5200046160127103 1.1399895127138917
4.22847104073 0.4124366258111031 -0.1952525062877172 -1.1692174971493656 2.1175705515962817 2.050055466436567 -0.5200046160127103 1.1399895127138917
4.23864388466 0.4124366258111031 -0.1952525062877172 -1.1692174971493656 2.1175705515962817 2.050055466436567 -0.5200046160127103 1.1399895127138917
4.23864388466 0.4124366258111031 -0.1952525062877172 -1.1692174971493656 2.1175705515962817 2.050055466436567 -0.5200046160127103 1.1399895127138917
4.24870800972 0.4124366258111031 -0.1952525062877172 -1.1692174971493656 2.1175705515962817 2.050055466436567 -0.5200046160127103 1.1399895127138917
4.24870800972 0.4124366258111031 -0.1952525062877172 -1.1692174971493656 2.1175705515962817 2.050055466436567 -0.5200046160127103 1.1399895127138917
4.25851297379 0.4124366258111031 -0.1952525062877172 -1.1692174971493656 2.1175705515962817 2.050055466436567 -0.5200046160127103 1.1399895127138917
4.25851297379 0.4124366258111031 -0.1952525062877172 -1.1692174971493656 2.1175705515962817 2.050055466436567 -0.5200046160127103 1.1399895127138917
4.26828193665 0.4124366258111031 -0.1952525062877172 -1.1692174971493656 2.1175705515962817 2.050055466436567 -0.5200046160127103 1.1399895127138917
4.26828193665 0.4124366258111031 -0.1952525062877172 -1.1692174971493656 2.1175705515962817 2.050055466436567 -0.5200046160127103 1.1399895127138917
4.27833294868 0.4124366258111031 -0.1952525062877172 -1.1692174971493656 2.1175705515962817 2.050055466436567 -0.5200046160127103 1.1399895127138917
4.27833294868 0.4124366258111031 -0.1952525062877172 -1.1692174971493656 2.1175705515962817 2.050055466436567 -0.5200046160127103 1.1399895127138917
4.28848791122 0.4124366258111031 -0.1952525062877172 -1.1692174971493656 2.1175705515962817 2.050055466436567 -0.5200046160127103 1.1399895127138917
4.28848791122 0.4124366258111031 -0.1952525062877172 -1.1692174971493656 2.1175705515962817 2.050055466436567 -0.5200046160127103 1.1399895127138917
4.29859900475 0.4124366258111031 -0.1952525062877172 -1.1692174971493656 2.1175705515962817 2.050055466436567 -0.5200046160127103 1.1399895127138917
4.29859900475 0.4124366258111031 -0.1952525062877172 -1.1692174971493656 2.1175705515962817 2.050055466436567 -0.5200046160127103 1.1399895127138917
4.3086578846 0.4124366258111031 -0.1952525062877172 -1.1692174971493656 2.1175705515962817 2.050055466436567 -0.5200046160127103 1.1399895127138917
4.3086578846 0.4124366258111031 -0.1952525062877172 -1.1692174971493656 2.1175705515962817 2.050055466436567 -0.5200046160127103 1.1399895127138917
4.31870293617 0.4124366258111031 -0.1952525062877172 -1.1692174971493656 2.1175705515962817 2.050055466436567 -0.5200046160127103 1.1399895127138917
4.31870293617 0.4124366258111031 -0.1952525062877172 -1.1692174971493656 2.1175705515962817 2.050055466436567 -0.5200046160127103 1.1399895127138917
4.32846307755 0.4124366258111031 -0.1952525062877172 -1.1692174971493656 2.1175705515962817 2.050055466436567 -0.5200046160127103 1.1399895127138917
4.32846307755 0.4124366258111031 -0.1952525062877172 -1.1692174971493656 2.1175705515962817 2.050055466436567 -0.5200046160127103 1.1399895127138917
4.33865308762 0.4124366258111031 -0.1952525062877172 -1.1692174971493656 2.1175705515962817 2.050055466436567 -0.5200046160127103 1.1399895127138917
4.33865308762 0.4124366258111031 -0.1952525062877172 -1.1692174971493656 2.1175705515962817 2.050055466436567 -0.5200046160127103 1.1399895127138917
4.3486828804 0.4124366258111031 -0.1952525062877172 -1.1692174971493656 2.1175705515962817 2.050055466436567 -0.5200046160127103 1.1399895127138917
4.3486828804 0.4124366258111031 -0.1952525062877172 -1.1692174971493656 2.1175705515962817 2.050055466436567 -0.5200046160127103 1.1399895127138917
4.35842990875 0.4124366258111031 -0.1952525062877172 -1.1692174971493656 2.1175705515962817 2.050055466436567 -0.5200046160127103 1.1399895127138917
4.35842990875 0.4124366258111031 -0.1952525062877172 -1.1692174971493656 2.1175705515962817 2.050055466436567 -0.5200046160127103 1.1399895127138917
4.36867403984 0.4124366258111031 -0.1952525062877172 -1.1692174971493656 2.1175705515962817 2.050055466436567 -0.5200046160127103 1.1399895127138917
4.36867403984 0.4124366258111031 -0.1952525062877172 -1.1692174971493656 2.1175705515962817 2.050055466436567 -0.5200046160127103 1.1399895127138917
4.37866306305 0.4124366258111031 -0.1952525062877172 -1.1692174971493656 2.1175705515962817 2.050055466436567 -0.5200046160127103 1.1399895127138917
4.37866306305 0.4124366258111031 -0.1952525062877172 -1.1692174971493656 2.1175705515962817 2.050055466436567 -0.5200046160127103 1.1399895127138917
4.38842797279 0.4124366258111031 -0.1952525062877172 -1.1692174971493656 2.1175705515962817 2.050055466436567 -0.5200046160127103 1.1399895127138917
4.38842797279 0.4124366258111031 -0.1952525062877172 -1.1692174971493656 2.1175705515962817 2.050055466436567 -0.5200046160127103 1.1399895127138917
