riccardo-csl/Motion-Planning-for-TIAGo-Manipulator/T3_G_7/head_scan/head_scan/tiago_traiettorie_SG/2a-1b/place_1b_rep2.txt
time arm_1_joint arm_2_joint arm_3_joint arm_4_joint arm_5_joint arm_6_joint arm_7_joint
1.34311795235 0.3836280844927826 -0.0898973083248707 -1.0537072116717543 2.1482352342881468 2.050055466436567 -0.5200046160127103 1.1399895127138917
1.35311198235 0.3836280844927826 -0.0898973083248707 -1.0537072116717543 2.1482352342881468 2.050055466436567 -0.5200046160127103 1.1399895127138917
1.35311198235 0.3836280844927826 -0.0898973083248707 -1.0537072116717543 2.1482352342881468 2.050055466436567 -0.5200046160127103 1.1399895127138917
1.36345386505 0.3836280844927826 -0.0898973083248707 -1.0537072116717543 2.1482352342881468 2.050055466436567 -0.5200046160127103 1.1399895127138917
1.36345386505 0.3836280844927826 -0.0898973083248707 -1.0537072116717543 2.1482352342881468 2.050055466436567 -0.5200046160127103 1.1399895127138917
1.37349796295 0.3836280844927826 -0.0898973083248707 -1.0537072116717543 2.1482352342881468 2.050055466436567 -0.5200046160127103 1.1399895127138917
1.37349796295 0.3836280844927826 -0.0898973083248707 -1.0537072116717543 2.1482352342881468 2.050055466436567 -0.5200046160127103 1.1399895127138917
1.38698601723 0.3836280844927826 -0.0898973083248707 -1.0546122723414992 2.1482045542654435 2.050055466436567 -0.5200046160127103 1.1399895127138917
1.38698601723 0.3836280844927826 -0.0898973083248707 -1.0546122723414992 2.1482045542654435 2.050055466436567 -0.5200046160127103 1.1399895127138917
1.39302992821 0.3836280844927826 -0.0898973083248707 -1.0546122723414992 2.1482045542654435 2.050055466436567 -0.5200046160127103 1.1399895127138917
1.39302992821 0.3836280844927826 -0.0898973083248707 -1.0546122723414992 2.1482045542654435 2.050055466436567 -0.5200046160127103 1.1399895127138917
1.40301799774 0.3836280844927826 -0.0898973083248707 -1.0546122723414992 2.1482045542654435 2.050055466436567 -0.5200046160127103 1.1399895127138917
1.40301799774 0.3836280844927826 -0.0898973083248707 -1.0546122723414992 2.1482045542654435 2.050055466436567 -0.5200046160127103 1.1399895127138917
1.41326189041 0.3836280844927826 -0.0898973083248707 -1.0546122723414992 2.1482045542654435 2.050055466436567 -0.5200046160127103 1.1399895127138917
1.41326189041 0.3836280844927826 -0.0898973083248707 -1.0546122723414992 2.1482045542654435 2.050055466436567 -0.5200046160127103 1.1399895127138917
1.42339992523 0.3836280844927826 -0.0898973083248707 -1.0546122723414992 2.1482045542654435 2.050055466436567 -0.5200046160127103 1.1399895127138917
1.42339992523 0.3836280844927826 -0.0898973083248707 -1.0546122723414992 2.1482045542654435 2.050055466436567 -0.5200046160127103 1.1399895127138917
1.43348789215 0.3836280844927826 -0.0898973083248707 -1.0546122723414992 2.1482045542654435 2.050055466436567 -0.5200046160127103 1.1399895127138917
1.43348789215 0.3836280844927826 -0.0898973083248707 -1.0546122723414992 2.1482045542654435 2.050055466436567 -0.5200046160127103 1.1399895127138917
1.4435338974 0.3836280844927826 -0.0898973083248707 -1.0546122723414992 2.1482045542654435 2.050055466436567 -0.5200046160127103 1.1399895127138917
1.4435338974 0.3836280844927826 -0.0898973083248707 -1.0546122723414992 2.1482045542654435 2.050055466436567 -0.5200046160127103 1.1399895127138917
1.4534599781 0.3836280844927826 -0.0898973083248707 -1.0546122723414992 2.1482045542654435 2.050055466436567 -0.5200046160127103 1.1399895127138917
1.4534599781 0.3836280844927826 -0.0898973083248707 -1.0546122723414992 2.1482045542654435 2.050055466436567 -0.5200046160127103 1.1399895127138917
1.46314501762 0.3836280844927826 -0.0898973083248707 -1.0546122723414992 2.1482045542654435 2.050055466436567 -0.5200046160127103 1.1399895127138917
1.46314501762 0.3836280844927826 -0.0898973083248707 -1.0546122723414992 2.1482045542654435 2.050055466436567 -0.5200046160127103 1.1399895127138917
1.47320604324 0.3836280844927826 -0.0898973083248707 -1.0546122723414992 2.1482045542654435 2.050055466436567 -0.5200046160127103 1.1399895127138917
1.47320604324 0.3836280844927826 -0.0898973083248707 -1.0546122723414992 2.1482045542654435 2.050055466436567 -0.5200046160127103 1.1399895127138917
1.48345398903 0.3836280844927826 -0.0898973083248707 -1.0546122723414992 2.1482045542654435 2.050055466436567 -0.5200046160127103 1.1399895127138917
1.48345398903 0.3836280844927826 -0.0898973083248707 -1.0546122723414992 2.1482045542654435 2.050055466436567 -0.5200046160127103 1.1399895127138917
1.49347805977 0.3836280844927826 -0.0898973083248707 -1.0546122723414992 2.1482045542654435 2.050055466436567 -0.5200046160127103 1.1399895127138917
1.49347805977 0.3836280844927826 -0.0898973083248707 -1.0546122723414992 2.1482045542654435 2.050055466436567 -0.5200046160127103 1.1399895127138917
1.50354194641 0.3836280844927826 -0.0898973083248707 -1.0546122723414992 2.1482045542654435 2.050055466436567 -0.5200046160127103 1.1399895127138917
1.50354194641 0.3836280844927826 -0.0898973083248707 -1.0546122723414992 2.1482045542654435 2.050055466436567 -0.5200046160127103 1.1399895127138917
1.5135140419 0.3836280844927826 -0.0898973083248707 -1.0546122723414992 2.1482045542654435 2.050055466436567 -0.5200046160127103 1.1399895127138917
1.5135140419 0.3836280844927826 -0.0898973083248707 -1.0546122723414992 2.1482045542654435 2.050055466436567 -0.5200046160127103 1.1399895127138917
1.52344107628 0.3836280844927826 -0.0898973083248707 -1.0546122723414992 2.1482045542654435 2.050055466436567 -0.5200046160127103 1.1399895127138917
1.52344107628 0.3836280844927826 -0.0898973083248707 -1.0546122723414992 2.1482045542654435 2.050055466436567 -0.5200046160127103 1.1399895127138917
1.53347206116 0.3836280844927826 -0.0898973083248707 -1.0546122723414992 2.1482045542654435 2.050055466436567 -0.5200046160127103 1.1399895127138917
1.53347206116 0.3836280844927826 -0.0898973083248707 -1.0546122723414992 2.1482045542654435 2.050055466436567 -0.5200046160127103 1.1399895127138917
1.54349994659 0.3836280844927826 -0.0898973083248707 -1.0546122723414992 2.1482045542654435 2.050055466436567 -0.5200046160127103 1.1399895127138917
1.54349994659 0.3836280844927826 -0.0898973083248707 -1.0546122723414992 2.1482045542654435 2.050055466436567 -0.5200046160127103 1.1399895127138917
1.55349302292 0.3836280844927826 -0.0898973083248707 -1.0546122723414992 2.1482045542654435 2.050055466436567 -0.5200046160127103 1.1399895127138917
1.55349302292 0.3836280844927826 -0.0898973083248707 -1.0546122723414992 2.1482045542654435 2.050055466436567 -0.5200046160127103 1.1399895127138917
1.56355690956 0.3836280844927826 -0.0898973083248707 -1.0546122723414992 2.1482045542654435 2.050055466436567 -0.5200046160127103 1.1399895127138917
1.56355690956 0.3836280844927826 -0.0898973083248707 -1.0546122723414992 2.1482045542654435 2.050055466436567 -0.5200046160127103 1.1399895127138917
1.5735669136 0.3836280844927826 -0.0898973083248707 -1.0546122723414992 2.1482045542654435 2.050055466436567 -0.5200046160127103 1.1399895127138917
1.5735669136 0.3836280844927826 -0.0898973083248707 -1.0546122723414992 2.1482045542654435 2.050055466436567 -0.5200046160127103 1.1399895127138917
1.58348488808 0.3836280844927826 -0.0898973083248707 -1.0546122723414992 2.1482045542654435 2.050055466436567 -0.5200046160127103 1.1399895127138917
1.58348488808 0.3836280844927826 -0.0898973083248707 -1.0546122723414992 2.1482045542654435 2.050055466436567 -0.5200046160127103 1.1399895127138917
1.59348607063 0.3836280844927826 -0.0898973083248707 -1.0546122723414992 2.1482045542654435 2.050055466436567 -0.5200046160127103 1.1399895127138917
1.59348607063 0.3836280844927826 -0.0898973083248707 -1.0546122723414992 2.1482045542654435 2.050055466436567 -0.5200046160127103 1.1399895127138917
1.60353899002 0.3836280844927826 -0.0898973083248707 -1.0546122723414992 2.1482045542654435 2.050055466436567 -0.5200046160127103 1.1399895127138917
1.60353899002 0.3836280844927826 -0.0898973083248707 -1.0546122723414992 2.1482045542654435 2.050055466436567 -0.5200046160127103 1.1399895127138917
1.6134929657 0.3836280844927826 -0.0898973083248707 -1.0546122723414992 2.1482045542654435 2.050055466436567 -0.5200046160127103 1.1399895127138917
1.6134929657 0.3836280844927826 -0.0898973083248707 -1.0546122723414992 2.1482045542654435 2.050055466436567 -0.5200046160127103 1.1399895127138917
1.6235370636 0.3836280844927826 -0.0898973083248707 -1.0546122723414992 2.1482045542654435 2.050055466436567 -0.5200046160127103 1.1399895127138917
1.6235370636 0.3836280844927826 -0.0898973083248707 -1.0546122723414992 2.1482045542654435 2.050055466436567 -0.5200046160127103 1.1399895127138917
1.63350296021 0.3836280844927826 -0.0898973083248707 -1.0546122723414992 2.1482045542654435 2.050055466436567 -0.5200046160127103 1.1399895127138917
1.63350296021 0.3836280844927826 -0.0898973083248707 -1.0546122723414992 2.1482045542654435 2.050055466436567 -0.5200046160127103 1.1399895127138917
1.64351892471 0.3836280844927826 -0.0898973083248707 -1.0546122723414992 2.1482045542654435 2.050055466436567 -0.5200046160127103 1.1399895127138917
1.64351892471 0.3836280844927826 -0.0898973083248707 -1.0546122723414992 2.1482045542654435 2.050055466436567 -0.5200046160127103 1.1399895127138917
1.65349888802 0.3836280844927826 -0.0898973083248707 -1.0546122723414992 2.1482045542654435 2.050055466436567 -0.5200046160127103 1.1399895127138917
1.65349888802 0.3836280844927826 -0.0898973083248707 -1.0546122723414992 2.1482045542654435 2.050055466436567 -0.5200046160127103 1.1399895127138917
1.66329908371 0.3836280844927826 -0.0898973083248707 -1.0546122723414992 2.1482045542654435 2.050055466436567 -0.5200046160127103 1.1399895127138917
1.66329908371 0.3836280844927826 -0.0898973083248707 -1.0546122723414992 2.1482045542654435 2.050055466436567 -0.5200046160127103 1.1399895127138917
1.67350792885 0.3836280844927826 -0.0898973083248707 -1.0546122723414992 2.1482045542654435 2.050055466436567 -0.5200046160127103 1.1399895127138917
1.67350792885 0.3836280844927826 -0.0898973083248707 -1.0546122723414992 2.1482045542654435 2.050055466436567 -0.5200046160127103 1.1399895127138917
1.68351602554 0.3836280844927826 -0.0898973083248707 -1.0546122723414992 2.1482045542654435 2.050055466436567 -0.5200046160127103 1.1399895127138917
1.68351602554 0.3836280844927826 -0.0898973083248707 -1.0546122723414992 2.1482045542654435 2.050055466436567 -0.5200046160127103 1.1399895127138917
1.69357204437 0.3836280844927826 -0.0898973083248707 -1.0546122723414992 2.1482045542654435 2.050055466436567 -0.5200046160127103 1.1399895127138917
1.69357204437 0.3836280844927826 -0.0898973083248707 -1.0546122723414992 2.1482045542654435 2.050055466436567 -0.5200046160127103 1.1399895127138917
1.70353889465 0.3836280844927826 -0.0898973083248707 -1.0546122723414992 2.1482045542654435 2.050055466436567 -0.5200046160127103 1.1399895127138917
1.70353889465 0.3836280844927826 -0.0898973083248707 -1.0546122723414992 2.1482045542654435 2.050055466436567 -0.5200046160127103 1.1399895127138917
1.7135310173 0.3836280844927826 -0.0898973083248707 -1.0546122723414992 2.1482045542654435 2.050055466436567 -0.5200046160127103 1.1399895127138917
1.7135310173 0.3836280844927826 -0.0898973083248707 -1.0546122723414992 2.1482045542654435 2.050055466436567 -0.5200046160127103 1.1399895127138917
1.72333097458 0.3836280844927826 -0.0898973083248707 -1.0546122723414992 2.1482045542654435 2.050055466436567 -0.5200046160127103 1.1399895127138917
1.72333097458 0.3836280844927826 -0.0898973083248707 -1.0546122723414992 2.1482045542654435 2.050055466436567 -0.5200046160127103 1.1399895127138917
1.73352098465 0.3836280844927826 -0.0898973083248707 -1.0546122723414992 2.1482045542654435 2.050055466436567 -0.5200046160127103 1.1399895127138917
1.73352098465 0.3836280844927826 -0.0898973083248707 -1.0546122723414992 2.1482045542654435 2.050055466436567 -0.5200046160127103 1.1399895127138917
1.74345493317 0.3836280844927826 -0.0898973083248707 -1.0546122723414992 2.1482045542654435 2.050055466436567 -0.5200046160127103 1.1399895127138917
1.74345493317 0.3836280844927826 -0.0898973083248707 -1.0546122723414992 2.1482045542654435 2.050055466436567 -0.5200046160127103 1.1399895127138917
1.7534558773 0.3836280844927826 -0.0898973083248707 -1.0546122723414992 2.1482045542654435 2.050055466436567 -0.5200046160127103 1.1399895127138917
1.7534558773 0.3836280844927826 -0.0898973083248707 -1.0546122723414992 2.1482045542654435 2.050055466436567 -0.5200046160127103 1.1399895127138917
1.76353001595 0.3836280844927826 -0.0898973083248707 -1.0546122723414992 2.1482045542654435 2.050055466436567 -0.5200046160127103 1.1399895127138917
1.76353001595 0.3836280844927826 -0.0898973083248707 -1.0546122723414992 2.1482045542654435 2.050055466436567 -0.5200046160127103 1.1399895127138917
1.77355599403 0.3836280844927826 -0.0898973083248707 -1.0546122723414992 2.1482045542654435 2.050055466436567 -0.5200046160127103 1.1399895127138917
1.77355599403 0.3836280844927826 -0.0898973083248707 -1.0546122723414992 2.1482045542654435 2.050055466436567 -0.5200046160127103 1.1399895127138917
1.78349995613 0.3836280844927826 -0.0898973083248707 -1.0546122723414992 2.1482045542654435 2.050055466436567 -0.5200046160127103 1.1399895127138917
1.78349995613 0.3836280844927826 -0.0898973083248707 -1.0546122723414992 2.1482045542654435 2.050055466436567 -0.5200046160127103 1.1399895127138917
1.79355406761 0.3836280844927826 -0.0898973083248707 -1.0546122723414992 2.1482045542654435 2.050055466436567 -0.5200046160127103 1.1399895127138917
1.79355406761 0.3836280844927826 -0.0898973083248707 -1.0546122723414992 2.1482045542654435 2.050055466436567 -0.5200046160127103 1.1399895127138917
1.80351686478 0.3836280844927826 -0.0898973083248707 -1.0546122723414992 2.1482045542654435 2.050055466436567 -0.5200046160127103 1.1399895127138917
1.80351686478 0.3836280844927826 -0.0898973083248707 -1.0546122723414992 2.1482045542654435 2.050055466436567 -0.5200046160127103 1.1399895127138917
1.81347894669 0.3836280844927826 -0.0898973083248707 -1.0546122723414992 2.1482045542654435 2.050055466436567 -0.5200046160127103 1.1399895127138917
1.81347894669 0.3836280844927826 -0.0898973083248707 -1.0546122723414992 2.1482045542654435 2.050055466436567 -0.5200046160127103 1.1399895127138917
1.82352805138 0.3836280844927826 -0.0898973083248707 -1.0546122723414992 2.1482045542654435 2.050055466436567 -0.5200046160127103 1.1399895127138917
1.82352805138 0.3836280844927826 -0.0898973083248707 -1.0546122723414992 2.1482045542654435 2.050055466436567 -0.5200046160127103 1.1399895127138917
1.83351492882 0.3836280844927826 -0.0898973083248707 -1.0546122723414992 2.1482045542654435 2.050055466436567 -0.5200046160127103 1.1399895127138917
1.83351492882 0.3836280844927826 -0.0898973083248707 -1.0546122723414992 2.1482045542654435 2.050055466436567 -0.5200046160127103 1.1399895127138917
1.84357786179 0.3836280844927826 -0.0898973083248707 -1.0546122723414992 2.1482045542654435 2.050055466436567 -0.5200046160127103 1.1399895127138917
1.84357786179 0.3836280844927826 -0.0898973083248707 -1.0546122723414992 2.1482045542654435 2.050055466436567 -0.5200046160127103 1.1399895127138917
1.8535130024 0.3836280844927826 -0.0898973083248707 -1.0546122723414992 2.1482045542654435 2.050055466436567 -0.5200046160127103 1.1399895127138917
1.8535130024 0.3836280844927826 -0.0898973083248707 -1.0546122723414992 2.1482045542654435 2.050055466436567 -0.5200046160127103 1.1399895127138917
1.86347293854 0.3836280844927826 -0.0898973083248707 -1.0546122723414992 2.1482045542654435 2.050055466436567 -0.5200046160127103 1.1399895127138917
1.86347293854 0.3836280844927826 -0.0898973083248707 -1.0546122723414992 2.1482045542654435 2.050055466436567 -0.5200046160127103 1.1399895127138917
1.87339997292 0.3836280844927826 -0.0898973083248707 -1.0546122723414992 2.1482045542654435 2.050055466436567 -0.5200046160127103 1.1399895127138917
1.87339997292 0.3836280844927826 -0.0898973083248707 -1.0546122723414992 2.1482045542654435 2.050055466436567 -0.5200046160127103 1.1399895127138917
1.88340091705 0.3836280844927826 -0.0898973083248707 -1.0546122723414992 2.1482045542654435 2.050055466436567 -0.5200046160127103 1.1399895127138917
1.88340091705 0.3836280844927826 -0.0898973083248707 -1.0546122723414992 2.1482045542654435 2.050055466436567 -0.5200046160127103 1.1399895127138917
1.89340806007 0.3836280844927826 -0.0898973083248707 -1.0546122723414992 2.1482045542654435 2.050055466436567 -0.5200046160127103 1.1399895127138917
1.89340806007 0.3836280844927826 -0.0898973083248707 -1.0546122723414992 2.1482045542654435 2.050055466436567 -0.5200046160127103 1.1399895127138917
1.90304207802 0.3836280844927826 -0.0898973083248707 -1.0546122723414992 2.1482045542654435 2.050055466436567 -0.5200046160127103 1.1399895127138917
1.90304207802 0.3836280844927826 -0.0898973083248707 -1.0546122723414992 2.1482045542654435 2.050055466436567 -0.5200046160127103 1.1399895127138917
1.91312098503 0.3836280844927826 -0.0898973083248707 -1.0546122723414992 2.1482045542654435 2.050055466436567 -0.5200046160127103 1.1399895127138917
1.91312098503 0.3836280844927826 -0.0898973083248707 -1.0546122723414992 2.1482045542654435 2.050055466436567 -0.5200046160127103 1.1399895127138917
1.92305707932 0.3836280844927826 -0.0898973083248707 -1.0546122723414992 2.1482045542654435 2.050055466436567 -0.5200046160127103 1.1399895127138917
1.92305707932 0.3836280844927826 -0.0898973083248707 -1.0546122723414992 2.1482045542654435 2.050055466436567 -0.5200046160127103 1.1399895127138917
1.93339896202 0.3836280844927826 -0.0898973083248707 -1.0546122723414992 2.1482045542654435 2.050055466436567 -0.5200046160127103 1.1399895127138917
1.93339896202 0.3836280844927826 -0.0898973083248707 -1.0546122723414992 2.1482045542654435 2.050055466436567 -0.5200046160127103 1.1399895127138917
1.94349193573 0.3836280844927826 -0.0898973083248707 -1.0546122723414992 2.1482045542654435 2.050055466436567 -0.5200046160127103 1.1399895127138917
1.94349193573 0.3836280844927826 -0.0898973083248707 -1.0546122723414992 2.1482045542654435 2.050055466436567 -0.5200046160127103 1.1399895127138917
1.95348501205 0.3836280844927826 -0.0898973083248707 -1.0546122723414992 2.1482045542654435 2.050055466436567 -0.5200046160127103 1.1399895127138917
1.95348501205 0.3836280844927826 -0.0898973083248707 -1.0546122723414992 2.1482045542654435 2.050055466436567 -0.5200046160127103 1.1399895127138917
1.9634950161 0.3836280844927826 -0.0898973083248707 -1.0546122723414992 2.1482045542654435 2.050055466436567 -0.5200046160127103 1.1399895127138917
1.9634950161 0.3836280844927826 -0.0898973083248707 -1.0546122723414992 2.1482045542654435 2.050055466436567 -0.5200046160127103 1.1399895127138917
1.97348308563 0.3836280844927826 -0.0898973083248707 -1.0546122723414992 2.1482045542654435 2.050055466436567 -0.5200046160127103 1.1399895127138917
1.97348308563 0.3836280844927826 -0.0898973083248707 -1.0546122723414992 2.1482045542654435 2.050055466436567 -0.5200046160127103 1.1399895127138917
1.98350286484 0.3836280844927826 -0.0898973083248707 -1.0546122723414992 2.1482045542654435 2.050055466436567 -0.5200046160127103 1.1399895127138917
1.98350286484 0.3836280844927826 -0.0898973083248707 -1.0546122723414992 2.1482045542654435 2.050055466436567 -0.5200046160127103 1.1399895127138917
1.99336886406 0.3836280844927826 -0.0898973083248707 -1.0546122723414992 2.1482045542654435 2.050055466436567 -0.5200046160127103 1.1399895127138917
1.99336886406 0.3836280844927826 -0.0898973083248707 -1.0546122723414992 2.1482045542654435 2.050055466436567 -0.5200046160127103 1.1399895127138917
2.003469944 0.3836280844927826 -0.0898973083248707 -1.0546122723414992 2.1482045542654435 2.050055466436567 -0.5200046160127103 1.1399895127138917
2.003469944 0.3836280844927826 -0.0898973083248707 -1.0546122723414992 2.1482045542654435 2.050055466436567 -0.5200046160127103 1.1399895127138917
2.01331400871 0.3836280844927826 -0.0898973083248707 -1.0546122723414992 2.1482045542654435 2.050055466436567 -0.5200046160127103 1.1399895127138917
2.01331400871 0.3836280844927826 -0.0898973083248707 -1.0546122723414992 2.1482045542654435 2.050055466436567 -0.5200046160127103 1.1399895127138917
2.02346992493 0.3836280844927826 -0.0898973083248707 -1.0546122723414992 2.1482045542654435 2.050055466436567 -0.5200046160127103 1.1399895127138917
2.02346992493 0.3836280844927826 -0.0898973083248707 -1.0546122723414992 2.1482045542654435 2.050055466436567 -0.5200046160127103 1.1399895127138917
2.03350400925 0.3836280844927826 -0.0898973083248707 -1.0546122723414992 2.1482045542654435 2.050055466436567 -0.5200046160127103 1.1399895127138917
2.03350400925 0.3836280844927826 -0.0898973083248707 -1.0546122723414992 2.1482045542654435 2.050055466436567 -0.5200046160127103 1.1399895127138917
2.04345798492 0.3836280844927826 -0.0898973083248707 -1.0546122723414992 2.1482045542654435 2.050055466436567 -0.5200046160127103 1.1399895127138917
2.04345798492 0.3836280844927826 -0.0898973083248707 -1.0546122723414992 2.1482045542654435 2.050055466436567 -0.5200046160127103 1.1399895127138917
2.05351686478 0.3836280844927826 -0.0898973083248707 -1.0546122723414992 2.1482045542654435 2.050055466436567 -0.5200046160127103 1.1399895127138917
2.05351686478 0.3836280844927826 -0.0898973083248707 -1.0546122723414992 2.1482045542654435 2.050055466436567 -0.5200046160127103 1.1399895127138917
2.06333398819 0.3836280844927826 -0.0898973083248707 -1.0546122723414992 2.1482045542654435 2.050055466436567 -0.5200046160127103 1.1399895127138917
2.06333398819 0.3836280844927826 -0.0898973083248707 -1.0546122723414992 2.1482045542654435 2.050055466436567 -0.5200046160127103 1.1399895127138917
2.07348895073 0.3836280844927826 -0.0898973083248707 -1.0546122723414992 2.1482045542654435 2.050055466436567 -0.5200046160127103 1.1399895127138917
2.07348895073 0.3836280844927826 -0.0898973083248707 -1.0546122723414992 2.1482045542654435 2.050055466436567 -0.5200046160127103 1.1399895127138917
2.08350396156 0.3836280844927826 -0.0898973083248707 -1.0546122723414992 2.1482045542654435 2.050055466436567 -0.5200046160127103 1.1399895127138917
2.08350396156 0.3836280844927826 -0.0898973083248707 -1.0546122723414992 2.1482045542654435 2.050055466436567 -0.5200046160127103 1.1399895127138917
2.09341907501 0.3836280844927826 -0.0898973083248707 -1.0546122723414992 2.1482045542654435 2.050055466436567 -0.5200046160127103 1.1399895127138917
2.09341907501 0.3836280844927826 -0.0898973083248707 -1.0546122723414992 2.1482045542654435 2.050055466436567 -0.5200046160127103 1.1399895127138917
2.103484869 0.3836280844927826 -0.0898973083248707 -1.0546122723414992 2.1482045542654435 2.050055466436567 -0.5200046160127103 1.1399895127138917
2.103484869 0.3836280844927826 -0.0898973083248707 -1.0546122723414992 2.1482045542654435 2.050055466436567 -0.5200046160127103 1.1399895127138917
2.11347389221 0.3836280844927826 -0.0898973083248707 -1.0546122723414992 2.1482045542654435 2.050055466436567 -0.5200046160127103 1.1399895127138917
2.11347389221 0.3836280844927826 -0.0898973083248707 -1.0546122723414992 2.1482045542654435 2.050055466436567 -0.5200046160127103 1.1399895127138917
2.12343001366 0.3836280844927826 -0.0898973083248707 -1.0546122723414992 2.1482045542654435 2.050055466436567 -0.5200046160127103 1.1399895127138917
2.12343001366 0.3836280844927826 -0.0898973083248707 -1.0546122723414992 2.1482045542654435 2.050055466436567 -0.5200046160127103 1.1399895127138917
2.13348889351 0.3836280844927826 -0.0898973083248707 -1.0546122723414992 2.1482045542654435 2.050055466436567 -0.5200046160127103 1.1399895127138917
2.13348889351 0.3836280844927826 -0.0898973083248707 -1.0546122723414992 2.1482045542654435 2.050055466436567 -0.5200046160127103 1.1399895127138917
2.14348292351 0.3836280844927826 -0.0898973083248707 -1.0546122723414992 2.1482045542654435 2.050055466436567 -0.5200046160127103 1.1399895127138917
2.14348292351 0.3836280844927826 -0.0898973083248707 -1.0546122723414992 2.1482045542654435 2.050055466436567 -0.5200046160127103 1.1399895127138917
2.15351986885 0.3836280844927826 -0.0898973083248707 -1.0546122723414992 2.1482045542654435 2.050055466436567 -0.5200046160127103 1.1399895127138917
2.15351986885 0.3836280844927826 -0.0898973083248707 -1.0546122723414992 2.1482045542654435 2.050055466436567 -0.5200046160127103 1.1399895127138917
2.16351008415 0.3836280844927826 -0.0898973083248707 -1.0546122723414992 2.1482045542654435 2.050055466436567 -0.5200046160127103 1.1399895127138917
2.16351008415 0.3836280844927826 -0.0898973083248707 -1.0546122723414992 2.1482045542654435 2.050055466436567 -0.5200046160127103 1.1399895127138917
2.17353105545 0.3836280844927826 -0.0898973083248707 -1.0546122723414992 2.1482045542654435 2.050055466436567 -0.5200046160127103 1.1399895127138917
2.17353105545 0.3836280844927826 -0.0898973083248707 -1.0546122723414992 2.1482045542654435 2.050055466436567 -0.5200046160127103 1.1399895127138917
2.18359303474 0.3836280844927826 -0.0898973083248707 -1.0546122723414992 2.1482045542654435 2.050055466436567 -0.5200046160127103 1.1399895127138917
2.18359303474 0.3836280844927826 -0.0898973083248707 -1.0546122723414992 2.1482045542654435 2.050055466436567 -0.5200046160127103 1.1399895127138917
2.19336009026 0.3836280844927826 -0.0898973083248707 -1.0546122723414992 2.1482045542654435 2.050055466436567 -0.5200046160127103 1.1399895127138917
2.19336009026 0.3836280844927826 -0.0898973083248707 -1.0546122723414992 2.1482045542654435 2.050055466436567 -0.5200046160127103 1.1399895127138917
2.20357894897 0.3836280844927826 -0.0898973083248707 -1.0546122723414992 2.1482045542654435 2.050055466436567 -0.5200046160127103 1.1399895127138917
2.20357894897 0.3836280844927826 -0.0898973083248707 -1.0546122723414992 2.1482045542654435 2.050055466436567 -0.5200046160127103 1.1399895127138917
2.21335697174 0.3836280844927826 -0.0898973083248707 -1.0546122723414992 2.1482045542654435 2.050055466436567 -0.5200046160127103 1.1399895127138917
2.21335697174 0.3836280844927826 -0.0898973083248707 -1.0546122723414992 2.1482045542654435 2.050055466436567 -0.5200046160127103 1.1399895127138917
2.22355508804 0.3836280844927826 -0.0898973083248707 -1.0546122723414992 2.1482045542654435 2.050055466436567 -0.5200046160127103 1.1399895127138917
2.22355508804 0.3836280844927826 -0.0898973083248707 -1.0546122723414992 2.1482045542654435 2.050055466436567 -0.5200046160127103 1.1399895127138917
2.23345804214 0.3836280844927826 -0.0898973083248707 -1.0546122723414992 2.1482045542654435 2.050055466436567 -0.5200046160127103 1.1399895127138917
2.23345804214 0.3836280844927826 -0.0898973083248707 -1.0546122723414992 2.1482045542654435 2.050055466436567 -0.5200046160127103 1.1399895127138917
2.24348187447 0.3836280844927826 -0.0898973083248707 -1.0546122723414992 2.1482045542654435 2.050055466436567 -0.5200046160127103 1.1399895127138917
2.24348187447 0.3836280844927826 -0.0898973083248707 -1.0546122723414992 2.1482045542654435 2.050055466436567 -0.5200046160127103 1.1399895127138917
2.25355100632 0.3836280844927826 -0.0898973083248707 -1.0546122723414992 2.1482045542654435 2.050055466436567 -0.5200046160127103 1.1399895127138917
2.25355100632 0.3836280844927826 -0.0898973083248707 -1.0546122723414992 2.1482045542654435 2.050055466436567 -0.5200046160127103 1.1399895127138917
2.26351094246 0.3836280844927826 -0.0898973083248707 -1.0546122723414992 2.1482045542654435 2.050055466436567 -0.5200046160127103 1.1399895127138917
2.26351094246 0.3836280844927826 -0.0898973083248707 -1.0546122723414992 2.1482045542654435 2.050055466436567 -0.5200046160127103 1.1399895127138917
2.27346801758 0.3836280844927826 -0.0898973083248707 -1.0546122723414992 2.1482045542654435 2.050055466436567 -0.5200046160127103 1.1399895127138917
2.27346801758 0.3836280844927826 -0.0898973083248707 -1.0546122723414992 2.1482045542654435 2.050055466436567 -0.5200046160127103 1.1399895127138917
2.28328800201 0.3836280844927826 -0.0898973083248707 -1.0546122723414992 2.1482045542654435 2.050055466436567 -0.5200046160127103 1.1399895127138917
2.28328800201 0.3836280844927826 -0.0898973083248707 -1.0546122723414992 2.1482045542654435 2.050055466436567 -0.5200046160127103 1.1399895127138917
2.29346609116 0.3836280844927826 -0.0898973083248707 -1.0546122723414992 2.1482045542654435 2.050055466436567 -0.5200046160127103 1.1399895127138917
2.29346609116 0.3836280844927826 -0.0898973083248707 -1.0546122723414992 2.1482045542654435 2.050055466436567 -0.5200046160127103 1.1399895127138917
2.30331301689 0.3836280844927826 -0.0898973083248707 -1.0546122723414992 2.1482045542654435 2.050055466436567 -0.5200046160127103 1.1399895127138917
2.30331301689 0.3836280844927826 -0.0898973083248707 -1.0546122723414992 2.1482045542654435 2.050055466436567 -0.5200046160127103 1.1399895127138917
2.31322193146 0.3836280844927826 -0.0898973083248707 -1.0546122723414992 2.1482045542654435 2.050055466436567 -0.5200046160127103 1.1399895127138917
2.31322193146 0.3836280844927826 -0.0898973083248707 -1.0546122723414992 2.1482045542654435 2.050055466436567 -0.5200046160127103 1.1399895127138917
2.32325005531 0.3836280844927826 -0.0898973083248707 -1.0546122723414992 2.1482045542654435 2.050055466436567 -0.5200046160127103 1.1399895127138917
2.32325005531 0.3836280844927826 -0.0898973083248707 -1.0546122723414992 2.1482045542654435 2.050055466436567 -0.5200046160127103 1.1399895127138917
2.33345603943 0.3836280844927826 -0.0898973083248707 -1.0546122723414992 2.1482045542654435 2.050055466436567 -0.5200046160127103 1.1399895127138917
2.33345603943 0.3836280844927826 -0.0898973083248707 -1.0546122723414992 2.1482045542654435 2.050055466436567 -0.5200046160127103 1.1399895127138917
2.34343385696 0.3836280844927826 -0.0898973083248707 -1.0546122723414992 2.1482045542654435 2.050055466436567 -0.5200046160127103 1.1399895127138917
2.34343385696 0.3836280844927826 -0.0898973083248707 -1.0546122723414992 2.1482045542654435 2.050055466436567 -0.5200046160127103 1.1399895127138917
2.35351800919 0.3836280844927826 -0.0898973083248707 -1.0546122723414992 2.1482045542654435 2.050055466436567 -0.5200046160127103 1.1399895127138917
2.35351800919 0.3836280844927826 -0.0898973083248707 -1.0546122723414992 2.1482045542654435 2.050055466436567 -0.5200046160127103 1.1399895127138917
2.36345291138 0.3836280844927826 -0.0898973083248707 -1.0546122723414992 2.1482045542654435 2.050055466436567 -0.5200046160127103 1.1399895127138917
2.36345291138 0.3836280844927826 -0.0898973083248707 -1.0546122723414992 2.1482045542654435 2.050055466436567 -0.5200046160127103 1.1399895127138917
2.37346792221 0.3836280844927826 -0.0898973083248707 -1.0546122723414992 2.1482045542654435 2.050055466436567 -0.5200046160127103 1.1399895127138917
2.37346792221 0.3836280844927826 -0.0898973083248707 -1.0546122723414992 2.1482045542654435 2.050055466436567 -0.5200046160127103 1.1399895127138917
2.3833990097 0.3836280844927826 -0.0898973083248707 -1.0546122723414992 2.1482045542654435 2.050055466436567 -0.5200046160127103 1.1399895127138917
2.3833990097 0.3836280844927826 -0.0898973083248707 -1.0546122723414992 2.1482045542654435 2.050055466436567 -0.5200046160127103 1.1399895127138917
2.39352297783 0.3836280844927826 -0.0898973083248707 -1.0546122723414992 2.1482045542654435 2.050055466436567 -0.5200046160127103 1.1399895127138917
2.39352297783 0.3836280844927826 -0.0898973083248707 -1.0546122723414992 2.1482045542654435 2.050055466436567 -0.5200046160127103 1.1399895127138917
2.4034280777 0.3836280844927826 -0.0898973083248707 -1.0546122723414992 2.1482045542654435 2.050055466436567 -0.5200046160127103 1.1399895127138917
2.4034280777 0.3836280844927826 -0.0898973083248707 -1.0546122723414992 2.1482045542654435 2.050055466436567 -0.5200046160127103 1.1399895127138917
2.41348099709 0.3836280844927826 -0.0898973083248707 -1.0546122723414992 2.1482045542654435 2.050055466436567 -0.5200046160127103 1.1399895127138917
2.41348099709 0.3836280844927826 -0.0898973083248707 -1.0546122723414992 2.1482045542654435 2.050055466436567 -0.5200046160127103 1.1399895127138917
2.42349004745 0.3836280844927826 -0.0898973083248707 -1.0546122723414992 2.1482045542654435 2.050055466436567 -0.5200046160127103 1.1399895127138917
2.42349004745 0.3836280844927826 -0.0898973083248707 -1.0546122723414992 2.1482045542654435 2.050055466436567 -0.5200046160127103 1.1399895127138917
2.4335129261 0.3836280844927826 -0.0898973083248707 -1.0546122723414992 2.1482045542654435 2.050055466436567 -0.5200046160127103 1.1399895127138917
2.4335129261 0.3836280844927826 -0.0898973083248707 -1.0546122723414992 2.1482045542654435 2.050055466436567 -0.5200046160127103 1.1399895127138917
2.44352197647 0.3836280844927826 -0.0898973083248707 -1.0546122723414992 2.1482045542654435 2.050055466436567 -0.5200046160127103 1.1399895127138917
2.44352197647 0.3836280844927826 -0.0898973083248707 -1.0546122723414992 2.1482045542654435 2.050055466436567 -0.5200046160127103 1.1399895127138917
2.45346593857 0.3836280844927826 -0.0898973083248707 -1.0546122723414992 2.1482045542654435 2.050055466436567 -0.5200046160127103 1.1399895127138917
2.45346593857 0.3836280844927826 -0.0898973083248707 -1.0546122723414992 2.1482045542654435 2.050055466436567 -0.5200046160127103 1.1399895127138917
2.46342301369 0.3836280844927826 -0.0898973083248707 -1.0546122723414992 2.1482045542654435 2.050055466436567 -0.5200046160127103 1.1399895127138917
2.46342301369 0.3836280844927826 -0.0898973083248707 -1.0546122723414992 2.1482045542654435 2.050055466436567 -0.5200046160127103 1.1399895127138917
2.47338008881 0.3836280844927826 -0.0898973083248707 -1.0546122723414992 2.1482045542654435 2.050055466436567 -0.5200046160127103 1.1399895127138917
2.47338008881 0.3836280844927826 -0.0898973083248707 -1.0546122723414992 2.1482045542654435 2.050055466436567 -0.5200046160127103 1.1399895127138917
2.48352098465 0.3836280844927826 -0.0898973083248707 -1.0546122723414992 2.1482045542654435 2.050055466436567 -0.5200046160127103 1.1399895127138917
2.48352098465 0.3836280844927826 -0.0898973083248707 -1.0546122723414992 2.1482045542654435 2.050055466436567 -0.5200046160127103 1.1399895127138917
2.49348187447 0.3836280844927826 -0.0898973083248707 -1.0546122723414992 2.1482045542654435 2.050055466436567 -0.5200046160127103 1.1399895127138917
2.49348187447 0.3836280844927826 -0.0898973083248707 -1.0546122723414992 2.1482045542654435 2.050055466436567 -0.5200046160127103 1.1399895127138917
2.50347900391 0.3836280844927826 -0.0898973083248707 -1.0546122723414992 2.1482045542654435 2.050055466436567 -0.5200046160127103 1.1399895127138917
2.50347900391 0.3836280844927826 -0.0898973083248707 -1.0546122723414992 2.1482045542654435 2.050055466436567 -0.5200046160127103 1.1399895127138917
2.51352286339 0.3836280844927826 -0.0898973083248707 -1.0546122723414992 2.1482045542654435 2.050055466436567 -0.5200046160127103 1.1399895127138917
2.51352286339 0.3836280844927826 -0.0898973083248707 -1.0546122723414992 2.1482045542654435 2.050055466436567 -0.5200046160127103 1.1399895127138917
2.52349805832 0.3836280844927826 -0.0898973083248707 -1.0546122723414992 2.1482045542654435 2.050055466436567 -0.5200046160127103 1.1399895127138917
2.52349805832 0.3836280844927826 -0.0898973083248707 -1.0546122723414992 2.1482045542654435 2.050055466436567 -0.5200046160127103 1.1399895127138917
2.53337407112 0.3836280844927826 -0.0898973083248707 -1.0546122723414992 2.1482045542654435 2.050055466436567 -0.5200046160127103 1.1399895127138917
2.53337407112 0.3836280844927826 -0.0898973083248707 -1.0546122723414992 2.1482045542654435 2.050055466436567 -0.5200046160127103 1.1399895127138917
2.54342508316 0.3836280844927826 -0.0898973083248707 -1.0546122723414992 2.1482045542654435 2.050055466436567 -0.5200046160127103 1.1399895127138917
2.54342508316 0.3836280844927826 -0.0898973083248707 -1.0546122723414992 2.1482045542654435 2.050055466436567 -0.5200046160127103 1.1399895127138917
2.55350804329 0.3836280844927826 -0.0898973083248707 -1.0546122723414992 2.1482045542654435 2.050055466436567 -0.5200046160127103 1.1399895127138917
2.55350804329 0.3836280844927826 -0.0898973083248707 -1.0546122723414992 2.1482045542654435 2.050055466436567 -0.5200046160127103 1.1399895127138917
2.56329703331 0.3836280844927826 -0.0898973083248707 -1.0546122723414992 2.1482045542654435 2.050055466436567 -0.5200046160127103 1.1399895127138917
2.56329703331 0.3836280844927826 -0.0898973083248707 -1.0546122723414992 2.1482045542654435 2.050055466436567 -0.5200046160127103 1.1399895127138917
2.5735309124 0.3836280844927826 -0.0898973083248707 -1.0546122723414992 2.1482045542654435 2.050055466436567 -0.5200046160127103 1.1399895127138917
2.5735309124 0.3836280844927826 -0.0898973083248707 -1.0546122723414992 2.1482045542654435 2.050055466436567 -0.5200046160127103 1.1399895127138917
2.58352804184 0.3836280844927826 -0.0898973083248707 -1.0546122723414992 2.1482045542654435 2.050055466436567 -0.5200046160127103 1.1399895127138917
2.58352804184 0.3836280844927826 -0.0898973083248707 -1.0546122723414992 2.1482045542654435 2.050055466436567 -0.5200046160127103 1.1399895127138917
2.59338498116 0.3836280844927826 -0.0898973083248707 -1.0546122723414992 2.1482045542654435 2.050055466436567 -0.5200046160127103 1.1399895127138917
2.59338498116 0.3836280844927826 -0.0898973083248707 -1.0546122723414992 2.1482045542654435 2.050055466436567 -0.5200046160127103 1.1399895127138917
2.60349798203 0.3836280844927826 -0.0898973083248707 -1.0546122723414992 2.1482045542654435 2.050055466436567 -0.5200046160127103 1.1399895127138917
2.60349798203 0.3836280844927826 -0.0898973083248707 -1.0546122723414992 2.1482045542654435 2.050055466436567 -0.5200046160127103 1.1399895127138917
2.61357593536 0.3836280844927826 -0.0898973083248707 -1.0546122723414992 2.1482045542654435 2.050055466436567 -0.5200046160127103 1.1399895127138917
2.61357593536 0.3836280844927826 -0.0898973083248707 -1.0546122723414992 2.1482045542654435 2.050055466436567 -0.5200046160127103 1.1399895127138917
2.62329602242 0.3836280844927826 -0.0898973083248707 -1.0546122723414992 2.1482045542654435 2.050055466436567 -0.5200046160127103 1.1399895127138917
2.62329602242 0.3836280844927826 -0.0898973083248707 -1.0546122723414992 2.1482045542654435 2.050055466436567 -0.5200046160127103 1.1399895127138917
2.63350486755 0.3836280844927826 -0.0898973083248707 -1.0546122723414992 2.1482045542654435 2.050055466436567 -0.5200046160127103 1.1399895127138917
2.63350486755 0.3836280844927826 -0.0898973083248707 -1.0546122723414992 2.1482045542654435 2.050055466436567 -0.5200046160127103 1.1399895127138917
2.64348292351 0.3836280844927826 -0.0898973083248707 -1.0546122723414992 2.1482045542654435 2.050055466436567 -0.5200046160127103 1.1399895127138917
2.64348292351 0.3836280844927826 -0.0898973083248707 -1.0546122723414992 2.1482045542654435 2.050055466436567 -0.5200046160127103 1.1399895127138917
2.65341806412 0.3836280844927826 -0.0898973083248707 -1.0546122723414992 2.1482045542654435 2.050055466436567 -0.5200046160127103 1.1399895127138917
2.65341806412 0.3836280844927826 -0.0898973083248707 -1.0546122723414992 2.1482045542654435 2.050055466436567 -0.5200046160127103 1.1399895127138917
2.66318297386 0.3836280844927826 -0.0898973083248707 -1.0546122723414992 2.1482045542654435 2.050055466436567 -0.5200046160127103 1.1399895127138917
2.66318297386 0.3836280844927826 -0.0898973083248707 -1.0546122723414992 2.1482045542654435 2.050055466436567 -0.5200046160127103 1.1399895127138917
2.67311286926 0.3836280844927826 -0.0898973083248707 -1.0546122723414992 2.1482045542654435 2.050055466436567 -0.5200046160127103 1.1399895127138917
2.67311286926 0.3836280844927826 -0.0898973083248707 -1.0546122723414992 2.1482045542654435 2.050055466436567 -0.5200046160127103 1.1399895127138917
2.68331003189 0.3836280844927826 -0.0898973083248707 -1.0546122723414992 2.1482045542654435 2.050055466436567 -0.5200046160127103 1.1399895127138917
2.68331003189 0.3836280844927826 -0.0898973083248707 -1.0546122723414992 2.1482045542654435 2.050055466436567 -0.5200046160127103 1.1399895127138917
2.69347500801 0.3836280844927826 -0.0898973083248707 -1.0546122723414992 2.1482045542654435 2.050055466436567 -0.5200046160127103 1.1399895127138917
2.69347500801 0.3836280844927826 -0.0898973083248707 -1.0546122723414992 2.1482045542654435 2.050055466436567 -0.5200046160127103 1.1399895127138917
2.70348906517 0.3836280844927826 -0.0898973083248707 -1.0546122723414992 2.1482045542654435 2.050055466436567 -0.5200046160127103 1.1399895127138917
2.70348906517 0.3836280844927826 -0.0898973083248707 -1.0546122723414992 2.1482045542654435 2.050055466436567 -0.5200046160127103 1.1399895127138917
2.71333289146 0.3836280844927826 -0.0898973083248707 -1.0546122723414992 2.1482045542654435 2.050055466436567 -0.5200046160127103 1.1399895127138917
2.71333289146 0.3836280844927826 -0.0898973083248707 -1.0546122723414992 2.1482045542654435 2.050055466436567 -0.5200046160127103 1.1399895127138917
2.72349500656 0.3836280844927826 -0.0898973083248707 -1.0546122723414992 2.1482045542654435 2.050055466436567 -0.5200046160127103 1.1399895127138917
2.72349500656 0.3836280844927826 -0.0898973083248707 -1.0546122723414992 2.1482045542654435 2.050055466436567 -0.5200046160127103 1.1399895127138917
2.73350000381 0.3836280844927826 -0.0898973083248707 -1.0546122723414992 2.1482045542654435 2.050055466436567 -0.5200046160127103 1.1399895127138917
2.73350000381 0.3836280844927826 -0.0898973083248707 -1.0546122723414992 2.1482045542654435 2.050055466436567 -0.5200046160127103 1.1399895127138917
2.74354100227 0.3836280844927826 -0.0898973083248707 -1.0546122723414992 2.1482045542654435 2.050055466436567 -0.5200046160127103 1.1399895127138917
2.74354100227 0.3836280844927826 -0.0898973083248707 -1.0546122723414992 2.1482045542654435 2.050055466436567 -0.5200046160127103 1.1399895127138917
2.75358104706 0.3836280844927826 -0.0898973083248707 -1.0546122723414992 2.1482045542654435 2.050055466436567 -0.5200046160127103 1.1399895127138917
2.75358104706 0.3836280844927826 -0.0898973083248707 -1.0546122723414992 2.1482045542654435 2.050055466436567 -0.5200046160127103 1.1399895127138917
2.76350808144 0.3836280844927826 -0.0898973083248707 -1.0546122723414992 2.1482045542654435 2.050055466436567 -0.5200046160127103 1.1399895127138917
2.76350808144 0.3836280844927826 -0.0898973083248707 -1.0546122723414992 2.1482045542654435 2.050055466436567 -0.5200046160127103 1.1399895127138917
2.77340006828 0.3836280844927826 -0.0898973083248707 -1.0546122723414992 2.1482045542654435 2.050055466436567 -0.5200046160127103 1.1399895127138917
2.77340006828 0.3836280844927826 -0.0898973083248707 -1.0546122723414992 2.1482045542654435 2.050055466436567 -0.5200046160127103 1.1399895127138917
2.78342700005 0.3836280844927826 -0.0898973083248707 -1.0546122723414992 2.1482045542654435 2.050055466436567 -0.5200046160127103 1.1399895127138917
2.78342700005 0.3836280844927826 -0.0898973083248707 -1.0546122723414992 2.1482045542654435 2.050055466436567 -0.5200046160127103 1.1399895127138917
2.79350805283 0.3836280844927826 -0.0898973083248707 -1.0546122723414992 2.1482045542654435 2.050055466436567 -0.5200046160127103 1.1399895127138917
2.79350805283 0.3836280844927826 -0.0898973083248707 -1.0546122723414992 2.1482045542654435 2.050055466436567 -0.5200046160127103 1.1399895127138917
2.80351996422 0.3836280844927826 -0.0898973083248707 -1.0546122723414992 2.1482045542654435 2.050055466436567 -0.5200046160127103 1.1399895127138917
2.80351996422 0.3836280844927826 -0.0898973083248707 -1.0546122723414992 2.1482045542654435 2.050055466436567 -0.5200046160127103 1.1399895127138917
2.81343889236 0.3836280844927826 -0.0898973083248707 -1.0546122723414992 2.1482045542654435 2.050055466436567 -0.5200046160127103 1.1399895127138917
2.81343889236 0.3836280844927826 -0.0898973083248707 -1.0546122723414992 2.1482045542654435 2.050055466436567 -0.5200046160127103 1.1399895127138917
2.82341599464 0.3836280844927826 -0.0898973083248707 -1.0546122723414992 2.1482045542654435 2.050055466436567 -0.5200046160127103 1.1399895127138917
2.82341599464 0.3836280844927826 -0.0898973083248707 -1.0546122723414992 2.1482045542654435 2.050055466436567 -0.5200046160127103 1.1399895127138917
2.83340191841 0.3836280844927826 -0.0898973083248707 -1.0546122723414992 2.1482045542654435 2.050055466436567 -0.5200046160127103 1.1399895127138917
2.83340191841 0.3836280844927826 -0.0898973083248707 -1.0546122723414992 2.1482045542654435 2.050055466436567 -0.5200046160127103 1.1399895127138917
2.84346985817 0.3836280844927826 -0.0898973083248707 -1.0546122723414992 2.1482045542654435 2.050055466436567 -0.5200046160127103 1.1399895127138917
2.84346985817 0.3836280844927826 -0.0898973083248707 -1.0546122723414992 2.1482045542654435 2.050055466436567 -0.5200046160127103 1.1399895127138917
2.8535399437 0.3836280844927826 -0.0898973083248707 -1.0546122723414992 2.1482045542654435 2.050055466436567 -0.5200046160127103 1.1399895127138917
2.8535399437 0.3836280844927826 -0.0898973083248707 -1.0546122723414992 2.1482045542654435 2.050055466436567 -0.5200046160127103 1.1399895127138917
2.86347699165 0.3836280844927826 -0.0898973083248707 -1.0546122723414992 2.1482045542654435 2.050055466436567 -0.5200046160127103 1.1399895127138917
2.86347699165 0.3836280844927826 -0.0898973083248707 -1.0546122723414992 2.1482045542654435 2.050055466436567 -0.5200046160127103 1.1399895127138917
2.87352585793 0.3836280844927826 -0.0898973083248707 -1.0546122723414992 2.1482045542654435 2.050055466436567 -0.5200046160127103 1.1399895127138917
2.87352585793 0.3836280844927826 -0.0898973083248707 -1.0546122723414992 2.1482045542654435 2.050055466436567 -0.5200046160127103 1.1399895127138917
2.88475298882 0.383628084493 -0.0898973083249 -1.05499577263 2.14817387424 2.05005546644 -0.520004616013 1.13998951271
2.88475298882 0.383628084493 -0.0898973083249 -1.05499577263 2.14817387424 2.05005546644 -0.520004616013 1.13998951271
2.89312887192 0.3836280844927826 -0.0898973083248707 -1.055057132670696 2.148143194220037 2.050055466436567 -0.5200046160127103 1.1399895127138917
2.89312887192 0.3836280844927826 -0.0898973083248707 -1.055057132670696 2.148143194220037 2.050055466436567 -0.5200046160127103 1.1399895127138917
2.90308690071 0.3836280844927826 -0.0898973083248707 -1.055057132670696 2.148143194220037 2.050055466436567 -0.5200046160127103 1.1399895127138917
2.90308690071 0.3836280844927826 -0.0898973083248707 -1.055057132670696 2.148143194220037 2.050055466436567 -0.5200046160127103 1.1399895127138917
2.91325092316 0.3836280844927826 -0.0898973083248707 -1.055057132670696 2.148143194220037 2.050055466436567 -0.5200046160127103 1.1399895127138917
2.91325092316 0.3836280844927826 -0.0898973083248707 -1.055057132670696 2.148143194220037 2.050055466436567 -0.5200046160127103 1.1399895127138917
2.92347288132 0.3836280844927826 -0.0898973083248707 -1.055057132670696 2.148143194220037 2.050055466436567 -0.5200046160127103 1.1399895127138917
2.92347288132 0.3836280844927826 -0.0898973083248707 -1.055057132670696 2.148143194220037 2.050055466436567 -0.5200046160127103 1.1399895127138917
2.93530607224 0.3836280844927826 -0.0898973083248707 -1.055057132670696 2.148143194220037 2.050055466436567 -0.5200046160127103 1.1399895127138917
2.93530607224 0.3836280844927826 -0.0898973083248707 -1.055057132670696 2.148143194220037 2.050055466436567 -0.5200046160127103 1.1399895127138917
2.94322109222 0.3836280844927826 -0.0899126483362223 -1.055057132670696 2.1473915336638085 2.050055466436567 -0.5200046160127103 1.1399895127138917
2.94322109222 0.3836280844927826 -0.0899126483362223 -1.055057132670696 2.1473915336638085 2.050055466436567 -0.5200046160127103 1.1399895127138917
2.95330691338 0.3836280844927826 -0.0899126483362223 -1.055057132670696 2.1473915336638085 2.050055466436567 -0.5200046160127103 1.1399895127138917
2.95330691338 0.3836280844927826 -0.0899126483362223 -1.055057132670696 2.1473915336638085 2.050055466436567 -0.5200046160127103 1.1399895127138917
2.96327090263 0.3836280844927826 -0.0899126483362223 -1.055057132670696 2.1473915336638085 2.050055466436567 -0.5200046160127103 1.1399895127138917
2.96327090263 0.3836280844927826 -0.0899126483362223 -1.055057132670696 2.1473915336638085 2.050055466436567 -0.5200046160127103 1.1399895127138917
2.97345805168 0.3836280844927826 -0.0899126483362223 -1.055057132670696 2.1473915336638085 2.050055466436567 -0.5200046160127103 1.1399895127138917
2.97345805168 0.3836280844927826 -0.0899126483362223 -1.055057132670696 2.1473915336638085 2.050055466436567 -0.5200046160127103 1.1399895127138917
2.98352694511 0.3836280844927826 -0.0899126483362223 -1.055057132670696 2.1473915336638085 2.050055466436567 -0.5200046160127103 1.1399895127138917
2.98352694511 0.3836280844927826 -0.0899126483362223 -1.055057132670696 2.1473915336638085 2.050055466436567 -0.5200046160127103 1.1399895127138917
2.99326586723 0.3836280844927826 -0.0899126483362223 -1.055057132670696 2.143280410621577 2.050055466436567 -0.5200046160127103 1.1399895127138917
2.99326586723 0.3836280844927826 -0.0899126483362223 -1.055057132670696 2.143280410621577 2.050055466436567 -0.5200046160127103 1.1399895127138917
3.00303888321 0.3836280844927826 -0.0899126483362223 -1.055057132670696 2.143280410621577 2.050055466436567 -0.5200046160127103 1.1399895127138917
3.00303888321 0.3836280844927826 -0.0899126483362223 -1.055057132670696 2.143280410621577 2.050055466436567 -0.5200046160127103 1.1399895127138917
3.01346707344 0.3836280844927826 -0.0899126483362223 -1.055057132670696 2.143280410621577 2.050055466436567 -0.5200046160127103 1.1399895127138917
3.01346707344 0.3836280844927826 -0.0899126483362223 -1.055057132670696 2.143280410621577 2.050055466436567 -0.5200046160127103 1.1399895127138917
3.02309799194 0.3822321434597861 -0.0899126483362223 -1.055057132670696 2.1411634890550557 2.050055466436567 -0.5200046160127103 1.1399895127138917
3.02309799194 0.3822321434597861 -0.0899126483362223 -1.055057132670696 2.1411634890550557 2.050055466436567 -0.5200046160127103 1.1399895127138917
3.03447198868 0.3806521222905705 -0.0899126483362223 -1.055057132670696 2.141071448986946 2.050055466436567 -0.5200046160127103 1.1399895127138917
3.03447198868 0.3806521222905705 -0.0899126483362223 -1.055057132670696 2.141071448986946 2.050055466436567 -0.5200046160127103 1.1399895127138917
3.04306292534 0.3806521222905705 -0.0899126483362223 -1.055057132670696 2.141071448986946 2.050055466436567 -0.5200046160127103 1.1399895127138917
3.04306292534 0.3806521222905705 -0.0899126483362223 -1.055057132670696 2.141071448986946 2.050055466436567 -0.5200046160127103 1.1399895127138917
3.05343103409 0.3806521222905705 -0.0899126483362223 -1.055057132670696 2.141071448986946 2.050055466436567 -0.5200046160127103 1.1399895127138917
3.05343103409 0.3806521222905705 -0.0899126483362223 -1.055057132670696 2.141071448986946 2.050055466436567 -0.5200046160127103 1.1399895127138917
3.06341505051 0.3806521222905705 -0.0899126483362223 -1.055057132670696 2.141071448986946 2.050055466436567 -0.5200046160127103 1.1399895127138917
3.06341505051 0.3806521222905705 -0.0899126483362223 -1.055057132670696 2.141071448986946 2.050055466436567 -0.5200046160127103 1.1399895127138917
3.07346701622 0.3806521222905705 -0.0899126483362223 -1.055057132670696 2.141071448986946 2.050055466436567 -0.5200046160127103 1.1399895127138917
3.07346701622 0.3806521222905705 -0.0899126483362223 -1.055057132670696 2.141071448986946 2.050055466436567 -0.5200046160127103 1.1399895127138917
3.08345890045 0.3806521222905705 -0.0899126483362223 -1.055057132670696 2.141071448986946 2.050055466436567 -0.5200046160127103 1.1399895127138917
3.08345890045 0.3806521222905705 -0.0899126483362223 -1.055057132670696 2.141071448986946 2.050055466436567 -0.5200046160127103 1.1399895127138917
3.09336590767 0.3806521222905705 -0.0899126483362223 -1.055057132670696 2.141071448986946 2.050055466436567 -0.5200046160127103 1.1399895127138917
3.09336590767 0.3806521222905705 -0.0899126483362223 -1.055057132670696 2.141071448986946 2.050055466436567 -0.5200046160127103 1.1399895127138917
3.10346388817 0.3806521222905705 -0.0899126483362223 -1.055057132670696 2.141071448986946 2.050055466436567 -0.5200046160127103 1.1399895127138917
3.10346388817 0.3806521222905705 -0.0899126483362223 -1.055057132670696 2.141071448986946 2.050055466436567 -0.5200046160127103 1.1399895127138917
3.11347293854 0.3806521222905705 -0.0899126483362223 -1.055057132670696 2.141071448986946 2.050055466436567 -0.5200046160127103 1.1399895127138917
3.11347293854 0.3806521222905705 -0.0899126483362223 -1.055057132670696 2.141071448986946 2.050055466436567 -0.5200046160127103 1.1399895127138917
3.12330698967 0.3806521222905705 -0.0899126483362223 -1.055057132670696 2.141071448986946 2.050055466436567 -0.5200046160127103 1.1399895127138917
3.12330698967 0.3806521222905705 -0.0899126483362223 -1.055057132670696 2.141071448986946 2.050055466436567 -0.5200046160127103 1.1399895127138917
3.13348507881 0.3806521222905705 -0.0899126483362223 -1.055057132670696 2.141071448986946 2.050055466436567 -0.5200046160127103 1.1399895127138917
3.13348507881 0.3806521222905705 -0.0899126483362223 -1.055057132670696 2.141071448986946 2.050055466436567 -0.5200046160127103 1.1399895127138917
3.14344906807 0.3806521222905705 -0.0899126483362223 -1.055057132670696 2.141071448986946 2.050055466436567 -0.5200046160127103 1.1399895127138917
3.14344906807 0.3806521222905705 -0.0899126483362223 -1.055057132670696 2.141071448986946 2.050055466436567 -0.5200046160127103 1.1399895127138917
3.15329909325 0.3806521222905705 -0.0899126483362223 -1.055057132670696 2.141071448986946 2.050055466436567 -0.5200046160127103 1.1399895127138917
3.15329909325 0.3806521222905705 -0.0899126483362223 -1.055057132670696 2.141071448986946 2.050055466436567 -0.5200046160127103 1.1399895127138917
3.1634759903 0.3806521222905705 -0.0899126483362223 -1.055057132670696 2.141071448986946 2.050055466436567 -0.5200046160127103 1.1399895127138917
3.1634759903 0.3806521222905705 -0.0899126483362223 -1.055057132670696 2.141071448986946 2.050055466436567 -0.5200046160127103 1.1399895127138917
3.1734559536 0.3806521222905705 -0.0899126483362223 -1.055057132670696 2.141071448986946 2.050055466436567 -0.5200046160127103 1.1399895127138917
3.1734559536 0.3806521222905705 -0.0899126483362223 -1.055057132670696 2.141071448986946 2.050055466436567 -0.5200046160127103 1.1399895127138917
3.18347096443 0.3806521222905705 -0.0899126483362223 -1.055057132670696 2.141071448986946 2.050055466436567 -0.5200046160127103 1.1399895127138917
3.18347096443 0.3806521222905705 -0.0899126483362223 -1.055057132670696 2.141071448986946 2.050055466436567 -0.5200046160127103 1.1399895127138917
3.19350194931 0.3806521222905705 -0.0899126483362223 -1.055057132670696 2.141071448986946 2.050055466436567 -0.5200046160127103 1.1399895127138917
3.19350194931 0.3806521222905705 -0.0899126483362223 -1.055057132670696 2.141071448986946 2.050055466436567 -0.5200046160127103 1.1399895127138917
3.20350694656 0.3806521222905705 -0.0899126483362223 -1.055057132670696 2.141071448986946 2.050055466436567 -0.5200046160127103 1.1399895127138917
3.20350694656 0.3806521222905705 -0.0899126483362223 -1.055057132670696 2.141071448986946 2.050055466436567 -0.5200046160127103 1.1399895127138917
3.21349287033 0.3806521222905705 -0.0899126483362223 -1.055057132670696 2.141071448986946 2.050055466436567 -0.5200046160127103 1.1399895127138917
3.21349287033 0.3806521222905705 -0.0899126483362223 -1.055057132670696 2.141071448986946 2.050055466436567 -0.5200046160127103 1.1399895127138917
3.22352099419 0.3806521222905705 -0.0899126483362223 -1.055057132670696 2.141071448986946 2.050055466436567 -0.5200046160127103 1.1399895127138917
3.22352099419 0.3806521222905705 -0.0899126483362223 -1.055057132670696 2.141071448986946 2.050055466436567 -0.5200046160127103 1.1399895127138917
3.23364305496 0.3806521222905705 -0.0899126483362223 -1.055057132670696 2.141071448986946 2.050055466436567 -0.5200046160127103 1.1399895127138917
3.23364305496 0.3806521222905705 -0.0899126483362223 -1.055057132670696 2.141071448986946 2.050055466436567 -0.5200046160127103 1.1399895127138917
3.24355006218 0.3806521222905705 -0.0899126483362223 -1.055057132670696 2.141071448986946 2.050055466436567 -0.5200046160127103 1.1399895127138917
3.24355006218 0.3806521222905705 -0.0899126483362223 -1.055057132670696 2.141071448986946 2.050055466436567 -0.5200046160127103 1.1399895127138917
3.25366997719 0.3806521222905705 -0.0899126483362223 -1.055057132670696 2.141071448986946 2.050055466436567 -0.5200046160127103 1.1399895127138917
3.25366997719 0.3806521222905705 -0.0899126483362223 -1.055057132670696 2.141071448986946 2.050055466436567 -0.5200046160127103 1.1399895127138917
3.26319599152 0.3806521222905705 -0.0899126483362223 -1.055057132670696 2.141071448986946 2.050055466436567 -0.5200046160127103 1.1399895127138917
3.26319599152 0.3806521222905705 -0.0899126483362223 -1.055057132670696 2.141071448986946 2.050055466436567 -0.5200046160127103 1.1399895127138917
3.27335000038 0.3806521222905705 -0.0899126483362223 -1.055057132670696 2.141071448986946 2.050055466436567 -0.5200046160127103 1.1399895127138917
3.27335000038 0.3806521222905705 -0.0899126483362223 -1.055057132670696 2.141071448986946 2.050055466436567 -0.5200046160127103 1.1399895127138917
3.28339791298 0.3806521222905705 -0.0899126483362223 -1.055057132670696 2.141071448986946 2.050055466436567 -0.5200046160127103 1.1399895127138917
3.28339791298 0.3806521222905705 -0.0899126483362223 -1.055057132670696 2.141071448986946 2.050055466436567 -0.5200046160127103 1.1399895127138917
3.29343485832 0.3806521222905705 -0.0899126483362223 -1.055057132670696 2.141071448986946 2.050055466436567 -0.5200046160127103 1.1399895127138917
3.29343485832 0.3806521222905705 -0.0899126483362223 -1.055057132670696 2.141071448986946 2.050055466436567 -0.5200046160127103 1.1399895127138917
3.3033850193 0.3806521222905705 -0.0899126483362223 -1.055057132670696 2.141071448986946 2.050055466436567 -0.5200046160127103 1.1399895127138917
3.3033850193 0.3806521222905705 -0.0899126483362223 -1.055057132670696 2.141071448986946 2.050055466436567 -0.5200046160127103 1.1399895127138917
3.3135008812 0.3806521222905705 -0.0899126483362223 -1.055057132670696 2.141071448986946 2.050055466436567 -0.5200046160127103 1.1399895127138917
3.3135008812 0.3806521222905705 -0.0899126483362223 -1.055057132670696 2.141071448986946 2.050055466436567 -0.5200046160127103 1.1399895127138917
3.32352995872 0.3806521222905705 -0.0899126483362223 -1.055057132670696 2.141071448986946 2.050055466436567 -0.5200046160127103 1.1399895127138917
3.32352995872 0.3806521222905705 -0.0899126483362223 -1.055057132670696 2.141071448986946 2.050055466436567 -0.5200046160127103 1.1399895127138917
3.33352899551 0.3806521222905705 -0.0899126483362223 -1.055057132670696 2.141071448986946 2.050055466436567 -0.5200046160127103 1.1399895127138917
3.33352899551 0.3806521222905705 -0.0899126483362223 -1.055057132670696 2.141071448986946 2.050055466436567 -0.5200046160127103 1.1399895127138917
3.34349107742 0.3806521222905705 -0.0899126483362223 -1.055057132670696 2.141071448986946 2.050055466436567 -0.5200046160127103 1.1399895127138917
3.34349107742 0.3806521222905705 -0.0899126483362223 -1.055057132670696 2.141071448986946 2.050055466436567 -0.5200046160127103 1.1399895127138917
3.3535220623 0.3806521222905705 -0.0899126483362223 -1.055057132670696 2.141071448986946 2.050055466436567 -0.5200046160127103 1.1399895127138917
3.3535220623 0.3806521222905705 -0.0899126483362223 -1.055057132670696 2.141071448986946 2.050055466436567 -0.5200046160127103 1.1399895127138917
3.36342597008 0.3806521222905705 -0.0899126483362223 -1.055057132670696 2.141071448986946 2.050055466436567 -0.5200046160127103 1.1399895127138917
3.36342597008 0.3806521222905705 -0.0899126483362223 -1.055057132670696 2.141071448986946 2.050055466436567 -0.5200046160127103 1.1399895127138917
3.37348198891 0.3806521222905705 -0.0899126483362223 -1.055057132670696 2.141071448986946 2.050055466436567 -0.5200046160127103 1.1399895127138917
3.37348198891 0.3806521222905705 -0.0899126483362223 -1.055057132670696 2.141071448986946 2.050055466436567 -0.5200046160127103 1.1399895127138917
3.38351798058 0.3806521222905705 -0.0899126483362223 -1.055057132670696 2.141071448986946 2.050055466436567 -0.5200046160127103 1.1399895127138917
3.38351798058 0.3806521222905705 -0.0899126483362223 -1.055057132670696 2.141071448986946 2.050055466436567 -0.5200046160127103 1.1399895127138917
3.39341497421 0.3806521222905705 -0.0899126483362223 -1.055057132670696 2.141071448986946 2.050055466436567 -0.5200046160127103 1.1399895127138917
3.39341497421 0.3806521222905705 -0.0899126483362223 -1.055057132670696 2.141071448986946 2.050055466436567 -0.5200046160127103 1.1399895127138917
3.40328001976 0.3806521222905705 -0.0899126483362223 -1.055057132670696 2.141071448986946 2.050055466436567 -0.5200046160127103 1.1399895127138917
3.40328001976 0.3806521222905705 -0.0899126483362223 -1.055057132670696 2.141071448986946 2.050055466436567 -0.5200046160127103 1.1399895127138917
3.41348195076 0.3806521222905705 -0.0899126483362223 -1.055057132670696 2.141071448986946 2.050055466436567 -0.5200046160127103 1.1399895127138917
3.41348195076 0.3806521222905705 -0.0899126483362223 -1.055057132670696 2.141071448986946 2.050055466436567 -0.5200046160127103 1.1399895127138917
3.42349100113 0.3806521222905705 -0.0899126483362223 -1.055057132670696 2.141071448986946 2.050055466436567 -0.5200046160127103 1.1399895127138917
3.42349100113 0.3806521222905705 -0.0899126483362223 -1.055057132670696 2.141071448986946 2.050055466436567 -0.5200046160127103 1.1399895127138917
3.43347287178 0.3806521222905705 -0.0899126483362223 -1.055057132670696 2.141071448986946 2.050055466436567 -0.5200046160127103 1.1399895127138917
3.43347287178 0.3806521222905705 -0.0899126483362223 -1.055057132670696 2.141071448986946 2.050055466436567 -0.5200046160127103 1.1399895127138917
3.44345498085 0.3806521222905705 -0.0899126483362223 -1.055057132670696 2.141071448986946 2.050055466436567 -0.5200046160127103 1.1399895127138917
3.44345498085 0.3806521222905705 -0.0899126483362223 -1.055057132670696 2.141071448986946 2.050055466436567 -0.5200046160127103 1.1399895127138917
3.45344591141 0.3806521222905705 -0.0899126483362223 -1.055057132670696 2.141071448986946 2.050055466436567 -0.5200046160127103 1.1399895127138917
3.45344591141 0.3806521222905705 -0.0899126483362223 -1.055057132670696 2.141071448986946 2.050055466436567 -0.5200046160127103 1.1399895127138917
3.46347904205 0.3806521222905705 -0.0899126483362223 -1.055057132670696 2.141071448986946 2.050055466436567 -0.5200046160127103 1.1399895127138917
3.46347904205 0.3806521222905705 -0.0899126483362223 -1.055057132670696 2.141071448986946 2.050055466436567 -0.5200046160127103 1.1399895127138917
3.47351193428 0.3806521222905705 -0.0899126483362223 -1.055057132670696 2.141071448986946 2.050055466436567 -0.5200046160127103 1.1399895127138917
3.47351193428 0.3806521222905705 -0.0899126483362223 -1.055057132670696 2.141071448986946 2.050055466436567 -0.5200046160127103 1.1399895127138917
3.48349094391 0.3806521222905705 -0.0899126483362223 -1.055057132670696 2.141071448986946 2.050055466436567 -0.5200046160127103 1.1399895127138917
3.48349094391 0.3806521222905705 -0.0899126483362223 -1.055057132670696 2.141071448986946 2.050055466436567 -0.5200046160127103 1.1399895127138917
3.49333691597 0.3806521222905705 -0.0899126483362223 -1.055057132670696 2.141071448986946 2.050055466436567 -0.5200046160127103 1.1399895127138917
3.49333691597 0.3806521222905705 -0.0899126483362223 -1.055057132670696 2.141071448986946 2.050055466436567 -0.5200046160127103 1.1399895127138917
3.50342488289 0.3806521222905705 -0.0899126483362223 -1.055057132670696 2.141071448986946 2.050055466436567 -0.5200046160127103 1.1399895127138917
3.50342488289 0.3806521222905705 -0.0899126483362223 -1.055057132670696 2.141071448986946 2.050055466436567 -0.5200046160127103 1.1399895127138917
3.51346302032 0.3806521222905705 -0.0899126483362223 -1.055057132670696 2.141071448986946 2.050055466436567 -0.5200046160127103 1.1399895127138917
3.51346302032 0.3806521222905705 -0.0899126483362223 -1.055057132670696 2.141071448986946 2.050055466436567 -0.5200046160127103 1.1399895127138917
3.52335786819 0.3806521222905705 -0.0899126483362223 -1.055057132670696 2.141071448986946 2.050055466436567 -0.5200046160127103 1.1399895127138917
3.52335786819 0.3806521222905705 -0.0899126483362223 -1.055057132670696 2.141071448986946 2.050055466436567 -0.5200046160127103 1.1399895127138917
3.53347301483 0.3806521222905705 -0.0899126483362223 -1.055057132670696 2.141071448986946 2.050055466436567 -0.5200046160127103 1.1399895127138917
3.53347301483 0.3806521222905705 -0.0899126483362223 -1.055057132670696 2.141071448986946 2.050055466436567 -0.5200046160127103 1.1399895127138917
3.54355692863 0.3806521222905705 -0.0899126483362223 -1.055057132670696 2.141071448986946 2.050055466436567 -0.5200046160127103 1.1399895127138917
3.54355692863 0.3806521222905705 -0.0899126483362223 -1.055057132670696 2.141071448986946 2.050055466436567 -0.5200046160127103 1.1399895127138917
3.55356192589 0.3806521222905705 -0.0899126483362223 -1.055057132670696 2.141071448986946 2.050055466436567 -0.5200046160127103 1.1399895127138917
3.55356192589 0.3806521222905705 -0.0899126483362223 -1.055057132670696 2.141071448986946 2.050055466436567 -0.5200046160127103 1.1399895127138917
3.56341600418 0.3806521222905705 -0.0899126483362223 -1.055057132670696 2.141071448986946 2.050055466436567 -0.5200046160127103 1.1399895127138917
3.56341600418 0.3806521222905705 -0.0899126483362223 -1.055057132670696 2.141071448986946 2.050055466436567 -0.5200046160127103 1.1399895127138917
3.57360291481 0.3806521222905705 -0.0899126483362223 -1.055057132670696 2.141071448986946 2.050055466436567 -0.5200046160127103 1.1399895127138917
3.57360291481 0.3806521222905705 -0.0899126483362223 -1.055057132670696 2.141071448986946 2.050055466436567 -0.5200046160127103 1.1399895127138917
3.5833530426 0.3806521222905705 -0.0899126483362223 -1.055057132670696 2.141071448986946 2.050055466436567 -0.5200046160127103 1.1399895127138917
3.5833530426 0.3806521222905705 -0.0899126483362223 -1.055057132670696 2.141071448986946 2.050055466436567 -0.5200046160127103 1.1399895127138917
3.59348988533 0.3806521222905705 -0.0899126483362223 -1.055057132670696 2.141071448986946 2.050055466436567 -0.5200046160127103 1.1399895127138917
3.59348988533 0.3806521222905705 -0.0899126483362223 -1.055057132670696 2.141071448986946 2.050055466436567 -0.5200046160127103 1.1399895127138917
3.60351085663 0.3806521222905705 -0.0899126483362223 -1.055057132670696 2.141071448986946 2.050055466436567 -0.5200046160127103 1.1399895127138917
3.60351085663 0.3806521222905705 -0.0899126483362223 -1.055057132670696 2.141071448986946 2.050055466436567 -0.5200046160127103 1.1399895127138917
3.61334300041 0.3806521222905705 -0.0899126483362223 -1.055057132670696 2.141071448986946 2.050055466436567 -0.5200046160127103 1.1399895127138917
3.61334300041 0.3806521222905705 -0.0899126483362223 -1.055057132670696 2.141071448986946 2.050055466436567 -0.5200046160127103 1.1399895127138917
3.62347006798 0.3806521222905705 -0.0899126483362223 -1.055057132670696 2.141071448986946 2.050055466436567 -0.5200046160127103 1.1399895127138917
3.62347006798 0.3806521222905705 -0.0899126483362223 -1.055057132670696 2.141071448986946 2.050055466436567 -0.5200046160127103 1.1399895127138917
3.63350486755 0.3806521222905705 -0.0899126483362223 -1.055057132670696 2.141071448986946 2.050055466436567 -0.5200046160127103 1.1399895127138917
3.63350486755 0.3806521222905705 -0.0899126483362223 -1.055057132670696 2.141071448986946 2.050055466436567 -0.5200046160127103 1.1399895127138917
3.64341306686 0.3806521222905705 -0.0899126483362223 -1.055057132670696 2.141071448986946 2.050055466436567 -0.5200046160127103 1.1399895127138917
3.64341306686 0.3806521222905705 -0.0899126483362223 -1.055057132670696 2.141071448986946 2.050055466436567 -0.5200046160127103 1.1399895127138917
3.65349888802 0.3806521222905705 -0.0899126483362223 -1.055057132670696 2.141071448986946 2.050055466436567 -0.5200046160127103 1.1399895127138917
3.65349888802 0.3806521222905705 -0.0899126483362223 -1.055057132670696 2.141071448986946 2.050055466436567 -0.5200046160127103 1.1399895127138917
3.66351604462 0.3806521222905705 -0.0899126483362223 -1.055057132670696 2.141071448986946 2.050055466436567 -0.5200046160127103 1.1399895127138917
3.66351604462 0.3806521222905705 -0.0899126483362223 -1.055057132670696 2.141071448986946 2.050055466436567 -0.5200046160127103 1.1399895127138917
3.67342686653 0.3806521222905705 -0.0899126483362223 -1.055057132670696 2.141071448986946 2.050055466436567 -0.5200046160127103 1.1399895127138917
3.67342686653 0.3806521222905705 -0.0899126483362223 -1.055057132670696 2.141071448986946 2.050055466436567 -0.5200046160127103 1.1399895127138917
3.6835269928 0.3806521222905705 -0.0899126483362223 -1.055057132670696 2.141071448986946 2.050055466436567 -0.5200046160127103 1.1399895127138917
3.6835269928 0.3806521222905705 -0.0899126483362223 -1.055057132670696 2.141071448986946 2.050055466436567 -0.5200046160127103 1.1399895127138917
3.69353699684 0.3806521222905705 -0.0899126483362223 -1.055057132670696 2.141071448986946 2.050055466436567 -0.5200046160127103 1.1399895127138917
3.69353699684 0.3806521222905705 -0.0899126483362223 -1.055057132670696 2.141071448986946 2.050055466436567 -0.5200046160127103 1.1399895127138917
3.70356202126 0.3806521222905705 -0.0899126483362223 -1.055057132670696 2.141071448986946 2.050055466436567 -0.5200046160127103 1.1399895127138917
3.70356202126 0.3806521222905705 -0.0899126483362223 -1.055057132670696 2.141071448986946 2.050055466436567 -0.5200046160127103 1.1399895127138917
3.71350908279 0.3806521222905705 -0.0899126483362223 -1.055057132670696 2.141071448986946 2.050055466436567 -0.5200046160127103 1.1399895127138917
3.71350908279 0.3806521222905705 -0.0899126483362223 -1.055057132670696 2.141071448986946 2.050055466436567 -0.5200046160127103 1.1399895127138917
3.72342896461 0.3806521222905705 -0.0899126483362223 -1.055057132670696 2.141071448986946 2.050055466436567 -0.5200046160127103 1.1399895127138917
3.72342896461 0.3806521222905705 -0.0899126483362223 -1.055057132670696 2.141071448986946 2.050055466436567 -0.5200046160127103 1.1399895127138917
3.73354005814 0.3806521222905705 -0.0899126483362223 -1.055057132670696 2.141071448986946 2.050055466436567 -0.5200046160127103 1.1399895127138917
3.73354005814 0.3806521222905705 -0.0899126483362223 -1.055057132670696 2.141071448986946 2.050055466436567 -0.5200046160127103 1.1399895127138917
3.74348688126 0.3806521222905705 -0.0899126483362223 -1.055057132670696 2.141071448986946 2.050055466436567 -0.5200046160127103 1.1399895127138917
3.74348688126 0.3806521222905705 -0.0899126483362223 -1.055057132670696 2.141071448986946 2.050055466436567 -0.5200046160127103 1.1399895127138917
3.75347399712 0.3806521222905705 -0.0899126483362223 -1.055057132670696 2.141071448986946 2.050055466436567 -0.5200046160127103 1.1399895127138917
3.75347399712 0.3806521222905705 -0.0899126483362223 -1.055057132670696 2.141071448986946 2.050055466436567 -0.5200046160127103 1.1399895127138917
3.76350307465 0.3806521222905705 -0.0899126483362223 -1.055057132670696 2.141071448986946 2.050055466436567 -0.5200046160127103 1.1399895127138917
3.76350307465 0.3806521222905705 -0.0899126483362223 -1.055057132670696 2.141071448986946 2.050055466436567 -0.5200046160127103 1.1399895127138917
3.77349591255 0.3806521222905705 -0.0899126483362223 -1.055057132670696 2.141071448986946 2.050055466436567 -0.5200046160127103 1.1399895127138917
3.77349591255 0.3806521222905705 -0.0899126483362223 -1.055057132670696 2.141071448986946 2.050055466436567 -0.5200046160127103 1.1399895127138917
3.78352308273 0.3806521222905705 -0.0899126483362223 -1.055057132670696 2.141071448986946 2.050055466436567 -0.5200046160127103 1.1399895127138917
3.78352308273 0.3806521222905705 -0.0899126483362223 -1.055057132670696 2.141071448986946 2.050055466436567 -0.5200046160127103 1.1399895127138917
3.79342889786 0.3806521222905705 -0.0899126483362223 -1.055057132670696 2.141071448986946 2.050055466436567 -0.5200046160127103 1.1399895127138917
3.79342889786 0.3806521222905705 -0.0899126483362223 -1.055057132670696 2.141071448986946 2.050055466436567 -0.5200046160127103 1.1399895127138917
3.80342507362 0.3806521222905705 -0.0899126483362223 -1.055057132670696 2.141071448986946 2.050055466436567 -0.5200046160127103 1.1399895127138917
3.80342507362 0.3806521222905705 -0.0899126483362223 -1.055057132670696 2.141071448986946 2.050055466436567 -0.5200046160127103 1.1399895127138917
3.81348896027 0.3806521222905705 -0.0899126483362223 -1.055057132670696 2.141071448986946 2.050055466436567 -0.5200046160127103 1.1399895127138917
3.81348896027 0.3806521222905705 -0.0899126483362223 -1.055057132670696 2.141071448986946 2.050055466436567 -0.5200046160127103 1.1399895127138917
3.82339096069 0.3806521222905705 -0.0899126483362223 -1.055057132670696 2.141071448986946 2.050055466436567 -0.5200046160127103 1.1399895127138917
3.82339096069 0.3806521222905705 -0.0899126483362223 -1.055057132670696 2.141071448986946 2.050055466436567 -0.5200046160127103 1.1399895127138917
3.83349490166 0.3806521222905705 -0.0899126483362223 -1.055057132670696 2.141071448986946 2.050055466436567 -0.5200046160127103 1.1399895127138917
3.83349490166 0.3806521222905705 -0.0899126483362223 -1.055057132670696 2.141071448986946 2.050055466436567 -0.5200046160127103 1.1399895127138917
3.84356689453 0.3806521222905705 -0.0899126483362223 -1.055057132670696 2.141071448986946 2.050055466436567 -0.5200046160127103 1.1399895127138917
3.84356689453 0.3806521222905705 -0.0899126483362223 -1.055057132670696 2.141071448986946 2.050055466436567 -0.5200046160127103 1.1399895127138917
3.85344195366 0.3806521222905705 -0.0899126483362223 -1.055057132670696 2.141071448986946 2.050055466436567 -0.5200046160127103 1.1399895127138917
3.85344195366 0.3806521222905705 -0.0899126483362223 -1.055057132670696 2.141071448986946 2.050055466436567 -0.5200046160127103 1.1399895127138917
3.86329388618 0.3806521222905705 -0.0899126483362223 -1.055057132670696 2.141071448986946 2.050055466436567 -0.5200046160127103 1.1399895127138917
3.86329388618 0.3806521222905705 -0.0899126483362223 -1.055057132670696 2.141071448986946 2.050055466436567 -0.5200046160127103 1.1399895127138917
3.87349796295 0.3806521222905705 -0.0899126483362223 -1.055057132670696 2.141071448986946 2.050055466436567 -0.5200046160127103 1.1399895127138917
3.87349796295 0.3806521222905705 -0.0899126483362223 -1.055057132670696 2.141071448986946 2.050055466436567 -0.5200046160127103 1.1399895127138917
3.88351392746 0.3806521222905705 -0.0899126483362223 -1.055057132670696 2.141071448986946 2.050055466436567 -0.5200046160127103 1.1399895127138917
3.88351392746 0.3806521222905705 -0.0899126483362223 -1.055057132670696 2.141071448986946 2.050055466436567 -0.5200046160127103 1.1399895127138917
3.89350700378 0.3806521222905705 -0.0899126483362223 -1.055057132670696 2.141071448986946 2.050055466436567 -0.5200046160127103 1.1399895127138917
3.89350700378 0.3806521222905705 -0.0899126483362223 -1.055057132670696 2.141071448986946 2.050055466436567 -0.5200046160127103 1.1399895127138917
3.90349006653 0.3806521222905705 -0.0899126483362223 -1.055057132670696 2.141071448986946 2.050055466436567 -0.5200046160127103 1.1399895127138917
3.90349006653 0.3806521222905705 -0.0899126483362223 -1.055057132670696 2.141071448986946 2.050055466436567 -0.5200046160127103 1.1399895127138917
3.91352105141 0.3806521222905705 -0.0899126483362223 -1.055057132670696 2.141071448986946 2.050055466436567 -0.5200046160127103 1.1399895127138917
3.91352105141 0.3806521222905705 -0.0899126483362223 -1.055057132670696 2.141071448986946 2.050055466436567 -0.5200046160127103 1.1399895127138917
3.92330288887 0.3806521222905705 -0.0899126483362223 -1.055057132670696 2.141071448986946 2.050055466436567 -0.5200046160127103 1.1399895127138917
3.92330288887 0.3806521222905705 -0.0899126483362223 -1.055057132670696 2.141071448986946 2.050055466436567 -0.5200046160127103 1.1399895127138917
3.93327999115 0.3806521222905705 -0.0899126483362223 -1.055057132670696 2.141071448986946 2.050055466436567 -0.5200046160127103 1.1399895127138917
3.93327999115 0.3806521222905705 -0.0899126483362223 -1.055057132670696 2.141071448986946 2.050055466436567 -0.5200046160127103 1.1399895127138917
3.94344592094 0.3806521222905705 -0.0899126483362223 -1.055057132670696 2.141071448986946 2.050055466436567 -0.5200046160127103 1.1399895127138917
3.94344592094 0.3806521222905705 -0.0899126483362223 -1.055057132670696 2.141071448986946 2.050055466436567 -0.5200046160127103 1.1399895127138917
3.95340299606 0.3806521222905705 -0.0899126483362223 -1.055057132670696 2.141071448986946 2.050055466436567 -0.5200046160127103 1.1399895127138917
3.95340299606 0.3806521222905705 -0.0899126483362223 -1.055057132670696 2.141071448986946 2.050055466436567 -0.5200046160127103 1.1399895127138917
3.96337294579 0.3806521222905705 -0.0899126483362223 -1.055057132670696 2.141071448986946 2.050055466436567 -0.5200046160127103 1.1399895127138917
3.96337294579 0.3806521222905705 -0.0899126483362223 -1.055057132670696 2.141071448986946 2.050055466436567 -0.5200046160127103 1.1399895127138917
3.97330403328 0.3806521222905705 -0.0899126483362223 -1.055057132670696 2.141071448986946 2.050055466436567 -0.5200046160127103 1.1399895127138917
3.97330403328 0.3806521222905705 -0.0899126483362223 -1.055057132670696 2.141071448986946 2.050055466436567 -0.5200046160127103 1.1399895127138917
3.9831609726 0.3806521222905705 -0.0899126483362223 -1.055057132670696 2.141071448986946 2.050055466436567 -0.5200046160127103 1.1399895127138917
3.9831609726 0.3806521222905705 -0.0899126483362223 -1.055057132670696 2.141071448986946 2.050055466436567 -0.5200046160127103 1.1399895127138917
3.99312400818 0.3806521222905705 -0.0899126483362223 -1.055057132670696 2.141071448986946 2.050055466436567 -0.5200046160127103 1.1399895127138917
3.99312400818 0.3806521222905705 -0.0899126483362223 -1.055057132670696 2.141071448986946 2.050055466436567 -0.5200046160127103 1.1399895127138917
4.00304508209 0.3806521222905705 -0.0899126483362223 -1.055057132670696 2.141071448986946 2.050055466436567 -0.5200046160127103 1.1399895127138917
4.00304508209 0.3806521222905705 -0.0899126483362223 -1.055057132670696 2.141071448986946 2.050055466436567 -0.5200046160127103 1.1399895127138917
4.01313686371 0.3806521222905705 -0.0899126483362223 -1.055057132670696 2.141071448986946 2.050055466436567 -0.5200046160127103 1.1399895127138917
4.01313686371 0.3806521222905705 -0.0899126483362223 -1.055057132670696 2.141071448986946 2.050055466436567 -0.5200046160127103 1.1399895127138917
4.02317094803 0.3806521222905705 -0.0899126483362223 -1.055057132670696 2.141071448986946 2.050055466436567 -0.5200046160127103 1.1399895127138917
4.02317094803 0.3806521222905705 -0.0899126483362223 -1.055057132670696 2.141071448986946 2.050055466436567 -0.5200046160127103 1.1399895127138917
4.03324890137 0.3806521222905705 -0.0899126483362223 -1.055057132670696 2.141071448986946 2.050055466436567 -0.5200046160127103 1.1399895127138917
4.03324890137 0.3806521222905705 -0.0899126483362223 -1.055057132670696 2.141071448986946 2.050055466436567 -0.5200046160127103 1.1399895127138917
4.04333686829 0.3806521222905705 -0.0899126483362223 -1.055057132670696 2.141071448986946 2.050055466436567 -0.5200046160127103 1.1399895127138917
4.04333686829 0.3806521222905705 -0.0899126483362223 -1.055057132670696 2.141071448986946 2.050055466436567 -0.5200046160127103 1.1399895127138917
4.0534389019 0.3806521222905705 -0.0899126483362223 -1.055057132670696 2.141071448986946 2.050055466436567 -0.5200046160127103 1.1399895127138917
4.0534389019 0.3806521222905705 -0.0899126483362223 -1.055057132670696 2.141071448986946 2.050055466436567 -0.5200046160127103 1.1399895127138917
4.06342291832 0.3806521222905705 -0.0899126483362223 -1.055057132670696 2.141071448986946 2.050055466436567 -0.5200046160127103 1.1399895127138917
4.06342291832 0.3806521222905705 -0.0899126483362223 -1.055057132670696 2.141071448986946 2.050055466436567 -0.5200046160127103 1.1399895127138917
4.07337999344 0.3806521222905705 -0.0899126483362223 -1.055057132670696 2.141071448986946 2.050055466436567 -0.5200046160127103 1.1399895127138917
4.07337999344 0.3806521222905705 -0.0899126483362223 -1.055057132670696 2.141071448986946 2.050055466436567 -0.5200046160127103 1.1399895127138917
4.08339285851 0.3806521222905705 -0.0899126483362223 -1.055057132670696 2.141071448986946 2.050055466436567 -0.5200046160127103 1.1399895127138917
4.08339285851 0.3806521222905705 -0.0899126483362223 -1.055057132670696 2.141071448986946 2.050055466436567 -0.5200046160127103 1.1399895127138917
4.09346199036 0.3806521222905705 -0.0899126483362223 -1.055057132670696 2.141071448986946 2.050055466436567 -0.5200046160127103 1.1399895127138917
4.09346199036 0.3806521222905705 -0.0899126483362223 -1.055057132670696 2.141071448986946 2.050055466436567 -0.5200046160127103 1.1399895127138917
4.10345888138 0.3806521222905705 -0.0899126483362223 -1.055057132670696 2.141071448986946 2.050055466436567 -0.5200046160127103 1.1399895127138917
4.10345888138 0.3806521222905705 -0.0899126483362223 -1.055057132670696 2.141071448986946 2.050055466436567 -0.5200046160127103 1.1399895127138917
4.11349105835 0.3806521222905705 -0.0899126483362223 -1.055057132670696 2.141071448986946 2.050055466436567 -0.5200046160127103 1.1399895127138917
4.11349105835 0.3806521222905705 -0.0899126483362223 -1.055057132670696 2.141071448986946 2.050055466436567 -0.5200046160127103 1.1399895127138917
4.1234869957 0.3806521222905705 -0.0899126483362223 -1.055057132670696 2.141071448986946 2.050055466436567 -0.5200046160127103 1.1399895127138917
4.1234869957 0.3806521222905705 -0.0899126483362223 -1.055057132670696 2.141071448986946 2.050055466436567 -0.5200046160127103 1.1399895127138917
4.13333392143 0.3806521222905705 -0.0899126483362223 -1.055057132670696 2.141071448986946 2.050055466436567 -0.5200046160127103 1.1399895127138917
4.13333392143 0.3806521222905705 -0.0899126483362223 -1.055057132670696 2.141071448986946 2.050055466436567 -0.5200046160127103 1.1399895127138917
4.14341902733 0.3806521222905705 -0.0899126483362223 -1.055057132670696 2.141071448986946 2.050055466436567 -0.5200046160127103 1.1399895127138917
4.14341902733 0.3806521222905705 -0.0899126483362223 -1.055057132670696 2.141071448986946 2.050055466436567 -0.5200046160127103 1.1399895127138917
4.15352606773 0.3806521222905705 -0.0899126483362223 -1.055057132670696 2.141071448986946 2.050055466436567 -0.5200046160127103 1.1399895127138917
4.15352606773 0.3806521222905705 -0.0899126483362223 -1.055057132670696 2.141071448986946 2.050055466436567 -0.5200046160127103 1.1399895127138917
4.16352200508 0.3806521222905705 -0.0899126483362223 -1.055057132670696 2.141071448986946 2.050055466436567 -0.5200046160127103 1.1399895127138917
4.16352200508 0.3806521222905705 -0.0899126483362223 -1.055057132670696 2.141071448986946 2.050055466436567 -0.5200046160127103 1.1399895127138917
4.17336297035 0.3806521222905705 -0.0899126483362223 -1.055057132670696 2.141071448986946 2.050055466436567 -0.5200046160127103 1.1399895127138917
4.17336297035 0.3806521222905705 -0.0899126483362223 -1.055057132670696 2.141071448986946 2.050055466436567 -0.5200046160127103 1.1399895127138917
4.18349885941 0.3806521222905705 -0.0899126483362223 -1.055057132670696 2.141071448986946 2.050055466436567 -0.5200046160127103 1.1399895127138917
4.18349885941 0.3806521222905705 -0.0899126483362223 -1.055057132670696 2.141071448986946 2.050055466436567 -0.5200046160127103 1.1399895127138917
4.19357895851 0.3806521222905705 -0.0899126483362223 -1.055057132670696 2.141071448986946 2.050055466436567 -0.5200046160127103 1.1399895127138917
4.19357895851 0.3806521222905705 -0.0899126483362223 -1.055057132670696 2.141071448986946 2.050055466436567 -0.5200046160127103 1.1399895127138917
4.2035138607 0.3806521222905705 -0.0899126483362223 -1.055057132670696 2.141071448986946 2.050055466436567 -0.5200046160127103 1.1399895127138917
4.2035138607 0.3806521222905705 -0.0899126483362223 -1.055057132670696 2.141071448986946 2.050055466436567 -0.5200046160127103 1.1399895127138917
4.21352791786 0.3806521222905705 -0.0899126483362223 -1.055057132670696 2.141071448986946 2.050055466436567 -0.5200046160127103 1.1399895127138917
4.21352791786 0.3806521222905705 -0.0899126483362223 -1.055057132670696 2.141071448986946 2.050055466436567 -0.5200046160127103 1.1399895127138917
4.22352290154 0.3806521222905705 -0.0899126483362223 -1.055057132670696 2.141071448986946 2.050055466436567 -0.5200046160127103 1.1399895127138917
4.22352290154 0.3806521222905705 -0.0899126483362223 -1.055057132670696 2.141071448986946 2.050055466436567 -0.5200046160127103 1.1399895127138917
4.2335319519 0.3806521222905705 -0.0899126483362223 -1.055057132670696 2.141071448986946 2.050055466436567 -0.5200046160127103 1.1399895127138917
4.2335319519 0.3806521222905705 -0.0899126483362223 -1.055057132670696 2.141071448986946 2.050055466436567 -0.5200046160127103 1.1399895127138917
4.24353194237 0.3806521222905705 -0.0899126483362223 -1.055057132670696 2.141071448986946 2.050055466436567 -0.5200046160127103 1.1399895127138917
4.24353194237 0.3806521222905705 -0.0899126483362223 -1.055057132670696 2.141071448986946 2.050055466436567 -0.5200046160127103 1.1399895127138917
4.2533800602 0.3806521222905705 -0.0899126483362223 -1.055057132670696 2.141071448986946 2.050055466436567 -0.5200046160127103 1.1399895127138917
4.2533800602 0.3806521222905705 -0.0899126483362223 -1.055057132670696 2.141071448986946 2.050055466436567 -0.5200046160127103 1.1399895127138917
4.26348495483 0.3806521222905705 -0.0899126483362223 -1.055057132670696 2.141071448986946 2.050055466436567 -0.5200046160127103 1.1399895127138917
4.26348495483 0.3806521222905705 -0.0899126483362223 -1.055057132670696 2.141071448986946 2.050055466436567 -0.5200046160127103 1.1399895127138917
4.2733399868 0.3806521222905705 -0.0899126483362223 -1.055057132670696 2.141071448986946 2.050055466436567 -0.5200046160127103 1.1399895127138917
4.2733399868 0.3806521222905705 -0.0899126483362223 -1.055057132670696 2.141071448986946 2.050055466436567 -0.5200046160127103 1.1399895127138917
4.28343391418 0.3806521222905705 -0.0899126483362223 -1.055057132670696 2.141071448986946 2.050055466436567 -0.5200046160127103 1.1399895127138917
4.28343391418 0.3806521222905705 -0.0899126483362223 -1.055057132670696 2.141071448986946 2.050055466436567 -0.5200046160127103 1.1399895127138917
4.29350209236 0.3806521222905705 -0.0899126483362223 -1.055057132670696 2.141071448986946 2.050055466436567 -0.5200046160127103 1.1399895127138917
4.29350209236 0.3806521222905705 -0.0899126483362223 -1.055057132670696 2.141071448986946 2.050055466436567 -0.5200046160127103 1.1399895127138917
4.30327987671 0.3806521222905705 -0.0899126483362223 -1.055057132670696 2.141071448986946 2.050055466436567 -0.5200046160127103 1.1399895127138917
4.30327987671 0.3806521222905705 -0.0899126483362223 -1.055057132670696 2.141071448986946 2.050055466436567 -0.5200046160127103 1.1399895127138917
4.31351995468 0.3806521222905705 -0.0899126483362223 -1.055057132670696 2.141071448986946 2.050055466436567 -0.5200046160127103 1.1399895127138917
4.31351995468 0.3806521222905705 -0.0899126483362223 -1.055057132670696 2.141071448986946 2.050055466436567 -0.5200046160127103 1.1399895127138917
4.32338190079 0.3806521222905705 -0.0899126483362223 -1.055057132670696 2.141071448986946 2.050055466436567 -0.5200046160127103 1.1399895127138917
4.32338190079 0.3806521222905705 -0.0899126483362223 -1.055057132670696 2.141071448986946 2.050055466436567 -0.5200046160127103 1.1399895127138917
4.33349204063 0.3806521222905705 -0.0899126483362223 -1.055057132670696 2.141071448986946 2.050055466436567 -0.5200046160127103 1.1399895127138917
4.33349204063 0.3806521222905705 -0.0899126483362223 -1.055057132670696 2.141071448986946 2.050055466436567 -0.5200046160127103 1.1399895127138917
4.34342908859 0.3806521222905705 -0.0899126483362223 -1.055057132670696 2.141071448986946 2.050055466436567 -0.5200046160127103 1.1399895127138917
4.34342908859 0.3806521222905705 -0.0899126483362223 -1.055057132670696 2.141071448986946 2.050055466436567 -0.5200046160127103 1.1399895127138917
4.3534219265 0.3806521222905705 -0.0899126483362223 -1.055057132670696 2.141071448986946 2.050055466436567 -0.5200046160127103 1.1399895127138917
4.3534219265 0.3806521222905705 -0.0899126483362223 -1.055057132670696 2.141071448986946 2.050055466436567 -0.5200046160127103 1.1399895127138917
4.36329388618 0.3806521222905705 -0.0899126483362223 -1.055057132670696 2.141071448986946 2.050055466436567 -0.5200046160127103 1.1399895127138917
4.36329388618 0.3806521222905705 -0.0899126483362223 -1.055057132670696 2.141071448986946 2.050055466436567 -0.5200046160127103 1.1399895127138917
4.37348008156 0.3806521222905705 -0.0899126483362223 -1.055057132670696 2.141071448986946 2.050055466436567 -0.5200046160127103 1.1399895127138917
4.37348008156 0.3806521222905705 -0.0899126483362223 -1.055057132670696 2.141071448986946 2.050055466436567 -0.5200046160127103 1.1399895127138917
4.38357591629 0.3806521222905705 -0.0899126483362223 -1.055057132670696 2.141071448986946 2.050055466436567 -0.5200046160127103 1.1399895127138917
4.38357591629 0.3806521222905705 -0.0899126483362223 -1.055057132670696 2.141071448986946 2.050055466436567 -0.5200046160127103 1.1399895127138917
4.3935148716 0.3806521222905705 -0.0899126483362223 -1.055057132670696 2.141071448986946 2.050055466436567 -0.5200046160127103 1.1399895127138917
4.3935148716 0.3806521222905705 -0.0899126483362223 -1.055057132670696 2.141071448986946 2.050055466436567 -0.5200046160127103 1.1399895127138917
4.40345287323 0.3806521222905705 -0.0899126483362223 -1.055057132670696 2.141071448986946 2.050055466436567 -0.5200046160127103 1.1399895127138917
4.40345287323 0.3806521222905705 -0.0899126483362223 -1.055057132670696 2.141071448986946 2.050055466436567 -0.5200046160127103 1.1399895127138917
4.41354107857 0.3806521222905705 -0.0899126483362223 -1.055057132670696 2.141071448986946 2.050055466436567 -0.5200046160127103 1.1399895127138917
4.41354107857 0.3806521222905705 -0.0899126483362223 -1.055057132670696 2.141071448986946 2.050055466436567 -0.5200046160127103 1.1399895127138917
4.42352390289 0.3806521222905705 -0.0899126483362223 -1.055057132670696 2.141071448986946 2.050055466436567 -0.5200046160127103 1.1399895127138917
4.42352390289 0.3806521222905705 -0.0899126483362223 -1.055057132670696 2.141071448986946 2.050055466436567 -0.5200046160127103 1.1399895127138917
4.43353486061 0.3806521222905705 -0.0899126483362223 -1.055057132670696 2.141071448986946 2.050055466436567 -0.5200046160127103 1.1399895127138917
4.43353486061 0.3806521222905705 -0.0899126483362223 -1.055057132670696 2.141071448986946 2.050055466436567 -0.5200046160127103 1.1399895127138917
4.44346785545 0.3806521222905705 -0.0899126483362223 -1.055057132670696 2.141071448986946 2.050055466436567 -0.5200046160127103 1.1399895127138917
4.44346785545 0.3806521222905705 -0.0899126483362223 -1.055057132670696 2.141071448986946 2.050055466436567 -0.5200046160127103 1.1399895127138917
4.45350003242 0.3806521222905705 -0.0899126483362223 -1.055057132670696 2.141071448986946 2.050055466436567 -0.5200046160127103 1.1399895127138917
4.45350003242 0.3806521222905705 -0.0899126483362223 -1.055057132670696 2.141071448986946 2.050055466436567 -0.5200046160127103 1.1399895127138917
4.46354699135 0.3806521222905705 -0.0899126483362223 -1.055057132670696 2.141071448986946 2.050055466436567 -0.5200046160127103 1.1399895127138917
4.46354699135 0.3806521222905705 -0.0899126483362223 -1.055057132670696 2.141071448986946 2.050055466436567 -0.5200046160127103 1.1399895127138917
4.473528862 0.3806521222905705 -0.0899126483362223 -1.055057132670696 2.141071448986946 2.050055466436567 -0.5200046160127103 1.1399895127138917
4.473528862 0.3806521222905705 -0.0899126483362223 -1.055057132670696 2.141071448986946 2.050055466436567 -0.5200046160127103 1.1399895127138917
4.48355603218 0.3806521222905705 -0.0899126483362223 -1.055057132670696 2.141071448986946 2.050055466436567 -0.5200046160127103 1.1399895127138917
4.48355603218 0.3806521222905705 -0.0899126483362223 -1.055057132670696 2.141071448986946 2.050055466436567 -0.5200046160127103 1.1399895127138917
4.49351906776 0.3806521222905705 -0.0899126483362223 -1.055057132670696 2.141071448986946 2.050055466436567 -0.5200046160127103 1.1399895127138917
4.49351906776 0.3806521222905705 -0.0899126483362223 -1.055057132670696 2.141071448986946 2.050055466436567 -0.5200046160127103 1.1399895127138917
4.50352787971 0.3806521222905705 -0.0899126483362223 -1.055057132670696 2.141071448986946 2.050055466436567 -0.5200046160127103 1.1399895127138917
4.50352787971 0.3806521222905705 -0.0899126483362223 -1.055057132670696 2.141071448986946 2.050055466436567 -0.5200046160127103 1.1399895127138917
4.51360797882 0.3806521222905705 -0.0899126483362223 -1.055057132670696 2.141071448986946 2.050055466436567 -0.5200046160127103 1.1399895127138917
4.51360797882 0.3806521222905705 -0.0899126483362223 -1.055057132670696 2.141071448986946 2.050055466436567 -0.5200046160127103 1.1399895127138917
4.5235490799 0.3806521222905705 -0.0899126483362223 -1.055057132670696 2.141071448986946 2.050055466436567 -0.5200046160127103 1.1399895127138917
4.5235490799 0.3806521222905705 -0.0899126483362223 -1.055057132670696 2.141071448986946 2.050055466436567 -0.5200046160127103 1.1399895127138917
4.53357505798 0.3806521222905705 -0.0899126483362223 -1.055057132670696 2.141071448986946 2.050055466436567 -0.5200046160127103 1.1399895127138917
4.53357505798 0.3806521222905705 -0.0899126483362223 -1.055057132670696 2.141071448986946 2.050055466436567 -0.5200046160127103 1.1399895127138917
4.5433819294 0.3806521222905705 -0.0899126483362223 -1.055057132670696 2.141071448986946 2.050055466436567 -0.5200046160127103 1.1399895127138917
4.5433819294 0.3806521222905705 -0.0899126483362223 -1.055057132670696 2.141071448986946 2.050055466436567 -0.5200046160127103 1.1399895127138917
4.55349993706 0.3806521222905705 -0.0899126483362223 -1.055057132670696 2.141071448986946 2.050055466436567 -0.5200046160127103 1.1399895127138917
4.55349993706 0.3806521222905705 -0.0899126483362223 -1.055057132670696 2.141071448986946 2.050055466436567 -0.5200046160127103 1.1399895127138917
4.56352186203 0.3806521222905705 -0.0899126483362223 -1.055057132670696 2.141071448986946 2.050055466436567 -0.5200046160127103 1.1399895127138917
4.56352186203 0.3806521222905705 -0.0899126483362223 -1.055057132670696 2.141071448986946 2.050055466436567 -0.5200046160127103 1.1399895127138917
4.57346391678 0.3806521222905705 -0.0899126483362223 -1.055057132670696 2.141071448986946 2.050055466436567 -0.5200046160127103 1.1399895127138917
4.57346391678 0.3806521222905705 -0.0899126483362223 -1.055057132670696 2.141071448986946 2.050055466436567 -0.5200046160127103 1.1399895127138917
4.58343601227 0.3806521222905705 -0.0899126483362223 -1.055057132670696 2.141071448986946 2.050055466436567 -0.5200046160127103 1.1399895127138917
4.58343601227 0.3806521222905705 -0.0899126483362223 -1.055057132670696 2.141071448986946 2.050055466436567 -0.5200046160127103 1.1399895127138917
4.59347391129 0.3806521222905705 -0.0899126483362223 -1.055057132670696 2.141071448986946 2.050055466436567 -0.5200046160127103 1.1399895127138917
4.59347391129 0.3806521222905705 -0.0899126483362223 -1.055057132670696 2.141071448986946 2.050055466436567 -0.5200046160127103 1.1399895127138917
4.60356497765 0.3806521222905705 -0.0899126483362223 -1.055057132670696 2.141071448986946 2.050055466436567 -0.5200046160127103 1.1399895127138917
4.60356497765 0.3806521222905705 -0.0899126483362223 -1.055057132670696 2.141071448986946 2.050055466436567 -0.5200046160127103 1.1399895127138917
4.61351490021 0.3806521222905705 -0.0899126483362223 -1.055057132670696 2.141071448986946 2.050055466436567 -0.5200046160127103 1.1399895127138917
4.61351490021 0.3806521222905705 -0.0899126483362223 -1.055057132670696 2.141071448986946 2.050055466436567 -0.5200046160127103 1.1399895127138917
4.62344908714 0.3806521222905705 -0.0899126483362223 -1.055057132670696 2.141071448986946 2.050055466436567 -0.5200046160127103 1.1399895127138917
4.62344908714 0.3806521222905705 -0.0899126483362223 -1.055057132670696 2.141071448986946 2.050055466436567 -0.5200046160127103 1.1399895127138917
4.63338899612 0.3806521222905705 -0.0899126483362223 -1.055057132670696 2.141071448986946 2.050055466436567 -0.5200046160127103 1.1399895127138917
4.63338899612 0.3806521222905705 -0.0899126483362223 -1.055057132670696 2.141071448986946 2.050055466436567 -0.5200046160127103 1.1399895127138917
4.64342689514 0.3806521222905705 -0.0899126483362223 -1.055057132670696 2.141071448986946 2.050055466436567 -0.5200046160127103 1.1399895127138917
4.64342689514 0.3806521222905705 -0.0899126483362223 -1.055057132670696 2.141071448986946 2.050055466436567 -0.5200046160127103 1.1399895127138917
4.65351200104 0.3806521222905705 -0.0899126483362223 -1.055057132670696 2.141071448986946 2.050055466436567 -0.5200046160127103 1.1399895127138917
4.65351200104 0.3806521222905705 -0.0899126483362223 -1.055057132670696 2.141071448986946 2.050055466436567 -0.5200046160127103 1.1399895127138917
4.66343092918 0.3806521222905705 -0.0899126483362223 -1.055057132670696 2.141071448986946 2.050055466436567 -0.5200046160127103 1.1399895127138917
4.66343092918 0.3806521222905705 -0.0899126483362223 -1.055057132670696 2.141071448986946 2.050055466436567 -0.5200046160127103 1.1399895127138917
4.6734790802 0.3806521222905705 -0.0899126483362223 -1.055057132670696 2.141071448986946 2.050055466436567 -0.5200046160127103 1.1399895127138917
4.6734790802 0.3806521222905705 -0.0899126483362223 -1.055057132670696 2.141071448986946 2.050055466436567 -0.5200046160127103 1.1399895127138917
4.68332290649 0.3806521222905705 -0.0899126483362223 -1.055057132670696 2.141071448986946 2.050055466436567 -0.5200046160127103 1.1399895127138917
4.68332290649 0.3806521222905705 -0.0899126483362223 -1.055057132670696 2.141071448986946 2.050055466436567 -0.5200046160127103 1.1399895127138917
4.69350886345 0.3806521222905705 -0.0899126483362223 -1.055057132670696 2.141071448986946 2.050055466436567 -0.5200046160127103 1.1399895127138917
4.69350886345 0.3806521222905705 -0.0899126483362223 -1.055057132670696 2.141071448986946 2.050055466436567 -0.5200046160127103 1.1399895127138917
