riccardo-csl/Motion-Planning-for-TIAGo-Manipulator/T3_G_7/head_scan/head_scan/tiago_traiettorie_SG/1a-3b/place_3b_rep2.txt
time arm_1_joint arm_2_joint arm_3_joint arm_4_joint arm_5_joint arm_6_joint arm_7_joint
0.79356098175 0.8823778735676264 0.205628010363865 -1.1399180754677936 2.063021471229962 2.0501011210321587 -0.5199909196340328 1.1399849472543324
0.803503990173 0.8823778735676264 0.205628010363865 -1.1399180754677936 2.063021471229962 2.0501011210321587 -0.5199909196340328 1.1399849472543324
0.803503990173 0.8823778735676264 0.205628010363865 -1.1399180754677936 2.063021471229962 2.0501011210321587 -0.5199909196340328 1.1399849472543324
0.813410043716 0.8823778735676264 0.205628010363865 -1.1399180754677936 2.063021471229962 2.0501011210321587 -0.5199909196340328 1.1399849472543324
0.813410043716 0.8823778735676264 0.205628010363865 -1.1399180754677936 2.063021471229962 2.0501011210321587 -0.5199909196340328 1.1399849472543324
0.823895931244 0.8823778735676264 0.205628010363865 -1.1399180754677936 2.063021471229962 2.0501011210321587 -0.519995485093592 1.1399803817947731
0.823895931244 0.8823778735676264 0.205628010363865 -1.1399180754677936 2.063021471229962 2.0501011210321587 -0.519995485093592 1.1399803817947731
0.833471059799 0.8823778735676264 0.205628010363865 -1.1399180754677936 2.063021471229962 2.0501011210321587 -0.519995485093592 1.1399803817947731
0.833471059799 0.8823778735676264 0.205628010363865 -1.1399180754677936 2.063021471229962 2.0501011210321587 -0.519995485093592 1.1399803817947731
0.843641042709 0.8823778735676264 0.205628010363865 -1.1399180754677936 2.063021471229962 2.0501011210321587 -0.519995485093592 1.1399803817947731
0.843641042709 0.8823778735676264 0.205628010363865 -1.1399180754677936 2.063021471229962 2.0501011210321587 -0.519995485093592 1.1399803817947731
0.855600118637 0.8823778735676264 0.205628010363865 -1.1399180754677936 2.063021471229962 2.0501011210321587 -0.519995485093592 1.1399803817947731
0.855600118637 0.8823778735676264 0.205628010363865 -1.1399180754677936 2.063021471229962 2.0501011210321587 -0.519995485093592 1.1399803817947731
0.863680124283 0.8823778735676264 0.205628010363865 -1.1399180754677936 2.063021471229962 2.0501011210321587 -0.5199909196340328 1.1399849472543324
0.863680124283 0.8823778735676264 0.205628010363865 -1.1399180754677936 2.063021471229962 2.0501011210321587 -0.5199909196340328 1.1399849472543324
0.87372803688 0.8823778735676264 0.205628010363865 -1.1399180754677936 2.063021471229962 2.0501011210321587 -0.5199909196340328 1.1399849472543324
0.87372803688 0.8823778735676264 0.205628010363865 -1.1399180754677936 2.063021471229962 2.0501011210321587 -0.5199909196340328 1.1399849472543324
0.883818149567 0.8823778735676264 0.205628010363865 -1.1399180754677936 2.063021471229962 2.0501011210321587 -0.5199909196340328 1.1399849472543324
0.883818149567 0.8823778735676264 0.205628010363865 -1.1399180754677936 2.063021471229962 2.0501011210321587 -0.5199909196340328 1.1399849472543324
0.893701076508 0.8823778735676264 0.205628010363865 -1.1399180754677936 2.063021471229962 2.0501011210321587 -0.5199909196340328 1.1399849472543324
0.893701076508 0.8823778735676264 0.205628010363865 -1.1399180754677936 2.063021471229962 2.0501011210321587 -0.5199909196340328 1.1399849472543324
0.903605937958 0.8823778735676264 0.205628010363865 -1.1399180754677936 2.063021471229962 2.050091990113041 -0.5199909196340328 1.1399849472543324
0.903605937958 0.8823778735676264 0.205628010363865 -1.1399180754677936 2.063021471229962 2.050091990113041 -0.5199909196340328 1.1399849472543324
0.913749933243 0.8823778735676264 0.205628010363865 -1.1399180754677936 2.063021471229962 2.050091990113041 -0.5199909196340328 1.1399849472543324
0.913749933243 0.8823778735676264 0.205628010363865 -1.1399180754677936 2.063021471229962 2.050091990113041 -0.5199909196340328 1.1399849472543324
0.924101114273 0.8823778735676264 0.205628010363865 -1.1399180754677936 2.063021471229962 2.0501011210321587 -0.519995485093592 1.1399803817947731
0.924101114273 0.8823778735676264 0.205628010363865 -1.1399180754677936 2.063021471229962 2.0501011210321587 -0.519995485093592 1.1399803817947731
0.93367600441 0.8823778735676264 0.205628010363865 -1.1399180754677936 2.063021471229962 2.0501011210321587 -0.519995485093592 1.1399803817947731
0.93367600441 0.8823778735676264 0.205628010363865 -1.1399180754677936 2.063021471229962 2.0501011210321587 -0.519995485093592 1.1399803817947731
0.943727970123 0.8823778735676264 0.205628010363865 -1.1399180754677936 2.063021471229962 2.0501011210321587 -0.5199909196340328 1.1399849472543324
0.943727970123 0.8823778735676264 0.205628010363865 -1.1399180754677936 2.063021471229962 2.0501011210321587 -0.5199909196340328 1.1399849472543324
0.953809022903 0.8823778735676264 0.205628010363865 -1.1399180754677936 2.063021471229962 2.0501011210321587 -0.5199909196340328 1.1399849472543324
0.953809022903 0.8823778735676264 0.205628010363865 -1.1399180754677936 2.063021471229962 2.0501011210321587 -0.5199909196340328 1.1399849472543324
0.963767051697 0.8823778735676264 0.205628010363865 -1.1399180754677936 2.063021471229962 2.0501011210321587 -0.5199909196340328 1.1399849472543324
0.963767051697 0.8823778735676264 0.205628010363865 -1.1399180754677936 2.063021471229962 2.0501011210321587 -0.5199909196340328 1.1399849472543324
0.973711967468 0.8823778735676264 0.205628010363865 -1.1399180754677936 2.063021471229962 2.0501011210321587 -0.5199909196340328 1.1399849472543324
0.973711967468 0.8823778735676264 0.205628010363865 -1.1399180754677936 2.063021471229962 2.0501011210321587 -0.5199909196340328 1.1399849472543324
0.983817100525 0.8823778735676264 0.205628010363865 -1.1399180754677936 2.063021471229962 2.0501011210321587 -0.5199909196340328 1.1399849472543324
0.983817100525 0.8823778735676264 0.205628010363865 -1.1399180754677936 2.063021471229962 2.0501011210321587 -0.5199909196340328 1.1399849472543324
0.993601083755 0.8823778735676264 0.205628010363865 -1.1399180754677936 2.063021471229962 2.0501011210321587 -0.5199909196340328 1.1399849472543324
0.993601083755 0.8823778735676264 0.205628010363865 -1.1399180754677936 2.063021471229962 2.0501011210321587 -0.5199909196340328 1.1399849472543324
1.00371003151 0.8823778735676264 0.205628010363865 -1.1399180754677936 2.063021471229962 2.0501011210321587 -0.519995485093592 1.1399803817947731
1.00371003151 0.8823778735676264 0.205628010363865 -1.1399180754677936 2.063021471229962 2.0501011210321587 -0.519995485093592 1.1399803817947731
1.01382899284 0.8823778735676264 0.205628010363865 -1.1399180754677936 2.063021471229962 2.0501011210321587 -0.519995485093592 1.1399803817947731
1.01382899284 0.8823778735676264 0.205628010363865 -1.1399180754677936 2.063021471229962 2.0501011210321587 -0.519995485093592 1.1399803817947731
1.02371907234 0.8823778735676264 0.205628010363865 -1.1399180754677936 2.063021471229962 2.0501011210321587 -0.519995485093592 1.1399803817947731
1.02371907234 0.8823778735676264 0.205628010363865 -1.1399180754677936 2.063021471229962 2.0501011210321587 -0.519995485093592 1.1399803817947731
1.03404903412 0.882377873568 0.205628010364 -1.13991807547 2.06302147123 2.05010112103 -0.519995485094 1.13998038179
1.03404903412 0.882377873568 0.205628010364 -1.13991807547 2.06302147123 2.05010112103 -0.519995485094 1.13998038179
1.04366207123 0.8823778735676264 0.205628010363865 -1.1399180754677936 2.063021471229962 2.0501011210321587 -0.519995485093592 1.1399803817947731
1.04366207123 0.8823778735676264 0.205628010363865 -1.1399180754677936 2.063021471229962 2.0501011210321587 -0.519995485093592 1.1399803817947731
1.05369210243 0.8823778735676264 0.205628010363865 -1.1399180754677936 2.063021471229962 2.0501011210321587 -0.5199909196340328 1.1399849472543324
1.05369210243 0.8823778735676264 0.205628010363865 -1.1399180754677936 2.063021471229962 2.0501011210321587 -0.5199909196340328 1.1399849472543324
1.06370210648 0.8823778735676264 0.205628010363865 -1.139902735456442 2.063021471229962 2.0501011210321587 -0.5199909196340328 1.1399849472543324
1.06370210648 0.8823778735676264 0.205628010363865 -1.139902735456442 2.063021471229962 2.0501011210321587 -0.5199909196340328 1.1399849472543324
1.07380604744 0.8823778735676264 0.205628010363865 -1.139902735456442 2.063021471229962 2.0501011210321587 -0.5199909196340328 1.1399849472543324
1.07380604744 0.8823778735676264 0.205628010363865 -1.139902735456442 2.063021471229962 2.0501011210321587 -0.5199909196340328 1.1399849472543324
1.08371114731 0.8823778735676264 0.205628010363865 -1.139902735456442 2.063021471229962 2.0501011210321587 -0.5199909196340328 1.1399849472543324
1.08371114731 0.8823778735676264 0.205628010363865 -1.139902735456442 2.063021471229962 2.0501011210321587 -0.5199909196340328 1.1399849472543324
1.09372401237 0.8823778735676264 0.205628010363865 -1.139902735456442 2.063021471229962 2.0501011210321587 -0.5199909196340328 1.1399849472543324
1.09372401237 0.8823778735676264 0.205628010363865 -1.139902735456442 2.063021471229962 2.0501011210321587 -0.5199909196340328 1.1399849472543324
1.1038441658 0.8823778735676264 0.205628010363865 -1.139902735456442 2.063021471229962 2.0501011210321587 -0.5199909196340328 1.1399849472543324
1.1038441658 0.8823778735676264 0.205628010363865 -1.139902735456442 2.063021471229962 2.0501011210321587 -0.5199909196340328 1.1399849472543324
1.11359810829 0.8823778735676264 0.205628010363865 -1.139902735456442 2.063021471229962 2.0501011210321587 -0.5199909196340328 1.1399849472543324
1.11359810829 0.8823778735676264 0.205628010363865 -1.139902735456442 2.063021471229962 2.0501011210321587 -0.5199909196340328 1.1399849472543324
1.12362504005 0.8823778735676264 0.205628010363865 -1.139902735456442 2.063021471229962 2.0501011210321587 -0.519995485093592 1.1399803817947731
1.12362504005 0.8823778735676264 0.205628010363865 -1.139902735456442 2.063021471229962 2.0501011210321587 -0.519995485093592 1.1399803817947731
1.13379001617 0.8823778735676264 0.205628010363865 -1.139902735456442 2.063021471229962 2.0501011210321587 -0.519995485093592 1.1399803817947731
1.13379001617 0.8823778735676264 0.205628010363865 -1.139902735456442 2.063021471229962 2.0501011210321587 -0.519995485093592 1.1399803817947731
1.1438601017 0.8823625335562748 0.205628010363865 -1.139902735456442 2.063021471229962 2.0501011210321587 -0.520000050553151 1.1399758163352145
1.1438601017 0.8823625335562748 0.205628010363865 -1.139902735456442 2.063021471229962 2.0501011210321587 -0.520000050553151 1.1399758163352145
1.15377306938 0.8823625335562748 0.205628010363865 -1.139902735456442 2.063021471229962 2.0501011210321587 -0.520000050553151 1.1399758163352145
1.15377306938 0.8823625335562748 0.205628010363865 -1.139902735456442 2.063021471229962 2.0501011210321587 -0.520000050553151 1.1399758163352145
1.16376113892 0.8823625335562748 0.205628010363865 -1.139902735456442 2.063021471229962 2.0501011210321587 -0.520000050553151 1.1399758163352145
1.16376113892 0.8823625335562748 0.205628010363865 -1.139902735456442 2.063021471229962 2.0501011210321587 -0.520000050553151 1.1399758163352145
1.17360496521 0.8822858334995168 0.205628010363865 -1.139902735456442 2.063021471229962 2.0501011210321587 -0.5199909196340328 1.1399849472543324
1.17360496521 0.8822858334995168 0.205628010363865 -1.139902735456442 2.063021471229962 2.0501011210321587 -0.5199909196340328 1.1399849472543324
1.1836950779 0.8821017533632975 0.205628010363865 -1.139902735456442 2.063021471229962 2.0501011210321587 -0.5199909196340328 1.1399849472543324
1.1836950779 0.8821017533632975 0.205628010363865 -1.139902735456442 2.063021471229962 2.0501011210321587 -0.5199909196340328 1.1399849472543324
1.19383311272 0.8820710733405943 0.205628010363865 -1.1398873954450903 2.063021471229962 2.0501011210321587 -0.5199909196340328 1.1399849472543324
1.19383311272 0.8820710733405943 0.205628010363865 -1.1398873954450903 2.063021471229962 2.0501011210321587 -0.5199909196340328 1.1399849472543324
1.20393109322 0.8820710733405943 0.205628010363865 -1.1398873954450903 2.063021471229962 2.0501011210321587 -0.5199909196340328 1.1399849472543324
1.20393109322 0.8820710733405943 0.205628010363865 -1.1398873954450903 2.063021471229962 2.0501011210321587 -0.5199909196340328 1.1399849472543324
1.2144510746 0.8820710733405943 0.205628010363865 -1.1398873954450903 2.063021471229962 2.0501011210321587 -0.519995485093592 1.1399803817947731
1.2144510746 0.8820710733405943 0.205628010363865 -1.1398873954450903 2.063021471229962 2.0501011210321587 -0.519995485093592 1.1399803817947731
1.22354006767 0.8820710733405943 0.205628010363865 -1.1398873954450903 2.063021471229962 2.0501011210321587 -0.519995485093592 1.1399803817947731
1.22354006767 0.8820710733405943 0.205628010363865 -1.1398873954450903 2.063021471229962 2.0501011210321587 -0.519995485093592 1.1399803817947731
1.23364806175 0.8820710733405943 0.205628010363865 -1.1398873954450903 2.063021471229962 2.0501011210321587 -0.519995485093592 1.1399803817947731
1.23364806175 0.8820710733405943 0.205628010363865 -1.1398873954450903 2.063021471229962 2.0501011210321587 -0.519995485093592 1.1399803817947731
1.24366497993 0.8820710733405943 0.205628010363865 -1.1398873954450903 2.063021471229962 2.0501011210321587 -0.519995485093592 1.1399803817947731
1.24366497993 0.8820710733405943 0.205628010363865 -1.1398873954450903 2.063021471229962 2.0501011210321587 -0.519995485093592 1.1399803817947731
1.25372695923 0.8820710733405943 0.2056433503752166 -1.1398873954450903 2.063021471229962 2.0501011210321587 -0.5199909196340328 1.1399849472543324
1.25372695923 0.8820710733405943 0.2056433503752166 -1.1398873954450903 2.063021471229962 2.0501011210321587 -0.5199909196340328 1.1399849472543324
1.26344704628 0.8820710733405943 0.2056433503752166 -1.1398873954450903 2.063021471229962 2.0501011210321587 -0.5199909196340328 1.1399849472543324
1.26344704628 0.8820710733405943 0.2056433503752166 -1.1398873954450903 2.063021471229962 2.0501011210321587 -0.5199909196340328 1.1399849472543324
1.27355194092 0.8820710733405943 0.2056433503752166 -1.1398873954450903 2.063036811241314 2.0501011210321587 -0.5199909196340328 1.1399849472543324
1.27355194092 0.8820710733405943 0.2056433503752166 -1.1398873954450903 2.063036811241314 2.0501011210321587 -0.5199909196340328 1.1399849472543324
1.28381109238 0.8820710733405943 0.2056433503752166 -1.1398873954450903 2.063036811241314 2.0501011210321587 -0.5199909196340328 1.1399849472543324
1.28381109238 0.8820710733405943 0.2056433503752166 -1.1398873954450903 2.063036811241314 2.0501011210321587 -0.5199909196340328 1.1399849472543324
1.29374408722 0.8820710733405943 0.2056433503752166 -1.1398720554337387 2.0630521512526654 2.0501011210321587 -0.519995485093592 1.1399803817947731
1.29374408722 0.8820710733405943 0.2056433503752166 -1.1398720554337387 2.0630521512526654 2.0501011210321587 -0.519995485093592 1.1399803817947731
1.30373096466 0.8820710733405943 0.2056433503752166 -1.1398720554337387 2.0630521512526654 2.0501011210321587 -0.519995485093592 1.1399803817947731
1.30373096466 0.8820710733405943 0.2056433503752166 -1.1398720554337387 2.0630521512526654 2.0501011210321587 -0.519995485093592 1.1399803817947731
1.31375193596 0.8820710733405943 0.2056433503752166 -1.1398720554337387 2.0630521512526654 2.0501011210321587 -0.519995485093592 1.1399803817947731
1.31375193596 0.8820710733405943 0.2056433503752166 -1.1398720554337387 2.0630521512526654 2.0501011210321587 -0.519995485093592 1.1399803817947731
1.3238389492 0.8820710733405943 0.2056433503752166 -1.1398720554337387 2.0630521512526654 2.0501011210321587 -0.519995485093592 1.1399803817947731
1.3238389492 0.8820710733405943 0.2056433503752166 -1.1398720554337387 2.0630521512526654 2.0501011210321587 -0.519995485093592 1.1399803817947731
1.33366703987 0.8820710733405943 0.2056433503752166 -1.1398720554337387 2.0630521512526654 2.0501011210321587 -0.519995485093592 1.1399803817947731
1.33366703987 0.8820710733405943 0.2056433503752166 -1.1398720554337387 2.0630521512526654 2.0501011210321587 -0.519995485093592 1.1399803817947731
1.34393310547 0.8820710733405943 0.2056433503752166 -1.1398720554337387 2.0630521512526654 2.0501011210321587 -0.5199909196340328 1.1399849472543324
1.34393310547 0.8820710733405943 0.2056433503752166 -1.1398720554337387 2.0630521512526654 2.0501011210321587 -0.5199909196340328 1.1399849472543324
1.3538081646 0.8820710733405943 0.2056433503752166 -1.1398720554337387 2.0630521512526654 2.0501011210321587 -0.5199909196340328 1.1399849472543324
1.3538081646 0.8820710733405943 0.2056433503752166 -1.1398720554337387 2.0630521512526654 2.0501011210321587 -0.5199909196340328 1.1399849472543324
1.36374902725 0.8820710733405943 0.2056433503752166 -1.1398720554337387 2.0630521512526654 2.050091990113041 -0.5199909196340328 1.1399849472543324
1.36374902725 0.8820710733405943 0.2056433503752166 -1.1398720554337387 2.0630521512526654 2.050091990113041 -0.5199909196340328 1.1399849472543324
1.37381410599 0.8820710733405943 0.2056433503752166 -1.1398720554337387 2.0630521512526654 2.050091990113041 -0.5199909196340328 1.1399849472543324
1.37381410599 0.8820710733405943 0.2056433503752166 -1.1398720554337387 2.0630521512526654 2.050091990113041 -0.5199909196340328 1.1399849472543324
1.38383793831 0.8820710733405943 0.2056433503752166 -1.1398720554337387 2.0630521512526654 2.050091990113041 -0.5199909196340328 1.1399849472543324
1.38383793831 0.8820710733405943 0.2056433503752166 -1.1398720554337387 2.0630521512526654 2.050091990113041 -0.5199909196340328 1.1399849472543324
1.39372110367 0.8820710733405943 0.2056433503752166 -1.1398720554337387 2.0630521512526654 2.050091990113041 -0.5199909196340328 1.1399849472543324
1.39372110367 0.8820710733405943 0.2056433503752166 -1.1398720554337387 2.0630521512526654 2.050091990113041 -0.5199909196340328 1.1399849472543324
1.40387296677 0.8820710733405943 0.2056433503752166 -1.1398720554337387 2.0630521512526654 2.0501011210321587 -0.519995485093592 1.1399803817947731
1.40387296677 0.8820710733405943 0.2056433503752166 -1.1398720554337387 2.0630521512526654 2.0501011210321587 -0.519995485093592 1.1399803817947731
1.4138610363 0.8820710733405943 0.2056433503752166 -1.1398720554337387 2.0630521512526654 2.0501011210321587 -0.519995485093592 1.1399803817947731
1.4138610363 0.8820710733405943 0.2056433503752166 -1.1398720554337387 2.0630521512526654 2.0501011210321587 -0.519995485093592 1.1399803817947731
1.42362594604 0.8820710733405943 0.2056433503752166 -1.1398720554337387 2.0630521512526654 2.0501011210321587 -0.519995485093592 1.1399803817947731
1.42362594604 0.8820710733405943 0.2056433503752166 -1.1398720554337387 2.0630521512526654 2.0501011210321587 -0.519995485093592 1.1399803817947731
1.43356204033 0.8820710733405943 0.2056433503752166 -1.1398720554337387 2.0630521512526654 2.0501011210321587 -0.519995485093592 1.1399803817947731
1.43356204033 0.8820710733405943 0.2056433503752166 -1.1398720554337387 2.0630521512526654 2.0501011210321587 -0.519995485093592 1.1399803817947731
1.44381093979 0.8820710733405943 0.2056433503752166 -1.1398720554337387 2.0630521512526654 2.0501011210321587 -0.519995485093592 1.1399803817947731
1.44381093979 0.8820710733405943 0.2056433503752166 -1.1398720554337387 2.0630521512526654 2.0501011210321587 -0.519995485093592 1.1399803817947731
1.45363116264 0.8820710733405943 0.2056433503752166 -1.1398720554337387 2.0630521512526654 2.050091990113041 -0.5199909196340328 1.1399849472543324
1.45363116264 0.8820710733405943 0.2056433503752166 -1.1398720554337387 2.0630521512526654 2.050091990113041 -0.5199909196340328 1.1399849472543324
1.46365904808 0.8820710733405943 0.2056433503752166 -1.1398720554337387 2.0630521512526654 2.0501011210321587 -0.5199909196340328 1.1399849472543324
1.46365904808 0.8820710733405943 0.2056433503752166 -1.1398720554337387 2.0630521512526654 2.0501011210321587 -0.5199909196340328 1.1399849472543324
1.47365808487 0.8820710733405943 0.2056433503752166 -1.1398720554337387 2.0630521512526654 2.0501011210321587 -0.5199909196340328 1.1399849472543324
1.47365808487 0.8820710733405943 0.2056433503752166 -1.1398720554337387 2.0630521512526654 2.0501011210321587 -0.5199909196340328 1.1399849472543324
1.48379015923 0.8820710733405943 0.2056433503752166 -1.1398720554337387 2.0630521512526654 2.0501011210321587 -0.5199909196340328 1.1399849472543324
1.48379015923 0.8820710733405943 0.2056433503752166 -1.1398720554337387 2.0630521512526654 2.0501011210321587 -0.5199909196340328 1.1399849472543324
1.49377703667 0.8820710733405943 0.2056433503752166 -1.1398720554337387 2.0630521512526654 2.0501011210321587 -0.5199909196340328 1.1399849472543324
1.49377703667 0.8820710733405943 0.2056433503752166 -1.1398720554337387 2.0630521512526654 2.0501011210321587 -0.5199909196340328 1.1399849472543324
1.50381207466 0.8820710733405943 0.2056433503752166 -1.1398720554337387 2.063067491264017 2.0501011210321587 -0.519995485093592 1.1399803817947731
1.50381207466 0.8820710733405943 0.2056433503752166 -1.1398720554337387 2.063067491264017 2.0501011210321587 -0.519995485093592 1.1399803817947731
1.51376104355 0.8820710733405943 0.2056433503752166 -1.1398720554337387 2.063067491264017 2.0501011210321587 -0.519995485093592 1.1399803817947731
1.51376104355 0.8820710733405943 0.2056433503752166 -1.1398720554337387 2.063067491264017 2.0501011210321587 -0.519995485093592 1.1399803817947731
1.52358794212 0.8820710733405943 0.2056433503752166 -1.1398720554337387 2.063067491264017 2.0501011210321587 -0.519995485093592 1.1399803817947731
1.52358794212 0.8820710733405943 0.2056433503752166 -1.1398720554337387 2.063067491264017 2.0501011210321587 -0.519995485093592 1.1399803817947731
1.53379607201 0.8820710733405943 0.2056433503752166 -1.1398720554337387 2.063067491264017 2.0501011210321587 -0.519995485093592 1.1399803817947731
1.53379607201 0.8820710733405943 0.2056433503752166 -1.1398720554337387 2.063067491264017 2.0501011210321587 -0.519995485093592 1.1399803817947731
1.54383516312 0.8820710733405943 0.2056433503752166 -1.1398720554337387 2.063067491264017 2.0501011210321587 -0.5199909196340328 1.1399849472543324
1.54383516312 0.8820710733405943 0.2056433503752166 -1.1398720554337387 2.063067491264017 2.0501011210321587 -0.5199909196340328 1.1399849472543324
1.55361008644 0.8820710733405943 0.2056433503752166 -1.1398720554337387 2.063067491264017 2.0501011210321587 -0.5199909196340328 1.1399849472543324
1.55361008644 0.8820710733405943 0.2056433503752166 -1.1398720554337387 2.063067491264017 2.0501011210321587 -0.5199909196340328 1.1399849472543324
1.56362295151 0.8820710733405943 0.2056433503752166 -1.1398720554337387 2.063067491264017 2.0501011210321587 -0.5199909196340328 1.1399849472543324
1.56362295151 0.8820710733405943 0.2056433503752166 -1.1398720554337387 2.063067491264017 2.0501011210321587 -0.5199909196340328 1.1399849472543324
1.5741341114 0.8820710733405943 0.2056433503752166 -1.1398720554337387 2.063067491264017 2.0501011210321587 -0.519995485093592 1.1399803817947731
1.5741341114 0.8820710733405943 0.2056433503752166 -1.1398720554337387 2.063067491264017 2.0501011210321587 -0.519995485093592 1.1399803817947731
1.58341503143 0.8820710733405943 0.2056433503752166 -1.1398720554337387 2.063067491264017 2.0501011210321587 -0.519995485093592 1.1399803817947731
1.58341503143 0.8820710733405943 0.2056433503752166 -1.1398720554337387 2.063067491264017 2.0501011210321587 -0.519995485093592 1.1399803817947731
1.59347605705 0.8820710733405943 0.2056433503752166 -1.1398720554337387 2.063067491264017 2.0501011210321587 -0.519995485093592 1.1399803817947731
1.59347605705 0.8820710733405943 0.2056433503752166 -1.1398720554337387 2.063067491264017 2.0501011210321587 -0.519995485093592 1.1399803817947731
1.6038069725 0.8820710733405943 0.2056433503752166 -1.1398720554337387 2.063067491264017 2.050091990113041 -0.5199909196340328 1.1399849472543324
1.6038069725 0.8820710733405943 0.2056433503752166 -1.1398720554337387 2.063067491264017 2.050091990113041 -0.5199909196340328 1.1399849472543324
1.61357998848 0.8820710733405943 0.2056433503752166 -1.1398720554337387 2.063067491264017 2.050091990113041 -0.5199909196340328 1.1399849472543324
1.61357998848 0.8820710733405943 0.2056433503752166 -1.1398720554337387 2.063067491264017 2.050091990113041 -0.5199909196340328 1.1399849472543324
1.6236550808 0.8820710733405943 0.2056433503752166 -1.1398720554337387 2.063067491264017 2.050091990113041 -0.5199909196340328 1.1399849472543324
1.6236550808 0.8820710733405943 0.2056433503752166 -1.1398720554337387 2.063067491264017 2.050091990113041 -0.5199909196340328 1.1399849472543324
1.63376712799 0.8820710733405943 0.2056433503752166 -1.1398720554337387 2.063067491264017 2.050091990113041 -0.5199909196340328 1.1399849472543324
1.63376712799 0.8820710733405943 0.2056433503752166 -1.1398720554337387 2.063067491264017 2.050091990113041 -0.5199909196340328 1.1399849472543324
1.64368104935 0.8820710733405943 0.2056433503752166 -1.1398720554337387 2.063067491264017 2.050091990113041 -0.5199909196340328 1.1399849472543324
1.64368104935 0.8820710733405943 0.2056433503752166 -1.1398720554337387 2.063067491264017 2.050091990113041 -0.5199909196340328 1.1399849472543324
1.65378403664 0.8820710733405943 0.2056433503752166 -1.1398720554337387 2.063067491264017 2.050091990113041 -0.5199909196340328 1.1399849472543324
1.65378403664 0.8820710733405943 0.2056433503752166 -1.1398720554337387 2.063067491264017 2.050091990113041 -0.5199909196340328 1.1399849472543324
1.66381716728 0.8820710733405943 0.2056433503752166 -1.1398720554337387 2.063067491264017 2.050091990113041 -0.5199909196340328 1.1399849472543324
1.66381716728 0.8820710733405943 0.2056433503752166 -1.1398720554337387 2.063067491264017 2.050091990113041 -0.5199909196340328 1.1399849472543324
1.6737370491 0.8820710733405943 0.2056433503752166 -1.1398720554337387 2.063067491264017 2.050091990113041 -0.5199909196340328 1.1399849472543324
1.6737370491 0.8820710733405943 0.2056433503752166 -1.1398720554337387 2.063067491264017 2.050091990113041 -0.5199909196340328 1.1399849472543324
1.68383216858 0.8820710733405943 0.2056433503752166 -1.1398720554337387 2.063067491264017 2.050091990113041 -0.5199909196340328 1.1399849472543324
1.68383216858 0.8820710733405943 0.2056433503752166 -1.1398720554337387 2.063067491264017 2.050091990113041 -0.5199909196340328 1.1399849472543324
1.69383406639 0.8820710733405943 0.2056433503752166 -1.1398720554337387 2.063067491264017 2.0501011210321587 -0.5199909196340328 1.1399849472543324
1.69383406639 0.8820710733405943 0.2056433503752166 -1.1398720554337387 2.063067491264017 2.0501011210321587 -0.5199909196340328 1.1399849472543324
1.70387601852 0.8820710733405943 0.2056433503752166 -1.1398720554337387 2.063067491264017 2.0501011210321587 -0.5199909196340328 1.1399849472543324
1.70387601852 0.8820710733405943 0.2056433503752166 -1.1398720554337387 2.063067491264017 2.0501011210321587 -0.5199909196340328 1.1399849472543324
1.71370005608 0.8820710733405943 0.2056433503752166 -1.1398720554337387 2.063067491264017 2.0501011210321587 -0.5199909196340328 1.1399849472543324
1.71370005608 0.8820710733405943 0.2056433503752166 -1.1398720554337387 2.063067491264017 2.0501011210321587 -0.5199909196340328 1.1399849472543324
1.72359013557 0.8820710733405943 0.2056433503752166 -1.1398720554337387 2.063067491264017 2.0501011210321587 -0.5199909196340328 1.1399849472543324
1.72359013557 0.8820710733405943 0.2056433503752166 -1.1398720554337387 2.063067491264017 2.0501011210321587 -0.5199909196340328 1.1399849472543324
1.73366713524 0.8820710733405943 0.2056433503752166 -1.1398720554337387 2.063067491264017 2.0501011210321587 -0.5199909196340328 1.1399849472543324
1.73366713524 0.8820710733405943 0.2056433503752166 -1.1398720554337387 2.063067491264017 2.0501011210321587 -0.5199909196340328 1.1399849472543324
1.74376606941 0.8820710733405943 0.2056433503752166 -1.1398720554337387 2.063067491264017 2.0501011210321587 -0.5199909196340328 1.1399849472543324
1.74376606941 0.8820710733405943 0.2056433503752166 -1.1398720554337387 2.063067491264017 2.0501011210321587 -0.5199909196340328 1.1399849472543324
1.7538061142 0.8820710733405943 0.2056433503752166 -1.1398720554337387 2.063067491264017 2.0501011210321587 -0.519995485093592 1.1399803817947731
1.7538061142 0.8820710733405943 0.2056433503752166 -1.1398720554337387 2.063067491264017 2.0501011210321587 -0.519995485093592 1.1399803817947731
1.76368713379 0.8820710733405943 0.2056433503752166 -1.1398720554337387 2.063067491264017 2.0501011210321587 -0.519995485093592 1.1399803817947731
1.76368713379 0.8820710733405943 0.2056433503752166 -1.1398720554337387 2.063067491264017 2.0501011210321587 -0.519995485093592 1.1399803817947731
1.77376008034 0.8820710733405943 0.2056433503752166 -1.1398720554337387 2.063067491264017 2.0501011210321587 -0.519995485093592 1.1399803817947731
1.77376008034 0.8820710733405943 0.2056433503752166 -1.1398720554337387 2.063067491264017 2.0501011210321587 -0.519995485093592 1.1399803817947731
1.78427696228 0.8820710733405943 0.2056433503752166 -1.1398720554337387 2.063067491264017 2.0501011210321587 -0.519995485093592 1.1399803817947731
1.78427696228 0.8820710733405943 0.2056433503752166 -1.1398720554337387 2.063067491264017 2.0501011210321587 -0.519995485093592 1.1399803817947731
1.79346609116 0.8820710733405943 0.2056433503752166 -1.1398720554337387 2.063067491264017 2.0501011210321587 -0.519995485093592 1.1399803817947731
1.79346609116 0.8820710733405943 0.2056433503752166 -1.1398720554337387 2.063067491264017 2.0501011210321587 -0.519995485093592 1.1399803817947731
1.80337715149 0.8820710733405943 0.2056433503752166 -1.1398720554337387 2.063067491264017 2.0501011210321587 -0.519995485093592 1.1399803817947731
1.80337715149 0.8820710733405943 0.2056433503752166 -1.1398720554337387 2.063067491264017 2.0501011210321587 -0.519995485093592 1.1399803817947731
1.81364011765 0.8820710733405943 0.2056433503752166 -1.1398720554337387 2.063067491264017 2.0501011210321587 -0.519995485093592 1.1399803817947731
1.81364011765 0.8820710733405943 0.2056433503752166 -1.1398720554337387 2.063067491264017 2.0501011210321587 -0.519995485093592 1.1399803817947731
1.82382106781 0.8820710733405943 0.2056433503752166 -1.1398720554337387 2.063067491264017 2.0501011210321587 -0.519995485093592 1.1399803817947731
1.82382106781 0.8820710733405943 0.2056433503752166 -1.1398720554337387 2.063067491264017 2.0501011210321587 -0.519995485093592 1.1399803817947731
1.83364915848 0.8820710733405943 0.2056433503752166 -1.1398720554337387 2.0630981712867205 2.0501011210321587 -0.5199909196340328 1.1399849472543324
1.83364915848 0.8820710733405943 0.2056433503752166 -1.1398720554337387 2.0630981712867205 2.0501011210321587 -0.5199909196340328 1.1399849472543324
1.84377503395 0.8820710733405943 0.2056433503752166 -1.1398720554337387 2.0630981712867205 2.0501011210321587 -0.5199909196340328 1.1399849472543324
1.84377503395 0.8820710733405943 0.2056433503752166 -1.1398720554337387 2.0630981712867205 2.0501011210321587 -0.5199909196340328 1.1399849472543324
1.85371899605 0.8820710733405943 0.2056433503752166 -1.1398720554337387 2.0630981712867205 2.0501011210321587 -0.519995485093592 1.1399803817947731
1.85371899605 0.8820710733405943 0.2056433503752166 -1.1398720554337387 2.0630981712867205 2.0501011210321587 -0.519995485093592 1.1399803817947731
1.8636059761 0.8820710733405943 0.2056433503752166 -1.1398720554337387 2.0630981712867205 2.0501011210321587 -0.519995485093592 1.1399803817947731
1.8636059761 0.8820710733405943 0.2056433503752166 -1.1398720554337387 2.0630981712867205 2.0501011210321587 -0.519995485093592 1.1399803817947731
1.87375116348 0.8820710733405943 0.2056433503752166 -1.1398720554337387 2.0630981712867205 2.0501011210321587 -0.519995485093592 1.1399803817947731
1.87375116348 0.8820710733405943 0.2056433503752166 -1.1398720554337387 2.0630981712867205 2.0501011210321587 -0.519995485093592 1.1399803817947731
1.88394498825 0.8820710733405943 0.2056433503752166 -1.1398720554337387 2.0630981712867205 2.0501011210321587 -0.520000050553151 1.1399758163352145
1.88394498825 0.8820710733405943 0.2056433503752166 -1.1398720554337387 2.0630981712867205 2.0501011210321587 -0.520000050553151 1.1399758163352145
1.89365911484 0.8820557333292427 0.2056433503752166 -1.1398720554337387 2.0630981712867205 2.0501011210321587 -0.5199909196340328 1.1399849472543324
1.89365911484 0.8820557333292427 0.2056433503752166 -1.1398720554337387 2.0630981712867205 2.0501011210321587 -0.5199909196340328 1.1399849472543324
1.90385293961 0.8819483532497814 0.2056433503752166 -1.1398720554337387 2.063159531332127 2.050091990113041 -0.5199909196340328 1.1399849472543324
1.90385293961 0.8819483532497814 0.2056433503752166 -1.1398720554337387 2.063159531332127 2.050091990113041 -0.5199909196340328 1.1399849472543324
1.91379404068 0.8819483532497814 0.2056433503752166 -1.1398720554337387 2.063159531332127 2.050091990113041 -0.5199909196340328 1.1399849472543324
1.91379404068 0.8819483532497814 0.2056433503752166 -1.1398720554337387 2.063159531332127 2.050091990113041 -0.5199909196340328 1.1399849472543324
1.92361807823 0.8817642731135621 0.2056433503752166 -1.1398720554337387 2.0632055513661816 2.0501011210321587 -0.5199909196340328 1.1399849472543324
1.92361807823 0.8817642731135621 0.2056433503752166 -1.1398720554337387 2.0632055513661816 2.0501011210321587 -0.5199909196340328 1.1399849472543324
1.93381810188 0.8817642731135621 0.2056433503752166 -1.1398720554337387 2.0632055513661816 2.0501011210321587 -0.5199909196340328 1.1399849472543324
1.93381810188 0.8817642731135621 0.2056433503752166 -1.1398720554337387 2.0632055513661816 2.0501011210321587 -0.5199909196340328 1.1399849472543324
1.94387102127 0.8817642731135621 0.2056433503752166 -1.1398720554337387 2.0632055513661816 2.0501011210321587 -0.5199909196340328 1.1399849472543324
1.94387102127 0.8817642731135621 0.2056433503752166 -1.1398720554337387 2.0632055513661816 2.0501011210321587 -0.5199909196340328 1.1399849472543324
1.95368599892 0.8817642731135621 0.2056433503752166 -1.1398720554337387 2.0632055513661816 2.0501011210321587 -0.5199909196340328 1.1399849472543324
1.95368599892 0.8817642731135621 0.2056433503752166 -1.1398720554337387 2.0632055513661816 2.0501011210321587 -0.5199909196340328 1.1399849472543324
1.96378493309 0.88145747288653 0.2056433503752166 -1.1398720554337387 2.0632208913775334 2.0501011210321587 -0.519995485093592 1.1399803817947731
1.96378493309 0.88145747288653 0.2056433503752166 -1.1398720554337387 2.0632208913775334 2.0501011210321587 -0.519995485093592 1.1399803817947731
1.97374010086 0.88145747288653 0.2056433503752166 -1.1398720554337387 2.0632208913775334 2.0501011210321587 -0.519995485093592 1.1399803817947731
1.97374010086 0.88145747288653 0.2056433503752166 -1.1398720554337387 2.0632208913775334 2.0501011210321587 -0.519995485093592 1.1399803817947731
1.98383903503 0.8813961128411235 0.2056433503752166 -1.1398720554337387 2.063374291491049 2.0501011210321587 -0.5199909196340328 1.1399849472543324
1.98383903503 0.8813961128411235 0.2056433503752166 -1.1398720554337387 2.063374291491049 2.0501011210321587 -0.5199909196340328 1.1399849472543324
1.99377512932 0.8813961128411235 0.2056433503752166 -1.1398720554337387 2.0636657517067296 2.0501011210321587 -0.5199909196340328 1.1399849472543324
1.99377512932 0.8813961128411235 0.2056433503752166 -1.1398720554337387 2.0636657517067296 2.0501011210321587 -0.5199909196340328 1.1399849472543324
2.00384616852 0.8813961128411235 0.2056433503752166 -1.1398720554337387 2.0640492519905203 2.0501011210321587 -0.5199909196340328 1.1399849472543324
2.00384616852 0.8813961128411235 0.2056433503752166 -1.1398720554337387 2.0640492519905203 2.0501011210321587 -0.5199909196340328 1.1399849472543324
2.01371312141 0.8813961128411235 0.2056433503752166 -1.1398720554337387 2.0640492519905203 2.0501011210321587 -0.5199909196340328 1.1399849472543324
2.01371312141 0.8813961128411235 0.2056433503752166 -1.1398720554337387 2.0640492519905203 2.0501011210321587 -0.5199909196340328 1.1399849472543324
2.02383494377 0.8813961128411235 0.2056433503752166 -1.1398720554337387 2.0640492519905203 2.0501011210321587 -0.5199909196340328 1.1399849472543324
2.02383494377 0.8813961128411235 0.2056433503752166 -1.1398720554337387 2.0640492519905203 2.0501011210321587 -0.5199909196340328 1.1399849472543324
2.03381800652 0.8813961128411235 0.2056433503752166 -1.1398720554337387 2.0640492519905203 2.0501011210321587 -0.5199909196340328 1.1399849472543324
2.03381800652 0.8813961128411235 0.2056433503752166 -1.1398720554337387 2.0640492519905203 2.0501011210321587 -0.5199909196340328 1.1399849472543324
2.04386305809 0.8813961128411235 0.2056433503752166 -1.1398720554337387 2.0640492519905203 2.0501011210321587 -0.5199909196340328 1.1399849472543324
2.04386305809 0.8813961128411235 0.2056433503752166 -1.1398720554337387 2.0640492519905203 2.0501011210321587 -0.5199909196340328 1.1399849472543324
2.05378913879 0.8813961128411235 0.2056433503752166 -1.1398720554337387 2.0640492519905203 2.0501011210321587 -0.5199909196340328 1.1399849472543324
2.05378913879 0.8813961128411235 0.2056433503752166 -1.1398720554337387 2.0640492519905203 2.0501011210321587 -0.5199909196340328 1.1399849472543324
2.06355404854 0.8813961128411235 0.2056433503752166 -1.1398720554337387 2.0649696526716164 2.0501011210321587 -0.519995485093592 1.1399803817947731
2.06355404854 0.8813961128411235 0.2056433503752166 -1.1398720554337387 2.0649696526716164 2.0501011210321587 -0.519995485093592 1.1399803817947731
2.07356095314 0.8813961128411235 0.2056433503752166 -1.1398720554337387 2.0653531529554066 2.0501011210321587 -0.5199909196340328 1.1399849472543324
2.07356095314 0.8813961128411235 0.2056433503752166 -1.1398720554337387 2.0653531529554066 2.0501011210321587 -0.5199909196340328 1.1399849472543324
2.0837430954 0.8813961128411235 0.2056433503752166 -1.1398720554337387 2.065659953182439 2.0501011210321587 -0.5199909196340328 1.1399849472543324
2.0837430954 0.8813961128411235 0.2056433503752166 -1.1398720554337387 2.065659953182439 2.0501011210321587 -0.5199909196340328 1.1399849472543324
2.09379196167 0.8813961128411235 0.2056433503752166 -1.1398720554337387 2.065659953182439 2.0501011210321587 -0.5199909196340328 1.1399849472543324
2.09379196167 0.8813961128411235 0.2056433503752166 -1.1398720554337387 2.065659953182439 2.0501011210321587 -0.5199909196340328 1.1399849472543324
2.10383701324 0.8813961128411235 0.2056433503752166 -1.1398720554337387 2.065659953182439 2.0501011210321587 -0.5199909196340328 1.1399849472543324
2.10383701324 0.8813961128411235 0.2056433503752166 -1.1398720554337387 2.065659953182439 2.0501011210321587 -0.5199909196340328 1.1399849472543324
2.11379694939 0.8813961128411235 0.2056433503752166 -1.1398720554337387 2.065659953182439 2.0501011210321587 -0.5199909196340328 1.1399849472543324
2.11379694939 0.8813961128411235 0.2056433503752166 -1.1398720554337387 2.065659953182439 2.0501011210321587 -0.5199909196340328 1.1399849472543324
2.12381315231 0.8813961128411235 0.2056433503752166 -1.1398720554337387 2.065659953182439 2.0501011210321587 -0.5199909196340328 1.1399849472543324
2.12381315231 0.8813961128411235 0.2056433503752166 -1.1398720554337387 2.065659953182439 2.0501011210321587 -0.5199909196340328 1.1399849472543324
2.1337749958 0.8813961128411235 0.2056433503752166 -1.1398720554337387 2.065659953182439 2.0501011210321587 -0.5199909196340328 1.1399849472543324
2.1337749958 0.8813961128411235 0.2056433503752166 -1.1398720554337387 2.065659953182439 2.0501011210321587 -0.5199909196340328 1.1399849472543324
2.14367508888 0.8813961128411235 0.2056433503752166 -1.1398720554337387 2.065659953182439 2.0501011210321587 -0.5199909196340328 1.1399849472543324
2.14367508888 0.8813961128411235 0.2056433503752166 -1.1398720554337387 2.065659953182439 2.0501011210321587 -0.5199909196340328 1.1399849472543324
2.15380501747 0.8813961128411235 0.2056433503752166 -1.1398720554337387 2.065874713341361 2.0501011210321587 -0.5199909196340328 1.1399849472543324
2.15380501747 0.8813961128411235 0.2056433503752166 -1.1398720554337387 2.065874713341361 2.0501011210321587 -0.5199909196340328 1.1399849472543324
2.16367602348 0.8813961128411235 0.2056433503752166 -1.1398720554337387 2.066089473500284 2.0501011210321587 -0.519995485093592 1.1399803817947731
2.16367602348 0.8813961128411235 0.2056433503752166 -1.1398720554337387 2.066089473500284 2.0501011210321587 -0.519995485093592 1.1399803817947731
2.17378497124 0.8813961128411235 0.2056433503752166 -1.1398720554337387 2.066089473500284 2.0501011210321587 -0.519995485093592 1.1399803817947731
2.17378497124 0.8813961128411235 0.2056433503752166 -1.1398720554337387 2.066089473500284 2.0501011210321587 -0.519995485093592 1.1399803817947731
2.18385195732 0.8813961128411235 0.2056433503752166 -1.1398720554337387 2.0664729737840744 2.0501011210321587 -0.5199909196340328 1.1399849472543324
2.18385195732 0.8813961128411235 0.2056433503752166 -1.1398720554337387 2.0664729737840744 2.0501011210321587 -0.5199909196340328 1.1399849472543324
2.19368815422 0.8813961128411235 0.2056433503752166 -1.1398720554337387 2.0672092943289515 2.0501011210321587 -0.5199909196340328 1.1399849472543324
2.19368815422 0.8813961128411235 0.2056433503752166 -1.1398720554337387 2.0672092943289515 2.0501011210321587 -0.5199909196340328 1.1399849472543324
2.20373797417 0.8813961128411235 0.2056433503752166 -1.1402402157061773 2.069019415668441 2.0501011210321587 -0.5199909196340328 1.1399849472543324
2.20373797417 0.8813961128411235 0.2056433503752166 -1.1402402157061773 2.069019415668441 2.0501011210321587 -0.5199909196340328 1.1399849472543324
2.21378016472 0.8813961128411235 0.2056433503752166 -1.1402402157061773 2.069019415668441 2.0501011210321587 -0.5199909196340328 1.1399849472543324
2.21378016472 0.8813961128411235 0.2056433503752166 -1.1402402157061773 2.069019415668441 2.0501011210321587 -0.5199909196340328 1.1399849472543324
2.22386813164 0.8813961128411235 0.2056433503752166 -1.1402402157061773 2.069019415668441 2.0501011210321587 -0.5199909196340328 1.1399849472543324
2.22386813164 0.8813961128411235 0.2056433503752166 -1.1402402157061773 2.069019415668441 2.0501011210321587 -0.5199909196340328 1.1399849472543324
2.23362612724 0.8813961128411235 0.2056433503752166 -1.1402402157061773 2.069019415668441 2.0501011210321587 -0.5199909196340328 1.1399849472543324
2.23362612724 0.8813961128411235 0.2056433503752166 -1.1402402157061773 2.069019415668441 2.0501011210321587 -0.5199909196340328 1.1399849472543324
2.2437851429 0.8813807728297719 0.2056433503752166 -1.1405776959559126 2.06986311629278 2.0501011210321587 -0.519995485093592 1.1399803817947731
2.2437851429 0.8813807728297719 0.2056433503752166 -1.1405776959559126 2.06986311629278 2.0501011210321587 -0.519995485093592 1.1399803817947731
2.25370407104 0.8812733927503107 0.2056433503752166 -1.140991876262406 2.0704613767354925 2.0501011210321587 -0.5199909196340328 1.1399849472543324
2.25370407104 0.8812733927503107 0.2056433503752166 -1.140991876262406 2.0704613767354925 2.0501011210321587 -0.5199909196340328 1.1399849472543324
2.26366615295 0.8812733927503107 0.2056433503752166 -1.140991876262406 2.0704613767354925 2.0501011210321587 -0.5199909196340328 1.1399849472543324
2.26366615295 0.8812733927503107 0.2056433503752166 -1.140991876262406 2.0704613767354925 2.0501011210321587 -0.5199909196340328 1.1399849472543324
2.27379894257 0.880828532421114 0.2056433503752166 -1.1414827566256576 2.070860217030634 2.0501011210321587 -0.5199909196340328 1.1399849472543324
2.27379894257 0.880828532421114 0.2056433503752166 -1.1414827566256576 2.070860217030634 2.0501011210321587 -0.5199909196340328 1.1399849472543324
2.28379702568 0.880828532421114 0.2056433503752166 -1.1414827566256576 2.070860217030634 2.0501011210321587 -0.5199909196340328 1.1399849472543324
2.28379702568 0.880828532421114 0.2056433503752166 -1.1414827566256576 2.070860217030634 2.0501011210321587 -0.5199909196340328 1.1399849472543324
2.29376101494 0.88012289189894 0.2056433503752166 -1.1420043170116123 2.0711976972803696 2.0501011210321587 -0.5199909196340328 1.1399849472543324
2.29376101494 0.88012289189894 0.2056433503752166 -1.1420043170116123 2.0711976972803696 2.0501011210321587 -0.5199909196340328 1.1399849472543324
2.3038880825 0.88012289189894 0.2056433503752166 -1.1420043170116123 2.0711976972803696 2.0501011210321587 -0.5199909196340328 1.1399849472543324
2.3038880825 0.88012289189894 0.2056433503752166 -1.1420043170116123 2.0711976972803696 2.0501011210321587 -0.5199909196340328 1.1399849472543324
2.31383514404 0.88012289189894 0.2056433503752166 -1.1420043170116123 2.0711976972803696 2.0501011210321587 -0.5199909196340328 1.1399849472543324
2.31383514404 0.88012289189894 0.2056433503752166 -1.1420043170116123 2.0711976972803696 2.0501011210321587 -0.5199909196340328 1.1399849472543324
2.32387900352 0.88012289189894 0.2056433503752166 -1.1420043170116123 2.0711976972803696 2.0501011210321587 -0.5199909196340328 1.1399849472543324
2.32387900352 0.88012289189894 0.2056433503752166 -1.1420043170116123 2.0711976972803696 2.0501011210321587 -0.5199909196340328 1.1399849472543324
2.33381295204 0.88012289189894 0.2056433503752166 -1.1420043170116123 2.0711976972803696 2.0501011210321587 -0.5199909196340328 1.1399849472543324
2.33381295204 0.88012289189894 0.2056433503752166 -1.1420043170116123 2.0711976972803696 2.0501011210321587 -0.5199909196340328 1.1399849472543324
2.34387207031 0.8784508306616147 0.2056433503752166 -1.143354238010554 2.0720260578933565 2.0501011210321587 -0.5199909196340328 1.1399849472543324
2.34387207031 0.8784508306616147 0.2056433503752166 -1.143354238010554 2.0720260578933565 2.0501011210321587 -0.5199909196340328 1.1399849472543324
2.35366106033 0.8784508306616147 0.2056433503752166 -1.143354238010554 2.0720260578933565 2.0501011210321587 -0.5199909196340328 1.1399849472543324
2.35366106033 0.8784508306616147 0.2056433503752166 -1.143354238010554 2.0720260578933565 2.0501011210321587 -0.5199909196340328 1.1399849472543324
2.36380004883 0.8779752903097149 0.2056433503752166 -1.143937158441915 2.0721794580068726 2.0501011210321587 -0.5199909196340328 1.1399849472543324
2.36380004883 0.8779752903097149 0.2056433503752166 -1.143937158441915 2.0721794580068726 2.0501011210321587 -0.5199909196340328 1.1399849472543324
2.37379097939 0.8779752903097149 0.2056433503752166 -1.143937158441915 2.0721794580068726 2.0501011210321587 -0.5199909196340328 1.1399849472543324
2.37379097939 0.8779752903097149 0.2056433503752166 -1.143937158441915 2.0721794580068726 2.0501011210321587 -0.5199909196340328 1.1399849472543324
2.38366293907 0.8775611100032215 0.2056433503752166 -1.1449649392024728 2.072302178097685 2.0501011210321587 -0.5199909196340328 1.1399849472543324
2.38366293907 0.8775611100032215 0.2056433503752166 -1.1449649392024728 2.072302178097685 2.0501011210321587 -0.5199909196340328 1.1399849472543324
2.39389801025 0.8775611100032215 0.2056433503752166 -1.1449649392024728 2.072302178097685 2.0501011210321587 -0.5199909196340328 1.1399849472543324
2.39389801025 0.8775611100032215 0.2056433503752166 -1.1449649392024728 2.072302178097685 2.0501011210321587 -0.5199909196340328 1.1399849472543324
2.4038310051 0.8775611100032215 0.2056433503752166 -1.1449649392024728 2.072302178097685 2.0501011210321587 -0.5199909196340328 1.1399849472543324
2.4038310051 0.8775611100032215 0.2056433503752166 -1.1449649392024728 2.072302178097685 2.0501011210321587 -0.5199909196340328 1.1399849472543324
2.41376304626 0.8775611100032215 0.2056433503752166 -1.1449649392024728 2.072302178097685 2.0501011210321587 -0.5199909196340328 1.1399849472543324
2.41376304626 0.8775611100032215 0.2056433503752166 -1.1449649392024728 2.072302178097685 2.0501011210321587 -0.5199909196340328 1.1399849472543324
2.42384815216 0.8775611100032215 0.2056433503752166 -1.1449649392024728 2.072302178097685 2.0501011210321587 -0.5199909196340328 1.1399849472543324
2.42384815216 0.8775611100032215 0.2056433503752166 -1.1449649392024728 2.072302178097685 2.0501011210321587 -0.5199909196340328 1.1399849472543324
2.43379998207 0.8775611100032215 0.2056433503752166 -1.1449649392024728 2.072302178097685 2.0501011210321587 -0.5199909196340328 1.1399849472543324
2.43379998207 0.8775611100032215 0.2056433503752166 -1.1449649392024728 2.072302178097685 2.0501011210321587 -0.5199909196340328 1.1399849472543324
2.44391202927 0.8775611100032215 0.2056433503752166 -1.1449649392024728 2.072302178097685 2.0501011210321587 -0.5199909196340328 1.1399849472543324
2.44391202927 0.8775611100032215 0.2056433503752166 -1.1449649392024728 2.072302178097685 2.0501011210321587 -0.5199909196340328 1.1399849472543324
2.4537460804 0.8766713893448281 0.2056433503752166 -1.1487232419836169 2.072608978324717 2.0501011210321587 -0.5199909196340328 1.1399849472543324
2.4537460804 0.8766713893448281 0.2056433503752166 -1.1487232419836169 2.072608978324717 2.0501011210321587 -0.5199909196340328 1.1399849472543324
2.46352100372 0.876011768856709 0.2056433503752166 -1.1516378441404225 2.072777718449585 2.0501011210321587 -0.5199909196340328 1.1399849472543324
2.46352100372 0.876011768856709 0.2056433503752166 -1.1516378441404225 2.072777718449585 2.0501011210321587 -0.5199909196340328 1.1399849472543324
2.47374296188 0.8751527282210189 0.2056433503752166 -1.1550279866491278 2.0730384986425627 2.0501011210321587 -0.5199909196340328 1.1399849472543324
2.47374296188 0.8751527282210189 0.2056433503752166 -1.1550279866491278 2.0730384986425627 2.0501011210321587 -0.5199909196340328 1.1399849472543324
2.4836871624 0.8751527282210189 0.2056433503752166 -1.1550279866491278 2.0730384986425627 2.0501011210321587 -0.5199909196340328 1.1399849472543324
2.4836871624 0.8751527282210189 0.2056433503752166 -1.1550279866491278 2.0730384986425627 2.0501011210321587 -0.5199909196340328 1.1399849472543324
2.495002985 0.8742323275399224 0.2056433503752166 -1.1591391096913588 2.07329927883554 2.0501011210321587 -0.5199909196340328 1.1399849472543324
2.495002985 0.8742323275399224 0.2056433503752166 -1.1591391096913588 2.07329927883554 2.0501011210321587 -0.5199909196340328 1.1399849472543324
2.50353097916 0.8742323275399224 0.2056433503752166 -1.1591391096913588 2.07329927883554 2.0501011210321587 -0.5199909196340328 1.1399849472543324
2.50353097916 0.8742323275399224 0.2056433503752166 -1.1591391096913588 2.07329927883554 2.0501011210321587 -0.5199909196340328 1.1399849472543324
2.51355600357 0.8734193069382872 0.2056433503752166 -1.1636490730287317 2.073606079062572 2.0501011210321587 -0.519995485093592 1.1399803817947731
2.51355600357 0.8734193069382872 0.2056433503752166 -1.1636490730287317 2.073606079062572 2.0501011210321587 -0.519995485093592 1.1399803817947731
2.52381014824 0.8734193069382872 0.2056433503752166 -1.1636490730287317 2.073606079062572 2.0501011210321587 -0.519995485093592 1.1399803817947731
2.52381014824 0.8734193069382872 0.2056433503752166 -1.1636490730287317 2.073606079062572 2.0501011210321587 -0.519995485093592 1.1399803817947731
2.53377795219 0.8734193069382872 0.2056433503752166 -1.1636490730287317 2.073606079062572 2.0501011210321587 -0.519995485093592 1.1399803817947731
2.53377795219 0.8734193069382872 0.2056433503752166 -1.1636490730287317 2.073606079062572 2.0501011210321587 -0.519995485093592 1.1399803817947731
2.54373407364 0.8726369663593552 0.2056433503752166 -1.1685732166725982 2.0740202593690653 2.0501011210321587 -0.5199909196340328 1.1399849472543324
2.54373407364 0.8726369663593552 0.2056433503752166 -1.1685732166725982 2.0740202593690653 2.0501011210321587 -0.5199909196340328 1.1399849472543324
2.55378508568 0.8726369663593552 0.2056433503752166 -1.1685732166725982 2.0740202593690653 2.0501011210321587 -0.5199909196340328 1.1399849472543324
2.55378508568 0.8726369663593552 0.2056433503752166 -1.1685732166725982 2.0740202593690653 2.0501011210321587 -0.5199909196340328 1.1399849472543324
2.56382107735 0.8726369663593552 0.2056433503752166 -1.1685732166725982 2.0740202593690653 2.0501011210321587 -0.5199909196340328 1.1399849472543324
2.56382107735 0.8726369663593552 0.2056433503752166 -1.1685732166725982 2.0740202593690653 2.0501011210321587 -0.5199909196340328 1.1399849472543324
2.57363700867 0.871701225666907 0.2056433503752166 -1.1741569808045835 2.074480459709614 2.0501011210321587 -0.5199909196340328 1.1399849472543324
2.57363700867 0.871701225666907 0.2056433503752166 -1.1741569808045835 2.074480459709614 2.0501011210321587 -0.5199909196340328 1.1399849472543324
2.58379197121 0.871701225666907 0.2056433503752166 -1.1741569808045835 2.074480459709614 2.0501011210321587 -0.5199909196340328 1.1399849472543324
2.58379197121 0.871701225666907 0.2056433503752166 -1.1741569808045835 2.074480459709614 2.0501011210321587 -0.5199909196340328 1.1399849472543324
2.5940489769 0.8693388639187594 0.2056433503752166 -1.185892089488564 2.0749253200388105 2.0501011210321587 -0.5199909196340328 1.1399849472543324
2.5940489769 0.8693388639187594 0.2056433503752166 -1.185892089488564 2.0749253200388105 2.0501011210321587 -0.5199909196340328 1.1399849472543324
2.60347294807 0.8684184632376628 0.2056433503752166 -1.1922275141767782 2.075032700118272 2.0501011210321587 -0.519995485093592 1.1399803817947731
2.60347294807 0.8684184632376628 0.2056433503752166 -1.1922275141767782 2.075032700118272 2.0501011210321587 -0.519995485093592 1.1399803817947731
2.61341810226 0.8684184632376628 0.2056433503752166 -1.1922275141767782 2.075032700118272 2.0501011210321587 -0.519995485093592 1.1399803817947731
2.61341810226 0.8684184632376628 0.2056433503752166 -1.1922275141767782 2.075032700118272 2.0501011210321587 -0.519995485093592 1.1399803817947731
2.62360501289 0.8674060224884567 0.2056433503752166 -1.1984862388082345 2.075078720152326 2.0501011210321587 -0.5199909196340328 1.1399849472543324
2.62360501289 0.8674060224884567 0.2056433503752166 -1.1984862388082345 2.075078720152326 2.0501011210321587 -0.5199909196340328 1.1399849472543324
2.63365197182 0.8674060224884567 0.2056433503752166 -1.1984862388082345 2.075078720152326 2.0501011210321587 -0.5199909196340328 1.1399849472543324
2.63365197182 0.8674060224884567 0.2056433503752166 -1.1984862388082345 2.075078720152326 2.0501011210321587 -0.5199909196340328 1.1399849472543324
2.64377212524 0.8674060224884567 0.2056433503752166 -1.1984862388082345 2.075078720152326 2.0501011210321587 -0.5199909196340328 1.1399849472543324
2.64377212524 0.8674060224884567 0.2056433503752166 -1.1984862388082345 2.075078720152326 2.0501011210321587 -0.5199909196340328 1.1399849472543324
2.65378499031 0.8674060224884567 0.2056433503752166 -1.1984862388082345 2.075078720152326 2.0501011210321587 -0.5199909196340328 1.1399849472543324
2.65378499031 0.8674060224884567 0.2056433503752166 -1.1984862388082345 2.075078720152326 2.0501011210321587 -0.5199909196340328 1.1399849472543324
2.66371202469 0.8674060224884567 0.2056433503752166 -1.1984862388082345 2.075078720152326 2.0501011210321587 -0.5199909196340328 1.1399849472543324
2.66371202469 0.8674060224884567 0.2056433503752166 -1.1984862388082345 2.075078720152326 2.0501011210321587 -0.5199909196340328 1.1399849472543324
2.67378306389 0.8674060224884567 0.2056433503752166 -1.1984862388082345 2.075078720152326 2.0501011210321587 -0.5199909196340328 1.1399849472543324
2.67378306389 0.8674060224884567 0.2056433503752166 -1.1984862388082345 2.075078720152326 2.0501011210321587 -0.5199909196340328 1.1399849472543324
2.6840929985 0.8658413413305927 0.2056433503752166 -1.2115559284798048 2.075140080197733 2.0501011210321587 -0.5199909196340328 1.1399849472543324
2.6840929985 0.8658413413305927 0.2056433503752166 -1.2115559284798048 2.075140080197733 2.0501011210321587 -0.5199909196340328 1.1399849472543324
2.69371008873 0.8658413413305927 0.2056433503752166 -1.2115559284798048 2.075140080197733 2.0501011210321587 -0.5199909196340328 1.1399849472543324
2.69371008873 0.8658413413305927 0.2056433503752166 -1.2115559284798048 2.075140080197733 2.0501011210321587 -0.5199909196340328 1.1399849472543324
2.7038230896 0.8658413413305927 0.2056433503752166 -1.2115559284798048 2.075140080197733 2.0501011210321587 -0.5199909196340328 1.1399849472543324
2.7038230896 0.8658413413305927 0.2056433503752166 -1.2115559284798048 2.075140080197733 2.0501011210321587 -0.5199909196340328 1.1399849472543324
2.71378493309 0.8658413413305927 0.2056433503752166 -1.2115559284798048 2.075140080197733 2.0501011210321587 -0.5199909196340328 1.1399849472543324
2.71378493309 0.8658413413305927 0.2056433503752166 -1.2115559284798048 2.075140080197733 2.0501011210321587 -0.5199909196340328 1.1399849472543324
2.72404694557 0.8658413413305927 0.2056433503752166 -1.2115559284798048 2.075140080197733 2.0501011210321587 -0.5199909196340328 1.1399849472543324
2.72404694557 0.8658413413305927 0.2056433503752166 -1.2115559284798048 2.075140080197733 2.0501011210321587 -0.5199909196340328 1.1399849472543324
2.73385214806 0.8658413413305927 0.2056433503752166 -1.2115559284798048 2.075140080197733 2.0501011210321587 -0.5199909196340328 1.1399849472543324
2.73385214806 0.8658413413305927 0.2056433503752166 -1.2115559284798048 2.075140080197733 2.0501011210321587 -0.5199909196340328 1.1399849472543324
2.74384307861 0.8644454002975962 0.205628010363865 -1.2249017383557042 2.0751707602204363 2.0501011210321587 -0.519995485093592 1.1399803817947731
2.74384307861 0.8644454002975962 0.205628010363865 -1.2249017383557042 2.0751707602204363 2.0501011210321587 -0.519995485093592 1.1399803817947731
2.75368499756 0.8644454002975962 0.205628010363865 -1.2249017383557042 2.0751707602204363 2.0501011210321587 -0.519995485093592 1.1399803817947731
2.75368499756 0.8644454002975962 0.205628010363865 -1.2249017383557042 2.0751707602204363 2.0501011210321587 -0.519995485093592 1.1399803817947731
2.76364898682 0.8644454002975962 0.205628010363865 -1.2249017383557042 2.0751707602204363 2.0501011210321587 -0.519995485093592 1.1399803817947731
2.76364898682 0.8644454002975962 0.205628010363865 -1.2249017383557042 2.0751707602204363 2.0501011210321587 -0.519995485093592 1.1399803817947731
2.77389097214 0.8626812989921613 0.205628010363865 -1.2385236684359324 2.0752321202658424 2.0501011210321587 -0.5199909196340328 1.1399849472543324
2.77389097214 0.8626812989921613 0.205628010363865 -1.2385236684359324 2.0752321202658424 2.0501011210321587 -0.5199909196340328 1.1399849472543324
2.78341794014 0.8620216785040421 0.205628010363865 -1.2452579334192884 2.075247460277194 2.0501011210321587 -0.5199909196340328 1.1399849472543324
2.78341794014 0.8620216785040421 0.205628010363865 -1.2452579334192884 2.075247460277194 2.0501011210321587 -0.5199909196340328 1.1399849472543324
2.79340004921 0.8613467180045713 0.205628010363865 -1.2519001583345348 2.075247460277194 2.0501011210321587 -0.5199909196340328 1.1399849472543324
2.79340004921 0.8613467180045713 0.205628010363865 -1.2519001583345348 2.075247460277194 2.0501011210321587 -0.5199909196340328 1.1399849472543324
2.80340313911 0.8613467180045713 0.205628010363865 -1.2519001583345348 2.075247460277194 2.0501011210321587 -0.5199909196340328 1.1399849472543324
2.80340313911 0.8613467180045713 0.205628010363865 -1.2519001583345348 2.075247460277194 2.0501011210321587 -0.5199909196340328 1.1399849472543324
2.81360507011 0.8613467180045713 0.205628010363865 -1.2519001583345348 2.075247460277194 2.0501011210321587 -0.5199909196340328 1.1399849472543324
2.81360507011 0.8613467180045713 0.205628010363865 -1.2519001583345348 2.075247460277194 2.0501011210321587 -0.5199909196340328 1.1399849472543324
2.82382893562 0.8613467180045713 0.205628010363865 -1.2519001583345348 2.075247460277194 2.0501011210321587 -0.5199909196340328 1.1399849472543324
2.82382893562 0.8613467180045713 0.205628010363865 -1.2519001583345348 2.075247460277194 2.0501011210321587 -0.5199909196340328 1.1399849472543324
2.83373093605 0.8599354369602233 0.205628010363865 -1.2647550878471827 2.075247460277194 2.0501011210321587 -0.5199909196340328 1.1399849472543324
2.83373093605 0.8599354369602233 0.205628010363865 -1.2647550878471827 2.075247460277194 2.0501011210321587 -0.5199909196340328 1.1399849472543324
2.84376597404 0.858892316188314 0.205628010363865 -1.2712745926716162 2.075247460277194 2.0501011210321587 -0.5199909196340328 1.1399849472543324
2.84376597404 0.858892316188314 0.205628010363865 -1.2712745926716162 2.075247460277194 2.0501011210321587 -0.5199909196340328 1.1399849472543324
2.85371804237 0.858892316188314 0.205628010363865 -1.2712745926716162 2.075247460277194 2.0501011210321587 -0.5199909196340328 1.1399849472543324
2.85371804237 0.858892316188314 0.205628010363865 -1.2712745926716162 2.075247460277194 2.0501011210321587 -0.5199909196340328 1.1399849472543324
2.86364412308 0.858892316188314 0.205628010363865 -1.2712745926716162 2.075247460277194 2.0501011210321587 -0.5199909196340328 1.1399849472543324
2.86364412308 0.858892316188314 0.205628010363865 -1.2712745926716162 2.075247460277194 2.0501011210321587 -0.5199909196340328 1.1399849472543324
2.87367415428 0.858892316188314 0.205628010363865 -1.2712745926716162 2.075247460277194 2.0501011210321587 -0.5199909196340328 1.1399849472543324
2.87367415428 0.858892316188314 0.205628010363865 -1.2712745926716162 2.075247460277194 2.0501011210321587 -0.5199909196340328 1.1399849472543324
2.88378000259 0.858892316188314 0.205628010363865 -1.2712745926716162 2.075247460277194 2.0501011210321587 -0.5199909196340328 1.1399849472543324
2.88378000259 0.858892316188314 0.205628010363865 -1.2712745926716162 2.075247460277194 2.0501011210321587 -0.5199909196340328 1.1399849472543324
2.89361596107 0.8578491954164046 0.205628010363865 -1.278254297836598 2.075247460277194 2.0501011210321587 -0.5199909196340328 1.1399849472543324
2.89361596107 0.8578491954164046 0.205628010363865 -1.278254297836598 2.075247460277194 2.0501011210321587 -0.5199909196340328 1.1399849472543324
2.90379500389 0.8555175136909602 0.205628010363865 -1.2917688478373652 2.075247460277194 2.0501011210321587 -0.519995485093592 1.1399803817947731
2.90379500389 0.8555175136909602 0.205628010363865 -1.2917688478373652 2.075247460277194 2.0501011210321587 -0.519995485093592 1.1399803817947731
2.91376614571 0.8555175136909602 0.205628010363865 -1.2917688478373652 2.075247460277194 2.0501011210321587 -0.519995485093592 1.1399803817947731
2.91376614571 0.8555175136909602 0.205628010363865 -1.2917688478373652 2.075247460277194 2.0501011210321587 -0.519995485093592 1.1399803817947731
2.92363405228 0.8555175136909602 0.205628010363865 -1.2917688478373652 2.075247460277194 2.0501011210321587 -0.519995485093592 1.1399803817947731
2.92363405228 0.8555175136909602 0.205628010363865 -1.2917688478373652 2.075247460277194 2.0501011210321587 -0.519995485093592 1.1399803817947731
2.93353796005 0.8538607924649865 0.205628010363865 -1.2989479731499178 2.075247460277194 2.0501011210321587 -0.5199909196340328 1.1399849472543324
2.93353796005 0.8538607924649865 0.205628010363865 -1.2989479731499178 2.075247460277194 2.0501011210321587 -0.5199909196340328 1.1399849472543324
2.94366693497 0.8538607924649865 0.205628010363865 -1.2989479731499178 2.075247460277194 2.0501011210321587 -0.5199909196340328 1.1399849472543324
2.94366693497 0.8538607924649865 0.205628010363865 -1.2989479731499178 2.075247460277194 2.0501011210321587 -0.5199909196340328 1.1399849472543324
2.953758955 0.8538607924649865 0.205628010363865 -1.2989479731499178 2.075247460277194 2.0501011210321587 -0.5199909196340328 1.1399849472543324
2.953758955 0.8538607924649865 0.205628010363865 -1.2989479731499178 2.075247460277194 2.0501011210321587 -0.5199909196340328 1.1399849472543324
2.9638209343 0.8538607924649865 0.205628010363865 -1.2989479731499178 2.075247460277194 2.0501011210321587 -0.5199909196340328 1.1399849472543324
2.9638209343 0.8538607924649865 0.205628010363865 -1.2989479731499178 2.075247460277194 2.0501011210321587 -0.5199909196340328 1.1399849472543324
2.97362804413 0.8538607924649865 0.205628010363865 -1.2989479731499178 2.075247460277194 2.0501011210321587 -0.5199909196340328 1.1399849472543324
2.97362804413 0.8538607924649865 0.205628010363865 -1.2989479731499178 2.075247460277194 2.0501011210321587 -0.5199909196340328 1.1399849472543324
2.98381996155 0.8538607924649865 0.205628010363865 -1.2989479731499178 2.075247460277194 2.0501011210321587 -0.5199909196340328 1.1399849472543324
2.98381996155 0.8538607924649865 0.205628010363865 -1.2989479731499178 2.075247460277194 2.0501011210321587 -0.5199909196340328 1.1399849472543324
2.99383807182 0.8538607924649865 0.205628010363865 -1.2989479731499178 2.075247460277194 2.0501011210321587 -0.5199909196340328 1.1399849472543324
2.99383807182 0.8538607924649865 0.205628010363865 -1.2989479731499178 2.075247460277194 2.0501011210321587 -0.5199909196340328 1.1399849472543324
3.00377702713 0.8538607924649865 0.205628010363865 -1.2989479731499178 2.075247460277194 2.0501011210321587 -0.5199909196340328 1.1399849472543324
3.00377702713 0.8538607924649865 0.205628010363865 -1.2989479731499178 2.075247460277194 2.0501011210321587 -0.5199909196340328 1.1399849472543324
3.01383900642 0.8538607924649865 0.205628010363865 -1.2989479731499178 2.075247460277194 2.0501011210321587 -0.5199909196340328 1.1399849472543324
3.01383900642 0.8538607924649865 0.205628010363865 -1.2989479731499178 2.075247460277194 2.0501011210321587 -0.5199909196340328 1.1399849472543324
3.02385616302 0.8538607924649865 0.205628010363865 -1.2989479731499178 2.075247460277194 2.0501011210321587 -0.5199909196340328 1.1399849472543324
3.02385616302 0.8538607924649865 0.205628010363865 -1.2989479731499178 2.075247460277194 2.0501011210321587 -0.5199909196340328 1.1399849472543324
3.03385400772 0.8538607924649865 0.205628010363865 -1.2989479731499178 2.075247460277194 2.0501011210321587 -0.5199909196340328 1.1399849472543324
3.03385400772 0.8538607924649865 0.205628010363865 -1.2989479731499178 2.075247460277194 2.0501011210321587 -0.5199909196340328 1.1399849472543324
3.04387593269 0.8538607924649865 0.205628010363865 -1.2989479731499178 2.075247460277194 2.0501011210321587 -0.5199909196340328 1.1399849472543324
3.04387593269 0.8538607924649865 0.205628010363865 -1.2989479731499178 2.075247460277194 2.0501011210321587 -0.5199909196340328 1.1399849472543324
3.05384016037 0.8538607924649865 0.205628010363865 -1.2989479731499178 2.075247460277194 2.0501011210321587 -0.5199909196340328 1.1399849472543324
3.05384016037 0.8538607924649865 0.205628010363865 -1.2989479731499178 2.075247460277194 2.0501011210321587 -0.5199909196340328 1.1399849472543324
3.06374597549 0.8538607924649865 0.205628010363865 -1.2989479731499178 2.075247460277194 2.0501011210321587 -0.5199909196340328 1.1399849472543324
3.06374597549 0.8538607924649865 0.205628010363865 -1.2989479731499178 2.075247460277194 2.0501011210321587 -0.5199909196340328 1.1399849472543324
3.07382416725 0.8538607924649865 0.205628010363865 -1.2989479731499178 2.075247460277194 2.0501011210321587 -0.5199909196340328 1.1399849472543324
3.07382416725 0.8538607924649865 0.205628010363865 -1.2989479731499178 2.075247460277194 2.0501011210321587 -0.5199909196340328 1.1399849472543324
3.08383202553 0.8538607924649865 0.205628010363865 -1.2989479731499178 2.075247460277194 2.0501011210321587 -0.5199909196340328 1.1399849472543324
3.08383202553 0.8538607924649865 0.205628010363865 -1.2989479731499178 2.075247460277194 2.0501011210321587 -0.5199909196340328 1.1399849472543324
3.09381699562 0.8538607924649865 0.205628010363865 -1.2989479731499178 2.075247460277194 2.0501011210321587 -0.5199909196340328 1.1399849472543324
3.09381699562 0.8538607924649865 0.205628010363865 -1.2989479731499178 2.075247460277194 2.0501011210321587 -0.5199909196340328 1.1399849472543324
3.10385107994 0.8538607924649865 0.205628010363865 -1.2989479731499178 2.075247460277194 2.0501011210321587 -0.5199909196340328 1.1399849472543324
3.10385107994 0.8538607924649865 0.205628010363865 -1.2989479731499178 2.075247460277194 2.0501011210321587 -0.5199909196340328 1.1399849472543324
3.11379814148 0.8538607924649865 0.205628010363865 -1.2989479731499178 2.075247460277194 2.0501011210321587 -0.5199909196340328 1.1399849472543324
3.11379814148 0.8538607924649865 0.205628010363865 -1.2989479731499178 2.075247460277194 2.0501011210321587 -0.5199909196340328 1.1399849472543324
3.12370896339 0.8538607924649865 0.205628010363865 -1.2989479731499178 2.075247460277194 2.0501011210321587 -0.5199909196340328 1.1399849472543324
3.12370896339 0.8538607924649865 0.205628010363865 -1.2989479731499178 2.075247460277194 2.0501011210321587 -0.5199909196340328 1.1399849472543324
3.13376998901 0.8538607924649865 0.205628010363865 -1.2989479731499178 2.075247460277194 2.0501011210321587 -0.5199909196340328 1.1399849472543324
3.13376998901 0.8538607924649865 0.205628010363865 -1.2989479731499178 2.075247460277194 2.0501011210321587 -0.5199909196340328 1.1399849472543324
3.14382410049 0.8538607924649865 0.205628010363865 -1.2989479731499178 2.075247460277194 2.0501011210321587 -0.5199909196340328 1.1399849472543324
3.14382410049 0.8538607924649865 0.205628010363865 -1.2989479731499178 2.075247460277194 2.0501011210321587 -0.5199909196340328 1.1399849472543324
3.15407013893 0.851881931001 0.205628010364 -1.3059123383 2.07524746028 2.05010112103 -0.519990919634 1.13998494725
3.15407013893 0.851881931001 0.205628010364 -1.3059123383 2.07524746028 2.05010112103 -0.519990919634 1.13998494725
3.16337203979 0.8408371228274709 0.205628010363865 -1.3477752292820877 2.075247460277194 2.0501011210321587 -0.5199909196340328 1.1399849472543324
3.16337203979 0.8408371228274709 0.205628010363865 -1.3477752292820877 2.075247460277194 2.0501011210321587 -0.5199909196340328 1.1399849472543324
3.17357993126 0.8408371228274709 0.205628010363865 -1.3477752292820877 2.075247460277194 2.0501011210321587 -0.5199909196340328 1.1399849472543324
3.17357993126 0.8408371228274709 0.205628010363865 -1.3477752292820877 2.075247460277194 2.0501011210321587 -0.5199909196340328 1.1399849472543324
3.18365502357 0.8366953197625366 0.205628010363865 -1.3612744392715028 2.075247460277194 2.0501011210321587 -0.5199909196340328 1.1399849472543324
3.18365502357 0.8366953197625366 0.205628010363865 -1.3612744392715028 2.075247460277194 2.0501011210321587 -0.5199909196340328 1.1399849472543324
3.19365906715 0.8296695945635 0.205628010363865 -1.380971013846968 2.075216780254491 2.0501011210321587 -0.519995485093592 1.1399803817947731
3.19365906715 0.8296695945635 0.205628010363865 -1.380971013846968 2.075216780254491 2.0501011210321587 -0.519995485093592 1.1399803817947731
3.20374798775 0.8296695945635 0.205628010363865 -1.380971013846968 2.075216780254491 2.0501011210321587 -0.519995485093592 1.1399803817947731
3.20374798775 0.8296695945635 0.205628010363865 -1.380971013846968 2.075216780254491 2.0501011210321587 -0.519995485093592 1.1399803817947731
3.21367812157 0.8246840908742272 0.205628010363865 -1.3939946834844834 2.074909980027458 2.0501011210321587 -0.5199909196340328 1.1399849472543324
3.21367812157 0.8246840908742272 0.205628010363865 -1.3939946834844834 2.074909980027458 2.0501011210321587 -0.5199909196340328 1.1399849472543324
3.22334909439 0.8218308487628281 0.205628010363865 -1.400360788195401 2.074710559879888 2.0501011210321587 -0.5199909196340328 1.1399849472543324
3.22334909439 0.8218308487628281 0.205628010363865 -1.400360788195401 2.074710559879888 2.0501011210321587 -0.5199909196340328 1.1399849472543324
3.23360705376 0.8218308487628281 0.205628010363865 -1.400360788195401 2.074710559879888 2.0501011210321587 -0.5199909196340328 1.1399849472543324
3.23360705376 0.8218308487628281 0.205628010363865 -1.400360788195401 2.074710559879888 2.0501011210321587 -0.5199909196340328 1.1399849472543324
3.24379515648 0.8218308487628281 0.205628010363865 -1.400360788195401 2.074710559879888 2.0501011210321587 -0.5199909196340328 1.1399849472543324
3.24379515648 0.8218308487628281 0.205628010363865 -1.400360788195401 2.074710559879888 2.0501011210321587 -0.5199909196340328 1.1399849472543324
3.25382113457 0.8218308487628281 0.205628010363865 -1.400360788195401 2.074710559879888 2.0501011210321587 -0.5199909196340328 1.1399849472543324
3.25382113457 0.8218308487628281 0.205628010363865 -1.400360788195401 2.074710559879888 2.0501011210321587 -0.5199909196340328 1.1399849472543324
3.26383495331 0.8218308487628281 0.205628010363865 -1.400360788195401 2.074710559879888 2.0501011210321587 -0.5199909196340328 1.1399849472543324
3.26383495331 0.8218308487628281 0.205628010363865 -1.400360788195401 2.074710559879888 2.0501011210321587 -0.5199909196340328 1.1399849472543324
3.27385902405 0.8218308487628281 0.205628010363865 -1.400360788195401 2.074710559879888 2.0501011210321587 -0.5199909196340328 1.1399849472543324
3.27385902405 0.8218308487628281 0.205628010363865 -1.400360788195401 2.074710559879888 2.0501011210321587 -0.5199909196340328 1.1399849472543324
3.28370809555 0.8218308487628281 0.205628010363865 -1.400360788195401 2.074710559879888 2.0501011210321587 -0.5199909196340328 1.1399849472543324
3.28370809555 0.8218308487628281 0.205628010363865 -1.400360788195401 2.074710559879888 2.0501011210321587 -0.5199909196340328 1.1399849472543324
3.29377913475 0.8218308487628281 0.205628010363865 -1.400360788195401 2.074710559879888 2.0501011210321587 -0.5199909196340328 1.1399849472543324
3.29377913475 0.8218308487628281 0.205628010363865 -1.400360788195401 2.074710559879888 2.0501011210321587 -0.5199909196340328 1.1399849472543324
3.30382609367 0.8218308487628281 0.205628010363865 -1.400360788195401 2.074710559879888 2.0501011210321587 -0.5199909196340328 1.1399849472543324
3.30382609367 0.8218308487628281 0.205628010363865 -1.400360788195401 2.074710559879888 2.0501011210321587 -0.5199909196340328 1.1399849472543324
3.31362104416 0.8218308487628281 0.205628010363865 -1.400360788195401 2.074710559879888 2.0501011210321587 -0.5199909196340328 1.1399849472543324
3.31362104416 0.8218308487628281 0.205628010363865 -1.400360788195401 2.074710559879888 2.0501011210321587 -0.5199909196340328 1.1399849472543324
3.32345604897 0.8161243645400298 0.205628010363865 -1.4135378579464326 2.074587839789075 2.0501011210321587 -0.519995485093592 1.1399803817947731
3.32345604897 0.8161243645400298 0.205628010363865 -1.4135378579464326 2.074587839789075 2.0501011210321587 -0.519995485093592 1.1399803817947731
3.33340215683 0.8079634785009742 0.205628010363865 -1.4339247330327205 2.074004919357714 2.0501011210321587 -0.5199909196340328 1.1399849472543324
3.33340215683 0.8079634785009742 0.205628010363865 -1.4339247330327205 2.074004919357714 2.0501011210321587 -0.5199909196340328 1.1399849472543324
3.34342098236 0.8079634785009742 0.205628010363865 -1.4339247330327205 2.074004919357714 2.0501011210321587 -0.5199909196340328 1.1399849472543324
3.34342098236 0.8079634785009742 0.205628010363865 -1.4339247330327205 2.074004919357714 2.0501011210321587 -0.5199909196340328 1.1399849472543324
3.35356807709 0.8048801362193008 0.205628010363865 -1.4402601577209344 2.0738515192441977 2.050091990113041 -0.519995485093592 1.1399803817947731
3.35356807709 0.8048801362193008 0.205628010363865 -1.4402601577209344 2.0738515192441977 2.050091990113041 -0.519995485093592 1.1399803817947731
3.36379313469 0.8048801362193008 0.205628010363865 -1.4402601577209344 2.0738515192441977 2.050091990113041 -0.519995485093592 1.1399803817947731
3.36379313469 0.8048801362193008 0.205628010363865 -1.4402601577209344 2.0738515192441977 2.050091990113041 -0.519995485093592 1.1399803817947731
3.37381911278 0.8048801362193008 0.205628010363865 -1.4402601577209344 2.0738515192441977 2.050091990113041 -0.519995485093592 1.1399803817947731
3.37381911278 0.8048801362193008 0.205628010363865 -1.4402601577209344 2.0738515192441977 2.050091990113041 -0.519995485093592 1.1399803817947731
3.38398814201 0.8017200938808695 0.205628010363865 -1.4468717026134776 2.0738208392214945 2.0501011210321587 -0.520000050553151 1.1399758163352145
3.38398814201 0.8017200938808695 0.205628010363865 -1.4468717026134776 2.0738208392214945 2.0501011210321587 -0.520000050553151 1.1399758163352145
3.39397406578 0.8017200938808695 0.205628010363865 -1.4468717026134776 2.0738208392214945 2.0501011210321587 -0.520000050553151 1.1399758163352145
3.39397406578 0.8017200938808695 0.205628010363865 -1.4468717026134776 2.0738208392214945 2.0501011210321587 -0.520000050553151 1.1399758163352145
3.40341997147 0.7986674316218995 0.205628010363865 -1.4533758674265596 2.073759479176088 2.0501011210321587 -0.5199909196340328 1.1399849472543324
3.40341997147 0.7986674316218995 0.205628010363865 -1.4533758674265596 2.073759479176088 2.0501011210321587 -0.5199909196340328 1.1399849472543324
3.41375899315 0.7955687493288746 0.205628010363865 -1.459511871967203 2.07368277911933 2.0501011210321587 -0.5199909196340328 1.1399849472543324
3.41375899315 0.7955687493288746 0.205628010363865 -1.459511871967203 2.07368277911933 2.0501011210321587 -0.5199909196340328 1.1399849472543324
3.42373204231 0.792454727024498 0.205628010363865 -1.46606205681434 2.073621419073924 2.0501011210321587 -0.519995485093592 1.1399803817947731
3.42373204231 0.792454727024498 0.205628010363865 -1.46606205681434 2.073621419073924 2.0501011210321587 -0.519995485093592 1.1399803817947731
3.43380093575 0.792454727024498 0.205628010363865 -1.46606205681434 2.073621419073924 2.0501011210321587 -0.519995485093592 1.1399803817947731
3.43380093575 0.792454727024498 0.205628010363865 -1.46606205681434 2.073621419073924 2.0501011210321587 -0.519995485093592 1.1399803817947731
3.44383215904 0.792454727024498 0.205628010363865 -1.46606205681434 2.073621419073924 2.0501011210321587 -0.519995485093592 1.1399803817947731
3.44383215904 0.792454727024498 0.205628010363865 -1.46606205681434 2.073621419073924 2.0501011210321587 -0.519995485093592 1.1399803817947731
3.45358896255 0.7892486646520118 0.205628010363865 -1.4721827213436316 2.073452678949056 2.0501011210321587 -0.519995485093592 1.1399803817947731
3.45358896255 0.7892486646520118 0.205628010363865 -1.4721827213436316 2.073452678949056 2.0501011210321587 -0.519995485093592 1.1399803817947731
3.46374702454 0.7892486646520118 0.205628010363865 -1.4721827213436316 2.073452678949056 2.0501011210321587 -0.519995485093592 1.1399803817947731
3.46374702454 0.7892486646520118 0.205628010363865 -1.4721827213436316 2.073452678949056 2.0501011210321587 -0.519995485093592 1.1399803817947731
3.47360110283 0.7892486646520118 0.205628010363865 -1.4721827213436316 2.073452678949056 2.0501011210321587 -0.519995485093592 1.1399803817947731
3.47360110283 0.7892486646520118 0.205628010363865 -1.4721827213436316 2.073452678949056 2.0501011210321587 -0.519995485093592 1.1399803817947731
3.48379802704 0.7892486646520118 0.205628010363865 -1.4721827213436316 2.073452678949056 2.0501011210321587 -0.519995485093592 1.1399803817947731
3.48379802704 0.7892486646520118 0.205628010363865 -1.4721827213436316 2.073452678949056 2.0501011210321587 -0.519995485093592 1.1399803817947731
3.49397015572 0.785950562211416 0.205628010363865 -1.4782420258275168 2.0732685988128368 2.0501011210321587 -0.519995485093592 1.1399803817947731
3.49397015572 0.785950562211416 0.205628010363865 -1.4782420258275168 2.0732685988128368 2.0501011210321587 -0.519995485093592 1.1399803817947731
3.50381493568 0.785950562211416 0.205628010363865 -1.4782420258275168 2.0732685988128368 2.0501011210321587 -0.519995485093592 1.1399803817947731
3.50381493568 0.785950562211416 0.205628010363865 -1.4782420258275168 2.0732685988128368 2.0501011210321587 -0.519995485093592 1.1399803817947731
3.51373004913 0.7826984798048751 0.205628010363865 -1.4845314304816764 2.0728390784949915 2.0501011210321587 -0.5199909196340328 1.1399849472543324
3.51373004913 0.7826984798048751 0.205628010363865 -1.4845314304816764 2.0728390784949915 2.0501011210321587 -0.5199909196340328 1.1399849472543324
3.52382707596 0.7792776572734664 0.205628010363865 -1.4905907349655616 2.0722561580636305 2.0501011210321587 -0.519995485093592 1.1399803817947731
3.52382707596 0.7792776572734664 0.205628010363865 -1.4905907349655616 2.0722561580636305 2.0501011210321587 -0.519995485093592 1.1399803817947731
3.53381109238 0.7792776572734664 0.205628010363865 -1.4905907349655616 2.0722561580636305 2.0501011210321587 -0.519995485093592 1.1399803817947731
3.53381109238 0.7792776572734664 0.205628010363865 -1.4905907349655616 2.0722561580636305 2.0501011210321587 -0.519995485093592 1.1399803817947731
3.54386615753 0.7792776572734664 0.205628010363865 -1.4905907349655616 2.0722561580636305 2.0501011210321587 -0.519995485093592 1.1399803817947731
3.54386615753 0.7792776572734664 0.205628010363865 -1.4905907349655616 2.0722561580636305 2.0501011210321587 -0.519995485093592 1.1399803817947731
3.55368995667 0.7755193544923223 0.205628010363865 -1.4965579993813374 2.0714431374619955 2.0501011210321587 -0.519995485093592 1.1399803817947731
3.55368995667 0.7755193544923223 0.205628010363865 -1.4965579993813374 2.0714431374619955 2.0501011210321587 -0.519995485093592 1.1399803817947731
3.56346201897 0.7716383316203654 0.205628010363865 -1.5014821430252037 2.070353996656031 2.0501011210321587 -0.519995485093592 1.1399803817947731
3.56346201897 0.7716383316203654 0.205628010363865 -1.5014821430252037 2.070353996656031 2.0501011210321587 -0.519995485093592 1.1399803817947731
3.57348299026 0.7683402291797696 0.2056740303979199 -1.5063142466009602 2.069172815781957 2.0501011210321587 -0.519995485093592 1.1399803817947731
3.57348299026 0.7683402291797696 0.2056740303979199 -1.5063142466009602 2.069172815781957 2.0501011210321587 -0.519995485093592 1.1399803817947731
3.58377099037 0.7656097071591833 0.2057507304546779 -1.510747509881575 2.0678689148170704 2.0501011210321587 -0.519995485093592 1.1399803817947731
3.58377099037 0.7656097071591833 0.2057507304546779 -1.510747509881575 2.0678689148170704 2.0501011210321587 -0.519995485093592 1.1399803817947731
3.59366703033 0.7656097071591833 0.2057507304546779 -1.510747509881575 2.0678689148170704 2.0501011210321587 -0.519995485093592 1.1399803817947731
3.59366703033 0.7656097071591833 0.2057507304546779 -1.510747509881575 2.0678689148170704 2.0501011210321587 -0.519995485093592 1.1399803817947731
3.60384702682 0.7626030649342681 0.2057967504887327 -1.514674552787587 2.0665803538635354 2.0501011210321587 -0.519995485093592 1.1399803817947731
3.60384702682 0.7626030649342681 0.2057967504887327 -1.514674552787587 2.0665803538635354 2.0501011210321587 -0.519995485093592 1.1399803817947731
3.61377716064 0.7626030649342681 0.2057967504887327 -1.514674552787587 2.0665803538635354 2.0501011210321587 -0.519995485093592 1.1399803817947731
3.61377716064 0.7626030649342681 0.2057967504887327 -1.514674552787587 2.0665803538635354 2.0501011210321587 -0.519995485093592 1.1399803817947731
3.62372493744 0.7626030649342681 0.2057967504887327 -1.514674552787587 2.0665803538635354 2.0501011210321587 -0.519995485093592 1.1399803817947731
3.62372493744 0.7626030649342681 0.2057967504887327 -1.514674552787587 2.0665803538635354 2.0501011210321587 -0.519995485093592 1.1399803817947731
3.63370800018 0.7626030649342681 0.2057967504887327 -1.514674552787587 2.0665803538635354 2.0501011210321587 -0.519995485093592 1.1399803817947731
3.63370800018 0.7626030649342681 0.2057967504887327 -1.514674552787587 2.0665803538635354 2.0501011210321587 -0.519995485093592 1.1399803817947731
3.64369916916 0.7589674822439368 0.2057967504887327 -1.5184481955800824 2.06500033269432 2.0501011210321587 -0.519995485093592 1.1399803817947731
3.64369916916 0.7589674822439368 0.2057967504887327 -1.5184481955800824 2.06500033269432 2.0501011210321587 -0.519995485093592 1.1399803817947731
3.65365695953 0.7589674822439368 0.2057967504887327 -1.5184481955800824 2.06500033269432 2.0501011210321587 -0.519995485093592 1.1399803817947731
3.65365695953 0.7589674822439368 0.2057967504887327 -1.5184481955800824 2.06500033269432 2.0501011210321587 -0.519995485093592 1.1399803817947731
3.66385316849 0.7548103391676511 0.2058120905000843 -1.5213167777028331 2.063543031615917 2.0501011210321587 -0.519995485093592 1.1399803817947731
3.66385316849 0.7548103391676511 0.2058120905000843 -1.5213167777028331 2.063543031615917 2.0501011210321587 -0.519995485093592 1.1399803817947731
3.67385196686 0.7548103391676511 0.2058120905000843 -1.5213167777028331 2.063543031615917 2.0501011210321587 -0.519995485093592 1.1399803817947731
3.67385196686 0.7548103391676511 0.2058120905000843 -1.5213167777028331 2.063543031615917 2.0501011210321587 -0.519995485093592 1.1399803817947731
3.68376111984 0.7548103391676511 0.2058120905000843 -1.5213167777028331 2.063543031615917 2.0501011210321587 -0.519995485093592 1.1399803817947731
3.68376111984 0.7548103391676511 0.2058120905000843 -1.5213167777028331 2.063543031615917 2.0501011210321587 -0.519995485093592 1.1399803817947731
3.69386005402 0.7548103391676511 0.2058120905000843 -1.5213167777028331 2.063543031615917 2.0501011210321587 -0.519995485093592 1.1399803817947731
3.69386005402 0.7548103391676511 0.2058120905000843 -1.5213167777028331 2.063543031615917 2.0501011210321587 -0.519995485093592 1.1399803817947731
3.7038860321 0.7548103391676511 0.2058120905000843 -1.5213167777028331 2.063543031615917 2.0501011210321587 -0.519995485093592 1.1399803817947731
3.7038860321 0.7548103391676511 0.2058120905000843 -1.5213167777028331 2.063543031615917 2.0501011210321587 -0.519995485093592 1.1399803817947731
3.71388411522 0.7548103391676511 0.2058120905000843 -1.5213167777028331 2.063543031615917 2.0501011210321587 -0.519995485093592 1.1399803817947731
3.71388411522 0.7548103391676511 0.2058120905000843 -1.5213167777028331 2.063543031615917 2.0501011210321587 -0.519995485093592 1.1399803817947731
3.72389698029 0.7548103391676511 0.2058120905000843 -1.5213167777028331 2.063543031615917 2.0501011210321587 -0.519995485093592 1.1399803817947731
3.72389698029 0.7548103391676511 0.2058120905000843 -1.5213167777028331 2.063543031615917 2.0501011210321587 -0.519995485093592 1.1399803817947731
3.7336499691 0.7428297903020449 0.205904130568194 -1.5294623237305374 2.059784728834773 2.0501011210321587 -0.519995485093592 1.1399803817947731
3.7336499691 0.7428297903020449 0.205904130568194 -1.5294623237305374 2.059784728834773 2.0501011210321587 -0.519995485093592 1.1399803817947731
3.74339914322 0.7384732270781881 0.205904130568194 -1.531901385535443 2.0589717082331376 2.0501011210321587 -0.519995485093592 1.1399803817947731
3.74339914322 0.7384732270781881 0.205904130568194 -1.531901385535443 2.0589717082331376 2.0501011210321587 -0.519995485093592 1.1399803817947731
3.75378394127 0.7340399637975732 0.205904130568194 -1.5343557873517004 2.05832742775637 2.050091990113041 -0.519995485093592 1.1399803817947731
3.75378394127 0.7340399637975732 0.205904130568194 -1.5343557873517004 2.05832742775637 2.050091990113041 -0.519995485093592 1.1399803817947731
3.76383209229 0.7295760204942552 0.205904130568194 -1.536764169133903 2.058020627529338 2.0501011210321587 -0.519995485093592 1.1399803817947731
3.76383209229 0.7295760204942552 0.205904130568194 -1.536764169133903 2.058020627529338 2.0501011210321587 -0.519995485093592 1.1399803817947731
3.77360606194 0.7295760204942552 0.205904130568194 -1.536764169133903 2.058020627529338 2.0501011210321587 -0.519995485093592 1.1399803817947731
3.77360606194 0.7295760204942552 0.205904130568194 -1.536764169133903 2.058020627529338 2.0501011210321587 -0.519995485093592 1.1399803817947731
3.78382015228 0.7295760204942552 0.205904130568194 -1.536764169133903 2.058020627529338 2.0501011210321587 -0.519995485093592 1.1399803817947731
3.78382015228 0.7295760204942552 0.205904130568194 -1.536764169133903 2.058020627529338 2.0501011210321587 -0.519995485093592 1.1399803817947731
3.79384994507 0.7295760204942552 0.205904130568194 -1.536764169133903 2.058020627529338 2.0501011210321587 -0.519995485093592 1.1399803817947731
3.79384994507 0.7295760204942552 0.205904130568194 -1.536764169133903 2.058020627529338 2.0501011210321587 -0.519995485093592 1.1399803817947731
3.80368208885 0.7250507171455307 0.205904130568194 -1.5394333311090826 2.057805867370416 2.0501011210321587 -0.519995485093592 1.1399803817947731
3.80368208885 0.7250507171455307 0.205904130568194 -1.5394333311090826 2.057805867370416 2.0501011210321587 -0.519995485093592 1.1399803817947731
3.81378412247 0.7250507171455307 0.205904130568194 -1.5394333311090826 2.057805867370416 2.0501011210321587 -0.519995485093592 1.1399803817947731
3.81378412247 0.7250507171455307 0.205904130568194 -1.5394333311090826 2.057805867370416 2.0501011210321587 -0.519995485093592 1.1399803817947731
3.82366895676 0.7206481338876191 0.205904130568194 -1.5421945331523723 2.0576831472796027 2.0501011210321587 -0.519995485093592 1.1399803817947731
3.82366895676 0.7206481338876191 0.205904130568194 -1.5421945331523723 2.0576831472796027 2.0501011210321587 -0.519995485093592 1.1399803817947731
3.83382797241 0.7163682707205203 0.205904130568194 -1.5450784552864747 2.057637127245548 2.0501011210321587 -0.519995485093592 1.1399803817947731
3.83382797241 0.7163682707205203 0.205904130568194 -1.5450784552864747 2.057637127245548 2.0501011210321587 -0.519995485093592 1.1399803817947731
3.84361696243 0.7120884075534216 0.205904130568194 -1.5482845176589608 2.0576064472228444 2.0501011210321587 -0.519995485093592 1.1399803817947731
3.84361696243 0.7120884075534216 0.205904130568194 -1.5482845176589608 2.0576064472228444 2.0501011210321587 -0.519995485093592 1.1399803817947731
3.85380101204 0.7120884075534216 0.205904130568194 -1.5482845176589608 2.0576064472228444 2.0501011210321587 -0.519995485093592 1.1399803817947731
3.85380101204 0.7120884075534216 0.205904130568194 -1.5482845176589608 2.0576064472228444 2.0501011210321587 -0.519995485093592 1.1399803817947731
3.86381912231 0.7120884075534216 0.205904130568194 -1.5482845176589608 2.0576064472228444 2.0501011210321587 -0.519995485093592 1.1399803817947731
3.86381912231 0.7120884075534216 0.205904130568194 -1.5482845176589608 2.0576064472228444 2.0501011210321587 -0.519995485093592 1.1399803817947731
3.87376713753 0.7120884075534216 0.205904130568194 -1.5482845176589608 2.0576064472228444 2.0501011210321587 -0.519995485093592 1.1399803817947731
3.87376713753 0.7120884075534216 0.205904130568194 -1.5482845176589608 2.0576064472228444 2.0501011210321587 -0.519995485093592 1.1399803817947731
3.88384413719 0.7120884075534216 0.205904130568194 -1.5482845176589608 2.0576064472228444 2.0501011210321587 -0.519995485093592 1.1399803817947731
3.88384413719 0.7120884075534216 0.205904130568194 -1.5482845176589608 2.0576064472228444 2.0501011210321587 -0.519995485093592 1.1399803817947731
3.89377212524 0.7072256239549617 0.205904130568194 -1.551291159883876 2.0576064472228444 2.0501011210321587 -0.519995485093592 1.1399803817947731
3.89377212524 0.7072256239549617 0.205904130568194 -1.551291159883876 2.0576064472228444 2.0501011210321587 -0.519995485093592 1.1399803817947731
3.90341711044 0.7029764408105662 0.205904130568194 -1.554543242290417 2.0576064472228444 2.0501011210321587 -0.519995485093592 1.1399803817947731
3.90341711044 0.7029764408105662 0.205904130568194 -1.554543242290417 2.0576064472228444 2.0501011210321587 -0.519995485093592 1.1399803817947731
3.91368699074 0.7029764408105662 0.205904130568194 -1.554543242290417 2.0576064472228444 2.0501011210321587 -0.519995485093592 1.1399803817947731
3.91368699074 0.7029764408105662 0.205904130568194 -1.554543242290417 2.0576064472228444 2.0501011210321587 -0.519995485093592 1.1399803817947731
3.92383408546 0.7029764408105662 0.205904130568194 -1.554543242290417 2.0576064472228444 2.0501011210321587 -0.519995485093592 1.1399803817947731
3.92383408546 0.7029764408105662 0.205904130568194 -1.554543242290417 2.0576064472228444 2.0501011210321587 -0.519995485093592 1.1399803817947731
3.93363308907 0.6947541947261041 0.205904130568194 -1.5611087671489057 2.057591107211493 2.0501011210321587 -0.519995485093592 1.1399803817947731
3.93363308907 0.6947541947261041 0.205904130568194 -1.5611087671489057 2.057591107211493 2.0501011210321587 -0.519995485093592 1.1399803817947731
3.94382309914 0.6947541947261041 0.205904130568194 -1.5611087671489057 2.057591107211493 2.0501011210321587 -0.519995485093592 1.1399803817947731
3.94382309914 0.6947541947261041 0.205904130568194 -1.5611087671489057 2.057591107211493 2.0501011210321587 -0.519995485093592 1.1399803817947731
3.95380210876 0.6947541947261041 0.205904130568194 -1.5611087671489057 2.057591107211493 2.0501011210321587 -0.519995485093592 1.1399803817947731
3.95380210876 0.6947541947261041 0.205904130568194 -1.5611087671489057 2.057591107211493 2.0501011210321587 -0.519995485093592 1.1399803817947731
3.96362495422 0.6947541947261041 0.205904130568194 -1.5611087671489057 2.057591107211493 2.0501011210321587 -0.519995485093592 1.1399803817947731
3.96362495422 0.6947541947261041 0.205904130568194 -1.5611087671489057 2.057591107211493 2.0501011210321587 -0.519995485093592 1.1399803817947731
3.97377705574 0.6947541947261041 0.205904130568194 -1.5611087671489057 2.057591107211493 2.0501011210321587 -0.519995485093592 1.1399803817947731
3.97377705574 0.6947541947261041 0.205904130568194 -1.5611087671489057 2.057591107211493 2.0501011210321587 -0.519995485093592 1.1399803817947731
3.9838321209 0.6947541947261041 0.205904130568194 -1.5611087671489057 2.057591107211493 2.0501011210321587 -0.519995485093592 1.1399803817947731
3.9838321209 0.6947541947261041 0.205904130568194 -1.5611087671489057 2.057591107211493 2.0501011210321587 -0.519995485093592 1.1399803817947731
3.99373316765 0.6947541947261041 0.205904130568194 -1.5611087671489057 2.057591107211493 2.0501011210321587 -0.519995485093592 1.1399803817947731
3.99373316765 0.6947541947261041 0.205904130568194 -1.5611087671489057 2.057591107211493 2.0501011210321587 -0.519995485093592 1.1399803817947731
4.00374507904 0.6947541947261041 0.205904130568194 -1.5611087671489057 2.057591107211493 2.0501011210321587 -0.519995485093592 1.1399803817947731
4.00374507904 0.6947541947261041 0.205904130568194 -1.5611087671489057 2.057591107211493 2.0501011210321587 -0.519995485093592 1.1399803817947731
4.01364898682 0.681791885133995 0.205904130568194 -1.5718774551177346 2.057575767200141 2.0501011210321587 -0.519995485093592 1.1399803817947731
4.01364898682 0.681791885133995 0.205904130568194 -1.5718774551177346 2.057575767200141 2.0501011210321587 -0.519995485093592 1.1399803817947731
4.02376413345 0.681791885133995 0.205904130568194 -1.5718774551177346 2.057575767200141 2.0501011210321587 -0.519995485093592 1.1399803817947731
4.02376413345 0.681791885133995 0.205904130568194 -1.5718774551177346 2.057575767200141 2.0501011210321587 -0.519995485093592 1.1399803817947731
4.03384613991 0.681791885133995 0.205904130568194 -1.5718774551177346 2.057575767200141 2.0501011210321587 -0.519995485093592 1.1399803817947731
4.03384613991 0.681791885133995 0.205904130568194 -1.5718774551177346 2.057575767200141 2.0501011210321587 -0.519995485093592 1.1399803817947731
4.04361414909 0.6777728021598736 0.205904130568194 -1.5756510979102305 2.0575604271887897 2.0501011210321587 -0.519995485093592 1.1399803817947731
4.04361414909 0.6777728021598736 0.205904130568194 -1.5756510979102305 2.0575604271887897 2.0501011210321587 -0.519995485093592 1.1399803817947731
4.05381298065 0.6777728021598736 0.205904130568194 -1.5756510979102305 2.0575604271887897 2.0501011210321587 -0.519995485093592 1.1399803817947731
4.05381298065 0.6777728021598736 0.205904130568194 -1.5756510979102305 2.0575604271887897 2.0501011210321587 -0.519995485093592 1.1399803817947731
4.06391811371 0.6777728021598736 0.205904130568194 -1.5756510979102305 2.0575604271887897 2.0501011210321587 -0.519995485093592 1.1399803817947731
4.06391811371 0.6777728021598736 0.205904130568194 -1.5756510979102305 2.0575604271887897 2.0501011210321587 -0.519995485093592 1.1399803817947731
4.07380104065 0.6654854530672353 0.205904130568194 -1.5871100863898815 2.0575297471660865 2.0501011210321587 -0.519995485093592 1.1399803817947731
4.07380104065 0.6654854530672353 0.205904130568194 -1.5871100863898815 2.0575297471660865 2.0501011210321587 -0.519995485093592 1.1399803817947731
4.08344912529 0.6613129699795978 0.205904130568194 -1.5909911092618385 2.0574530471093286 2.0501011210321587 -0.519995485093592 1.1399803817947731
4.08344912529 0.6613129699795978 0.205904130568194 -1.5909911092618385 2.0574530471093286 2.0501011210321587 -0.519995485093592 1.1399803817947731
4.09363698959 0.6613129699795978 0.205904130568194 -1.5909911092618385 2.0574530471093286 2.0501011210321587 -0.519995485093592 1.1399803817947731
4.09363698959 0.6613129699795978 0.205904130568194 -1.5909911092618385 2.0574530471093286 2.0501011210321587 -0.519995485093592 1.1399803817947731
4.10384893417 0.6613129699795978 0.205904130568194 -1.5909911092618385 2.0574530471093286 2.0501011210321587 -0.519995485093592 1.1399803817947731
4.10384893417 0.6613129699795978 0.205904130568194 -1.5909911092618385 2.0574530471093286 2.0501011210321587 -0.519995485093592 1.1399803817947731
4.1136610508 0.6613129699795978 0.205904130568194 -1.5909911092618385 2.0574530471093286 2.0501011210321587 -0.519995485093592 1.1399803817947731
4.1136610508 0.6613129699795978 0.205904130568194 -1.5909911092618385 2.0574530471093286 2.0501011210321587 -0.519995485093592 1.1399803817947731
4.12385296822 0.6613129699795978 0.205904130568194 -1.5909911092618385 2.0574530471093286 2.0501011210321587 -0.519995485093592 1.1399803817947731
4.12385296822 0.6613129699795978 0.205904130568194 -1.5909911092618385 2.0574530471093286 2.0501011210321587 -0.519995485093592 1.1399803817947731
4.13541412354 0.6531674239518938 0.205904130568194 -1.598262274642501 2.056962166746077 2.0501011210321587 -0.519995485093592 1.1399803817947731
4.13541412354 0.6531674239518938 0.205904130568194 -1.598262274642501 2.056962166746077 2.0501011210321587 -0.519995485093592 1.1399803817947731
4.14355516434 0.6489029007961467 0.205904130568194 -1.602051257446348 2.056409926337419 2.050091990113041 -0.520000050553151 1.1399758163352145
4.14355516434 0.6489029007961467 0.205904130568194 -1.602051257446348 2.056409926337419 2.050091990113041 -0.520000050553151 1.1399758163352145
4.15356516838 0.6489029007961467 0.205904130568194 -1.602051257446348 2.056409926337419 2.050091990113041 -0.520000050553151 1.1399758163352145
4.15356516838 0.6489029007961467 0.205904130568194 -1.602051257446348 2.056409926337419 2.050091990113041 -0.520000050553151 1.1399758163352145
4.16384100914 0.6489029007961467 0.205904130568194 -1.602051257446348 2.056409926337419 2.050091990113041 -0.520000050553151 1.1399758163352145
4.16384100914 0.6489029007961467 0.205904130568194 -1.602051257446348 2.056409926337419 2.050091990113041 -0.520000050553151 1.1399758163352145
4.17387413979 0.6489029007961467 0.205904130568194 -1.602051257446348 2.056409926337419 2.050091990113041 -0.520000050553151 1.1399758163352145
