riccardo-csl/Motion-Planning-for-TIAGo-Manipulator/T3_G_7/head_scan/head_scan/tiago_traiettorie_SG/1a-3b/place_3b_rep1.txt
time arm_1_joint arm_2_joint arm_3_joint arm_4_joint arm_5_joint arm_6_joint arm_7_joint
1.37447404861 0.890983619936 0.243303078243 -1.14633020021 2.09709163644 2.0500372046 -0.520004616013 1.13998038179
1.3843588829 0.8909836199358788 0.2433030782434153 -1.146330200212766 2.0970916364418843 2.050037204598331 -0.5200046160127103 1.1399803817947731
1.3843588829 0.8909836199358788 0.2433030782434153 -1.146330200212766 2.0970916364418843 2.050037204598331 -0.5200046160127103 1.1399803817947731
1.39451503754 0.8909836199358788 0.2433030782434153 -1.146330200212766 2.0970916364418843 2.050037204598331 -0.5200046160127103 1.1399803817947731
1.39451503754 0.8909836199358788 0.2433030782434153 -1.146330200212766 2.0970916364418843 2.050037204598331 -0.5200046160127103 1.1399803817947731
1.4057290554 0.890983619936 0.243303078243 -1.14633020021 2.09709163644 2.0500372046 -0.520004616013 1.13998038179
1.4057290554 0.890983619936 0.243303078243 -1.14633020021 2.09709163644 2.0500372046 -0.520004616013 1.13998038179
1.41412806511 0.8909836199358788 0.2433030782434153 -1.146330200212766 2.0970916364418843 2.050037204598331 -0.5200046160127103 1.1399803817947731
1.41412806511 0.8909836199358788 0.2433030782434153 -1.146330200212766 2.0970916364418843 2.050037204598331 -0.5200046160127103 1.1399803817947731
1.42427706718 0.8909836199358788 0.2433030782434153 -1.146330200212766 2.0970916364418843 2.050037204598331 -0.5200046160127103 1.1399803817947731
1.42427706718 0.8909836199358788 0.2433030782434153 -1.146330200212766 2.0970916364418843 2.050037204598331 -0.5200046160127103 1.1399803817947731
1.43452095985 0.8909836199358788 0.2433030782434153 -1.146330200212766 2.0970916364418843 2.050037204598331 -0.5200046160127103 1.1399803817947731
1.43452095985 0.8909836199358788 0.2433030782434153 -1.146330200212766 2.0970916364418843 2.050037204598331 -0.5200046160127103 1.1399803817947731
1.44422101974 0.8909836199358788 0.2433030782434153 -1.146330200212766 2.0970916364418843 2.050037204598331 -0.5200046160127103 1.1399803817947731
1.44422101974 0.8909836199358788 0.2433030782434153 -1.146330200212766 2.0970916364418843 2.050037204598331 -0.5200046160127103 1.1399803817947731
1.45429301262 0.8909836199358788 0.2433030782434153 -1.146330200212766 2.0970916364418843 2.050037204598331 -0.5200046160127103 1.1399803817947731
1.45429301262 0.8909836199358788 0.2433030782434153 -1.146330200212766 2.0970916364418843 2.050037204598331 -0.5200046160127103 1.1399803817947731
1.46430397034 0.8909836199358788 0.2433030782434153 -1.146330200212766 2.0970916364418843 2.050037204598331 -0.5200046160127103 1.1399803817947731
1.46430397034 0.8909836199358788 0.2433030782434153 -1.146330200212766 2.0970916364418843 2.050037204598331 -0.5200046160127103 1.1399803817947731
1.47449994087 0.8909836199358788 0.2433030782434153 -1.146330200212766 2.0970916364418843 2.050037204598331 -0.5200046160127103 1.1399803817947731
1.47449994087 0.8909836199358788 0.2433030782434153 -1.146330200212766 2.0970916364418843 2.050037204598331 -0.5200046160127103 1.1399803817947731
1.48433804512 0.8909836199358788 0.2433030782434153 -1.146330200212766 2.0970916364418843 2.050037204598331 -0.5200046160127103 1.1399803817947731
1.48433804512 0.8909836199358788 0.2433030782434153 -1.146330200212766 2.0970916364418843 2.050037204598331 -0.5200046160127103 1.1399803817947731
1.49445986748 0.8909836199358788 0.2433030782434153 -1.146330200212766 2.0970916364418843 2.050037204598331 -0.5200046160127103 1.1399803817947731
1.49445986748 0.8909836199358788 0.2433030782434153 -1.146330200212766 2.0970916364418843 2.050037204598331 -0.5200046160127103 1.1399803817947731
1.50413489342 0.8909836199358788 0.2433490982774701 -1.146330200212766 2.0970916364418843 2.050037204598331 -0.5200046160127103 1.1399803817947731
1.50413489342 0.8909836199358788 0.2433490982774701 -1.146330200212766 2.0970916364418843 2.050037204598331 -0.5200046160127103 1.1399803817947731
1.51405191422 0.8909836199358788 0.2433490982774701 -1.146330200212766 2.0970916364418843 2.050037204598331 -0.5200046160127103 1.1399803817947731
1.51405191422 0.8909836199358788 0.2433490982774701 -1.146330200212766 2.0970916364418843 2.050037204598331 -0.5200046160127103 1.1399803817947731
1.52441096306 0.8909836199358788 0.2433490982774701 -1.146330200212766 2.0970916364418843 2.050037204598331 -0.5200046160127103 1.1399803817947731
1.52441096306 0.8909836199358788 0.2433490982774701 -1.146330200212766 2.0970916364418843 2.050037204598331 -0.5200046160127103 1.1399803817947731
1.53512406349 0.890983619936 0.243349098277 -1.14633020021 2.09709163644 2.0500372046 -0.520004616013 1.13998038179
1.53512406349 0.890983619936 0.243349098277 -1.14633020021 2.09709163644 2.0500372046 -0.520004616013 1.13998038179
1.544039011 0.8909836199358788 0.2433490982774701 -1.146330200212766 2.0970916364418843 2.050037204598331 -0.5200046160127103 1.1399803817947731
1.544039011 0.8909836199358788 0.2433490982774701 -1.146330200212766 2.0970916364418843 2.050037204598331 -0.5200046160127103 1.1399803817947731
1.55411291122 0.8909836199358788 0.2433490982774701 -1.146330200212766 2.0970916364418843 2.050037204598331 -0.5200046160127103 1.1399803817947731
1.55411291122 0.8909836199358788 0.2433490982774701 -1.146330200212766 2.0970916364418843 2.050037204598331 -0.5200046160127103 1.1399803817947731
1.56453490257 0.8909836199358788 0.2433490982774701 -1.146330200212766 2.0970916364418843 2.050037204598331 -0.5200046160127103 1.1399803817947731
1.56453490257 0.8909836199358788 0.2433490982774701 -1.146330200212766 2.0970916364418843 2.050037204598331 -0.5200046160127103 1.1399803817947731
1.57418489456 0.8909836199358788 0.2433490982774701 -1.146330200212766 2.0970916364418843 2.050037204598331 -0.5200046160127103 1.1399803817947731
1.57418489456 0.8909836199358788 0.2433490982774701 -1.146330200212766 2.0970916364418843 2.050037204598331 -0.5200046160127103 1.1399803817947731
1.58449792862 0.8909836199358788 0.2433490982774701 -1.146330200212766 2.0970916364418843 2.050037204598331 -0.5200046160127103 1.1399803817947731
1.58449792862 0.8909836199358788 0.2433490982774701 -1.146330200212766 2.0970916364418843 2.050037204598331 -0.5200046160127103 1.1399803817947731
1.59430193901 0.8909836199358788 0.2433490982774701 -1.146330200212766 2.0970916364418843 2.050037204598331 -0.5200046160127103 1.1399803817947731
1.59430193901 0.8909836199358788 0.2433490982774701 -1.146330200212766 2.0970916364418843 2.050037204598331 -0.5200046160127103 1.1399803817947731
1.60444688797 0.8909836199358788 0.2433490982774701 -1.146330200212766 2.0970916364418843 2.050037204598331 -0.5200046160127103 1.1399803817947731
1.60444688797 0.8909836199358788 0.2433490982774701 -1.146330200212766 2.0970916364418843 2.050037204598331 -0.5200046160127103 1.1399803817947731
1.61450409889 0.8909836199358788 0.2433490982774701 -1.146330200212766 2.0970916364418843 2.050037204598331 -0.5200046160127103 1.1399803817947731
1.61450409889 0.8909836199358788 0.2433490982774701 -1.146330200212766 2.0970916364418843 2.050037204598331 -0.5200046160127103 1.1399803817947731
1.62439608574 0.8909836199358788 0.2433490982774701 -1.146330200212766 2.0970916364418843 2.050037204598331 -0.5200046160127103 1.1399803817947731
1.62439608574 0.8909836199358788 0.2433490982774701 -1.146330200212766 2.0970916364418843 2.050037204598331 -0.5200046160127103 1.1399803817947731
1.63448786736 0.8909836199358788 0.2433490982774701 -1.146330200212766 2.0970916364418843 2.050037204598331 -0.5200046160127103 1.1399803817947731
1.63448786736 0.8909836199358788 0.2433490982774701 -1.146330200212766 2.0970916364418843 2.050037204598331 -0.5200046160127103 1.1399803817947731
1.64506292343 0.8909836199358788 0.2436865785272055 -1.146330200212766 2.0970916364418843 2.050037204598331 -0.5200046160127103 1.1399803817947731
1.64506292343 0.8909836199358788 0.2436865785272055 -1.146330200212766 2.0970916364418843 2.050037204598331 -0.5200046160127103 1.1399803817947731
1.65410900116 0.8909836199358788 0.2436865785272055 -1.146330200212766 2.0970916364418843 2.050037204598331 -0.5200046160127103 1.1399803817947731
1.65410900116 0.8909836199358788 0.2436865785272055 -1.146330200212766 2.0970916364418843 2.050037204598331 -0.5200046160127103 1.1399803817947731
1.66430807114 0.8909836199358788 0.2436865785272055 -1.146330200212766 2.0970916364418843 2.050037204598331 -0.5200046160127103 1.1399803817947731
1.66430807114 0.8909836199358788 0.2436865785272055 -1.146330200212766 2.0970916364418843 2.050037204598331 -0.5200046160127103 1.1399803817947731
1.67450690269 0.8909836199358788 0.2436865785272055 -1.146330200212766 2.0970916364418843 2.050037204598331 -0.5200046160127103 1.1399803817947731
1.67450690269 0.8909836199358788 0.2436865785272055 -1.146330200212766 2.0970916364418843 2.050037204598331 -0.5200046160127103 1.1399803817947731
1.684486866 0.8909836199358788 0.2436865785272055 -1.146330200212766 2.0970916364418843 2.050037204598331 -0.5200046160127103 1.1399803817947731
1.684486866 0.8909836199358788 0.2436865785272055 -1.146330200212766 2.0970916364418843 2.050037204598331 -0.5200046160127103 1.1399803817947731
1.69466304779 0.8908915798677691 0.2437019185385571 -1.146330200212766 2.097060956419181 2.050037204598331 -0.5200046160127103 1.1399803817947731
1.69466304779 0.8908915798677691 0.2437019185385571 -1.146330200212766 2.097060956419181 2.050037204598331 -0.5200046160127103 1.1399803817947731
1.70436286926 0.8902166193682983 0.2437019185385571 -1.146330200212766 2.0970916364418843 2.050037204598331 -0.520000050553151 1.1399758163352145
1.70436286926 0.8902166193682983 0.2437019185385571 -1.146330200212766 2.0970916364418843 2.050037204598331 -0.520000050553151 1.1399758163352145
1.71435689926 0.8902166193682983 0.2437019185385571 -1.146330200212766 2.0970916364418843 2.050037204598331 -0.520000050553151 1.1399758163352145
1.71435689926 0.8902166193682983 0.2437019185385571 -1.146330200212766 2.0970916364418843 2.050037204598331 -0.520000050553151 1.1399758163352145
1.72434401512 0.8899404991639694 0.2437019185385571 -1.146330200212766 2.0970916364418843 2.050037204598331 -0.5200046160127103 1.1399803817947731
1.72434401512 0.8899404991639694 0.2437019185385571 -1.146330200212766 2.0970916364418843 2.050037204598331 -0.5200046160127103 1.1399803817947731
1.73451805115 0.8899404991639694 0.2437019185385571 -1.146330200212766 2.0970916364418843 2.050037204598331 -0.5200046160127103 1.1399803817947731
1.73451805115 0.8899404991639694 0.2437019185385571 -1.146330200212766 2.0970916364418843 2.050037204598331 -0.5200046160127103 1.1399803817947731
1.74433088303 0.8897870990504533 0.2437019185385571 -1.146330200212766 2.097076296430533 2.050037204598331 -0.5200046160127103 1.1399803817947731
1.74433088303 0.8897870990504533 0.2437019185385571 -1.146330200212766 2.097076296430533 2.050037204598331 -0.5200046160127103 1.1399803817947731
1.75449490547 0.8897870990504533 0.2437019185385571 -1.146330200212766 2.097076296430533 2.050037204598331 -0.5200046160127103 1.1399803817947731
1.75449490547 0.8897870990504533 0.2437019185385571 -1.146330200212766 2.097076296430533 2.050037204598331 -0.5200046160127103 1.1399803817947731
1.76455593109 0.8897870990504533 0.2437019185385571 -1.146330200212766 2.097076296430533 2.050037204598331 -0.5200046160127103 1.1399803817947731
1.76455593109 0.8897870990504533 0.2437019185385571 -1.146330200212766 2.097076296430533 2.050037204598331 -0.5200046160127103 1.1399803817947731
1.77451395988 0.8896183589255856 0.2437019185385571 -1.146330200212766 2.097076296430533 2.050037204598331 -0.5200046160127103 1.1399803817947731
1.77451395988 0.8896183589255856 0.2437019185385571 -1.146330200212766 2.097076296430533 2.050037204598331 -0.5200046160127103 1.1399803817947731
1.78566503525 0.8894035987666631 0.2437019185385571 -1.146330200212766 2.097076296430533 2.050037204598331 -0.5200046160127103 1.1399803817947731
1.78566503525 0.8894035987666631 0.2437019185385571 -1.146330200212766 2.097076296430533 2.050037204598331 -0.5200046160127103 1.1399803817947731
1.79421305656 0.8894035987666631 0.2437019185385571 -1.146330200212766 2.097076296430533 2.050037204598331 -0.5200046160127103 1.1399803817947731
1.79421305656 0.8894035987666631 0.2437019185385571 -1.146330200212766 2.097076296430533 2.050037204598331 -0.5200046160127103 1.1399803817947731
1.80450797081 0.8893268987099051 0.2437019185385571 -1.146330200212766 2.097076296430533 2.050037204598331 -0.5200046160127103 1.1399803817947731
1.80450797081 0.8893268987099051 0.2437019185385571 -1.146330200212766 2.097076296430533 2.050037204598331 -0.5200046160127103 1.1399803817947731
1.8145210743 0.8893268987099051 0.2437019185385571 -1.146330200212766 2.097076296430533 2.050037204598331 -0.5200046160127103 1.1399803817947731
1.8145210743 0.8893268987099051 0.2437019185385571 -1.146330200212766 2.097076296430533 2.050037204598331 -0.5200046160127103 1.1399803817947731
1.82484006882 0.8893268987099051 0.2437019185385571 -1.146330200212766 2.097076296430533 2.050037204598331 -0.5200046160127103 1.1399803817947731
1.82484006882 0.8893268987099051 0.2437019185385571 -1.146330200212766 2.097076296430533 2.050037204598331 -0.5200046160127103 1.1399803817947731
1.83443498611 0.8893268987099051 0.2437019185385571 -1.146330200212766 2.097076296430533 2.050037204598331 -0.5200046160127103 1.1399803817947731
1.83443498611 0.8893268987099051 0.2437019185385571 -1.146330200212766 2.097076296430533 2.050037204598331 -0.5200046160127103 1.1399803817947731
1.84457588196 0.8893268987099051 0.2437019185385571 -1.146330200212766 2.097076296430533 2.050037204598331 -0.5200046160127103 1.1399803817947731
1.84457588196 0.8893268987099051 0.2437019185385571 -1.146330200212766 2.097076296430533 2.050037204598331 -0.5200046160127103 1.1399803817947731
1.85452508926 0.8893268987099051 0.2437019185385571 -1.146330200212766 2.097076296430533 2.050037204598331 -0.5200046160127103 1.1399803817947731
1.85452508926 0.8893268987099051 0.2437019185385571 -1.146330200212766 2.097076296430533 2.050037204598331 -0.5200046160127103 1.1399803817947731
1.86461687088 0.8893268987099051 0.2437019185385571 -1.146330200212766 2.097076296430533 2.050037204598331 -0.5200046160127103 1.1399803817947731
1.86461687088 0.8893268987099051 0.2437019185385571 -1.146330200212766 2.097076296430533 2.050037204598331 -0.5200046160127103 1.1399803817947731
1.87432789803 0.8893268987099051 0.2437019185385571 -1.146330200212766 2.097076296430533 2.050037204598331 -0.5200046160127103 1.1399803817947731
1.87432789803 0.8893268987099051 0.2437019185385571 -1.146330200212766 2.097076296430533 2.050037204598331 -0.5200046160127103 1.1399803817947731
1.88458395004 0.8893268987099051 0.2437019185385571 -1.146330200212766 2.097076296430533 2.050037204598331 -0.5200046160127103 1.1399803817947731
1.88458395004 0.8893268987099051 0.2437019185385571 -1.146330200212766 2.097076296430533 2.050037204598331 -0.5200046160127103 1.1399803817947731
1.89444208145 0.8893268987099051 0.2437019185385571 -1.146330200212766 2.097076296430533 2.050037204598331 -0.5200046160127103 1.1399803817947731
1.89444208145 0.8893268987099051 0.2437019185385571 -1.146330200212766 2.097076296430533 2.050037204598331 -0.5200046160127103 1.1399803817947731
1.9041390419 0.8893268987099051 0.2437019185385571 -1.146330200212766 2.097076296430533 2.050037204598331 -0.5200046160127103 1.1399803817947731
1.9041390419 0.8893268987099051 0.2437019185385571 -1.146330200212766 2.097076296430533 2.050037204598331 -0.5200046160127103 1.1399803817947731
1.91447401047 0.8893268987099051 0.2437019185385571 -1.146330200212766 2.097076296430533 2.050037204598331 -0.5200046160127103 1.1399803817947731
1.91447401047 0.8893268987099051 0.2437019185385571 -1.146330200212766 2.097076296430533 2.050037204598331 -0.5200046160127103 1.1399803817947731
1.92416501045 0.8893268987099051 0.2437019185385571 -1.146330200212766 2.097076296430533 2.050037204598331 -0.5200046160127103 1.1399803817947731
1.92416501045 0.8893268987099051 0.2437019185385571 -1.146330200212766 2.097076296430533 2.050037204598331 -0.5200046160127103 1.1399803817947731
1.93409395218 0.8893268987099051 0.2437019185385571 -1.146330200212766 2.097076296430533 2.050037204598331 -0.5200046160127103 1.1399803817947731
1.93409395218 0.8893268987099051 0.2437019185385571 -1.146330200212766 2.097076296430533 2.050037204598331 -0.5200046160127103 1.1399803817947731
1.94441890717 0.8893268987099051 0.2437019185385571 -1.146330200212766 2.097076296430533 2.050037204598331 -0.5200046160127103 1.1399803817947731
1.94441890717 0.8893268987099051 0.2437019185385571 -1.146330200212766 2.097076296430533 2.050037204598331 -0.5200046160127103 1.1399803817947731
1.95475506783 0.8893268987099051 0.2437019185385571 -1.1466676804625011 2.097076296430533 2.050037204598331 -0.5200046160127103 1.1399803817947731
1.95475506783 0.8893268987099051 0.2437019185385571 -1.1466676804625011 2.097076296430533 2.050037204598331 -0.5200046160127103 1.1399803817947731
1.9643099308 0.8893268987099051 0.2437019185385571 -1.1466676804625011 2.097076296430533 2.050037204598331 -0.5200046160127103 1.1399803817947731
1.9643099308 0.8893268987099051 0.2437019185385571 -1.1466676804625011 2.097076296430533 2.050037204598331 -0.5200046160127103 1.1399803817947731
1.97453308105 0.8893268987099051 0.2437019185385571 -1.1466676804625011 2.097076296430533 2.050037204598331 -0.5200046160127103 1.1399803817947731
1.97453308105 0.8893268987099051 0.2437019185385571 -1.1466676804625011 2.097076296430533 2.050037204598331 -0.5200046160127103 1.1399803817947731
1.98456692696 0.8893268987099051 0.2437019185385571 -1.147542061109543 2.097076296430533 2.050037204598331 -0.520000050553151 1.1399758163352145
1.98456692696 0.8893268987099051 0.2437019185385571 -1.147542061109543 2.097076296430533 2.050037204598331 -0.520000050553151 1.1399758163352145
1.99444699287 0.8893268987099051 0.2437019185385571 -1.147542061109543 2.097076296430533 2.050037204598331 -0.520000050553151 1.1399758163352145
1.99444699287 0.8893268987099051 0.2437019185385571 -1.147542061109543 2.097076296430533 2.050037204598331 -0.520000050553151 1.1399758163352145
2.00458693504 0.8893268987099051 0.2437019185385571 -1.148554501858749 2.097076296430533 2.050037204598331 -0.5200046160127103 1.1399803817947731
2.00458693504 0.8893268987099051 0.2437019185385571 -1.148554501858749 2.097076296430533 2.050037204598331 -0.5200046160127103 1.1399803817947731
2.01452708244 0.8892962186872019 0.2437019185385571 -1.1497510227441743 2.097076296430533 2.050037204598331 -0.5200046160127103 1.1399803817947731
2.01452708244 0.8892962186872019 0.2437019185385571 -1.1497510227441743 2.097076296430533 2.050037204598331 -0.5200046160127103 1.1399803817947731
2.02444887161 0.889096798539631 0.2437019185385571 -1.15133104391339 2.097076296430533 2.050037204598331 -0.5200046160127103 1.1399803817947731
2.02444887161 0.889096798539631 0.2437019185385571 -1.15133104391339 2.097076296430533 2.050037204598331 -0.5200046160127103 1.1399803817947731
2.03436803818 0.889096798539631 0.2437019185385571 -1.15133104391339 2.097076296430533 2.050037204598331 -0.5200046160127103 1.1399803817947731
2.03436803818 0.889096798539631 0.2437019185385571 -1.15133104391339 2.097076296430533 2.050037204598331 -0.5200046160127103 1.1399803817947731
2.04454708099 0.889096798539631 0.2437019185385571 -1.15133104391339 2.097076296430533 2.050037204598331 -0.5200046160127103 1.1399803817947731
2.04454708099 0.889096798539631 0.2437019185385571 -1.15133104391339 2.097076296430533 2.050037204598331 -0.5200046160127103 1.1399803817947731
2.05454397202 0.889096798539631 0.2437019185385571 -1.15133104391339 2.097076296430533 2.050037204598331 -0.5200046160127103 1.1399803817947731
2.05454397202 0.889096798539631 0.2437019185385571 -1.15133104391339 2.097076296430533 2.050037204598331 -0.5200046160127103 1.1399803817947731
2.0646109581 0.8886365981990827 0.2437019185385571 -1.1531718452755833 2.097076296430533 2.050037204598331 -0.5200046160127103 1.1399803817947731
2.0646109581 0.8886365981990827 0.2437019185385571 -1.1531718452755833 2.097076296430533 2.050037204598331 -0.5200046160127103 1.1399803817947731
2.07454395294 0.888115037813128 0.2437019185385571 -1.1557182871599505 2.097076296430533 2.050028073679212 -0.5200046160127103 1.1399803817947731
2.07454395294 0.888115037813128 0.2437019185385571 -1.1557182871599505 2.097076296430533 2.050028073679212 -0.5200046160127103 1.1399803817947731
2.08429598808 0.887685517495283 0.2437019185385571 -1.1588783294983815 2.097076296430533 2.0500098118409755 -0.5200046160127103 1.1399803817947731
2.08429598808 0.887685517495283 0.2437019185385571 -1.1588783294983815 2.097076296430533 2.0500098118409755 -0.5200046160127103 1.1399803817947731
2.09451508522 0.887685517495283 0.2437019185385571 -1.1588783294983815 2.097076296430533 2.0500098118409755 -0.5200046160127103 1.1399803817947731
2.09451508522 0.887685517495283 0.2437019185385571 -1.1588783294983815 2.097076296430533 2.0500098118409755 -0.5200046160127103 1.1399803817947731
2.10457086563 0.8873020172114927 0.2437019185385571 -1.1630201325633158 2.097076296430533 2.0500098118409755 -0.5200046160127103 1.1399803817947731
2.10457086563 0.8873020172114927 0.2437019185385571 -1.1630201325633158 2.097076296430533 2.0500098118409755 -0.5200046160127103 1.1399803817947731
2.11441087723 0.8873020172114927 0.2437019185385571 -1.1630201325633158 2.097076296430533 2.0500098118409755 -0.5200046160127103 1.1399803817947731
2.11441087723 0.8873020172114927 0.2437019185385571 -1.1630201325633158 2.097076296430533 2.0500098118409755 -0.5200046160127103 1.1399803817947731
2.1244020462 0.8873020172114927 0.2437019185385571 -1.1630201325633158 2.097076296430533 2.0500098118409755 -0.5200046160127103 1.1399803817947731
2.1244020462 0.8873020172114927 0.2437019185385571 -1.1630201325633158 2.097076296430533 2.0500098118409755 -0.5200046160127103 1.1399803817947731
2.13449287415 0.8873020172114927 0.2437019185385571 -1.1630201325633158 2.097076296430533 2.0500098118409755 -0.5200046160127103 1.1399803817947731
2.13449287415 0.8873020172114927 0.2437019185385571 -1.1630201325633158 2.097076296430533 2.0500098118409755 -0.5200046160127103 1.1399803817947731
2.14450907707 0.886074816303364 0.2437019185385571 -1.1738501805775514 2.097076296430533 2.050028073679212 -0.5200046160127103 1.1399803817947731
2.14450907707 0.886074816303364 0.2437019185385571 -1.1738501805775514 2.097076296430533 2.050028073679212 -0.5200046160127103 1.1399803817947731
2.15452098846 0.886074816303364 0.2437019185385571 -1.1738501805775514 2.097076296430533 2.050028073679212 -0.5200046160127103 1.1399803817947731
2.15452098846 0.886074816303364 0.2437019185385571 -1.1738501805775514 2.097076296430533 2.050028073679212 -0.5200046160127103 1.1399803817947731
2.16457509995 0.886074816303364 0.2437019185385571 -1.1738501805775514 2.097076296430533 2.050028073679212 -0.5200046160127103 1.1399803817947731
2.16457509995 0.886074816303364 0.2437019185385571 -1.1738501805775514 2.097076296430533 2.050028073679212 -0.5200046160127103 1.1399803817947731
2.17447209358 0.8852311156790256 0.2437019185385571 -1.1801089052090077 2.097076296430533 2.0500098118409755 -0.5200046160127103 1.1399803817947731
2.17447209358 0.8852311156790256 0.2437019185385571 -1.1801089052090077 2.097076296430533 2.0500098118409755 -0.5200046160127103 1.1399803817947731
2.18455195427 0.8839732347481938 0.2437019185385571 -1.186827830181012 2.097076296430533 2.0500006809218574 -0.5200046160127103 1.1399803817947731
2.18455195427 0.8839732347481938 0.2437019185385571 -1.186827830181012 2.097076296430533 2.0500006809218574 -0.5200046160127103 1.1399803817947731
2.19441604614 0.8839732347481938 0.2437019185385571 -1.186827830181012 2.097076296430533 2.0500006809218574 -0.5200046160127103 1.1399803817947731
2.19441604614 0.8839732347481938 0.2437019185385571 -1.186827830181012 2.097076296430533 2.0500006809218574 -0.5200046160127103 1.1399803817947731
2.20456600189 0.8839732347481938 0.2437019185385571 -1.186827830181012 2.097076296430533 2.0500006809218574 -0.5200046160127103 1.1399803817947731
2.20456600189 0.8839732347481938 0.2437019185385571 -1.186827830181012 2.097076296430533 2.0500006809218574 -0.5200046160127103 1.1399803817947731
2.21417498589 0.8839732347481938 0.2437019185385571 -1.186827830181012 2.097076296430533 2.0500006809218574 -0.5200046160127103 1.1399803817947731
2.21417498589 0.8839732347481938 0.2437019185385571 -1.186827830181012 2.097076296430533 2.0500006809218574 -0.5200046160127103 1.1399803817947731
2.22453188896 0.8816568930341009 0.2437019185385571 -1.2006798604315143 2.097076296430533 2.0500098118409755 -0.5200046160127103 1.1399803817947731
2.22453188896 0.8816568930341009 0.2437019185385571 -1.2006798604315143 2.097076296430533 2.0500098118409755 -0.5200046160127103 1.1399803817947731
2.2345020771 0.8816568930341009 0.2437019185385571 -1.2006798604315143 2.097076296430533 2.0500098118409755 -0.5200046160127103 1.1399803817947731
2.2345020771 0.8816568930341009 0.2437019185385571 -1.2006798604315143 2.097076296430533 2.0500098118409755 -0.5200046160127103 1.1399803817947731
2.24433588982 0.8806444522848947 0.2437019185385571 -1.2077209256419028 2.097076296430533 2.050037204598331 -0.5200046160127103 1.1399803817947731
2.24433588982 0.8806444522848947 0.2437019185385571 -1.2077209256419028 2.097076296430533 2.050037204598331 -0.5200046160127103 1.1399803817947731
2.25452399254 0.8806444522848947 0.2437019185385571 -1.2077209256419028 2.097076296430533 2.050037204598331 -0.5200046160127103 1.1399803817947731
2.25452399254 0.8806444522848947 0.2437019185385571 -1.2077209256419028 2.097076296430533 2.050037204598331 -0.5200046160127103 1.1399803817947731
2.26459002495 0.8795399714675789 0.2437019185385571 -1.2146699507841814 2.097076296430533 2.0500006809218574 -0.5200046160127103 1.1399803817947731
2.26459002495 0.8795399714675789 0.2437019185385571 -1.2146699507841814 2.097076296430533 2.0500006809218574 -0.5200046160127103 1.1399803817947731
2.27448892593 0.8795399714675789 0.2437019185385571 -1.2146699507841814 2.097076296430533 2.0500006809218574 -0.5200046160127103 1.1399803817947731
2.27448892593 0.8795399714675789 0.2437019185385571 -1.2146699507841814 2.097076296430533 2.0500006809218574 -0.5200046160127103 1.1399803817947731
2.28460502625 0.8795399714675789 0.2437019185385571 -1.2146699507841814 2.097076296430533 2.0500006809218574 -0.5200046160127103 1.1399803817947731
2.28460502625 0.8795399714675789 0.2437019185385571 -1.2146699507841814 2.097076296430533 2.0500006809218574 -0.5200046160127103 1.1399803817947731
2.29461693764 0.8795399714675789 0.2437019185385571 -1.2146699507841814 2.097076296430533 2.0500006809218574 -0.5200046160127103 1.1399803817947731
2.29461693764 0.8795399714675789 0.2437019185385571 -1.2146699507841814 2.097076296430533 2.0500006809218574 -0.5200046160127103 1.1399803817947731
2.30444288254 0.8784508306616147 0.2437019185385571 -1.221266155665373 2.097076296430533 2.0500006809218574 -0.5200046160127103 1.1399803817947731
2.30444288254 0.8784508306616147 0.2437019185385571 -1.221266155665373 2.097076296430533 2.0500006809218574 -0.5200046160127103 1.1399803817947731
2.31445002556 0.8773923698783538 0.2437019185385571 -1.2278623605465646 2.097076296430533 2.0500006809218574 -0.5200046160127103 1.1399803817947731
2.31445002556 0.8773923698783538 0.2437019185385571 -1.2278623605465646 2.097076296430533 2.0500006809218574 -0.5200046160127103 1.1399803817947731
2.32455706596 0.8773923698783538 0.2437019185385571 -1.2278623605465646 2.097076296430533 2.0500006809218574 -0.5200046160127103 1.1399803817947731
2.32455706596 0.8773923698783538 0.2437019185385571 -1.2278623605465646 2.097076296430533 2.0500006809218574 -0.5200046160127103 1.1399803817947731
2.33446788788 0.8763645891177959 0.2437019185385571 -1.2342744852915368 2.097076296430533 2.050018942760094 -0.5200046160127103 1.1399803817947731
2.33446788788 0.8763645891177959 0.2437019185385571 -1.2342744852915368 2.097076296430533 2.050018942760094 -0.5200046160127103 1.1399803817947731
2.34459996223 0.8752601083004802 0.2437019185385571 -1.240533209922993 2.097060956419181 2.050018942760094 -0.5200046160127103 1.1399803817947731
2.34459996223 0.8752601083004802 0.2437019185385571 -1.240533209922993 2.097060956419181 2.050018942760094 -0.5200046160127103 1.1399803817947731
2.35451102257 0.8752601083004802 0.2437019185385571 -1.240533209922993 2.097060956419181 2.050018942760094 -0.5200046160127103 1.1399803817947731
2.35451102257 0.8752601083004802 0.2437019185385571 -1.240533209922993 2.097060956419181 2.050018942760094 -0.5200046160127103 1.1399803817947731
2.36448407173 0.8752601083004802 0.2437019185385571 -1.240533209922993 2.097060956419181 2.050018942760094 -0.5200046160127103 1.1399803817947731
2.36448407173 0.8752601083004802 0.2437019185385571 -1.240533209922993 2.097060956419181 2.050018942760094 -0.5200046160127103 1.1399803817947731
2.37452697754 0.8752601083004802 0.2437019185385571 -1.240533209922993 2.097060956419181 2.050018942760094 -0.5200046160127103 1.1399803817947731
2.37452697754 0.8752601083004802 0.2437019185385571 -1.240533209922993 2.097060956419181 2.050018942760094 -0.5200046160127103 1.1399803817947731
2.38443589211 0.8752601083004802 0.2437019185385571 -1.240533209922993 2.097060956419181 2.050018942760094 -0.5200046160127103 1.1399803817947731
2.38443589211 0.8752601083004802 0.2437019185385571 -1.240533209922993 2.097060956419181 2.050018942760094 -0.5200046160127103 1.1399803817947731
2.39431905746 0.8739101873015386 0.2437019185385571 -1.246684554474988 2.097060956419181 2.0500006809218574 -0.5200046160127103 1.1399803817947731
2.39431905746 0.8739101873015386 0.2437019185385571 -1.246684554474988 2.097060956419181 2.0500006809218574 -0.5200046160127103 1.1399803817947731
2.40451788902 0.8739101873015386 0.2437019185385571 -1.246684554474988 2.097060956419181 2.0500006809218574 -0.5200046160127103 1.1399803817947731
2.40451788902 0.8739101873015386 0.2437019185385571 -1.246684554474988 2.097060956419181 2.0500006809218574 -0.5200046160127103 1.1399803817947731
2.41451191902 0.8739101873015386 0.2437019185385571 -1.246684554474988 2.097060956419181 2.0500006809218574 -0.5200046160127103 1.1399803817947731
2.41451191902 0.8739101873015386 0.2437019185385571 -1.246684554474988 2.097060956419181 2.0500006809218574 -0.5200046160127103 1.1399803817947731
2.42465209961 0.8739101873015386 0.2437019185385571 -1.246684554474988 2.097060956419181 2.0500006809218574 -0.5200046160127103 1.1399803817947731
2.42465209961 0.8739101873015386 0.2437019185385571 -1.246684554474988 2.097060956419181 2.0500006809218574 -0.5200046160127103 1.1399803817947731
2.43451309204 0.8727443464388164 0.2437019185385571 -1.2522069585615672 2.097060956419181 2.0500006809218574 -0.5200046160127103 1.1399803817947731
2.43451309204 0.8727443464388164 0.2437019185385571 -1.2522069585615672 2.097060956419181 2.0500006809218574 -0.5200046160127103 1.1399803817947731
2.44453001022 0.8727443464388164 0.2437019185385571 -1.2522069585615672 2.097060956419181 2.0500006809218574 -0.5200046160127103 1.1399803817947731
2.44453001022 0.8727443464388164 0.2437019185385571 -1.2522069585615672 2.097060956419181 2.0500006809218574 -0.5200046160127103 1.1399803817947731
2.45441389084 0.8681116630106307 0.2437019185385571 -1.2685133906283268 2.0970149363851265 2.0500006809218574 -0.5200046160127103 1.1399803817947731
2.45441389084 0.8681116630106307 0.2437019185385571 -1.2685133906283268 2.0970149363851265 2.0500006809218574 -0.5200046160127103 1.1399803817947731
2.46430897713 0.8661021215235699 0.2437019185385571 -1.2731000540224575 2.096999596373775 2.0500006809218574 -0.5200046160127103 1.1399803817947731
2.46430897713 0.8661021215235699 0.2437019185385571 -1.2731000540224575 2.096999596373775 2.0500006809218574 -0.5200046160127103 1.1399803817947731
2.47447299957 0.8661021215235699 0.2437019185385571 -1.2731000540224575 2.096999596373775 2.0500006809218574 -0.5200046160127103 1.1399803817947731
2.47447299957 0.8661021215235699 0.2437019185385571 -1.2731000540224575 2.096999596373775 2.0500006809218574 -0.5200046160127103 1.1399803817947731
2.48459887505 0.8661021215235699 0.2437019185385571 -1.2731000540224575 2.096999596373775 2.0500006809218574 -0.5200046160127103 1.1399803817947731
2.48459887505 0.8661021215235699 0.2437019185385571 -1.2731000540224575 2.096999596373775 2.0500006809218574 -0.5200046160127103 1.1399803817947731
2.49452590942 0.8661021215235699 0.2437019185385571 -1.2731000540224575 2.096999596373775 2.0500006809218574 -0.5200046160127103 1.1399803817947731
2.49452590942 0.8661021215235699 0.2437019185385571 -1.2731000540224575 2.096999596373775 2.0500006809218574 -0.5200046160127103 1.1399803817947731
2.50442290306 0.8640465600024544 0.2437019185385571 -1.2778861375641597 2.096968916351072 2.0500006809218574 -0.5200046160127103 1.1399803817947731
2.50442290306 0.8640465600024544 0.2437019185385571 -1.2778861375641597 2.096968916351072 2.0500006809218574 -0.5200046160127103 1.1399803817947731
2.51450991631 0.8640465600024544 0.2437019185385571 -1.2778861375641597 2.096968916351072 2.0500006809218574 -0.5200046160127103 1.1399803817947731
2.51450991631 0.8640465600024544 0.2437019185385571 -1.2778861375641597 2.096968916351072 2.0500006809218574 -0.5200046160127103 1.1399803817947731
2.52444696426 0.8619296384359325 0.2437019185385571 -1.2827029011285649 2.09695357633972 2.0500098118409755 -0.5200046160127103 1.1399803817947731
2.52444696426 0.8619296384359325 0.2437019185385571 -1.2827029011285649 2.09695357633972 2.0500098118409755 -0.5200046160127103 1.1399803817947731
2.53449606895 0.8619296384359325 0.2437019185385571 -1.2827029011285649 2.09695357633972 2.0500098118409755 -0.5200046160127103 1.1399803817947731
2.53449606895 0.8619296384359325 0.2437019185385571 -1.2827029011285649 2.09695357633972 2.0500098118409755 -0.5200046160127103 1.1399803817947731
2.54440188408 0.8594138765742687 0.2437019185385571 -1.2872588844999922 2.096876876282962 2.050037204598331 -0.5200046160127103 1.1399803817947731
2.54440188408 0.8594138765742687 0.2437019185385571 -1.2872588844999922 2.096876876282962 2.050037204598331 -0.5200046160127103 1.1399803817947731
2.55442810059 0.8594138765742687 0.2437019185385571 -1.2872588844999922 2.096876876282962 2.050037204598331 -0.5200046160127103 1.1399803817947731
2.55442810059 0.8594138765742687 0.2437019185385571 -1.2872588844999922 2.096876876282962 2.050037204598331 -0.5200046160127103 1.1399803817947731
2.564442873 0.8564839344061115 0.2437019185385571 -1.2920142880189909 2.096800176226204 2.0500006809218574 -0.5200046160127103 1.1399803817947731
2.564442873 0.8564839344061115 0.2437019185385571 -1.2920142880189909 2.096800176226204 2.0500006809218574 -0.5200046160127103 1.1399803817947731
2.57436299324 0.8532471920109221 0.2437019185385571 -1.2969537716742088 2.096723476169446 2.0500006809218574 -0.5200046160127103 1.1399803817947731
2.57436299324 0.8532471920109221 0.2437019185385571 -1.2969537716742088 2.096723476169446 2.0500006809218574 -0.5200046160127103 1.1399803817947731
2.58438801765 0.8532471920109221 0.2437019185385571 -1.2969537716742088 2.096723476169446 2.0500006809218574 -0.5200046160127103 1.1399803817947731
2.58438801765 0.8532471920109221 0.2437019185385571 -1.2969537716742088 2.096723476169446 2.0500006809218574 -0.5200046160127103 1.1399803817947731
2.59450101852 0.8498263694795134 0.2437019185385571 -1.3016324751364494 2.0966314361013363 2.0500006809218574 -0.520000050553151 1.1399758163352145
2.59450101852 0.8498263694795134 0.2437019185385571 -1.3016324751364494 2.0966314361013363 2.0500006809218574 -0.520000050553151 1.1399758163352145
2.60456895828 0.8498263694795134 0.2437019185385571 -1.3016324751364494 2.0966314361013363 2.0500006809218574 -0.520000050553151 1.1399758163352145
2.60456895828 0.8498263694795134 0.2437019185385571 -1.3016324751364494 2.0966314361013363 2.0500006809218574 -0.520000050553151 1.1399758163352145
2.61434793472 0.8498263694795134 0.2437019185385571 -1.3016324751364494 2.0966314361013363 2.0500006809218574 -0.520000050553151 1.1399758163352145
2.61434793472 0.8498263694795134 0.2437019185385571 -1.3016324751364494 2.0966314361013363 2.0500006809218574 -0.520000050553151 1.1399758163352145
2.62453603745 0.8498263694795134 0.2437019185385571 -1.3016324751364494 2.0966314361013363 2.0500006809218574 -0.520000050553151 1.1399758163352145
2.62453603745 0.8498263694795134 0.2437019185385571 -1.3016324751364494 2.0966314361013363 2.0500006809218574 -0.520000050553151 1.1399758163352145
2.63451099396 0.8498263694795134 0.2437019185385571 -1.3016324751364494 2.0966314361013363 2.0500006809218574 -0.520000050553151 1.1399758163352145
2.63451099396 0.8498263694795134 0.2437019185385571 -1.3016324751364494 2.0966314361013363 2.0500006809218574 -0.520000050553151 1.1399758163352145
2.64443993568 0.8498263694795134 0.2437019185385571 -1.3016324751364494 2.0966314361013363 2.0500006809218574 -0.520000050553151 1.1399758163352145
2.64443993568 0.8498263694795134 0.2437019185385571 -1.3016324751364494 2.0966314361013363 2.0500006809218574 -0.520000050553151 1.1399758163352145
2.65454506874 0.8393338017150133 0.2437019185385571 -1.3159140257047968 2.0961558957494364 2.0499915500027392 -0.5200046160127103 1.1399803817947731
2.65454506874 0.8393338017150133 0.2437019185385571 -1.3159140257047968 2.0961558957494364 2.0499915500027392 -0.5200046160127103 1.1399803817947731
2.6643819809 0.8393338017150133 0.2437019185385571 -1.3159140257047968 2.0961558957494364 2.0499915500027392 -0.5200046160127103 1.1399803817947731
2.6643819809 0.8393338017150133 0.2437019185385571 -1.3159140257047968 2.0961558957494364 2.0499915500027392 -0.5200046160127103 1.1399803817947731
2.67438006401 0.8393338017150133 0.2437019185385571 -1.3159140257047968 2.0961558957494364 2.0499915500027392 -0.5200046160127103 1.1399803817947731
2.67438006401 0.8393338017150133 0.2437019185385571 -1.3159140257047968 2.0961558957494364 2.0499915500027392 -0.5200046160127103 1.1399803817947731
2.68457388878 0.8393338017150133 0.2437019185385571 -1.3159140257047968 2.0961558957494364 2.0499915500027392 -0.5200046160127103 1.1399803817947731
2.68457388878 0.8393338017150133 0.2437019185385571 -1.3159140257047968 2.0961558957494364 2.0499915500027392 -0.5200046160127103 1.1399803817947731
2.69454693794 0.8393338017150133 0.2437019185385571 -1.3159140257047968 2.0961558957494364 2.0499915500027392 -0.5200046160127103 1.1399803817947731
2.69454693794 0.8393338017150133 0.2437019185385571 -1.3159140257047968 2.0961558957494364 2.0499915500027392 -0.5200046160127103 1.1399803817947731
2.70451307297 0.8393338017150133 0.2437019185385571 -1.3159140257047968 2.0961558957494364 2.0499915500027392 -0.5200046160127103 1.1399803817947731
2.70451307297 0.8393338017150133 0.2437019185385571 -1.3159140257047968 2.0961558957494364 2.0499915500027392 -0.5200046160127103 1.1399803817947731
2.71452689171 0.8393338017150133 0.2437019185385571 -1.3159140257047968 2.0961558957494364 2.0499915500027392 -0.5200046160127103 1.1399803817947731
2.71452689171 0.8393338017150133 0.2437019185385571 -1.3159140257047968 2.0961558957494364 2.0499915500027392 -0.5200046160127103 1.1399803817947731
2.7246029377 0.8393338017150133 0.2437019185385571 -1.3159140257047968 2.0961558957494364 2.0499915500027392 -0.5200046160127103 1.1399803817947731
2.7246029377 0.8393338017150133 0.2437019185385571 -1.3159140257047968 2.0961558957494364 2.0499915500027392 -0.5200046160127103 1.1399803817947731
2.73445296288 0.8393338017150133 0.2437019185385571 -1.3159140257047968 2.0961558957494364 2.0499915500027392 -0.5200046160127103 1.1399803817947731
2.73445296288 0.8393338017150133 0.2437019185385571 -1.3159140257047968 2.0961558957494364 2.0499915500027392 -0.5200046160127103 1.1399803817947731
2.7445628643 0.8393338017150133 0.2437019185385571 -1.3159140257047968 2.0961558957494364 2.0499915500027392 -0.5200046160127103 1.1399803817947731
2.7445628643 0.8393338017150133 0.2437019185385571 -1.3159140257047968 2.0961558957494364 2.0499915500027392 -0.5200046160127103 1.1399803817947731
2.75453996658 0.8393338017150133 0.2437019185385571 -1.3159140257047968 2.0961558957494364 2.0499915500027392 -0.5200046160127103 1.1399803817947731
2.75453996658 0.8393338017150133 0.2437019185385571 -1.3159140257047968 2.0961558957494364 2.0499915500027392 -0.5200046160127103 1.1399803817947731
2.76453995705 0.8393338017150133 0.2437019185385571 -1.3159140257047968 2.0961558957494364 2.0499915500027392 -0.5200046160127103 1.1399803817947731
2.76453995705 0.8393338017150133 0.2437019185385571 -1.3159140257047968 2.0961558957494364 2.0499915500027392 -0.5200046160127103 1.1399803817947731
2.77452588081 0.8393338017150133 0.2437019185385571 -1.3159140257047968 2.0961558957494364 2.0499915500027392 -0.5200046160127103 1.1399803817947731
2.77452588081 0.8393338017150133 0.2437019185385571 -1.3159140257047968 2.0961558957494364 2.0499915500027392 -0.5200046160127103 1.1399803817947731
2.78457903862 0.8393338017150133 0.2437019185385571 -1.3159140257047968 2.0961558957494364 2.0499915500027392 -0.5200046160127103 1.1399803817947731
2.78457903862 0.8393338017150133 0.2437019185385571 -1.3159140257047968 2.0961558957494364 2.0499915500027392 -0.5200046160127103 1.1399803817947731
2.79455590248 0.8393338017150133 0.2437019185385571 -1.3159140257047968 2.0961558957494364 2.0499915500027392 -0.5200046160127103 1.1399803817947731
2.79455590248 0.8393338017150133 0.2437019185385571 -1.3159140257047968 2.0961558957494364 2.0499915500027392 -0.5200046160127103 1.1399803817947731
2.80458188057 0.8393338017150133 0.2437019185385571 -1.3159140257047968 2.0961558957494364 2.0499915500027392 -0.5200046160127103 1.1399803817947731
2.80458188057 0.8393338017150133 0.2437019185385571 -1.3159140257047968 2.0961558957494364 2.0499915500027392 -0.5200046160127103 1.1399803817947731
2.81456589699 0.8393338017150133 0.2437019185385571 -1.3159140257047968 2.0961558957494364 2.0499915500027392 -0.5200046160127103 1.1399803817947731
2.81456589699 0.8393338017150133 0.2437019185385571 -1.3159140257047968 2.0961558957494364 2.0499915500027392 -0.5200046160127103 1.1399803817947731
2.82458686829 0.8393338017150133 0.2437019185385571 -1.3159140257047968 2.0961558957494364 2.0499915500027392 -0.5200046160127103 1.1399803817947731
2.82458686829 0.8393338017150133 0.2437019185385571 -1.3159140257047968 2.0961558957494364 2.0499915500027392 -0.5200046160127103 1.1399803817947731
2.83438706398 0.8393338017150133 0.2437019185385571 -1.3159140257047968 2.0961558957494364 2.0499915500027392 -0.5200046160127103 1.1399803817947731
2.83438706398 0.8393338017150133 0.2437019185385571 -1.3159140257047968 2.0961558957494364 2.0499915500027392 -0.5200046160127103 1.1399803817947731
2.84455990791 0.8393338017150133 0.2437019185385571 -1.3159140257047968 2.0961558957494364 2.0499915500027392 -0.5200046160127103 1.1399803817947731
2.84455990791 0.8393338017150133 0.2437019185385571 -1.3159140257047968 2.0961558957494364 2.0499915500027392 -0.5200046160127103 1.1399803817947731
2.85452508926 0.8393338017150133 0.2437019185385571 -1.3159140257047968 2.0961558957494364 2.0499915500027392 -0.5200046160127103 1.1399803817947731
2.85452508926 0.8393338017150133 0.2437019185385571 -1.3159140257047968 2.0961558957494364 2.0499915500027392 -0.5200046160127103 1.1399803817947731
2.86433601379 0.8393338017150133 0.2437019185385571 -1.3159140257047968 2.0961558957494364 2.0499915500027392 -0.5200046160127103 1.1399803817947731
2.86433601379 0.8393338017150133 0.2437019185385571 -1.3159140257047968 2.0961558957494364 2.0499915500027392 -0.5200046160127103 1.1399803817947731
2.87437009811 0.8393338017150133 0.2437019185385571 -1.3159140257047968 2.0961558957494364 2.0499915500027392 -0.5200046160127103 1.1399803817947731
2.87437009811 0.8393338017150133 0.2437019185385571 -1.3159140257047968 2.0961558957494364 2.0499915500027392 -0.5200046160127103 1.1399803817947731
2.88455700874 0.8393338017150133 0.2437019185385571 -1.3159140257047968 2.0961558957494364 2.0499915500027392 -0.5200046160127103 1.1399803817947731
2.88455700874 0.8393338017150133 0.2437019185385571 -1.3159140257047968 2.0961558957494364 2.0499915500027392 -0.5200046160127103 1.1399803817947731
2.89435100555 0.8393338017150133 0.2437019185385571 -1.3159140257047968 2.0961558957494364 2.0499915500027392 -0.5200046160127103 1.1399803817947731
2.89435100555 0.8393338017150133 0.2437019185385571 -1.3159140257047968 2.0961558957494364 2.0499915500027392 -0.5200046160127103 1.1399803817947731
2.90452098846 0.8393338017150133 0.2437019185385571 -1.3159140257047968 2.0961558957494364 2.0499915500027392 -0.5200046160127103 1.1399803817947731
2.90452098846 0.8393338017150133 0.2437019185385571 -1.3159140257047968 2.0961558957494364 2.0499915500027392 -0.5200046160127103 1.1399803817947731
2.91451501846 0.8393338017150133 0.2437019185385571 -1.3159140257047968 2.0961558957494364 2.0499915500027392 -0.5200046160127103 1.1399803817947731
2.91451501846 0.8393338017150133 0.2437019185385571 -1.3159140257047968 2.0961558957494364 2.0499915500027392 -0.5200046160127103 1.1399803817947731
2.92438602448 0.8393338017150133 0.2437019185385571 -1.3159140257047968 2.0961558957494364 2.0499915500027392 -0.5200046160127103 1.1399803817947731
2.92438602448 0.8393338017150133 0.2437019185385571 -1.3159140257047968 2.0961558957494364 2.0499915500027392 -0.5200046160127103 1.1399803817947731
2.93451809883 0.8393338017150133 0.2437019185385571 -1.3159140257047968 2.0961558957494364 2.0499915500027392 -0.5200046160127103 1.1399803817947731
2.93451809883 0.8393338017150133 0.2437019185385571 -1.3159140257047968 2.0961558957494364 2.0499915500027392 -0.5200046160127103 1.1399803817947731
2.94459605217 0.8393338017150133 0.2437019185385571 -1.3159140257047968 2.0961558957494364 2.0499915500027392 -0.5200046160127103 1.1399803817947731
2.94459605217 0.8393338017150133 0.2437019185385571 -1.3159140257047968 2.0961558957494364 2.0499915500027392 -0.5200046160127103 1.1399803817947731
2.95458507538 0.8393338017150133 0.2437019185385571 -1.3159140257047968 2.0961558957494364 2.0499915500027392 -0.5200046160127103 1.1399803817947731
2.95458507538 0.8393338017150133 0.2437019185385571 -1.3159140257047968 2.0961558957494364 2.0499915500027392 -0.5200046160127103 1.1399803817947731
2.96460700035 0.8393338017150133 0.2437019185385571 -1.3159140257047968 2.0961558957494364 2.0499915500027392 -0.5200046160127103 1.1399803817947731
2.96460700035 0.8393338017150133 0.2437019185385571 -1.3159140257047968 2.0961558957494364 2.0499915500027392 -0.5200046160127103 1.1399803817947731
2.97456502914 0.8393338017150133 0.2437019185385571 -1.3159140257047968 2.0961558957494364 2.0499915500027392 -0.5200046160127103 1.1399803817947731
2.97456502914 0.8393338017150133 0.2437019185385571 -1.3159140257047968 2.0961558957494364 2.0499915500027392 -0.5200046160127103 1.1399803817947731
2.98439002037 0.8393338017150133 0.2437019185385571 -1.3159140257047968 2.0961558957494364 2.0499915500027392 -0.5200046160127103 1.1399803817947731
2.98439002037 0.8393338017150133 0.2437019185385571 -1.3159140257047968 2.0961558957494364 2.0499915500027392 -0.5200046160127103 1.1399803817947731
2.99454092979 0.8393338017150133 0.2437019185385571 -1.3159140257047968 2.0961558957494364 2.0499915500027392 -0.5200046160127103 1.1399803817947731
2.99454092979 0.8393338017150133 0.2437019185385571 -1.3159140257047968 2.0961558957494364 2.0499915500027392 -0.5200046160127103 1.1399803817947731
3.00455904007 0.8393338017150133 0.2437019185385571 -1.3159140257047968 2.0961558957494364 2.0499915500027392 -0.5200046160127103 1.1399803817947731
3.00455904007 0.8393338017150133 0.2437019185385571 -1.3159140257047968 2.0961558957494364 2.0499915500027392 -0.5200046160127103 1.1399803817947731
3.01451301575 0.8393338017150133 0.2437019185385571 -1.3159140257047968 2.0961558957494364 2.0499915500027392 -0.5200046160127103 1.1399803817947731
3.01451301575 0.8393338017150133 0.2437019185385571 -1.3159140257047968 2.0961558957494364 2.0499915500027392 -0.5200046160127103 1.1399803817947731
3.02439403534 0.8393338017150133 0.2437019185385571 -1.3159140257047968 2.0961558957494364 2.0499915500027392 -0.5200046160127103 1.1399803817947731
3.02439403534 0.8393338017150133 0.2437019185385571 -1.3159140257047968 2.0961558957494364 2.0499915500027392 -0.5200046160127103 1.1399803817947731
3.03452587128 0.8393338017150133 0.2437019185385571 -1.3159140257047968 2.0961558957494364 2.0499915500027392 -0.5200046160127103 1.1399803817947731
3.03452587128 0.8393338017150133 0.2437019185385571 -1.3159140257047968 2.0961558957494364 2.0499915500027392 -0.5200046160127103 1.1399803817947731
3.04444599152 0.8393338017150133 0.2437019185385571 -1.3159140257047968 2.0961558957494364 2.0499915500027392 -0.5200046160127103 1.1399803817947731
3.04444599152 0.8393338017150133 0.2437019185385571 -1.3159140257047968 2.0961558957494364 2.0499915500027392 -0.5200046160127103 1.1399803817947731
3.05452799797 0.8393338017150133 0.2437019185385571 -1.3159140257047968 2.0961558957494364 2.0499915500027392 -0.5200046160127103 1.1399803817947731
3.05452799797 0.8393338017150133 0.2437019185385571 -1.3159140257047968 2.0961558957494364 2.0499915500027392 -0.5200046160127103 1.1399803817947731
3.06455802917 0.8393338017150133 0.2437019185385571 -1.3159140257047968 2.0961558957494364 2.0499915500027392 -0.5200046160127103 1.1399803817947731
3.06455802917 0.8393338017150133 0.2437019185385571 -1.3159140257047968 2.0961558957494364 2.0499915500027392 -0.5200046160127103 1.1399803817947731
3.07465100288 0.8393338017150133 0.2437019185385571 -1.3159140257047968 2.0961558957494364 2.0499915500027392 -0.5200046160127103 1.1399803817947731
3.07465100288 0.8393338017150133 0.2437019185385571 -1.3159140257047968 2.0961558957494364 2.0499915500027392 -0.5200046160127103 1.1399803817947731
3.08441209793 0.8393338017150133 0.2437019185385571 -1.3159140257047968 2.0961558957494364 2.0499915500027392 -0.5200046160127103 1.1399803817947731
3.08441209793 0.8393338017150133 0.2437019185385571 -1.3159140257047968 2.0961558957494364 2.0499915500027392 -0.5200046160127103 1.1399803817947731
3.09457087517 0.8393338017150133 0.2437019185385571 -1.3159140257047968 2.0961558957494364 2.0499915500027392 -0.5200046160127103 1.1399803817947731
3.09457087517 0.8393338017150133 0.2437019185385571 -1.3159140257047968 2.0961558957494364 2.0499915500027392 -0.5200046160127103 1.1399803817947731
3.10457205772 0.8393338017150133 0.2437019185385571 -1.3159140257047968 2.0961558957494364 2.0499915500027392 -0.5200046160127103 1.1399803817947731
3.10457205772 0.8393338017150133 0.2437019185385571 -1.3159140257047968 2.0961558957494364 2.0499915500027392 -0.5200046160127103 1.1399803817947731
3.114538908 0.8393338017150133 0.2437019185385571 -1.3159140257047968 2.0961558957494364 2.0499915500027392 -0.5200046160127103 1.1399803817947731
3.114538908 0.8393338017150133 0.2437019185385571 -1.3159140257047968 2.0961558957494364 2.0499915500027392 -0.5200046160127103 1.1399803817947731
3.12457704544 0.8393338017150133 0.2437019185385571 -1.3159140257047968 2.0961558957494364 2.0499915500027392 -0.5200046160127103 1.1399803817947731
3.12457704544 0.8393338017150133 0.2437019185385571 -1.3159140257047968 2.0961558957494364 2.0499915500027392 -0.5200046160127103 1.1399803817947731
3.13454389572 0.8393338017150133 0.2437019185385571 -1.3159140257047968 2.0961558957494364 2.0499915500027392 -0.5200046160127103 1.1399803817947731
3.13454389572 0.8393338017150133 0.2437019185385571 -1.3159140257047968 2.0961558957494364 2.0499915500027392 -0.5200046160127103 1.1399803817947731
3.14440202713 0.8393338017150133 0.2437019185385571 -1.3159140257047968 2.0961558957494364 2.0499915500027392 -0.5200046160127103 1.1399803817947731
3.14440202713 0.8393338017150133 0.2437019185385571 -1.3159140257047968 2.0961558957494364 2.0499915500027392 -0.5200046160127103 1.1399803817947731
3.15454697609 0.8393338017150133 0.2437019185385571 -1.3159140257047968 2.0961558957494364 2.0499915500027392 -0.5200046160127103 1.1399803817947731
3.15454697609 0.8393338017150133 0.2437019185385571 -1.3159140257047968 2.0961558957494364 2.0499915500027392 -0.5200046160127103 1.1399803817947731
3.16410589218 0.8104639003512862 0.2437172585499087 -1.3517329522108024 2.0950514149321204 2.0499824190836207 -0.5200046160127103 1.1399803817947731
3.16410589218 0.8104639003512862 0.2437172585499087 -1.3517329522108024 2.0950514149321204 2.0499824190836207 -0.5200046160127103 1.1399803817947731
3.1740899086 0.8104639003512862 0.2437172585499087 -1.3517329522108024 2.0950514149321204 2.0499824190836207 -0.5200046160127103 1.1399803817947731
3.1740899086 0.8104639003512862 0.2437172585499087 -1.3517329522108024 2.0950514149321204 2.0499824190836207 -0.5200046160127103 1.1399803817947731
3.18452787399 0.7891106045498474 0.2437172585499087 -1.3753565696922794 2.095005394898066 2.0499824190836207 -0.5200046160127103 1.1399803817947731
3.18452787399 0.7891106045498474 0.2437172585499087 -1.3753565696922794 2.095005394898066 2.0499824190836207 -0.5200046160127103 1.1399803817947731
3.1945168972 0.7891106045498474 0.2437172585499087 -1.3753565696922794 2.095005394898066 2.0499824190836207 -0.5200046160127103 1.1399803817947731
3.1945168972 0.7891106045498474 0.2437172585499087 -1.3753565696922794 2.095005394898066 2.0499824190836207 -0.5200046160127103 1.1399803817947731
3.20433998108 0.7891106045498474 0.2437172585499087 -1.3753565696922794 2.095005394898066 2.0499824190836207 -0.5200046160127103 1.1399803817947731
3.20433998108 0.7891106045498474 0.2437172585499087 -1.3753565696922794 2.095005394898066 2.0499824190836207 -0.5200046160127103 1.1399803817947731
3.21453094482 0.7891106045498474 0.2437172585499087 -1.3753565696922794 2.095005394898066 2.0499824190836207 -0.5200046160127103 1.1399803817947731
3.21453094482 0.7891106045498474 0.2437172585499087 -1.3753565696922794 2.095005394898066 2.0499824190836207 -0.5200046160127103 1.1399803817947731
3.22457408905 0.7891106045498474 0.2437172585499087 -1.3753565696922794 2.095005394898066 2.0499824190836207 -0.5200046160127103 1.1399803817947731
3.22457408905 0.7891106045498474 0.2437172585499087 -1.3753565696922794 2.095005394898066 2.0499824190836207 -0.5200046160127103 1.1399803817947731
3.23447203636 0.7891106045498474 0.2437172585499087 -1.3753565696922794 2.095005394898066 2.0499824190836207 -0.5200046160127103 1.1399803817947731
3.23447203636 0.7891106045498474 0.2437172585499087 -1.3753565696922794 2.095005394898066 2.0499824190836207 -0.5200046160127103 1.1399803817947731
3.24455308914 0.7891106045498474 0.2437172585499087 -1.3753565696922794 2.095005394898066 2.0499824190836207 -0.5200046160127103 1.1399803817947731
3.24455308914 0.7891106045498474 0.2437172585499087 -1.3753565696922794 2.095005394898066 2.0499824190836207 -0.5200046160127103 1.1399803817947731
3.2545800209 0.7891106045498474 0.2437172585499087 -1.3753565696922794 2.095005394898066 2.0499824190836207 -0.5200046160127103 1.1399803817947731
3.2545800209 0.7891106045498474 0.2437172585499087 -1.3753565696922794 2.095005394898066 2.0499824190836207 -0.5200046160127103 1.1399803817947731
3.26448392868 0.7891106045498474 0.2437172585499087 -1.3753565696922794 2.095005394898066 2.0499824190836207 -0.5200046160127103 1.1399803817947731
3.26448392868 0.7891106045498474 0.2437172585499087 -1.3753565696922794 2.095005394898066 2.0499824190836207 -0.5200046160127103 1.1399803817947731
3.27457809448 0.7891106045498474 0.2437172585499087 -1.3753565696922794 2.095005394898066 2.0499824190836207 -0.5200046160127103 1.1399803817947731
3.27457809448 0.7891106045498474 0.2437172585499087 -1.3753565696922794 2.095005394898066 2.0499824190836207 -0.5200046160127103 1.1399803817947731
3.28460407257 0.7891106045498474 0.2437172585499087 -1.3753565696922794 2.095005394898066 2.0499824190836207 -0.5200046160127103 1.1399803817947731
3.28460407257 0.7891106045498474 0.2437172585499087 -1.3753565696922794 2.095005394898066 2.0499824190836207 -0.5200046160127103 1.1399803817947731
3.29457402229 0.7891106045498474 0.2437172585499087 -1.3753565696922794 2.095005394898066 2.0499824190836207 -0.5200046160127103 1.1399803817947731
3.29457402229 0.7891106045498474 0.2437172585499087 -1.3753565696922794 2.095005394898066 2.0499824190836207 -0.5200046160127103 1.1399803817947731
3.30814194679 0.766836908067312 0.2437172585499087 -1.392522042394729 2.0948980148186047 2.0499824190836207 -0.5200046160127103 1.1399803817947731
3.30814194679 0.766836908067312 0.2437172585499087 -1.392522042394729 2.0948980148186047 2.0499824190836207 -0.5200046160127103 1.1399803817947731
3.31402802467 0.766836908067312 0.2437172585499087 -1.392522042394729 2.0948980148186047 2.0499824190836207 -0.5200046160127103 1.1399803817947731
3.31402802467 0.766836908067312 0.2437172585499087 -1.392522042394729 2.0948980148186047 2.0499824190836207 -0.5200046160127103 1.1399803817947731
3.32405090332 0.766836908067312 0.2437172585499087 -1.392522042394729 2.0948980148186047 2.0499824190836207 -0.5200046160127103 1.1399803817947731
3.32405090332 0.766836908067312 0.2437172585499087 -1.392522042394729 2.0948980148186047 2.0499824190836207 -0.5200046160127103 1.1399803817947731
3.3341960907 0.743842231051 0.24371725855 -1.40858303428 2.09376285398 2.04999155 -0.520004616013 1.13998038179
3.3341960907 0.743842231051 0.24371725855 -1.40858303428 2.09376285398 2.04999155 -0.520004616013 1.13998038179
3.34406208992 0.7095879857031094 0.2437172585499087 -1.435382034111123 2.0904340715152863 2.0499915500027392 -0.5200046160127103 1.1399803817947731
3.34406208992 0.7095879857031094 0.2437172585499087 -1.435382034111123 2.0904340715152863 2.0499915500027392 -0.5200046160127103 1.1399803817947731
3.35423588753 0.7095879857031094 0.2437172585499087 -1.435382034111123 2.0904340715152863 2.0499915500027392 -0.5200046160127103 1.1399803817947731
3.35423588753 0.7095879857031094 0.2437172585499087 -1.435382034111123 2.0904340715152863 2.0499915500027392 -0.5200046160127103 1.1399803817947731
3.36450791359 0.7095879857031094 0.2437172585499087 -1.435382034111123 2.0904340715152863 2.0499915500027392 -0.5200046160127103 1.1399803817947731
3.36450791359 0.7095879857031094 0.2437172585499087 -1.435382034111123 2.0904340715152863 2.0499915500027392 -0.5200046160127103 1.1399803817947731
3.37450289726 0.7045871420024851 0.2437172585499087 -1.439140336892267 2.090326691435825 2.0499824190836207 -0.5200046160127103 1.1399803817947731
3.37450289726 0.7045871420024851 0.2437172585499087 -1.439140336892267 2.090326691435825 2.0499824190836207 -0.5200046160127103 1.1399803817947731
3.38464808464 0.7001385387105187 0.2437172585499087 -1.442867959650708 2.0902653313904187 2.0499824190836207 -0.520000050553151 1.1399758163352145
3.38464808464 0.7001385387105187 0.2437172585499087 -1.442867959650708 2.0902653313904187 2.0499824190836207 -0.520000050553151 1.1399758163352145
3.39435505867 0.7001385387105187 0.2437172585499087 -1.442867959650708 2.0902653313904187 2.0499824190836207 -0.520000050553151 1.1399758163352145
3.39435505867 0.7001385387105187 0.2437172585499087 -1.442867959650708 2.0902653313904187 2.0499824190836207 -0.520000050553151 1.1399758163352145
3.4045650959 0.7001385387105187 0.2437172585499087 -1.442867959650708 2.0902653313904187 2.0499824190836207 -0.520000050553151 1.1399758163352145
3.4045650959 0.7001385387105187 0.2437172585499087 -1.442867959650708 2.0902653313904187 2.0499824190836207 -0.520000050553151 1.1399758163352145
3.41408205032 0.6822214054518401 0.2437172585499087 -1.4594044918877418 2.090096591265551 2.0499824190836207 -0.5200046160127103 1.1399803817947731
3.41408205032 0.6822214054518401 0.2437172585499087 -1.4594044918877418 2.090096591265551 2.0499824190836207 -0.5200046160127103 1.1399803817947731
3.42433786392 0.6822214054518401 0.2437172585499087 -1.4594044918877418 2.090096591265551 2.0499824190836207 -0.5200046160127103 1.1399803817947731
3.42433786392 0.6822214054518401 0.2437172585499087 -1.4594044918877418 2.090096591265551 2.0499824190836207 -0.5200046160127103 1.1399803817947731
3.43454098701 0.6822214054518401 0.2437172585499087 -1.4594044918877418 2.090096591265551 2.0499824190836207 -0.5200046160127103 1.1399803817947731
3.43454098701 0.6822214054518401 0.2437172585499087 -1.4594044918877418 2.090096591265551 2.0499824190836207 -0.5200046160127103 1.1399803817947731
3.44459700584 0.6822214054518401 0.2437172585499087 -1.4594044918877418 2.090096591265551 2.0499824190836207 -0.5200046160127103 1.1399803817947731
3.44459700584 0.6822214054518401 0.2437172585499087 -1.4594044918877418 2.090096591265551 2.0499824190836207 -0.5200046160127103 1.1399803817947731
3.4553399086 0.6729100185614137 0.2437172585499087 -1.468838598868981 2.0900352312201447 2.0499915500027392 -0.5200046160127103 1.1399803817947731
3.4553399086 0.6729100185614137 0.2437172585499087 -1.468838598868981 2.0900352312201447 2.0499915500027392 -0.5200046160127103 1.1399803817947731
3.46414995193 0.668476755280799 0.2437172585499087 -1.473808762546902 2.090004551197441 2.050018942760094 -0.5200046160127103 1.1399803817947731
3.46414995193 0.668476755280799 0.2437172585499087 -1.473808762546902 2.090004551197441 2.050018942760094 -0.5200046160127103 1.1399803817947731
3.4740998745 0.6640281519888325 0.2437172585499087 -1.4789323263383392 2.089943191152035 2.0500098118409755 -0.5200046160127103 1.1399803817947731
3.4740998745 0.6640281519888325 0.2437172585499087 -1.4789323263383392 2.089943191152035 2.0500098118409755 -0.5200046160127103 1.1399803817947731
3.4844520092 0.6592880884811855 0.2437172585499087 -1.4843166703227535 2.0898971711179803 2.0499824190836207 -0.520000050553151 1.1399758163352145
3.4844520092 0.6592880884811855 0.2437172585499087 -1.4843166703227535 2.0898971711179803 2.0499824190836207 -0.520000050553151 1.1399758163352145
3.49453496933 0.6592880884811855 0.2437172585499087 -1.4843166703227535 2.0898971711179803 2.0499824190836207 -0.520000050553151 1.1399758163352145
3.49453496933 0.6592880884811855 0.2437172585499087 -1.4843166703227535 2.0898971711179803 2.0499824190836207 -0.520000050553151 1.1399758163352145
3.50456190109 0.6548241451778675 0.2437172585499087 -1.489516934170949 2.0898511510839253 2.0499824190836207 -0.5200046160127103 1.1399803817947731
3.50456190109 0.6548241451778675 0.2437172585499087 -1.489516934170949 2.0898511510839253 2.0499824190836207 -0.5200046160127103 1.1399803817947731
3.51438093185 0.6548241451778675 0.2437172585499087 -1.489516934170949 2.0898511510839253 2.0499824190836207 -0.5200046160127103 1.1399803817947731
3.51438093185 0.6548241451778675 0.2437172585499087 -1.489516934170949 2.0898511510839253 2.0499824190836207 -0.5200046160127103 1.1399803817947731
3.52450799942 0.6548241451778675 0.2437172585499087 -1.489516934170949 2.0898511510839253 2.0499824190836207 -0.5200046160127103 1.1399803817947731
3.52450799942 0.6548241451778675 0.2437172585499087 -1.489516934170949 2.0898511510839253 2.0499824190836207 -0.5200046160127103 1.1399803817947731
3.53451609612 0.6548241451778675 0.2437172585499087 -1.489516934170949 2.0898511510839253 2.0499824190836207 -0.5200046160127103 1.1399803817947731
3.53451609612 0.6548241451778675 0.2437172585499087 -1.489516934170949 2.0898511510839253 2.0499824190836207 -0.5200046160127103 1.1399803817947731
3.54431605339 0.6502681618064398 0.2437172585499087 -1.4947632180531991 2.089835811072574 2.0499915500027392 -0.5200046160127103 1.1399803817947731
3.54431605339 0.6502681618064398 0.2437172585499087 -1.4947632180531991 2.089835811072574 2.0499915500027392 -0.5200046160127103 1.1399803817947731
3.55520200729 0.645282658117167 0.2437172585499087 -1.499610661640307 2.089820471061222 2.0500098118409755 -0.5200046160127103 1.1399803817947731
3.55520200729 0.645282658117167 0.2437172585499087 -1.499610661640307 2.089820471061222 2.0500098118409755 -0.5200046160127103 1.1399803817947731
3.56426906586 0.6402971544278943 0.2437172585499087 -1.5045041252614704 2.089820471061222 2.050028073679212 -0.5200046160127103 1.1399803817947731
3.56426906586 0.6402971544278943 0.2437172585499087 -1.5045041252614704 2.089820471061222 2.050028073679212 -0.5200046160127103 1.1399803817947731
3.57428193092 0.6402971544278943 0.2437172585499087 -1.5045041252614704 2.089820471061222 2.050028073679212 -0.5200046160127103 1.1399803817947731
3.57428193092 0.6402971544278943 0.2437172585499087 -1.5045041252614704 2.089820471061222 2.050028073679212 -0.5200046160127103 1.1399803817947731
3.58452391624 0.6356644709997086 0.2437172585499087 -1.5089987485874916 2.08980513104987 2.0499915500027392 -0.5200046160127103 1.1399803817947731
3.58452391624 0.6356644709997086 0.2437172585499087 -1.5089987485874916 2.08980513104987 2.0499915500027392 -0.5200046160127103 1.1399803817947731
3.59450793266 0.6356644709997086 0.2437172585499087 -1.5089987485874916 2.08980513104987 2.0499915500027392 -0.5200046160127103 1.1399803817947731
3.59450793266 0.6356644709997086 0.2437172585499087 -1.5089987485874916 2.08980513104987 2.0499915500027392 -0.5200046160127103 1.1399803817947731
3.60447907448 0.6356644709997086 0.2437172585499087 -1.5089987485874916 2.08980513104987 2.0499915500027392 -0.5200046160127103 1.1399803817947731
3.60447907448 0.6356644709997086 0.2437172585499087 -1.5089987485874916 2.08980513104987 2.0499915500027392 -0.5200046160127103 1.1399803817947731
3.61444306374 0.6356644709997086 0.2437172585499087 -1.5089987485874916 2.08980513104987 2.0499915500027392 -0.5200046160127103 1.1399803817947731
3.61444306374 0.6356644709997086 0.2437172585499087 -1.5089987485874916 2.08980513104987 2.0499915500027392 -0.5200046160127103 1.1399803817947731
3.62434196472 0.6356644709997086 0.2437172585499087 -1.5089987485874916 2.08980513104987 2.0499915500027392 -0.5200046160127103 1.1399803817947731
3.62434196472 0.6356644709997086 0.2437172585499087 -1.5089987485874916 2.08980513104987 2.0499915500027392 -0.5200046160127103 1.1399803817947731
3.63440990448 0.6356644709997086 0.2437172585499087 -1.5089987485874916 2.08980513104987 2.0499915500027392 -0.5200046160127103 1.1399803817947731
3.63440990448 0.6356644709997086 0.2437172585499087 -1.5089987485874916 2.08980513104987 2.0499915500027392 -0.5200046160127103 1.1399803817947731
3.6445350647 0.6356644709997086 0.2437172585499087 -1.5089987485874916 2.08980513104987 2.0499915500027392 -0.5200046160127103 1.1399803817947731
3.6445350647 0.6356644709997086 0.2437172585499087 -1.5089987485874916 2.08980513104987 2.0499915500027392 -0.5200046160127103 1.1399803817947731
3.6544880867 0.6356644709997086 0.2437172585499087 -1.5089987485874916 2.08980513104987 2.0499915500027392 -0.5200046160127103 1.1399803817947731
3.6544880867 0.6356644709997086 0.2437172585499087 -1.5089987485874916 2.08980513104987 2.0499915500027392 -0.5200046160127103 1.1399803817947731
3.66433906555 0.6170416972188559 0.2437172585499087 -1.524415459995858 2.0897744510271674 2.050037204598331 -0.520000050553151 1.1399758163352145
3.66433906555 0.6170416972188559 0.2437172585499087 -1.524415459995858 2.0897744510271674 2.050037204598331 -0.520000050553151 1.1399758163352145
3.67449092865 0.6170416972188559 0.2437172585499087 -1.524415459995858 2.0897744510271674 2.050037204598331 -0.520000050553151 1.1399758163352145
3.67449092865 0.6170416972188559 0.2437172585499087 -1.524415459995858 2.0897744510271674 2.050037204598331 -0.520000050553151 1.1399758163352145
3.68439102173 0.6120868735522864 0.2437172585499087 -1.5279896826407828 2.089759111015816 2.0499915500027392 -0.5200046160127103 1.1399803817947731
3.68439102173 0.6120868735522864 0.2437172585499087 -1.5279896826407828 2.089759111015816 2.0499915500027392 -0.5200046160127103 1.1399803817947731
3.69440102577 0.6120868735522864 0.2437172585499087 -1.5279896826407828 2.089759111015816 2.0499915500027392 -0.5200046160127103 1.1399803817947731
3.69440102577 0.6120868735522864 0.2437172585499087 -1.5279896826407828 2.089759111015816 2.0499915500027392 -0.5200046160127103 1.1399803817947731
3.70435404778 0.6120868735522864 0.2437172585499087 -1.5279896826407828 2.089759111015816 2.0499915500027392 -0.5200046160127103 1.1399803817947731
3.70435404778 0.6120868735522864 0.2437172585499087 -1.5279896826407828 2.089759111015816 2.0499915500027392 -0.5200046160127103 1.1399803817947731
3.71436190605 0.6069939897835526 0.2437172585499087 -1.5314565252062464 2.089743771004464 2.0499915500027392 -0.5200046160127103 1.1399803817947731
3.71436190605 0.6069939897835526 0.2437172585499087 -1.5314565252062464 2.089743771004464 2.0499915500027392 -0.5200046160127103 1.1399803817947731
3.7242910862 0.6069939897835526 0.2437172585499087 -1.5314565252062464 2.089743771004464 2.0499915500027392 -0.5200046160127103 1.1399803817947731
3.7242910862 0.6069939897835526 0.2437172585499087 -1.5314565252062464 2.089743771004464 2.0499915500027392 -0.5200046160127103 1.1399803817947731
3.73445987701 0.6069939897835526 0.2437172585499087 -1.5314565252062464 2.089743771004464 2.0499915500027392 -0.5200046160127103 1.1399803817947731
3.73445987701 0.6069939897835526 0.2437172585499087 -1.5314565252062464 2.089743771004464 2.0499915500027392 -0.5200046160127103 1.1399803817947731
3.74447798729 0.6023152863213119 0.2437172585499087 -1.534601227533326 2.0896824109590577 2.0499915500027392 -0.5200046160127103 1.1399803817947731
3.74447798729 0.6023152863213119 0.2437172585499087 -1.534601227533326 2.0896824109590577 2.0499915500027392 -0.5200046160127103 1.1399803817947731
3.75426888466 0.5972377425639295 0.2437172585499087 -1.5378072899058122 2.089590370890948 2.0500098118409755 -0.5200046160127103 1.1399803817947731
3.75426888466 0.5972377425639295 0.2437172585499087 -1.5378072899058122 2.089590370890948 2.0500098118409755 -0.5200046160127103 1.1399803817947731
3.76450896263 0.59228291889736 0.2437172585499087 -1.5409980122669469 2.0893295906979708 2.050037204598331 -0.5200046160127103 1.1399803817947731
3.76450896263 0.59228291889736 0.2437172585499087 -1.5409980122669469 2.0893295906979708 2.050037204598331 -0.5200046160127103 1.1399803817947731
3.77451205254 0.59228291889736 0.2437172585499087 -1.5409980122669469 2.0893295906979708 2.050037204598331 -0.5200046160127103 1.1399803817947731
3.77451205254 0.59228291889736 0.2437172585499087 -1.5409980122669469 2.0893295906979708 2.050037204598331 -0.5200046160127103 1.1399803817947731
3.78456306458 0.5872053751399777 0.2437172585499087 -1.5442194146507846 2.088946090414181 2.0499915500027392 -0.5200046160127103 1.1399803817947731
3.78456306458 0.5872053751399777 0.2437172585499087 -1.5442194146507846 2.088946090414181 2.0499915500027392 -0.5200046160127103 1.1399803817947731
3.79439091682 0.5872053751399777 0.2437172585499087 -1.5442194146507846 2.088946090414181 2.0499915500027392 -0.5200046160127103 1.1399803817947731
3.79439091682 0.5872053751399777 0.2437172585499087 -1.5442194146507846 2.088946090414181 2.0499915500027392 -0.5200046160127103 1.1399803817947731
3.80450201035 0.5872053751399777 0.2437172585499087 -1.5442194146507846 2.088946090414181 2.0499915500027392 -0.5200046160127103 1.1399803817947731
3.80450201035 0.5872053751399777 0.2437172585499087 -1.5442194146507846 2.088946090414181 2.0499915500027392 -0.5200046160127103 1.1399803817947731
3.8144929409 0.5872053751399777 0.2437172585499087 -1.5442194146507846 2.088946090414181 2.0499915500027392 -0.5200046160127103 1.1399803817947731
3.8144929409 0.5872053751399777 0.2437172585499087 -1.5442194146507846 2.088946090414181 2.0499915500027392 -0.5200046160127103 1.1399803817947731
3.8244099617 0.5764520271825002 0.2437172585499087 -1.550585519361702 2.0876882094833484 2.0499915500027392 -0.5200046160127103 1.1399803817947731
3.8244099617 0.5764520271825002 0.2437172585499087 -1.550585519361702 2.0876882094833484 2.0499915500027392 -0.5200046160127103 1.1399803817947731
3.83452486992 0.5764520271825002 0.2437172585499087 -1.550585519361702 2.0876882094833484 2.0499915500027392 -0.5200046160127103 1.1399803817947731
3.83452486992 0.5764520271825002 0.2437172585499087 -1.550585519361702 2.0876882094833484 2.0499915500027392 -0.5200046160127103 1.1399803817947731
3.84445595741 0.5711597232661951 0.2437172585499087 -1.5535461415525624 2.0865530486433297 2.0500098118409755 -0.5200046160127103 1.1399803817947731
3.84445595741 0.5711597232661951 0.2437172585499087 -1.5535461415525624 2.0865530486433297 2.0500098118409755 -0.5200046160127103 1.1399803817947731
3.85436797142 0.5711597232661951 0.2437172585499087 -1.5535461415525624 2.0865530486433297 2.0500098118409755 -0.5200046160127103 1.1399803817947731
3.85436797142 0.5711597232661951 0.2437172585499087 -1.5535461415525624 2.0865530486433297 2.0500098118409755 -0.5200046160127103 1.1399803817947731
3.86457109451 0.5661128595315161 0.2437172585499087 -1.5563687036412583 2.0849423474514106 2.050028073679212 -0.5200046160127103 1.1399803817947731
3.86457109451 0.5661128595315161 0.2437172585499087 -1.5563687036412583 2.0849423474514106 2.050028073679212 -0.5200046160127103 1.1399803817947731
3.8745238781 0.5661128595315161 0.2437172585499087 -1.5563687036412583 2.0849423474514106 2.050028073679212 -0.5200046160127103 1.1399803817947731
3.8745238781 0.5661128595315161 0.2437172585499087 -1.5563687036412583 2.0849423474514106 2.050028073679212 -0.5200046160127103 1.1399803817947731
3.88431692123 0.5661128595315161 0.2437172585499087 -1.5563687036412583 2.0849423474514106 2.050028073679212 -0.5200046160127103 1.1399803817947731
3.88431692123 0.5661128595315161 0.2437172585499087 -1.5563687036412583 2.0849423474514106 2.050028073679212 -0.5200046160127103 1.1399803817947731
3.89452195168 0.5661128595315161 0.2437172585499087 -1.5563687036412583 2.0849423474514106 2.050028073679212 -0.5200046160127103 1.1399803817947731
3.89452195168 0.5661128595315161 0.2437172585499087 -1.5563687036412583 2.0849423474514106 2.050028073679212 -0.5200046160127103 1.1399803817947731
3.90451407433 0.5610353157741337 0.2437172585499087 -1.5593293258321188 2.0829481459757018 2.0500006809218574 -0.5200046160127103 1.1399803817947731
3.90451407433 0.5610353157741337 0.2437172585499087 -1.5593293258321188 2.0829481459757018 2.0500006809218574 -0.5200046160127103 1.1399803817947731
3.91443610191 0.5561878721870255 0.2437172585499087 -1.5620905278754085 2.0806318042616088 2.0499915500027392 -0.5200046160127103 1.1399803817947731
3.91443610191 0.5561878721870255 0.2437172585499087 -1.5620905278754085 2.0806318042616088 2.0499915500027392 -0.5200046160127103 1.1399803817947731
3.92458701134 0.5510029483501817 0.2437172585499087 -1.565035810054917 2.078008662320484 2.0499915500027392 -0.5200046160127103 1.1399803817947731
3.92458701134 0.5510029483501817 0.2437172585499087 -1.565035810054917 2.078008662320484 2.0499915500027392 -0.5200046160127103 1.1399803817947731
3.9345099926 0.5510029483501817 0.2437172585499087 -1.565035810054917 2.078008662320484 2.0499915500027392 -0.5200046160127103 1.1399803817947731
3.9345099926 0.5510029483501817 0.2437172585499087 -1.565035810054917 2.078008662320484 2.0499915500027392 -0.5200046160127103 1.1399803817947731
3.94439506531 0.5510029483501817 0.2437172585499087 -1.565035810054917 2.078008662320484 2.0499915500027392 -0.5200046160127103 1.1399803817947731
3.94439506531 0.5510029483501817 0.2437172585499087 -1.565035810054917 2.078008662320484 2.0499915500027392 -0.5200046160127103 1.1399803817947731
3.9544980526 0.5510029483501817 0.2437172585499087 -1.565035810054917 2.078008662320484 2.0499915500027392 -0.5200046160127103 1.1399803817947731
3.9544980526 0.5510029483501817 0.2437172585499087 -1.565035810054917 2.078008662320484 2.0499915500027392 -0.5200046160127103 1.1399803817947731
3.96452093124 0.5510029483501817 0.2437172585499087 -1.565035810054917 2.078008662320484 2.0499915500027392 -0.5200046160127103 1.1399803817947731
3.96452093124 0.5510029483501817 0.2437172585499087 -1.565035810054917 2.078008662320484 2.0499915500027392 -0.5200046160127103 1.1399803817947731
3.97442698479 0.5459714246268543 0.2437172585499087 -1.5681191523365905 2.0751247401863813 2.0500006809218574 -0.520000050553151 1.1399758163352145
3.97442698479 0.5459714246268543 0.2437172585499087 -1.5681191523365905 2.0751247401863813 2.0500006809218574 -0.520000050553151 1.1399758163352145
3.98667097092 0.5411393210510975 0.2437172585499087 -1.5709263744139348 2.0720107178820046 2.050028073679212 -0.5200046160127103 1.1399803817947731
3.98667097092 0.5411393210510975 0.2437172585499087 -1.5709263744139348 2.0720107178820046 2.050028073679212 -0.5200046160127103 1.1399803817947731
3.99412989616 0.5360157572596604 0.2437172585499087 -1.5736722364458726 2.068681935418706 2.0500006809218574 -0.5200046160127103 1.1399803817947731
3.99412989616 0.5360157572596604 0.2437172585499087 -1.5736722364458726 2.068681935418706 2.0500006809218574 -0.5200046160127103 1.1399803817947731
4.00408506393 0.5311529736612006 0.2437172585499087 -1.576402758466459 2.0653531529554066 2.0499915500027392 -0.5200046160127103 1.1399803817947731
4.00408506393 0.5311529736612006 0.2437172585499087 -1.576402758466459 2.0653531529554066 2.0499915500027392 -0.5200046160127103 1.1399803817947731
4.01412200928 0.5311529736612006 0.2437172585499087 -1.576402758466459 2.0653531529554066 2.0499915500027392 -0.5200046160127103 1.1399803817947731
4.01412200928 0.5311529736612006 0.2437172585499087 -1.576402758466459 2.0653531529554066 2.0499915500027392 -0.5200046160127103 1.1399803817947731
4.02428293228 0.5311529736612006 0.2437172585499087 -1.576402758466459 2.0653531529554066 2.0499915500027392 -0.5200046160127103 1.1399803817947731
4.02428293228 0.5311529736612006 0.2437172585499087 -1.576402758466459 2.0653531529554066 2.0499915500027392 -0.5200046160127103 1.1399803817947731
4.0344209671 0.5311529736612006 0.2437172585499087 -1.576402758466459 2.0653531529554066 2.0499915500027392 -0.5200046160127103 1.1399803817947731
4.0344209671 0.5311529736612006 0.2437172585499087 -1.576402758466459 2.0653531529554066 2.0499915500027392 -0.5200046160127103 1.1399803817947731
4.04454898834 0.5311529736612006 0.2437172585499087 -1.576402758466459 2.0653531529554066 2.0499915500027392 -0.5200046160127103 1.1399803817947731
4.04454898834 0.5311529736612006 0.2437172585499087 -1.576402758466459 2.0653531529554066 2.0499915500027392 -0.5200046160127103 1.1399803817947731
4.05448102951 0.5265509702557181 0.2437172585499087 -1.579025900407584 2.0622698106737336 2.0499915500027392 -0.5200046160127103 1.1399803817947731
4.05448102951 0.5265509702557181 0.2437172585499087 -1.579025900407584 2.0622698106737336 2.0499915500027392 -0.5200046160127103 1.1399803817947731
4.06453990936 0.5265509702557181 0.2437172585499087 -1.579025900407584 2.0622698106737336 2.0499915500027392 -0.5200046160127103 1.1399803817947731
4.06453990936 0.5265509702557181 0.2437172585499087 -1.579025900407584 2.0622698106737336 2.0499915500027392 -0.5200046160127103 1.1399803817947731
4.07435703278 0.5218569267821258 0.2437172585499087 -1.5813115620989735 2.059048408289896 2.0500006809218574 -0.5200046160127103 1.1399803817947731
4.07435703278 0.5218569267821258 0.2437172585499087 -1.5813115620989735 2.059048408289896 2.0500006809218574 -0.5200046160127103 1.1399803817947731
4.08505606651 0.5172395833652916 0.2437172585499087 -1.5832904235633312 2.056317886269309 2.050018942760094 -0.5200046160127103 1.1399803817947731
4.08505606651 0.5172395833652916 0.2437172585499087 -1.5832904235633312 2.056317886269309 2.050018942760094 -0.5200046160127103 1.1399803817947731
4.09445405006 0.5172395833652916 0.2437172585499087 -1.5832904235633312 2.056317886269309 2.050018942760094 -0.5200046160127103 1.1399803817947731
4.09445405006 0.5172395833652916 0.2437172585499087 -1.5832904235633312 2.056317886269309 2.050018942760094 -0.5200046160127103 1.1399803817947731
4.10437107086 0.5090480173035328 0.2437172585499087 -1.5869566862763655 2.0505960620351598 2.0499915500027392 -0.5200046160127103 1.1399803817947731
4.10437107086 0.5090480173035328 0.2437172585499087 -1.5869566862763655 2.0505960620351598 2.0499915500027392 -0.5200046160127103 1.1399803817947731
4.11431694031 0.5090480173035328 0.2437172585499087 -1.5869566862763655 2.0505960620351598 2.0499915500027392 -0.5200046160127103 1.1399803817947731
4.11431694031 0.5090480173035328 0.2437172585499087 -1.5869566862763655 2.0505960620351598 2.0499915500027392 -0.5200046160127103 1.1399803817947731
4.12430286407 0.5090480173035328 0.2437172585499087 -1.5869566862763655 2.0505960620351598 2.0499915500027392 -0.5200046160127103 1.1399803817947731
4.12430286407 0.5090480173035328 0.2437172585499087 -1.5869566862763655 2.0505960620351598 2.0499915500027392 -0.5200046160127103 1.1399803817947731
4.13427591324 0.5090480173035328 0.2437172585499087 -1.5869566862763655 2.0505960620351598 2.0499915500027392 -0.5200046160127103 1.1399803817947731
4.13427591324 0.5090480173035328 0.2437172585499087 -1.5869566862763655 2.0505960620351598 2.0499915500027392 -0.5200046160127103 1.1399803817947731
4.14450907707 0.5090480173035328 0.2437172585499087 -1.5869566862763655 2.0505960620351598 2.0499915500027392 -0.5200046160127103 1.1399803817947731
4.14450907707 0.5090480173035328 0.2437172585499087 -1.5869566862763655 2.0505960620351598 2.0499915500027392 -0.5200046160127103 1.1399803817947731
4.15433597565 0.5050135943180598 0.2437172585499087 -1.589027587808833 2.047712139901057 2.0499915500027392 -0.5200046160127103 1.1399803817947731
4.15433597565 0.5050135943180598 0.2437172585499087 -1.589027587808833 2.047712139901057 2.0499915500027392 -0.5200046160127103 1.1399803817947731
4.16434288025 0.5008411112304223 0.2437172585499087 -1.5912212094321128 2.0447515177101967 2.0499915500027392 -0.5200046160127103 1.1399803817947731
4.16434288025 0.5008411112304223 0.2437172585499087 -1.5912212094321128 2.0447515177101967 2.0499915500027392 -0.5200046160127103 1.1399803817947731
4.17449808121 0.5008411112304223 0.2437172585499087 -1.5912212094321128 2.0447515177101967 2.0499915500027392 -0.5200046160127103 1.1399803817947731
4.17449808121 0.5008411112304223 0.2437172585499087 -1.5912212094321128 2.0447515177101967 2.0499915500027392 -0.5200046160127103 1.1399803817947731
4.18433308601 0.4971748485173878 0.2437172585499087 -1.5934148310553926 2.041974975655556 2.0500098118409755 -0.5200046160127103 1.1399803817947731
4.18433308601 0.4971748485173878 0.2437172585499087 -1.5934148310553926 2.041974975655556 2.0500098118409755 -0.5200046160127103 1.1399803817947731
4.19441699982 0.4934318857475954 0.2437172585499087 -1.5959305929170564 2.0393211536917275 2.050028073679212 -0.5200046160127103 1.1399803817947731
4.19441699982 0.4934318857475954 0.2437172585499087 -1.5959305929170564 2.0393211536917275 2.050028073679212 -0.5200046160127103 1.1399803817947731
4.2045750618 0.4934318857475954 0.2437172585499087 -1.5959305929170564 2.0393211536917275 2.050028073679212 -0.5200046160127103 1.1399803817947731
4.2045750618 0.4934318857475954 0.2437172585499087 -1.5959305929170564 2.0393211536917275 2.050028073679212 -0.5200046160127103 1.1399803817947731
4.21452307701 0.4934318857475954 0.2437172585499087 -1.5959305929170564 2.0393211536917275 2.050028073679212 -0.5200046160127103 1.1399803817947731
4.21452307701 0.4934318857475954 0.2437172585499087 -1.5959305929170564 2.0393211536917275 2.050028073679212 -0.5200046160127103 1.1399803817947731
4.22435593605 0.4934318857475954 0.2437172585499087 -1.5959305929170564 2.0393211536917275 2.050028073679212 -0.5200046160127103 1.1399803817947731
4.22435593605 0.4934318857475954 0.2437172585499087 -1.5959305929170564 2.0393211536917275 2.050028073679212 -0.5200046160127103 1.1399803817947731
4.23449707031 0.4855164398901654 0.2437172585499087 -1.600808716526868 2.033860109650554 2.0499915500027392 -0.5200046160127103 1.1399803817947731
4.23449707031 0.4855164398901654 0.2437172585499087 -1.600808716526868 2.033860109650554 2.0499915500027392 -0.5200046160127103 1.1399803817947731
4.24453902245 0.4816507570295602 0.2437172585499087 -1.603201758297719 2.0313596878002427 2.0499915500027392 -0.5200046160127103 1.1399803817947731
4.24453902245 0.4816507570295602 0.2437172585499087 -1.603201758297719 2.0313596878002427 2.0499915500027392 -0.5200046160127103 1.1399803817947731
4.25442409515 0.4816507570295602 0.2437172585499087 -1.603201758297719 2.0313596878002427 2.0499915500027392 -0.5200046160127103 1.1399803817947731
4.25442409515 0.4816507570295602 0.2437172585499087 -1.603201758297719 2.0313596878002427 2.0499915500027392 -0.5200046160127103 1.1399803817947731
4.26437306404 0.477585654021384 0.2437172585499087 -1.605748200182086 2.029181406188314 2.0500006809218574 -0.5200046160127103 1.1399803817947731
4.26437306404 0.477585654021384 0.2437172585499087 -1.605748200182086 2.029181406188314 2.0500006809218574 -0.5200046160127103 1.1399803817947731
4.27435803413 0.477585654021384 0.2437172585499087 -1.605748200182086 2.029181406188314 2.0500006809218574 -0.5200046160127103 1.1399803817947731
4.27435803413 0.477585654021384 0.2437172585499087 -1.605748200182086 2.029181406188314 2.0500006809218574 -0.5200046160127103 1.1399803817947731
4.2844080925 0.477585654021384 0.2437172585499087 -1.605748200182086 2.029181406188314 2.0500006809218574 -0.5200046160127103 1.1399803817947731
4.2844080925 0.477585654021384 0.2437172585499087 -1.605748200182086 2.029181406188314 2.0500006809218574 -0.5200046160127103 1.1399803817947731
4.29451799393 0.477585654021384 0.2437172585499087 -1.605748200182086 2.029181406188314 2.0500006809218574 -0.5200046160127103 1.1399803817947731
4.29451799393 0.477585654021384 0.2437172585499087 -1.605748200182086 2.029181406188314 2.0500006809218574 -0.5200046160127103 1.1399803817947731
4.3043820858 0.4678754268358158 0.2437172585499087 -1.6108104039281166 2.026159423952047 2.0499915500027392 -0.5200046160127103 1.1399803817947731
4.3043820858 0.4678754268358158 0.2437172585499087 -1.6108104039281166 2.026159423952047 2.0499915500027392 -0.5200046160127103 1.1399803817947731
4.31452393532 0.4678754268358158 0.2437172585499087 -1.6108104039281166 2.026159423952047 2.0499915500027392 -0.5200046160127103 1.1399803817947731
4.31452393532 0.4678754268358158 0.2437172585499087 -1.6108104039281166 2.026159423952047 2.0499915500027392 -0.5200046160127103 1.1399803817947731
4.32451105118 0.4625217628741044 0.2437172585499087 -1.6127739253811224 2.025100963168786 2.0499915500027392 -0.520000050553151 1.1399758163352145
4.32451105118 0.4625217628741044 0.2437172585499087 -1.6127739253811224 2.025100963168786 2.0499915500027392 -0.520000050553151 1.1399758163352145
4.33452296257 0.4625217628741044 0.2437172585499087 -1.6127739253811224 2.025100963168786 2.0499915500027392 -0.520000050553151 1.1399758163352145
4.33452296257 0.4625217628741044 0.2437172585499087 -1.6127739253811224 2.025100963168786 2.0499915500027392 -0.520000050553151 1.1399758163352145
4.34452295303 0.4569226587307675 0.2437172585499087 -1.6141852064254705 2.024027162374174 2.0499915500027392 -0.5200046160127103 1.1399803817947731
4.34452295303 0.4569226587307675 0.2437172585499087 -1.6141852064254705 2.024027162374174 2.0499915500027392 -0.5200046160127103 1.1399803817947731
4.35441207886 0.4569226587307675 0.2437172585499087 -1.6141852064254705 2.024027162374174 2.0499915500027392 -0.5200046160127103 1.1399803817947731
4.35441207886 0.4569226587307675 0.2437172585499087 -1.6141852064254705 2.024027162374174 2.0499915500027392 -0.5200046160127103 1.1399803817947731
4.36448693275 0.4569226587307675 0.2437172585499087 -1.6141852064254705 2.024027162374174 2.0499915500027392 -0.5200046160127103 1.1399803817947731
4.36448693275 0.4569226587307675 0.2437172585499087 -1.6141852064254705 2.024027162374174 2.0499915500027392 -0.5200046160127103 1.1399803817947731
4.37432694435 0.4569226587307675 0.2437172585499087 -1.6141852064254705 2.024027162374174 2.0499915500027392 -0.5200046160127103 1.1399803817947731
4.37432694435 0.4569226587307675 0.2437172585499087 -1.6141852064254705 2.024027162374174 2.0499915500027392 -0.5200046160127103 1.1399803817947731
4.3845140934 0.4513388945987819 0.2437172585499087 -1.615105607106567 2.0229380215682093 2.0500006809218574 -0.5200046160127103 1.1399803817947731
4.3845140934 0.4513388945987819 0.2437172585499087 -1.615105607106567 2.0229380215682093 2.0500006809218574 -0.5200046160127103 1.1399803817947731
4.39444708824 0.4457397904554449 0.2437172585499087 -1.6157192075606313 2.0217261606714323 2.050018942760094 -0.5200046160127103 1.1399803817947731
4.39444708824 0.4457397904554449 0.2437172585499087 -1.6157192075606313 2.0217261606714323 2.050018942760094 -0.5200046160127103 1.1399803817947731
4.40445590019 0.4457397904554449 0.2437172585499087 -1.6157192075606313 2.0217261606714323 2.050018942760094 -0.5200046160127103 1.1399803817947731
4.40445590019 0.4457397904554449 0.2437172585499087 -1.6157192075606313 2.0217261606714323 2.050018942760094 -0.5200046160127103 1.1399803817947731
4.4143910408 0.4398338860850756 0.2437172585499087 -1.616164067889828 2.0204529397292488 2.0500098118409755 -0.5200046160127103 1.1399803817947731
4.4143910408 0.4398338860850756 0.2437172585499087 -1.616164067889828 2.0204529397292488 2.0500098118409755 -0.5200046160127103 1.1399803817947731
4.42449808121 0.4398338860850756 0.2437172585499087 -1.616164067889828 2.0204529397292488 2.0500098118409755 -0.5200046160127103 1.1399803817947731
4.42449808121 0.4398338860850756 0.2437172585499087 -1.616164067889828 2.0204529397292488 2.0500098118409755 -0.5200046160127103 1.1399803817947731
4.43455004692 0.4398338860850756 0.2437172585499087 -1.616164067889828 2.0204529397292488 2.0500098118409755 -0.5200046160127103 1.1399803817947731
4.43455004692 0.4398338860850756 0.2437172585499087 -1.616164067889828 2.0204529397292488 2.0500098118409755 -0.5200046160127103 1.1399803817947731
4.44464802742 0.4336365214990258 0.2437172585499087 -1.6166089282190246 2.018964958628143 2.0499915500027392 -0.5200046160127103 1.1399803817947731
4.44464802742 0.4336365214990258 0.2437172585499087 -1.6166089282190246 2.018964958628143 2.0499915500027392 -0.5200046160127103 1.1399803817947731
4.45453596115 0.4336365214990258 0.2437172585499087 -1.6166089282190246 2.018964958628143 2.0499915500027392 -0.5200046160127103 1.1399803817947731
4.45453596115 0.4336365214990258 0.2437172585499087 -1.6166089282190246 2.018964958628143 2.0499915500027392 -0.5200046160127103 1.1399803817947731
4.46464395523 0.4336365214990258 0.2437172585499087 -1.6166089282190246 2.018964958628143 2.0499915500027392 -0.5200046160127103 1.1399803817947731
4.46464395523 0.4336365214990258 0.2437172585499087 -1.6166089282190246 2.018964958628143 2.0499915500027392 -0.5200046160127103 1.1399803817947731
4.47439408302 0.4336365214990258 0.2437172585499087 -1.6166089282190246 2.018964958628143 2.0499915500027392 -0.5200046160127103 1.1399803817947731
4.47439408302 0.4336365214990258 0.2437172585499087 -1.6166089282190246 2.018964958628143 2.0499915500027392 -0.5200046160127103 1.1399803817947731
4.48455309868 0.4336365214990258 0.2437172585499087 -1.6166089282190246 2.018964958628143 2.0499915500027392 -0.5200046160127103 1.1399803817947731
4.48455309868 0.4336365214990258 0.2437172585499087 -1.6166089282190246 2.018964958628143 2.0499915500027392 -0.5200046160127103 1.1399803817947731
4.49461102486 0.4336365214990258 0.2437172585499087 -1.6166089282190246 2.018964958628143 2.0499915500027392 -0.5200046160127103 1.1399803817947731
4.49461102486 0.4336365214990258 0.2437172585499087 -1.6166089282190246 2.018964958628143 2.0499915500027392 -0.5200046160127103 1.1399803817947731
4.5043489933 0.420275371611775 0.2437172585499087 -1.617099808582276 2.015835596312415 2.0499915500027392 -0.5200046160127103 1.1399803817947731
4.5043489933 0.420275371611775 0.2437172585499087 -1.617099808582276 2.015835596312415 2.0499915500027392 -0.5200046160127103 1.1399803817947731
4.51450395584 0.420275371611775 0.2437172585499087 -1.617099808582276 2.015835596312415 2.0499915500027392 -0.5200046160127103 1.1399803817947731
4.51450395584 0.420275371611775 0.2437172585499087 -1.617099808582276 2.015835596312415 2.0499915500027392 -0.5200046160127103 1.1399803817947731
4.52502703667 0.420275371611775 0.2437172585499087 -1.617099808582276 2.015835596312415 2.0499915500027392 -0.5200046160127103 1.1399803817947731
4.52502703667 0.413709846753 0.24371725855 -1.61709980858 2.01424023513 2.05000981184 -0.520004616013 1.13998038179
4.53422188759 0.4067454815996564 0.2437172585499087 -1.617099808582276 2.012782934053445 2.050037204598331 -0.5200046160127103 1.1399803817947731
4.53422188759 0.4067454815996564 0.2437172585499087 -1.617099808582276 2.012782934053445 2.050037204598331 -0.5200046160127103 1.1399803817947731
4.54449486732 0.4067454815996564 0.2437172585499087 -1.617099808582276 2.012782934053445 2.050037204598331 -0.5200046160127103 1.1399803817947731
4.54449486732 0.4067454815996564 0.2437172585499087 -1.617099808582276 2.012782934053445 2.050037204598331 -0.5200046160127103 1.1399803817947731
4.55455899239 0.39218781082698 0.2437172585499087 -1.6171151485936277 2.0099450319533974 2.0499915500027392 -0.5200046160127103 1.1399803817947731
4.55455899239 0.39218781082698 0.2437172585499087 -1.6171151485936277 2.0099450319533974 2.0499915500027392 -0.5200046160127103 1.1399803817947731
4.5655798912 0.39218781082698 0.2437172585499087 -1.6171151485936277 2.0099450319533974 2.0499915500027392 -0.5200046160127103 1.1399803817947731
4.5655798912 0.39218781082698 0.2437172585499087 -1.6171151485936277 2.0099450319533974 2.0499915500027392 -0.5200046160127103 1.1399803817947731
4.57448101044 0.39218781082698 0.2437172585499087 -1.6171151485936277 2.0099450319533974 2.0499915500027392 -0.5200046160127103 1.1399803817947731
4.57448101044 0.39218781082698 0.2437172585499087 -1.6171151485936277 2.0099450319533974 2.0499915500027392 -0.5200046160127103 1.1399803817947731
4.58457493782 0.3851774256392949 0.2437172585499087 -1.6171151485936277 2.008687151022565 2.0499915500027392 -0.5200046160127103 1.1399803817947731
4.58457493782 0.3851774256392949 0.2437172585499087 -1.6171151485936277 2.008687151022565 2.0499915500027392 -0.5200046160127103 1.1399803817947731
4.59443688393 0.3785045207013452 0.2437172585499087 -1.617130488604979 2.007367910046327 2.0500098118409755 -0.5200046160127103 1.1399803817947731
4.59443688393 0.3785045207013452 0.2437172585499087 -1.617130488604979 2.007367910046327 2.0500098118409755 -0.5200046160127103 1.1399803817947731
4.60456395149 0.3785045207013452 0.2437172585499087 -1.617130488604979 2.007367910046327 2.0500098118409755 -0.5200046160127103 1.1399803817947731
4.60456395149 0.3785045207013452 0.2437172585499087 -1.617130488604979 2.007367910046327 2.0500098118409755 -0.5200046160127103 1.1399803817947731
4.61458587646 0.3785045207013452 0.2437172585499087 -1.617130488604979 2.007367910046327 2.0500098118409755 -0.5200046160127103 1.1399803817947731
4.61458587646 0.3785045207013452 0.2437172585499087 -1.617130488604979 2.007367910046327 2.0500098118409755 -0.5200046160127103 1.1399803817947731
4.62456989288 0.3652047308595007 0.2437172585499087 -1.617130488604979 2.0041465076624894 2.0499915500027392 -0.5200046160127103 1.1399803817947731
4.62456989288 0.3652047308595007 0.2437172585499087 -1.617130488604979 2.0041465076624894 2.0499915500027392 -0.5200046160127103 1.1399803817947731
4.63444709778 0.3652047308595007 0.2437172585499087 -1.617130488604979 2.0041465076624894 2.0499915500027392 -0.5200046160127103 1.1399803817947731
4.63444709778 0.3652047308595007 0.2437172585499087 -1.617130488604979 2.0041465076624894 2.0499915500027392 -0.5200046160127103 1.1399803817947731
4.6443169117 0.3583170657626286 0.2437172585499087 -1.617130488604979 2.0022290062435384 2.0499915500027392 -0.5200046160127103 1.1399803817947731
4.6443169117 0.3583170657626286 0.2437172585499087 -1.617130488604979 2.0022290062435384 2.0499915500027392 -0.5200046160127103 1.1399803817947731
4.65451097488 0.3583170657626286 0.2437172585499087 -1.617130488604979 2.0022290062435384 2.0499915500027392 -0.5200046160127103 1.1399803817947731
4.65451097488 0.3583170657626286 0.2437172585499087 -1.617130488604979 2.0022290062435384 2.0499915500027392 -0.5200046160127103 1.1399803817947731
4.66457700729 0.3520890211538756 0.2437172585499087 -1.617130488604979 2.0005262649835096 2.0499915500027392 -0.5200046160127103 1.1399803817947731
4.66457700729 0.3520890211538756 0.2437172585499087 -1.617130488604979 2.0005262649835096 2.0499915500027392 -0.5200046160127103 1.1399803817947731
4.67454004288 0.3520890211538756 0.2437172585499087 -1.617130488604979 2.0005262649835096 2.0499915500027392 -0.5200046160127103 1.1399803817947731
4.67454004288 0.3520890211538756 0.2437172585499087 -1.617130488604979 2.0005262649835096 2.0499915500027392 -0.5200046160127103 1.1399803817947731
4.684278965 0.3520890211538756 0.2437172585499087 -1.617130488604979 2.0005262649835096 2.0499915500027392 -0.5200046160127103 1.1399803817947731
4.684278965 0.3520890211538756 0.2437172585499087 -1.617130488604979 2.0005262649835096 2.0499915500027392 -0.5200046160127103 1.1399803817947731
4.69429206848 0.3520890211538756 0.2437172585499087 -1.617130488604979 2.0005262649835096 2.0499915500027392 -0.5200046160127103 1.1399803817947731
4.69429206848 0.3520890211538756 0.2437172585499087 -1.617130488604979 2.0005262649835096 2.0499915500027392 -0.5200046160127103 1.1399803817947731
4.70454692841 0.3520890211538756 0.2437172585499087 -1.617130488604979 2.0005262649835096 2.0499915500027392 -0.5200046160127103 1.1399803817947731
4.70454692841 0.3520890211538756 0.2437172585499087 -1.617130488604979 2.0005262649835096 2.0499915500027392 -0.5200046160127103 1.1399803817947731
4.71434688568 0.3458302965224193 0.2437172585499087 -1.617130488604979 1.9988388637348324 2.0500006809218574 -0.5200046160127103 1.1399803817947731
4.71434688568 0.3458302965224193 0.2437172585499087 -1.617130488604979 1.9988388637348324 2.0500006809218574 -0.5200046160127103 1.1399803817947731
4.72457504272 0.332530506680575 0.2437172585499087 -1.617130488604979 1.9954947412601816 2.0500006809218574 -0.5200046160127103 1.1399803817947731
4.72457504272 0.332530506680575 0.2437172585499087 -1.617130488604979 1.9954947412601816 2.0500006809218574 -0.5200046160127103 1.1399803817947731
4.73452401161 0.332530506680575 0.2437172585499087 -1.617130488604979 1.9954947412601816 2.0500006809218574 -0.5200046160127103 1.1399803817947731
4.73452401161 0.332530506680575 0.2437172585499087 -1.617130488604979 1.9954947412601816 2.0500006809218574 -0.5200046160127103 1.1399803817947731
4.74435091019 0.3254741014588351 0.2437172585499087 -1.617130488604979 1.99432890039746 2.0499915500027392 -0.5200046160127103 1.1399803817947731
