riccardo-csl/Motion-Planning-for-TIAGo-Manipulator/T3_G_7/head_scan/head_scan/tiago_traiettorie_SG/1a-2b/pick_1a_rep2.txt
time arm_1_joint arm_2_joint arm_3_joint arm_4_joint arm_5_joint arm_6_joint arm_7_joint
2.48741412163 0.0700475724432036 0.087249142763503 -2.7633974968425656 1.3668917560939728 2.050055466436567 -0.520000050553151 1.1400032090925691
2.49749398232 0.0700475724432036 0.087249142763503 -2.7633974968425656 1.3668917560939728 2.050055466436567 -0.520000050553151 1.1400032090925691
2.49749398232 0.0700475724432036 0.087249142763503 -2.7633974968425656 1.3668917560939728 2.050055466436567 -0.520000050553151 1.1400032090925691
2.50745391846 0.0700475724432036 0.087249142763503 -2.7633974968425656 1.3668917560939728 2.050055466436567 -0.520000050553151 1.1400032090925691
2.50745391846 0.0700475724432036 0.087249142763503 -2.7633974968425656 1.3668917560939728 2.050055466436567 -0.520000050553151 1.1400032090925691
2.51742601395 0.0700475724432036 0.087249142763503 -2.7633974968425656 1.3668917560939728 2.050055466436567 -0.520000050553151 1.1400032090925691
2.51742601395 0.0700475724432036 0.087249142763503 -2.7633974968425656 1.3668917560939728 2.050055466436567 -0.520000050553151 1.1400032090925691
2.52748894691 0.0700935924772585 0.087249142763503 -2.7518464682948043 1.3668917560939728 2.050055466436567 -0.519995485093592 1.13999864363301
2.52748894691 0.0700935924772585 0.087249142763503 -2.7518464682948043 1.3668917560939728 2.050055466436567 -0.519995485093592 1.13999864363301
2.53835010529 0.070262332602126 0.087249142763503 -2.7400193195427143 1.3668917560939728 2.050055466436567 -0.520000050553151 1.1400032090925691
2.53835010529 0.070262332602126 0.087249142763503 -2.7400193195427143 1.3668917560939728 2.050055466436567 -0.520000050553151 1.1400032090925691
2.54747009277 0.070262332602126 0.087249142763503 -2.7400193195427143 1.3668917560939728 2.050055466436567 -0.520000050553151 1.1400032090925691
2.54747009277 0.070262332602126 0.087249142763503 -2.7400193195427143 1.3668917560939728 2.050055466436567 -0.520000050553151 1.1400032090925691
2.5574889183 0.070262332602126 0.087249142763503 -2.7400193195427143 1.3668917560939728 2.050055466436567 -0.520000050553151 1.1400032090925691
2.5574889183 0.070262332602126 0.087249142763503 -2.7400193195427143 1.3668917560939728 2.050055466436567 -0.520000050553151 1.1400032090925691
2.56746792793 0.0703543726702357 0.087249142763503 -2.727824010518186 1.3668917560939728 2.050055466436567 -0.520000050553151 1.1400032090925691
2.56746792793 0.0703543726702357 0.087249142763503 -2.727824010518186 1.3668917560939728 2.050055466436567 -0.520000050553151 1.1400032090925691
2.57745695114 0.0703543726702357 0.087249142763503 -2.727824010518186 1.3668917560939728 2.050055466436567 -0.520000050553151 1.1400032090925691
2.57745695114 0.0703543726702357 0.087249142763503 -2.727824010518186 1.3668917560939728 2.050055466436567 -0.520000050553151 1.1400032090925691
2.58748793602 0.0703543726702357 0.087249142763503 -2.727824010518186 1.3668917560939728 2.050055466436567 -0.520000050553151 1.1400032090925691
2.58748793602 0.0703543726702357 0.087249142763503 -2.727824010518186 1.3668917560939728 2.050055466436567 -0.520000050553151 1.1400032090925691
2.5974650383 0.0703543726702357 0.087249142763503 -2.727824010518186 1.3668917560939728 2.050055466436567 -0.520000050553151 1.1400032090925691
2.5974650383 0.0703543726702357 0.087249142763503 -2.727824010518186 1.3668917560939728 2.050055466436567 -0.520000050553151 1.1400032090925691
2.607432127 0.0703543726702357 0.087249142763503 -2.727824010518186 1.3668917560939728 2.050055466436567 -0.520000050553151 1.1400032090925691
2.607432127 0.0703543726702357 0.087249142763503 -2.727824010518186 1.3668917560939728 2.050055466436567 -0.520000050553151 1.1400032090925691
2.61745500565 0.0703543726702357 0.087249142763503 -2.727824010518186 1.3668917560939728 2.050055466436567 -0.520000050553151 1.1400032090925691
2.61745500565 0.0703543726702357 0.087249142763503 -2.727824010518186 1.3668917560939728 2.050055466436567 -0.520000050553151 1.1400032090925691
2.62749505043 0.0703543726702357 0.087249142763503 -2.727824010518186 1.3668917560939728 2.050055466436567 -0.520000050553151 1.1400032090925691
2.62749505043 0.0703543726702357 0.087249142763503 -2.727824010518186 1.3668917560939728 2.050055466436567 -0.520000050553151 1.1400032090925691
2.63744592667 0.0704003927042906 0.087249142763503 -2.702528331799384 1.3668917560939728 2.050055466436567 -0.520000050553151 1.1400032090925691
2.63744592667 0.0704003927042906 0.087249142763503 -2.702528331799384 1.3668917560939728 2.050055466436567 -0.520000050553151 1.1400032090925691
2.64749097824 0.0704003927042906 0.087249142763503 -2.702528331799384 1.3668917560939728 2.050055466436567 -0.520000050553151 1.1400032090925691
2.64749097824 0.0704003927042906 0.087249142763503 -2.702528331799384 1.3668917560939728 2.050055466436567 -0.520000050553151 1.1400032090925691
2.65742993355 0.0704003927042906 0.087249142763503 -2.702528331799384 1.3668917560939728 2.050055466436567 -0.520000050553151 1.1400032090925691
2.65742993355 0.0704003927042906 0.087249142763503 -2.702528331799384 1.3668917560939728 2.050055466436567 -0.520000050553151 1.1400032090925691
2.66746211052 0.0704310727269938 0.087249142763503 -2.6896734022867355 1.3668917560939728 2.050055466436567 -0.520000050553151 1.1400032090925691
2.66746211052 0.0704310727269938 0.087249142763503 -2.6896734022867355 1.3668917560939728 2.050055466436567 -0.520000050553151 1.1400032090925691
2.67747807503 0.0709219530902453 0.087249142763503 -2.6479485714103608 1.3668917560939728 2.050055466436567 -0.520000050553151 1.1400032090925691
2.67747807503 0.0709219530902453 0.087249142763503 -2.6479485714103608 1.3668917560939728 2.050055466436567 -0.520000050553151 1.1400032090925691
2.6874871254 0.0709219530902453 0.087249142763503 -2.6479485714103608 1.3668917560939728 2.050055466436567 -0.520000050553151 1.1400032090925691
2.6874871254 0.0709219530902453 0.087249142763503 -2.6479485714103608 1.3668917560939728 2.050055466436567 -0.520000050553151 1.1400032090925691
2.697453022 0.0709219530902453 0.087249142763503 -2.6479485714103608 1.3668917560939728 2.050055466436567 -0.520000050553151 1.1400032090925691
2.697453022 0.0709219530902453 0.087249142763503 -2.6479485714103608 1.3668917560939728 2.050055466436567 -0.520000050553151 1.1400032090925691
2.70745611191 0.0711213732378161 0.087249142763503 -2.6339431410463425 1.3668917560939728 2.050055466436567 -0.520000050553151 1.1400032090925691
2.70745611191 0.0711213732378161 0.087249142763503 -2.6339431410463425 1.3668917560939728 2.050055466436567 -0.520000050553151 1.1400032090925691
2.71749305725 0.0711213732378161 0.087249142763503 -2.6339431410463425 1.3668917560939728 2.050055466436567 -0.520000050553151 1.1400032090925691
2.71749305725 0.0711213732378161 0.087249142763503 -2.6339431410463425 1.3668917560939728 2.050055466436567 -0.520000050553151 1.1400032090925691
2.72742700577 0.0711213732378161 0.087249142763503 -2.6339431410463425 1.3668917560939728 2.050055466436567 -0.520000050553151 1.1400032090925691
2.72742700577 0.0711213732378161 0.087249142763503 -2.6339431410463425 1.3668917560939728 2.050055466436567 -0.520000050553151 1.1400032090925691
2.73747801781 0.0711213732378161 0.087249142763503 -2.6339431410463425 1.3668917560939728 2.050055466436567 -0.520000050553151 1.1400032090925691
2.73747801781 0.0711213732378161 0.087249142763503 -2.6339431410463425 1.3668917560939728 2.050055466436567 -0.520000050553151 1.1400032090925691
2.74748802185 0.0711213732378161 0.087249142763503 -2.6339431410463425 1.3668917560939728 2.050055466436567 -0.520000050553151 1.1400032090925691
2.74748802185 0.0711213732378161 0.087249142763503 -2.6339431410463425 1.3668917560939728 2.050055466436567 -0.520000050553151 1.1400032090925691
2.75755500793 0.0711213732378161 0.087249142763503 -2.6339431410463425 1.3668917560939728 2.050055466436567 -0.520000050553151 1.1400032090925691
2.75755500793 0.0711213732378161 0.087249142763503 -2.6339431410463425 1.3668917560939728 2.050055466436567 -0.520000050553151 1.1400032090925691
2.76784300804 0.0711213732378161 0.087249142763503 -2.6339431410463425 1.3668917560939728 2.050055466436567 -0.520000050553151 1.1400032090925691
2.76784300804 0.0711213732378161 0.087249142763503 -2.6339431410463425 1.3668917560939728 2.050055466436567 -0.520000050553151 1.1400032090925691
2.77772498131 0.0713514734080904 0.087249142763503 -2.61932411022826 1.3668917560939728 2.050055466436567 -0.520000050553151 1.1400032090925691
2.77772498131 0.0713514734080904 0.087249142763503 -2.61932411022826 1.3668917560939728 2.050055466436567 -0.520000050553151 1.1400032090925691
2.78785204887 0.0713514734080904 0.087249142763503 -2.61932411022826 1.3668917560939728 2.050055466436567 -0.520000050553151 1.1400032090925691
2.78785204887 0.0713514734080904 0.087249142763503 -2.61932411022826 1.3668917560939728 2.050055466436567 -0.520000050553151 1.1400032090925691
2.79794096947 0.0713514734080904 0.087249142763503 -2.61932411022826 1.3668917560939728 2.050055466436567 -0.520000050553151 1.1400032090925691
2.79794096947 0.0713514734080904 0.087249142763503 -2.61932411022826 1.3668917560939728 2.050055466436567 -0.520000050553151 1.1400032090925691
2.80780100822 0.0713514734080904 0.087249142763503 -2.61932411022826 1.3668917560939728 2.050055466436567 -0.520000050553151 1.1400032090925691
2.80780100822 0.0713514734080904 0.087249142763503 -2.61932411022826 1.3668917560939728 2.050055466436567 -0.520000050553151 1.1400032090925691
2.81792593002 0.0713514734080904 0.087249142763503 -2.61932411022826 1.3668917560939728 2.050055466436567 -0.520000050553151 1.1400032090925691
2.81792593002 0.0713514734080904 0.087249142763503 -2.61932411022826 1.3668917560939728 2.050055466436567 -0.520000050553151 1.1400032090925691
2.82796311378 0.0713514734080904 0.087249142763503 -2.61932411022826 1.3668917560939728 2.050055466436567 -0.520000050553151 1.1400032090925691
2.82796311378 0.0713514734080904 0.087249142763503 -2.61932411022826 1.3668917560939728 2.050055466436567 -0.520000050553151 1.1400032090925691
2.8380510807 0.0713514734080904 0.087249142763503 -2.61932411022826 1.3668917560939728 2.050055466436567 -0.520000050553151 1.1400032090925691
2.8380510807 0.0713514734080904 0.087249142763503 -2.61932411022826 1.3668917560939728 2.050055466436567 -0.520000050553151 1.1400032090925691
2.84799408913 0.0713514734080904 0.087249142763503 -2.61932411022826 1.3668917560939728 2.050055466436567 -0.520000050553151 1.1400032090925691
2.84799408913 0.0713514734080904 0.087249142763503 -2.61932411022826 1.3668917560939728 2.050055466436567 -0.520000050553151 1.1400032090925691
2.85784697533 0.0713514734080904 0.087249142763503 -2.61932411022826 1.3668917560939728 2.050055466436567 -0.520000050553151 1.1400032090925691
2.85784697533 0.0713514734080904 0.087249142763503 -2.61932411022826 1.3668917560939728 2.050055466436567 -0.520000050553151 1.1400032090925691
2.86803507805 0.0713514734080904 0.087249142763503 -2.61932411022826 1.3668917560939728 2.050055466436567 -0.520000050553151 1.1400032090925691
2.86803507805 0.0713514734080904 0.087249142763503 -2.61932411022826 1.3668917560939728 2.050055466436567 -0.520000050553151 1.1400032090925691
2.8778219223 0.0713514734080904 0.087249142763503 -2.61932411022826 1.3668917560939728 2.050055466436567 -0.520000050553151 1.1400032090925691
2.8778219223 0.0713514734080904 0.087249142763503 -2.61932411022826 1.3668917560939728 2.050055466436567 -0.520000050553151 1.1400032090925691
2.88791394234 0.0713514734080904 0.087249142763503 -2.61932411022826 1.3668917560939728 2.050055466436567 -0.520000050553151 1.1400032090925691
2.88791394234 0.0713514734080904 0.087249142763503 -2.61932411022826 1.3668917560939728 2.050055466436567 -0.520000050553151 1.1400032090925691
2.89803195 0.0713514734080904 0.087249142763503 -2.61932411022826 1.3668917560939728 2.050055466436567 -0.520000050553151 1.1400032090925691
2.89803195 0.0713514734080904 0.087249142763503 -2.61932411022826 1.3668917560939728 2.050055466436567 -0.520000050553151 1.1400032090925691
2.90796208382 0.0713514734080904 0.087249142763503 -2.61932411022826 1.3668917560939728 2.050055466436567 -0.520000050553151 1.1400032090925691
2.90796208382 0.0713514734080904 0.087249142763503 -2.61932411022826 1.3668917560939728 2.050055466436567 -0.520000050553151 1.1400032090925691
2.91770100594 0.0713514734080904 0.087249142763503 -2.61932411022826 1.3668917560939728 2.050055466436567 -0.520000050553151 1.1400032090925691
2.91770100594 0.0713514734080904 0.087249142763503 -2.61932411022826 1.3668917560939728 2.050055466436567 -0.520000050553151 1.1400032090925691
2.92795300484 0.0713514734080904 0.087249142763503 -2.61932411022826 1.3668917560939728 2.050055466436567 -0.520000050553151 1.1400032090925691
2.92795300484 0.0713514734080904 0.087249142763503 -2.61932411022826 1.3668917560939728 2.050055466436567 -0.520000050553151 1.1400032090925691
2.93776106834 0.0713514734080904 0.087249142763503 -2.61932411022826 1.3668917560939728 2.050055466436567 -0.520000050553151 1.1400032090925691
2.93776106834 0.0713514734080904 0.087249142763503 -2.61932411022826 1.3668917560939728 2.050055466436567 -0.520000050553151 1.1400032090925691
2.94791507721 0.0713514734080904 0.087249142763503 -2.61932411022826 1.3668917560939728 2.050055466436567 -0.520000050553151 1.1400032090925691
2.94791507721 0.0713514734080904 0.087249142763503 -2.61932411022826 1.3668917560939728 2.050055466436567 -0.520000050553151 1.1400032090925691
2.95792508125 0.0713514734080904 0.087249142763503 -2.61932411022826 1.3668917560939728 2.050055466436567 -0.520000050553151 1.1400032090925691
2.95792508125 0.0713514734080904 0.087249142763503 -2.61932411022826 1.3668917560939728 2.050055466436567 -0.520000050553151 1.1400032090925691
2.96800994873 0.0713514734080904 0.087249142763503 -2.61932411022826 1.3668917560939728 2.050055466436567 -0.520000050553151 1.1400032090925691
2.96800994873 0.0713514734080904 0.087249142763503 -2.61932411022826 1.3668917560939728 2.050055466436567 -0.520000050553151 1.1400032090925691
2.97799110413 0.0713514734080904 0.087249142763503 -2.61932411022826 1.3668917560939728 2.050055466436567 -0.520000050553151 1.1400032090925691
2.97799110413 0.0713514734080904 0.087249142763503 -2.61932411022826 1.3668917560939728 2.050055466436567 -0.520000050553151 1.1400032090925691
2.98792290688 0.0713514734080904 0.087249142763503 -2.61932411022826 1.3668917560939728 2.050055466436567 -0.520000050553151 1.1400032090925691
2.98792290688 0.0713514734080904 0.087249142763503 -2.61932411022826 1.3668917560939728 2.050055466436567 -0.520000050553151 1.1400032090925691
2.99796795845 0.0713514734080904 0.087249142763503 -2.61932411022826 1.3668917560939728 2.050055466436567 -0.520000050553151 1.1400032090925691
2.99796795845 0.0713514734080904 0.087249142763503 -2.61932411022826 1.3668917560939728 2.050055466436567 -0.520000050553151 1.1400032090925691
3.00798201561 0.0713514734080904 0.087249142763503 -2.61932411022826 1.3668917560939728 2.050055466436567 -0.520000050553151 1.1400032090925691
3.00798201561 0.0713514734080904 0.087249142763503 -2.61932411022826 1.3668917560939728 2.050055466436567 -0.520000050553151 1.1400032090925691
3.01800012589 0.0713514734080904 0.087249142763503 -2.61932411022826 1.3668917560939728 2.050055466436567 -0.520000050553151 1.1400032090925691
3.01800012589 0.0713514734080904 0.087249142763503 -2.61932411022826 1.3668917560939728 2.050055466436567 -0.520000050553151 1.1400032090925691
3.02783608437 0.0713514734080904 0.087249142763503 -2.61932411022826 1.3668917560939728 2.050055466436567 -0.520000050553151 1.1400032090925691
3.02783608437 0.0713514734080904 0.087249142763503 -2.61932411022826 1.3668917560939728 2.050055466436567 -0.520000050553151 1.1400032090925691
3.03787207603 0.0713514734080904 0.087249142763503 -2.61932411022826 1.3668917560939728 2.050055466436567 -0.520000050553151 1.1400032090925691
3.03787207603 0.0713514734080904 0.087249142763503 -2.61932411022826 1.3668917560939728 2.050055466436567 -0.520000050553151 1.1400032090925691
3.04794192314 0.0713514734080904 0.087249142763503 -2.61932411022826 1.3668917560939728 2.050055466436567 -0.520000050553151 1.1400032090925691
3.04794192314 0.0713514734080904 0.087249142763503 -2.61932411022826 1.3668917560939728 2.050055466436567 -0.520000050553151 1.1400032090925691
3.05784201622 0.0713514734080904 0.087249142763503 -2.61932411022826 1.3668917560939728 2.050055466436567 -0.520000050553151 1.1400032090925691
3.05784201622 0.0713514734080904 0.087249142763503 -2.61932411022826 1.3668917560939728 2.050055466436567 -0.520000050553151 1.1400032090925691
3.0679371357 0.0713514734080904 0.087249142763503 -2.61932411022826 1.3668917560939728 2.050055466436567 -0.520000050553151 1.1400032090925691
3.0679371357 0.0713514734080904 0.087249142763503 -2.61932411022826 1.3668917560939728 2.050055466436567 -0.520000050553151 1.1400032090925691
3.07797408104 0.0713514734080904 0.087249142763503 -2.61932411022826 1.3668917560939728 2.050055466436567 -0.520000050553151 1.1400032090925691
3.07797408104 0.0713514734080904 0.087249142763503 -2.61932411022826 1.3668917560939728 2.050055466436567 -0.520000050553151 1.1400032090925691
3.08785200119 0.0713514734080904 0.087249142763503 -2.61932411022826 1.3668917560939728 2.050055466436567 -0.520000050553151 1.1400032090925691
3.08785200119 0.0713514734080904 0.087249142763503 -2.61932411022826 1.3668917560939728 2.050055466436567 -0.520000050553151 1.1400032090925691
3.09794807434 0.0713514734080904 0.087249142763503 -2.61932411022826 1.3668917560939728 2.050055466436567 -0.520000050553151 1.1400032090925691
3.09794807434 0.0713514734080904 0.087249142763503 -2.61932411022826 1.3668917560939728 2.050055466436567 -0.520000050553151 1.1400032090925691
3.10793495178 0.0713514734080904 0.087249142763503 -2.61932411022826 1.3668917560939728 2.050055466436567 -0.520000050553151 1.1400032090925691
3.10793495178 0.0713514734080904 0.087249142763503 -2.61932411022826 1.3668917560939728 2.050055466436567 -0.520000050553151 1.1400032090925691
3.11787390709 0.0713514734080904 0.087249142763503 -2.61932411022826 1.3668917560939728 2.050055466436567 -0.520000050553151 1.1400032090925691
3.11787390709 0.0713514734080904 0.087249142763503 -2.61932411022826 1.3668917560939728 2.050055466436567 -0.520000050553151 1.1400032090925691
3.12798404694 0.0713514734080904 0.087249142763503 -2.61932411022826 1.3668917560939728 2.050055466436567 -0.520000050553151 1.1400032090925691
3.12798404694 0.0713514734080904 0.087249142763503 -2.61932411022826 1.3668917560939728 2.050055466436567 -0.520000050553151 1.1400032090925691
3.13775897026 0.0713514734080904 0.087249142763503 -2.61932411022826 1.3668917560939728 2.050055466436567 -0.520000050553151 1.1400032090925691
3.13775897026 0.0713514734080904 0.087249142763503 -2.61932411022826 1.3668917560939728 2.050055466436567 -0.520000050553151 1.1400032090925691
3.14788198471 0.0713514734080904 0.087249142763503 -2.61932411022826 1.3668917560939728 2.050055466436567 -0.520000050553151 1.1400032090925691
3.14788198471 0.0713514734080904 0.087249142763503 -2.61932411022826 1.3668917560939728 2.050055466436567 -0.520000050553151 1.1400032090925691
3.15794801712 0.0713514734080904 0.087249142763503 -2.61932411022826 1.3668917560939728 2.050055466436567 -0.520000050553151 1.1400032090925691
3.15794801712 0.0713514734080904 0.087249142763503 -2.61932411022826 1.3668917560939728 2.050055466436567 -0.520000050553151 1.1400032090925691
3.16794300079 0.0713514734080904 0.087249142763503 -2.61932411022826 1.3668917560939728 2.050055466436567 -0.520000050553151 1.1400032090925691
3.16794300079 0.0713514734080904 0.087249142763503 -2.61932411022826 1.3668917560939728 2.050055466436567 -0.520000050553151 1.1400032090925691
3.17787599564 0.0713514734080904 0.087249142763503 -2.61932411022826 1.3668917560939728 2.050055466436567 -0.520000050553151 1.1400032090925691
3.17787599564 0.0713514734080904 0.087249142763503 -2.61932411022826 1.3668917560939728 2.050055466436567 -0.520000050553151 1.1400032090925691
3.18794703484 0.0713514734080904 0.087249142763503 -2.61932411022826 1.3668917560939728 2.050055466436567 -0.520000050553151 1.1400032090925691
3.18794703484 0.0713514734080904 0.087249142763503 -2.61932411022826 1.3668917560939728 2.050055466436567 -0.520000050553151 1.1400032090925691
3.19796705246 0.0713514734080904 0.087249142763503 -2.61932411022826 1.3668917560939728 2.050055466436567 -0.520000050553151 1.1400032090925691
3.19796705246 0.0713514734080904 0.087249142763503 -2.61932411022826 1.3668917560939728 2.050055466436567 -0.520000050553151 1.1400032090925691
3.2080681324 0.0713514734080904 0.087249142763503 -2.61932411022826 1.3668917560939728 2.050055466436567 -0.520000050553151 1.1400032090925691
3.2080681324 0.0713514734080904 0.087249142763503 -2.61932411022826 1.3668917560939728 2.050055466436567 -0.520000050553151 1.1400032090925691
3.21793889999 0.0713514734080904 0.087249142763503 -2.61932411022826 1.3668917560939728 2.050055466436567 -0.520000050553151 1.1400032090925691
3.21793889999 0.0713514734080904 0.087249142763503 -2.61932411022826 1.3668917560939728 2.050055466436567 -0.520000050553151 1.1400032090925691
3.22786593437 0.0713514734080904 0.087249142763503 -2.61932411022826 1.3668917560939728 2.050055466436567 -0.520000050553151 1.1400032090925691
3.22786593437 0.0713514734080904 0.087249142763503 -2.61932411022826 1.3668917560939728 2.050055466436567 -0.520000050553151 1.1400032090925691
3.23793911934 0.0713514734080904 0.087249142763503 -2.61932411022826 1.3668917560939728 2.050055466436567 -0.520000050553151 1.1400032090925691
3.23793911934 0.0713514734080904 0.087249142763503 -2.61932411022826 1.3668917560939728 2.050055466436567 -0.520000050553151 1.1400032090925691
3.24775004387 0.0713514734080904 0.087249142763503 -2.61932411022826 1.3668917560939728 2.050055466436567 -0.520000050553151 1.1400032090925691
3.24775004387 0.0713514734080904 0.087249142763503 -2.61932411022826 1.3668917560939728 2.050055466436567 -0.520000050553151 1.1400032090925691
3.25790596008 0.0713514734080904 0.087249142763503 -2.61932411022826 1.3668917560939728 2.050055466436567 -0.520000050553151 1.1400032090925691
3.25790596008 0.0713514734080904 0.087249142763503 -2.61932411022826 1.3668917560939728 2.050055466436567 -0.520000050553151 1.1400032090925691
3.26791810989 0.0713514734080904 0.087249142763503 -2.61932411022826 1.3668917560939728 2.050055466436567 -0.520000050553151 1.1400032090925691
3.26791810989 0.0713514734080904 0.087249142763503 -2.61932411022826 1.3668917560939728 2.050055466436567 -0.520000050553151 1.1400032090925691
3.27795600891 0.0713514734080904 0.087249142763503 -2.61932411022826 1.3668917560939728 2.050055466436567 -0.520000050553151 1.1400032090925691
3.27795600891 0.0713514734080904 0.087249142763503 -2.61932411022826 1.3668917560939728 2.050055466436567 -0.520000050553151 1.1400032090925691
3.2879691124 0.0713514734080904 0.087249142763503 -2.61932411022826 1.3668917560939728 2.050055466436567 -0.520000050553151 1.1400032090925691
3.2879691124 0.0713514734080904 0.087249142763503 -2.61932411022826 1.3668917560939728 2.050055466436567 -0.520000050553151 1.1400032090925691
3.29797196388 0.0713514734080904 0.087249142763503 -2.61932411022826 1.3668917560939728 2.050055466436567 -0.520000050553151 1.1400032090925691
3.29797196388 0.0713514734080904 0.087249142763503 -2.61932411022826 1.3668917560939728 2.050055466436567 -0.520000050553151 1.1400032090925691
3.30795693398 0.0713514734080904 0.087249142763503 -2.61932411022826 1.3668917560939728 2.050055466436567 -0.520000050553151 1.1400032090925691
3.30795693398 0.0713514734080904 0.087249142763503 -2.61932411022826 1.3668917560939728 2.050055466436567 -0.520000050553151 1.1400032090925691
3.31794500351 0.0713514734080904 0.087249142763503 -2.61932411022826 1.3668917560939728 2.050055466436567 -0.520000050553151 1.1400032090925691
3.31794500351 0.0713514734080904 0.087249142763503 -2.61932411022826 1.3668917560939728 2.050055466436567 -0.520000050553151 1.1400032090925691
3.32796192169 0.0713514734080904 0.087249142763503 -2.61932411022826 1.3668917560939728 2.050055466436567 -0.520000050553151 1.1400032090925691
3.32796192169 0.0713514734080904 0.087249142763503 -2.61932411022826 1.3668917560939728 2.050055466436567 -0.520000050553151 1.1400032090925691
3.33787512779 0.0713514734080904 0.087249142763503 -2.61932411022826 1.3668917560939728 2.050055466436567 -0.520000050553151 1.1400032090925691
3.33787512779 0.0713514734080904 0.087249142763503 -2.61932411022826 1.3668917560939728 2.050055466436567 -0.520000050553151 1.1400032090925691
3.3478679657 0.0713514734080904 0.087249142763503 -2.61932411022826 1.3668917560939728 2.050055466436567 -0.520000050553151 1.1400032090925691
3.3478679657 0.0713514734080904 0.087249142763503 -2.61932411022826 1.3668917560939728 2.050055466436567 -0.520000050553151 1.1400032090925691
3.35778212547 0.0713514734080904 0.087249142763503 -2.61932411022826 1.3668917560939728 2.050055466436567 -0.520000050553151 1.1400032090925691
3.35778212547 0.0713514734080904 0.087249142763503 -2.61932411022826 1.3668917560939728 2.050055466436567 -0.520000050553151 1.1400032090925691
3.36799407005 0.0713514734080904 0.087249142763503 -2.61932411022826 1.3668917560939728 2.050055466436567 -0.520000050553151 1.1400032090925691
3.36799407005 0.0713514734080904 0.087249142763503 -2.61932411022826 1.3668917560939728 2.050055466436567 -0.520000050553151 1.1400032090925691
3.37792801857 0.0713514734080904 0.087249142763503 -2.61932411022826 1.3668917560939728 2.050055466436567 -0.520000050553151 1.1400032090925691
3.37792801857 0.0713514734080904 0.087249142763503 -2.61932411022826 1.3668917560939728 2.050055466436567 -0.520000050553151 1.1400032090925691
3.38790392876 0.0713514734080904 0.087249142763503 -2.61932411022826 1.3668917560939728 2.050055466436567 -0.520000050553151 1.1400032090925691
3.38790392876 0.0713514734080904 0.087249142763503 -2.61932411022826 1.3668917560939728 2.050055466436567 -0.520000050553151 1.1400032090925691
3.39783000946 0.0713514734080904 0.087249142763503 -2.61932411022826 1.3668917560939728 2.050055466436567 -0.520000050553151 1.1400032090925691
3.39783000946 0.0713514734080904 0.087249142763503 -2.61932411022826 1.3668917560939728 2.050055466436567 -0.520000050553151 1.1400032090925691
3.40788412094 0.0713514734080904 0.087249142763503 -2.61932411022826 1.3668917560939728 2.050055466436567 -0.520000050553151 1.1400032090925691
3.40788412094 0.0713514734080904 0.087249142763503 -2.61932411022826 1.3668917560939728 2.050055466436567 -0.520000050553151 1.1400032090925691
3.41798996925 0.0713514734080904 0.087249142763503 -2.61932411022826 1.3668917560939728 2.050055466436567 -0.520000050553151 1.1400032090925691
3.41798996925 0.0713514734080904 0.087249142763503 -2.61932411022826 1.3668917560939728 2.050055466436567 -0.520000050553151 1.1400032090925691
3.42794394493 0.0713514734080904 0.087249142763503 -2.61932411022826 1.3668917560939728 2.050055466436567 -0.520000050553151 1.1400032090925691
3.42794394493 0.0713514734080904 0.087249142763503 -2.61932411022826 1.3668917560939728 2.050055466436567 -0.520000050553151 1.1400032090925691
3.4378080368 0.0713514734080904 0.087249142763503 -2.61932411022826 1.3668917560939728 2.050055466436567 -0.520000050553151 1.1400032090925691
3.4378080368 0.0713514734080904 0.087249142763503 -2.61932411022826 1.3668917560939728 2.050055466436567 -0.520000050553151 1.1400032090925691
3.44795107841 0.0713514734080904 0.087249142763503 -2.61932411022826 1.3668917560939728 2.050055466436567 -0.520000050553151 1.1400032090925691
3.44795107841 0.0713514734080904 0.087249142763503 -2.61932411022826 1.3668917560939728 2.050055466436567 -0.520000050553151 1.1400032090925691
3.45781803131 0.0713514734080904 0.087249142763503 -2.61932411022826 1.3668917560939728 2.050055466436567 -0.520000050553151 1.1400032090925691
3.45781803131 0.0713514734080904 0.087249142763503 -2.61932411022826 1.3668917560939728 2.050055466436567 -0.520000050553151 1.1400032090925691
3.46783399582 0.0713514734080904 0.087249142763503 -2.61932411022826 1.3668917560939728 2.050055466436567 -0.520000050553151 1.1400032090925691
3.46783399582 0.0713514734080904 0.087249142763503 -2.61932411022826 1.3668917560939728 2.050055466436567 -0.520000050553151 1.1400032090925691
3.47791790962 0.0713514734080904 0.087249142763503 -2.61932411022826 1.3668917560939728 2.050055466436567 -0.520000050553151 1.1400032090925691
3.47791790962 0.0713514734080904 0.087249142763503 -2.61932411022826 1.3668917560939728 2.050055466436567 -0.520000050553151 1.1400032090925691
3.48796796799 0.0713514734080904 0.087249142763503 -2.61932411022826 1.3668917560939728 2.050055466436567 -0.520000050553151 1.1400032090925691
3.48796796799 0.0713514734080904 0.087249142763503 -2.61932411022826 1.3668917560939728 2.050055466436567 -0.520000050553151 1.1400032090925691
3.49804091454 0.0713514734080904 0.087249142763503 -2.61932411022826 1.3668917560939728 2.050055466436567 -0.520000050553151 1.1400032090925691
3.49804091454 0.0713514734080904 0.087249142763503 -2.61932411022826 1.3668917560939728 2.050055466436567 -0.520000050553151 1.1400032090925691
3.5078060627 0.0713514734080904 0.087249142763503 -2.61932411022826 1.3668917560939728 2.050055466436567 -0.520000050553151 1.1400032090925691
3.5078060627 0.0713514734080904 0.087249142763503 -2.61932411022826 1.3668917560939728 2.050055466436567 -0.520000050553151 1.1400032090925691
3.51795911789 0.0713514734080904 0.087249142763503 -2.61932411022826 1.3668917560939728 2.050055466436567 -0.520000050553151 1.1400032090925691
3.51795911789 0.0713514734080904 0.087249142763503 -2.61932411022826 1.3668917560939728 2.050055466436567 -0.520000050553151 1.1400032090925691
3.52794909477 0.0713514734080904 0.087249142763503 -2.61932411022826 1.3668917560939728 2.050055466436567 -0.520000050553151 1.1400032090925691
3.52794909477 0.0713514734080904 0.087249142763503 -2.61932411022826 1.3668917560939728 2.050055466436567 -0.520000050553151 1.1400032090925691
3.53790903091 0.0713514734080904 0.087249142763503 -2.61932411022826 1.3668917560939728 2.050055466436567 -0.520000050553151 1.1400032090925691
3.53790903091 0.0713514734080904 0.087249142763503 -2.61932411022826 1.3668917560939728 2.050055466436567 -0.520000050553151 1.1400032090925691
3.54779791832 0.0713514734080904 0.087249142763503 -2.61932411022826 1.3668917560939728 2.050055466436567 -0.520000050553151 1.1400032090925691
3.54779791832 0.0713514734080904 0.087249142763503 -2.61932411022826 1.3668917560939728 2.050055466436567 -0.520000050553151 1.1400032090925691
3.5577750206 0.0713514734080904 0.087249142763503 -2.61932411022826 1.3668917560939728 2.050055466436567 -0.520000050553151 1.1400032090925691
3.5577750206 0.0713514734080904 0.087249142763503 -2.61932411022826 1.3668917560939728 2.050055466436567 -0.520000050553151 1.1400032090925691
3.56791901588 0.0713514734080904 0.087249142763503 -2.61932411022826 1.3668917560939728 2.050055466436567 -0.520000050553151 1.1400032090925691
3.56791901588 0.0713514734080904 0.087249142763503 -2.61932411022826 1.3668917560939728 2.050055466436567 -0.520000050553151 1.1400032090925691
3.57787895203 0.0713514734080904 0.087249142763503 -2.61932411022826 1.3668917560939728 2.050055466436567 -0.520000050553151 1.1400032090925691
3.57787895203 0.0713514734080904 0.087249142763503 -2.61932411022826 1.3668917560939728 2.050055466436567 -0.520000050553151 1.1400032090925691
3.58783102036 0.0713514734080904 0.087249142763503 -2.61932411022826 1.3668917560939728 2.050055466436567 -0.520000050553151 1.1400032090925691
3.58783102036 0.0713514734080904 0.087249142763503 -2.61932411022826 1.3668917560939728 2.050055466436567 -0.520000050553151 1.1400032090925691
3.59796190262 0.0713514734080904 0.087249142763503 -2.61932411022826 1.3668917560939728 2.050055466436567 -0.520000050553151 1.1400032090925691
3.59796190262 0.0713514734080904 0.087249142763503 -2.61932411022826 1.3668917560939728 2.050055466436567 -0.520000050553151 1.1400032090925691
3.60792899132 0.0713514734080904 0.087249142763503 -2.61932411022826 1.3668917560939728 2.050055466436567 -0.520000050553151 1.1400032090925691
3.60792899132 0.0713514734080904 0.087249142763503 -2.61932411022826 1.3668917560939728 2.050055466436567 -0.520000050553151 1.1400032090925691
3.61795210838 0.0713514734080904 0.087249142763503 -2.61932411022826 1.3668917560939728 2.050055466436567 -0.520000050553151 1.1400032090925691
3.61795210838 0.0713514734080904 0.087249142763503 -2.61932411022826 1.3668917560939728 2.050055466436567 -0.520000050553151 1.1400032090925691
3.62786698341 0.0713514734080904 0.087249142763503 -2.61932411022826 1.3668917560939728 2.050055466436567 -0.520000050553151 1.1400032090925691
3.62786698341 0.0713514734080904 0.087249142763503 -2.61932411022826 1.3668917560939728 2.050055466436567 -0.520000050553151 1.1400032090925691
3.63790893555 0.0713514734080904 0.087249142763503 -2.61932411022826 1.3668917560939728 2.050055466436567 -0.520000050553151 1.1400032090925691
3.63790893555 0.0713514734080904 0.087249142763503 -2.61932411022826 1.3668917560939728 2.050055466436567 -0.520000050553151 1.1400032090925691
3.64793491364 0.0713514734080904 0.087249142763503 -2.61932411022826 1.3668917560939728 2.050055466436567 -0.520000050553151 1.1400032090925691
3.64793491364 0.0713514734080904 0.087249142763503 -2.61932411022826 1.3668917560939728 2.050055466436567 -0.520000050553151 1.1400032090925691
3.65799593925 0.0713514734080904 0.087249142763503 -2.61932411022826 1.3668917560939728 2.050055466436567 -0.520000050553151 1.1400032090925691
3.65799593925 0.0713514734080904 0.087249142763503 -2.61932411022826 1.3668917560939728 2.050055466436567 -0.520000050553151 1.1400032090925691
3.66784501076 0.0713514734080904 0.087249142763503 -2.61932411022826 1.3668917560939728 2.050055466436567 -0.520000050553151 1.1400032090925691
3.66784501076 0.0713514734080904 0.087249142763503 -2.61932411022826 1.3668917560939728 2.050055466436567 -0.520000050553151 1.1400032090925691
3.67757892609 0.0713514734080904 0.087249142763503 -2.61932411022826 1.3668917560939728 2.050055466436567 -0.520000050553151 1.1400032090925691
3.67757892609 0.0713514734080904 0.087249142763503 -2.61932411022826 1.3668917560939728 2.050055466436567 -0.520000050553151 1.1400032090925691
3.68753004074 0.0713514734080904 0.087249142763503 -2.61932411022826 1.3668917560939728 2.050055466436567 -0.520000050553151 1.1400032090925691
3.68753004074 0.0713514734080904 0.087249142763503 -2.61932411022826 1.3668917560939728 2.050055466436567 -0.520000050553151 1.1400032090925691
3.69754290581 0.0713514734080904 0.087249142763503 -2.61932411022826 1.3668917560939728 2.050055466436567 -0.520000050553151 1.1400032090925691
3.69754290581 0.0713514734080904 0.087249142763503 -2.61932411022826 1.3668917560939728 2.050055466436567 -0.520000050553151 1.1400032090925691
3.70758295059 0.0713514734080904 0.087249142763503 -2.61932411022826 1.3668917560939728 2.050055466436567 -0.520000050553151 1.1400032090925691
3.70758295059 0.0713514734080904 0.087249142763503 -2.61932411022826 1.3668917560939728 2.050055466436567 -0.520000050553151 1.1400032090925691
3.71753096581 0.0713514734080904 0.087249142763503 -2.61932411022826 1.3668917560939728 2.050055466436567 -0.520000050553151 1.1400032090925691
3.71753096581 0.0713514734080904 0.087249142763503 -2.61932411022826 1.3668917560939728 2.050055466436567 -0.520000050553151 1.1400032090925691
3.72754001617 0.0713514734080904 0.087249142763503 -2.61932411022826 1.3668917560939728 2.050055466436567 -0.520000050553151 1.1400032090925691
3.72754001617 0.0713514734080904 0.087249142763503 -2.61932411022826 1.3668917560939728 2.050055466436567 -0.520000050553151 1.1400032090925691
3.73753190041 0.0713514734080904 0.087249142763503 -2.61932411022826 1.3668917560939728 2.050055466436567 -0.520000050553151 1.1400032090925691
3.73753190041 0.0713514734080904 0.087249142763503 -2.61932411022826 1.3668917560939728 2.050055466436567 -0.520000050553151 1.1400032090925691
3.74748206139 0.0713514734080904 0.087249142763503 -2.61932411022826 1.3668917560939728 2.050055466436567 -0.520000050553151 1.1400032090925691
3.74748206139 0.0713514734080904 0.087249142763503 -2.61932411022826 1.3668917560939728 2.050055466436567 -0.520000050553151 1.1400032090925691
3.75756502151 0.0713514734080904 0.087249142763503 -2.61932411022826 1.3668917560939728 2.050055466436567 -0.520000050553151 1.1400032090925691
3.75756502151 0.0713514734080904 0.087249142763503 -2.61932411022826 1.3668917560939728 2.050055466436567 -0.520000050553151 1.1400032090925691
3.76755595207 0.0713514734080904 0.087249142763503 -2.61932411022826 1.3668917560939728 2.050055466436567 -0.520000050553151 1.1400032090925691
3.76755595207 0.0713514734080904 0.087249142763503 -2.61932411022826 1.3668917560939728 2.050055466436567 -0.520000050553151 1.1400032090925691
3.77753591537 0.0713514734080904 0.087249142763503 -2.61932411022826 1.3668917560939728 2.050055466436567 -0.520000050553151 1.1400032090925691
3.77753591537 0.0713514734080904 0.087249142763503 -2.61932411022826 1.3668917560939728 2.050055466436567 -0.520000050553151 1.1400032090925691
3.78752708435 0.0713514734080904 0.087249142763503 -2.61932411022826 1.3668917560939728 2.050055466436567 -0.520000050553151 1.1400032090925691
3.78752708435 0.0713514734080904 0.087249142763503 -2.61932411022826 1.3668917560939728 2.050055466436567 -0.520000050553151 1.1400032090925691
3.79750490189 0.0713514734080904 0.087249142763503 -2.61932411022826 1.3668917560939728 2.050055466436567 -0.520000050553151 1.1400032090925691
3.79750490189 0.0713514734080904 0.087249142763503 -2.61932411022826 1.3668917560939728 2.050055466436567 -0.520000050553151 1.1400032090925691
3.80752205849 0.0713514734080904 0.087249142763503 -2.61932411022826 1.3668917560939728 2.050055466436567 -0.520000050553151 1.1400032090925691
3.80752205849 0.0713514734080904 0.087249142763503 -2.61932411022826 1.3668917560939728 2.050055466436567 -0.520000050553151 1.1400032090925691
3.81751704216 0.0713514734080904 0.087249142763503 -2.61932411022826 1.3668917560939728 2.050055466436567 -0.520000050553151 1.1400032090925691
3.81751704216 0.0713514734080904 0.087249142763503 -2.61932411022826 1.3668917560939728 2.050055466436567 -0.520000050553151 1.1400032090925691
3.82754206657 0.0713514734080904 0.087249142763503 -2.61932411022826 1.3668917560939728 2.050055466436567 -0.520000050553151 1.1400032090925691
3.82754206657 0.0713514734080904 0.087249142763503 -2.61932411022826 1.3668917560939728 2.050055466436567 -0.520000050553151 1.1400032090925691
3.83752799034 0.0713514734080904 0.087249142763503 -2.61932411022826 1.3668917560939728 2.050055466436567 -0.520000050553151 1.1400032090925691
3.83752799034 0.0713514734080904 0.087249142763503 -2.61932411022826 1.3668917560939728 2.050055466436567 -0.520000050553151 1.1400032090925691
3.84751701355 0.0713514734080904 0.087249142763503 -2.61932411022826 1.3668917560939728 2.050055466436567 -0.520000050553151 1.1400032090925691
3.84751701355 0.0713514734080904 0.087249142763503 -2.61932411022826 1.3668917560939728 2.050055466436567 -0.520000050553151 1.1400032090925691
3.85752701759 0.0713514734080904 0.087249142763503 -2.61932411022826 1.3668917560939728 2.050055466436567 -0.520000050553151 1.1400032090925691
3.85752701759 0.0713514734080904 0.087249142763503 -2.61932411022826 1.3668917560939728 2.050055466436567 -0.520000050553151 1.1400032090925691
3.86747407913 0.0713514734080904 0.087249142763503 -2.61932411022826 1.3668917560939728 2.050055466436567 -0.520000050553151 1.1400032090925691
3.86747407913 0.0713514734080904 0.087249142763503 -2.61932411022826 1.3668917560939728 2.050055466436567 -0.520000050553151 1.1400032090925691
3.87751603127 0.0713514734080904 0.087249142763503 -2.61932411022826 1.3668917560939728 2.050055466436567 -0.520000050553151 1.1400032090925691
3.87751603127 0.0713514734080904 0.087249142763503 -2.61932411022826 1.3668917560939728 2.050055466436567 -0.520000050553151 1.1400032090925691
3.88750195503 0.0713514734080904 0.087249142763503 -2.61932411022826 1.3668917560939728 2.050055466436567 -0.520000050553151 1.1400032090925691
3.88750195503 0.0713514734080904 0.087249142763503 -2.61932411022826 1.3668917560939728 2.050055466436567 -0.520000050553151 1.1400032090925691
3.89746403694 0.0713514734080904 0.087249142763503 -2.61932411022826 1.3668917560939728 2.050055466436567 -0.520000050553151 1.1400032090925691
3.89746403694 0.0713514734080904 0.087249142763503 -2.61932411022826 1.3668917560939728 2.050055466436567 -0.520000050553151 1.1400032090925691
3.90748810768 0.0713514734080904 0.087249142763503 -2.61932411022826 1.3668917560939728 2.050055466436567 -0.520000050553151 1.1400032090925691
3.90748810768 0.0713514734080904 0.087249142763503 -2.61932411022826 1.3668917560939728 2.050055466436567 -0.520000050553151 1.1400032090925691
3.91753411293 0.0713514734080904 0.087249142763503 -2.61932411022826 1.3668917560939728 2.050055466436567 -0.520000050553151 1.1400032090925691
3.91753411293 0.0713514734080904 0.087249142763503 -2.61932411022826 1.3668917560939728 2.050055466436567 -0.520000050553151 1.1400032090925691
3.92751693726 0.0713514734080904 0.087249142763503 -2.61932411022826 1.3668917560939728 2.050055466436567 -0.520000050553151 1.1400032090925691
3.92751693726 0.0713514734080904 0.087249142763503 -2.61932411022826 1.3668917560939728 2.050055466436567 -0.520000050553151 1.1400032090925691
3.93756508827 0.0713514734080904 0.087249142763503 -2.61932411022826 1.3668917560939728 2.050055466436567 -0.520000050553151 1.1400032090925691
3.93756508827 0.0713514734080904 0.087249142763503 -2.61932411022826 1.3668917560939728 2.050055466436567 -0.520000050553151 1.1400032090925691
3.94764304161 0.0713514734080904 0.087249142763503 -2.61932411022826 1.3668917560939728 2.050055466436567 -0.520000050553151 1.1400032090925691
3.94764304161 0.0713514734080904 0.087249142763503 -2.61932411022826 1.3668917560939728 2.050055466436567 -0.520000050553151 1.1400032090925691
3.95788598061 0.0713514734080904 0.087249142763503 -2.61932411022826 1.3668917560939728 2.050055466436567 -0.520000050553151 1.1400032090925691
3.95788598061 0.0713514734080904 0.087249142763503 -2.61932411022826 1.3668917560939728 2.050055466436567 -0.520000050553151 1.1400032090925691
3.96792292595 0.0713514734080904 0.087249142763503 -2.61932411022826 1.3668917560939728 2.050055466436567 -0.520000050553151 1.1400032090925691
3.96792292595 0.0713514734080904 0.087249142763503 -2.61932411022826 1.3668917560939728 2.050055466436567 -0.520000050553151 1.1400032090925691
3.97794604301 0.0713514734080904 0.087249142763503 -2.61932411022826 1.3668917560939728 2.050055466436567 -0.520000050553151 1.1400032090925691
3.97794604301 0.0713514734080904 0.087249142763503 -2.61932411022826 1.3668917560939728 2.050055466436567 -0.520000050553151 1.1400032090925691
3.98782205582 0.0713514734080904 0.087249142763503 -2.61932411022826 1.3668917560939728 2.050055466436567 -0.520000050553151 1.1400032090925691
3.98782205582 0.0713514734080904 0.087249142763503 -2.61932411022826 1.3668917560939728 2.050055466436567 -0.520000050553151 1.1400032090925691
3.99775195122 0.0713514734080904 0.087249142763503 -2.61932411022826 1.3668917560939728 2.050055466436567 -0.520000050553151 1.1400032090925691
3.99775195122 0.0713514734080904 0.087249142763503 -2.61932411022826 1.3668917560939728 2.050055466436567 -0.520000050553151 1.1400032090925691
4.0077419281 0.0713514734080904 0.087249142763503 -2.61932411022826 1.3668917560939728 2.050055466436567 -0.520000050553151 1.1400032090925691
4.0077419281 0.0713514734080904 0.087249142763503 -2.61932411022826 1.3668917560939728 2.050055466436567 -0.520000050553151 1.1400032090925691
4.01782011986 0.0713514734080904 0.087249142763503 -2.61932411022826 1.3668917560939728 2.050055466436567 -0.520000050553151 1.1400032090925691
4.01782011986 0.0713514734080904 0.087249142763503 -2.61932411022826 1.3668917560939728 2.050055466436567 -0.520000050553151 1.1400032090925691
4.02790498734 0.0713514734080904 0.087249142763503 -2.61932411022826 1.3668917560939728 2.050055466436567 -0.520000050553151 1.1400032090925691
4.02790498734 0.0713514734080904 0.087249142763503 -2.61932411022826 1.3668917560939728 2.050055466436567 -0.520000050553151 1.1400032090925691
4.03791689873 0.0713514734080904 0.087249142763503 -2.61932411022826 1.3668917560939728 2.050055466436567 -0.520000050553151 1.1400032090925691
4.03791689873 0.0713514734080904 0.087249142763503 -2.61932411022826 1.3668917560939728 2.050055466436567 -0.520000050553151 1.1400032090925691
4.04782605171 0.0713514734080904 0.087249142763503 -2.61932411022826 1.3668917560939728 2.050055466436567 -0.520000050553151 1.1400032090925691
4.04782605171 0.0713514734080904 0.087249142763503 -2.61932411022826 1.3668917560939728 2.050055466436567 -0.520000050553151 1.1400032090925691
4.05795812607 0.0713514734080904 0.087249142763503 -2.61932411022826 1.3668917560939728 2.050055466436567 -0.520000050553151 1.1400032090925691
4.05795812607 0.0713514734080904 0.087249142763503 -2.61932411022826 1.3668917560939728 2.050055466436567 -0.520000050553151 1.1400032090925691
4.06799602509 0.0713514734080904 0.087249142763503 -2.61932411022826 1.3668917560939728 2.050055466436567 -0.520000050553151 1.1400032090925691
4.06799602509 0.0713514734080904 0.087249142763503 -2.61932411022826 1.3668917560939728 2.050055466436567 -0.520000050553151 1.1400032090925691
4.07788610458 0.0713514734080904 0.087249142763503 -2.61932411022826 1.3668917560939728 2.050055466436567 -0.520000050553151 1.1400032090925691
4.07788610458 0.0713514734080904 0.087249142763503 -2.61932411022826 1.3668917560939728 2.050055466436567 -0.520000050553151 1.1400032090925691
4.08794903755 0.0713514734080904 0.087249142763503 -2.61932411022826 1.3668917560939728 2.050055466436567 -0.520000050553151 1.1400032090925691
4.08794903755 0.0713514734080904 0.087249142763503 -2.61932411022826 1.3668917560939728 2.050055466436567 -0.520000050553151 1.1400032090925691
4.09795808792 0.0713514734080904 0.087249142763503 -2.61932411022826 1.3668917560939728 2.050055466436567 -0.520000050553151 1.1400032090925691
4.09795808792 0.0713514734080904 0.087249142763503 -2.61932411022826 1.3668917560939728 2.050055466436567 -0.520000050553151 1.1400032090925691
4.10794711113 0.0713514734080904 0.087249142763503 -2.61932411022826 1.3668917560939728 2.050055466436567 -0.520000050553151 1.1400032090925691
4.10794711113 0.0713514734080904 0.087249142763503 -2.61932411022826 1.3668917560939728 2.050055466436567 -0.520000050553151 1.1400032090925691
4.11792397499 0.0713514734080904 0.087249142763503 -2.61932411022826 1.3668917560939728 2.050055466436567 -0.520000050553151 1.1400032090925691
4.11792397499 0.0713514734080904 0.087249142763503 -2.61932411022826 1.3668917560939728 2.050055466436567 -0.520000050553151 1.1400032090925691
4.12796211243 0.0713514734080904 0.087249142763503 -2.61932411022826 1.3668917560939728 2.050055466436567 -0.520000050553151 1.1400032090925691
4.12796211243 0.0713514734080904 0.087249142763503 -2.61932411022826 1.3668917560939728 2.050055466436567 -0.520000050553151 1.1400032090925691
4.13796401024 0.0713514734080904 0.087249142763503 -2.61932411022826 1.3668917560939728 2.050055466436567 -0.520000050553151 1.1400032090925691
4.13796401024 0.0713514734080904 0.087249142763503 -2.61932411022826 1.3668917560939728 2.050055466436567 -0.520000050553151 1.1400032090925691
4.14771294594 0.0716429336237709 0.087249142763503 -2.604122158978816 1.3668917560939728 2.050055466436567 -0.520000050553151 1.1400032090925691
4.14771294594 0.0716429336237709 0.087249142763503 -2.604122158978816 1.3668917560939728 2.050055466436567 -0.520000050553151 1.1400032090925691
4.15838599205 0.0730542146681187 0.087249142763503 -2.4925235763958646 1.3668917560939728 2.050055466436567 -0.520000050553151 1.1400032090925691
4.15838599205 0.0731769347589 0.0872491427635 -2.47574160398 1.36689175609 2.05005546644 -0.520000050553 1.14000320909
4.16755700111 0.0732229547929865 0.087249142763503 -2.442331059253402 1.3668917560939728 2.050055466436567 -0.519995485093592 1.13999864363301
4.16755700111 0.0732229547929865 0.087249142763503 -2.442331059253402 1.3668917560939728 2.050055466436567 -0.519995485093592 1.13999864363301
4.17746901512 0.0732229547929865 0.087249142763503 -2.442331059253402 1.3668917560939728 2.050055466436567 -0.519995485093592 1.13999864363301
4.17746901512 0.0732229547929865 0.087249142763503 -2.442331059253402 1.3668917560939728 2.050055466436567 -0.519995485093592 1.13999864363301
4.18778300285 0.0732229547929865 0.087249142763503 -2.442331059253402 1.3668917560939728 2.050055466436567 -0.519995485093592 1.13999864363301
4.18778300285 0.0732229547929865 0.087249142763503 -2.442331059253402 1.3668917560939728 2.050055466436567 -0.519995485093592 1.13999864363301
4.19800901413 0.0732229547929865 0.087249142763503 -2.442331059253402 1.3668917560939728 2.050055466436567 -0.519995485093592 1.13999864363301
4.19800901413 0.0732229547929865 0.087249142763503 -2.442331059253402 1.3668917560939728 2.050055466436567 -0.519995485093592 1.13999864363301
4.20776295662 0.0732229547929865 0.087249142763503 -2.442331059253402 1.3668917560939728 2.050055466436567 -0.519995485093592 1.13999864363301
4.20776295662 0.0732229547929865 0.087249142763503 -2.442331059253402 1.3668917560939728 2.050055466436567 -0.519995485093592 1.13999864363301
4.21790099144 0.0732229547929865 0.087249142763503 -2.442331059253402 1.3668917560939728 2.050055466436567 -0.519995485093592 1.13999864363301
4.21790099144 0.0732229547929865 0.087249142763503 -2.442331059253402 1.3668917560939728 2.050055466436567 -0.519995485093592 1.13999864363301
4.22790002823 0.0732229547929865 0.087249142763503 -2.442331059253402 1.3668917560939728 2.050055466436567 -0.519995485093592 1.13999864363301
4.22790002823 0.0732229547929865 0.087249142763503 -2.442331059253402 1.3668917560939728 2.050055466436567 -0.519995485093592 1.13999864363301
4.23791313171 0.0732229547929865 0.087249142763503 -2.442331059253402 1.3668917560939728 2.050055466436567 -0.519995485093592 1.13999864363301
4.23791313171 0.0732229547929865 0.087249142763503 -2.442331059253402 1.3668917560939728 2.050055466436567 -0.519995485093592 1.13999864363301
4.24785590172 0.0732229547929865 0.087249142763503 -2.442331059253402 1.3668917560939728 2.050055466436567 -0.519995485093592 1.13999864363301
4.24785590172 0.0732229547929865 0.087249142763503 -2.442331059253402 1.3668917560939728 2.050055466436567 -0.519995485093592 1.13999864363301
4.25800204277 0.0732229547929865 0.087249142763503 -2.442331059253402 1.3668917560939728 2.050055466436567 -0.519995485093592 1.13999864363301
4.25800204277 0.0732229547929865 0.087249142763503 -2.442331059253402 1.3668917560939728 2.050055466436567 -0.519995485093592 1.13999864363301
4.26787495613 0.0732229547929865 0.087249142763503 -2.442331059253402 1.3668917560939728 2.050055466436567 -0.519995485093592 1.13999864363301
4.26787495613 0.0732229547929865 0.087249142763503 -2.442331059253402 1.3668917560939728 2.050055466436567 -0.519995485093592 1.13999864363301
4.27787709236 0.0732229547929865 0.087249142763503 -2.442331059253402 1.3668917560939728 2.050055466436567 -0.519995485093592 1.13999864363301
4.27787709236 0.0732229547929865 0.087249142763503 -2.442331059253402 1.3668917560939728 2.050055466436567 -0.519995485093592 1.13999864363301
4.28790593147 0.0732229547929865 0.087249142763503 -2.442331059253402 1.3668917560939728 2.050055466436567 -0.519995485093592 1.13999864363301
4.28790593147 0.0732229547929865 0.087249142763503 -2.442331059253402 1.3668917560939728 2.050055466436567 -0.519995485093592 1.13999864363301
4.29794692993 0.0732229547929865 0.087249142763503 -2.442331059253402 1.3668917560939728 2.050055466436567 -0.519995485093592 1.13999864363301
4.29794692993 0.0732229547929865 0.087249142763503 -2.442331059253402 1.3668917560939728 2.050055466436567 -0.519995485093592 1.13999864363301
4.30802297592 0.0732229547929865 0.087249142763503 -2.442331059253402 1.3668917560939728 2.050055466436567 -0.519995485093592 1.13999864363301
4.30802297592 0.0732229547929865 0.087249142763503 -2.442331059253402 1.3668917560939728 2.050055466436567 -0.519995485093592 1.13999864363301
4.31799411774 0.0732229547929865 0.087249142763503 -2.442331059253402 1.3668917560939728 2.050055466436567 -0.519995485093592 1.13999864363301
4.31799411774 0.0732229547929865 0.087249142763503 -2.442331059253402 1.3668917560939728 2.050055466436567 -0.519995485093592 1.13999864363301
4.3280069828 0.0732229547929865 0.087249142763503 -2.442331059253402 1.3668917560939728 2.050055466436567 -0.519995485093592 1.13999864363301
4.3280069828 0.0732229547929865 0.087249142763503 -2.442331059253402 1.3668917560939728 2.050055466436567 -0.519995485093592 1.13999864363301
4.3379240036 0.0732229547929865 0.087249142763503 -2.442331059253402 1.3668917560939728 2.050055466436567 -0.519995485093592 1.13999864363301
4.3379240036 0.0732229547929865 0.087249142763503 -2.442331059253402 1.3668917560939728 2.050055466436567 -0.519995485093592 1.13999864363301
4.34790706635 0.0732229547929865 0.087249142763503 -2.442331059253402 1.3668917560939728 2.050055466436567 -0.519995485093592 1.13999864363301
4.34790706635 0.0732229547929865 0.087249142763503 -2.442331059253402 1.3668917560939728 2.050055466436567 -0.519995485093592 1.13999864363301
4.35798597336 0.0732229547929865 0.087249142763503 -2.442331059253402 1.3668917560939728 2.050055466436567 -0.519995485093592 1.13999864363301
4.35798597336 0.0732229547929865 0.087249142763503 -2.442331059253402 1.3668917560939728 2.050055466436567 -0.519995485093592 1.13999864363301
4.36773490906 0.0732229547929865 0.087249142763503 -2.442331059253402 1.3668917560939728 2.050055466436567 -0.519995485093592 1.13999864363301
4.36773490906 0.0732229547929865 0.087249142763503 -2.442331059253402 1.3668917560939728 2.050055466436567 -0.519995485093592 1.13999864363301
4.37797093391 0.0732229547929865 0.087249142763503 -2.442331059253402 1.3668917560939728 2.050055466436567 -0.519995485093592 1.13999864363301
4.37797093391 0.0732229547929865 0.087249142763503 -2.442331059253402 1.3668917560939728 2.050055466436567 -0.519995485093592 1.13999864363301
4.38786005974 0.0732229547929865 0.087249142763503 -2.442331059253402 1.3668917560939728 2.050055466436567 -0.519995485093592 1.13999864363301
4.38786005974 0.0732229547929865 0.087249142763503 -2.442331059253402 1.3668917560939728 2.050055466436567 -0.519995485093592 1.13999864363301
4.39793992043 0.0732229547929865 0.087249142763503 -2.442331059253402 1.3668917560939728 2.050055466436567 -0.519995485093592 1.13999864363301
4.39793992043 0.0732229547929865 0.087249142763503 -2.442331059253402 1.3668917560939728 2.050055466436567 -0.519995485093592 1.13999864363301
4.40790295601 0.0732229547929865 0.087249142763503 -2.442331059253402 1.3668917560939728 2.050055466436567 -0.519995485093592 1.13999864363301
4.40790295601 0.0732229547929865 0.087249142763503 -2.442331059253402 1.3668917560939728 2.050055466436567 -0.519995485093592 1.13999864363301
4.41790008545 0.0732229547929865 0.087249142763503 -2.442331059253402 1.3668917560939728 2.050055466436567 -0.519995485093592 1.13999864363301
4.41790008545 0.0732229547929865 0.087249142763503 -2.442331059253402 1.3668917560939728 2.050055466436567 -0.519995485093592 1.13999864363301
4.42793393135 0.0732229547929865 0.087249142763503 -2.442331059253402 1.3668917560939728 2.050055466436567 -0.519995485093592 1.13999864363301
4.42793393135 0.0732229547929865 0.087249142763503 -2.442331059253402 1.3668917560939728 2.050055466436567 -0.519995485093592 1.13999864363301
4.43794107437 0.0732229547929865 0.087249142763503 -2.442331059253402 1.3668917560939728 2.050055466436567 -0.519995485093592 1.13999864363301
4.43794107437 0.0732229547929865 0.087249142763503 -2.442331059253402 1.3668917560939728 2.050055466436567 -0.519995485093592 1.13999864363301
4.44795298576 0.0732229547929865 0.087249142763503 -2.442331059253402 1.3668917560939728 2.050055466436567 -0.519995485093592 1.13999864363301
4.44795298576 0.0732229547929865 0.087249142763503 -2.442331059253402 1.3668917560939728 2.050055466436567 -0.519995485093592 1.13999864363301
4.45795702934 0.0732229547929865 0.087249142763503 -2.442331059253402 1.3668917560939728 2.050055466436567 -0.519995485093592 1.13999864363301
4.45795702934 0.0732229547929865 0.087249142763503 -2.442331059253402 1.3668917560939728 2.050055466436567 -0.519995485093592 1.13999864363301
4.46789503098 0.0732229547929865 0.087249142763503 -2.442331059253402 1.3668917560939728 2.050055466436567 -0.519995485093592 1.13999864363301
4.46789503098 0.0732229547929865 0.087249142763503 -2.442331059253402 1.3668917560939728 2.050055466436567 -0.519995485093592 1.13999864363301
4.47800207138 0.0732229547929865 0.087249142763503 -2.442331059253402 1.3668917560939728 2.050055466436567 -0.519995485093592 1.13999864363301
4.47800207138 0.0732229547929865 0.087249142763503 -2.442331059253402 1.3668917560939728 2.050055466436567 -0.519995485093592 1.13999864363301
4.48787903786 0.0732229547929865 0.087249142763503 -2.442331059253402 1.3668917560939728 2.050055466436567 -0.519995485093592 1.13999864363301
4.48787903786 0.0732229547929865 0.087249142763503 -2.442331059253402 1.3668917560939728 2.050055466436567 -0.519995485093592 1.13999864363301
4.4979801178 0.0732229547929865 0.087249142763503 -2.442331059253402 1.3668917560939728 2.050055466436567 -0.519995485093592 1.13999864363301
4.4979801178 0.0732229547929865 0.087249142763503 -2.442331059253402 1.3668917560939728 2.050055466436567 -0.519995485093592 1.13999864363301
4.50797200203 0.0732229547929865 0.087249142763503 -2.442331059253402 1.3668917560939728 2.050055466436567 -0.519995485093592 1.13999864363301
4.50797200203 0.0732229547929865 0.087249142763503 -2.442331059253402 1.3668917560939728 2.050055466436567 -0.519995485093592 1.13999864363301
4.51781606674 0.0732229547929865 0.087249142763503 -2.442331059253402 1.3668917560939728 2.050055466436567 -0.519995485093592 1.13999864363301
4.51781606674 0.0732229547929865 0.087249142763503 -2.442331059253402 1.3668917560939728 2.050055466436567 -0.519995485093592 1.13999864363301
4.52790594101 0.0732229547929865 0.087249142763503 -2.442331059253402 1.3668917560939728 2.050055466436567 -0.519995485093592 1.13999864363301
4.52790594101 0.0732229547929865 0.087249142763503 -2.442331059253402 1.3668917560939728 2.050055466436567 -0.519995485093592 1.13999864363301
4.53793501854 0.0732229547929865 0.087249142763503 -2.442331059253402 1.3668917560939728 2.050055466436567 -0.519995485093592 1.13999864363301
4.53793501854 0.0732229547929865 0.087249142763503 -2.442331059253402 1.3668917560939728 2.050055466436567 -0.519995485093592 1.13999864363301
4.54798102379 0.0732229547929865 0.087249142763503 -2.442331059253402 1.3668917560939728 2.050055466436567 -0.519995485093592 1.13999864363301
4.54798102379 0.0732229547929865 0.087249142763503 -2.442331059253402 1.3668917560939728 2.050055466436567 -0.519995485093592 1.13999864363301
4.5579419136 0.0732229547929865 0.087249142763503 -2.442331059253402 1.3668917560939728 2.050055466436567 -0.519995485093592 1.13999864363301
4.5579419136 0.0732229547929865 0.087249142763503 -2.442331059253402 1.3668917560939728 2.050055466436567 -0.519995485093592 1.13999864363301
4.56785011292 0.0732229547929865 0.087249142763503 -2.442331059253402 1.3668917560939728 2.050055466436567 -0.519995485093592 1.13999864363301
4.56785011292 0.0732229547929865 0.087249142763503 -2.442331059253402 1.3668917560939728 2.050055466436567 -0.519995485093592 1.13999864363301
4.57802391052 0.0732229547929865 0.087249142763503 -2.442331059253402 1.3668917560939728 2.050055466436567 -0.519995485093592 1.13999864363301
4.57802391052 0.0732229547929865 0.087249142763503 -2.442331059253402 1.3668917560939728 2.050055466436567 -0.519995485093592 1.13999864363301
4.5877559185 0.0732229547929865 0.087249142763503 -2.442331059253402 1.3668917560939728 2.050055466436567 -0.519995485093592 1.13999864363301
4.5877559185 0.0732229547929865 0.087249142763503 -2.442331059253402 1.3668917560939728 2.050055466436567 -0.519995485093592 1.13999864363301
4.5979321003 0.0732229547929865 0.087249142763503 -2.442331059253402 1.3668917560939728 2.050055466436567 -0.519995485093592 1.13999864363301
4.5979321003 0.0732229547929865 0.087249142763503 -2.442331059253402 1.3668917560939728 2.050055466436567 -0.519995485093592 1.13999864363301
4.6079659462 0.0732229547929865 0.087249142763503 -2.442331059253402 1.3668917560939728 2.050055466436567 -0.519995485093592 1.13999864363301
4.6079659462 0.0732229547929865 0.087249142763503 -2.442331059253402 1.3668917560939728 2.050055466436567 -0.519995485093592 1.13999864363301
4.61796808243 0.0732229547929865 0.087249142763503 -2.442331059253402 1.3668917560939728 2.050055466436567 -0.519995485093592 1.13999864363301
4.61796808243 0.0732229547929865 0.087249142763503 -2.442331059253402 1.3668917560939728 2.050055466436567 -0.519995485093592 1.13999864363301
4.62794995308 0.0732229547929865 0.087249142763503 -2.442331059253402 1.3668917560939728 2.050055466436567 -0.519995485093592 1.13999864363301
4.62794995308 0.0732229547929865 0.087249142763503 -2.442331059253402 1.3668917560939728 2.050055466436567 -0.519995485093592 1.13999864363301
4.6378030777 0.0732229547929865 0.087249142763503 -2.442331059253402 1.3668917560939728 2.050055466436567 -0.519995485093592 1.13999864363301
4.6378030777 0.0732229547929865 0.087249142763503 -2.442331059253402 1.3668917560939728 2.050055466436567 -0.519995485093592 1.13999864363301
4.64795613289 0.0732229547929865 0.087249142763503 -2.442331059253402 1.3668917560939728 2.050055466436567 -0.519995485093592 1.13999864363301
4.64795613289 0.0732229547929865 0.087249142763503 -2.442331059253402 1.3668917560939728 2.050055466436567 -0.519995485093592 1.13999864363301
4.6579310894 0.0732229547929865 0.087249142763503 -2.442331059253402 1.3668917560939728 2.050055466436567 -0.519995485093592 1.13999864363301
4.6579310894 0.0732229547929865 0.087249142763503 -2.442331059253402 1.3668917560939728 2.050055466436567 -0.519995485093592 1.13999864363301
4.66792392731 0.0732229547929865 0.087249142763503 -2.442331059253402 1.3668917560939728 2.050055466436567 -0.519995485093592 1.13999864363301
4.66792392731 0.0732229547929865 0.087249142763503 -2.442331059253402 1.3668917560939728 2.050055466436567 -0.519995485093592 1.13999864363301
4.6779499054 0.0732229547929865 0.087249142763503 -2.442331059253402 1.3668917560939728 2.050055466436567 -0.519995485093592 1.13999864363301
4.6779499054 0.0732229547929865 0.087249142763503 -2.442331059253402 1.3668917560939728 2.050055466436567 -0.519995485093592 1.13999864363301
4.68794894218 0.0732229547929865 0.087249142763503 -2.442331059253402 1.3668917560939728 2.050055466436567 -0.519995485093592 1.13999864363301
4.68794894218 0.0732229547929865 0.087249142763503 -2.442331059253402 1.3668917560939728 2.050055466436567 -0.519995485093592 1.13999864363301
4.69783592224 0.0732229547929865 0.087249142763503 -2.442331059253402 1.3668917560939728 2.050055466436567 -0.519995485093592 1.13999864363301
4.69783592224 0.0732229547929865 0.087249142763503 -2.442331059253402 1.3668917560939728 2.050055466436567 -0.519995485093592 1.13999864363301
4.7079410553 0.0732229547929865 0.087249142763503 -2.442331059253402 1.3668917560939728 2.050055466436567 -0.519995485093592 1.13999864363301
4.7079410553 0.0732229547929865 0.087249142763503 -2.442331059253402 1.3668917560939728 2.050055466436567 -0.519995485093592 1.13999864363301
4.7179980278 0.0732229547929865 0.087249142763503 -2.442331059253402 1.3668917560939728 2.050055466436567 -0.519995485093592 1.13999864363301
4.7179980278 0.0732229547929865 0.087249142763503 -2.442331059253402 1.3668917560939728 2.050055466436567 -0.519995485093592 1.13999864363301
4.72789406776 0.0732229547929865 0.087249142763503 -2.442331059253402 1.3668917560939728 2.050055466436567 -0.519995485093592 1.13999864363301
4.72789406776 0.0732229547929865 0.087249142763503 -2.442331059253402 1.3668917560939728 2.050055466436567 -0.519995485093592 1.13999864363301
4.73794198036 0.0732229547929865 0.087249142763503 -2.442331059253402 1.3668917560939728 2.050055466436567 -0.519995485093592 1.13999864363301
4.73794198036 0.0732229547929865 0.087249142763503 -2.442331059253402 1.3668917560939728 2.050055466436567 -0.519995485093592 1.13999864363301
4.74781894684 0.0732229547929865 0.087249142763503 -2.442331059253402 1.3668917560939728 2.050055466436567 -0.519995485093592 1.13999864363301
4.74781894684 0.0732229547929865 0.087249142763503 -2.442331059253402 1.3668917560939728 2.050055466436567 -0.519995485093592 1.13999864363301
4.75798892975 0.0732229547929865 0.087249142763503 -2.442331059253402 1.3668917560939728 2.050055466436567 -0.519995485093592 1.13999864363301
4.75798892975 0.0732229547929865 0.087249142763503 -2.442331059253402 1.3668917560939728 2.050055466436567 -0.519995485093592 1.13999864363301
4.76776695251 0.0732229547929865 0.087249142763503 -2.442331059253402 1.3668917560939728 2.050055466436567 -0.519995485093592 1.13999864363301
4.76776695251 0.0732229547929865 0.087249142763503 -2.442331059253402 1.3668917560939728 2.050055466436567 -0.519995485093592 1.13999864363301
4.77793598175 0.0732229547929865 0.087249142763503 -2.442331059253402 1.3668917560939728 2.050055466436567 -0.519995485093592 1.13999864363301
4.77793598175 0.0732229547929865 0.087249142763503 -2.442331059253402 1.3668917560939728 2.050055466436567 -0.519995485093592 1.13999864363301
4.78796505928 0.0732229547929865 0.087249142763503 -2.442331059253402 1.3668917560939728 2.050055466436567 -0.519995485093592 1.13999864363301
4.78796505928 0.0732229547929865 0.087249142763503 -2.442331059253402 1.3668917560939728 2.050055466436567 -0.519995485093592 1.13999864363301
4.79800510406 0.0732229547929865 0.087249142763503 -2.442331059253402 1.3668917560939728 2.050055466436567 -0.519995485093592 1.13999864363301
4.79800510406 0.0732229547929865 0.087249142763503 -2.442331059253402 1.3668917560939728 2.050055466436567 -0.519995485093592 1.13999864363301
4.80798697472 0.0732229547929865 0.087249142763503 -2.442331059253402 1.3668917560939728 2.050055466436567 -0.519995485093592 1.13999864363301
4.80798697472 0.0732229547929865 0.087249142763503 -2.442331059253402 1.3668917560939728 2.050055466436567 -0.519995485093592 1.13999864363301
4.81798911095 0.0732229547929865 0.087249142763503 -2.442331059253402 1.3668917560939728 2.050055466436567 -0.519995485093592 1.13999864363301
4.81798911095 0.0732229547929865 0.087249142763503 -2.442331059253402 1.3668917560939728 2.050055466436567 -0.519995485093592 1.13999864363301
4.82796812057 0.0732229547929865 0.087249142763503 -2.442331059253402 1.3668917560939728 2.050055466436567 -0.519995485093592 1.13999864363301
4.82796812057 0.0732229547929865 0.087249142763503 -2.442331059253402 1.3668917560939728 2.050055466436567 -0.519995485093592 1.13999864363301
4.83797907829 0.0732229547929865 0.087249142763503 -2.442331059253402 1.3668917560939728 2.050055466436567 -0.519995485093592 1.13999864363301
4.83797907829 0.0732229547929865 0.087249142763503 -2.442331059253402 1.3668917560939728 2.050055466436567 -0.519995485093592 1.13999864363301
4.84811401367 0.0732229547929865 0.087249142763503 -2.442331059253402 1.3668917560939728 2.050055466436567 -0.519995485093592 1.13999864363301
4.84811401367 0.0732229547929865 0.087249142763503 -2.442331059253402 1.3668917560939728 2.050055466436567 -0.519995485093592 1.13999864363301
4.85775494576 0.0732229547929865 0.087249142763503 -2.442331059253402 1.3668917560939728 2.050055466436567 -0.519995485093592 1.13999864363301
4.85775494576 0.0732229547929865 0.087249142763503 -2.442331059253402 1.3668917560939728 2.050055466436567 -0.519995485093592 1.13999864363301
4.86790108681 0.0732229547929865 0.087249142763503 -2.442331059253402 1.3668917560939728 2.050055466436567 -0.519995485093592 1.13999864363301
4.86790108681 0.0732229547929865 0.087249142763503 -2.442331059253402 1.3668917560939728 2.050055466436567 -0.519995485093592 1.13999864363301
4.87790608406 0.0732229547929865 0.087249142763503 -2.442331059253402 1.3668917560939728 2.050055466436567 -0.519995485093592 1.13999864363301
4.87790608406 0.0732229547929865 0.087249142763503 -2.442331059253402 1.3668917560939728 2.050055466436567 -0.519995485093592 1.13999864363301
4.88793992996 0.0732229547929865 0.087249142763503 -2.442331059253402 1.3668917560939728 2.050055466436567 -0.519995485093592 1.13999864363301
4.88793992996 0.0732229547929865 0.087249142763503 -2.442331059253402 1.3668917560939728 2.050055466436567 -0.519995485093592 1.13999864363301
4.89797306061 0.0732229547929865 0.087249142763503 -2.442331059253402 1.3668917560939728 2.050055466436567 -0.519995485093592 1.13999864363301
4.89797306061 0.0732229547929865 0.087249142763503 -2.442331059253402 1.3668917560939728 2.050055466436567 -0.519995485093592 1.13999864363301
4.90795898438 0.0732229547929865 0.087249142763503 -2.442331059253402 1.3668917560939728 2.050055466436567 -0.519995485093592 1.13999864363301
4.90795898438 0.0732229547929865 0.087249142763503 -2.442331059253402 1.3668917560939728 2.050055466436567 -0.519995485093592 1.13999864363301
4.91792201996 0.0732229547929865 0.087249142763503 -2.442331059253402 1.3668917560939728 2.050055466436567 -0.519995485093592 1.13999864363301
4.91792201996 0.0732229547929865 0.087249142763503 -2.442331059253402 1.3668917560939728 2.050055466436567 -0.519995485093592 1.13999864363301
4.92793703079 0.0732229547929865 0.087249142763503 -2.442331059253402 1.3668917560939728 2.050055466436567 -0.519995485093592 1.13999864363301
4.92793703079 0.0732229547929865 0.087249142763503 -2.442331059253402 1.3668917560939728 2.050055466436567 -0.519995485093592 1.13999864363301
4.93796300888 0.0732229547929865 0.087249142763503 -2.442331059253402 1.3668917560939728 2.050055466436567 -0.519995485093592 1.13999864363301
4.93796300888 0.0732229547929865 0.087249142763503 -2.442331059253402 1.3668917560939728 2.050055466436567 -0.519995485093592 1.13999864363301
4.9478559494 0.0732229547929865 0.087249142763503 -2.442331059253402 1.3668917560939728 2.050055466436567 -0.519995485093592 1.13999864363301
4.9478559494 0.0732229547929865 0.087249142763503 -2.442331059253402 1.3668917560939728 2.050055466436567 -0.519995485093592 1.13999864363301
4.95802307129 0.0732229547929865 0.087249142763503 -2.442331059253402 1.3668917560939728 2.050055466436567 -0.519995485093592 1.13999864363301
4.95802307129 0.0732229547929865 0.087249142763503 -2.442331059253402 1.3668917560939728 2.050055466436567 -0.519995485093592 1.13999864363301
4.96793794632 0.0732229547929865 0.087249142763503 -2.442331059253402 1.3668917560939728 2.050055466436567 -0.519995485093592 1.13999864363301
4.96793794632 0.0732229547929865 0.087249142763503 -2.442331059253402 1.3668917560939728 2.050055466436567 -0.519995485093592 1.13999864363301
4.97802305222 0.0732229547929865 0.087249142763503 -2.442331059253402 1.3668917560939728 2.050055466436567 -0.519995485093592 1.13999864363301
4.97802305222 0.0732229547929865 0.087249142763503 -2.442331059253402 1.3668917560939728 2.050055466436567 -0.519995485093592 1.13999864363301
4.98795008659 0.0732229547929865 0.087249142763503 -2.442331059253402 1.3668917560939728 2.050055466436567 -0.519995485093592 1.13999864363301
4.98795008659 0.0732229547929865 0.087249142763503 -2.442331059253402 1.3668917560939728 2.050055466436567 -0.519995485093592 1.13999864363301
4.99797797203 0.0732229547929865 0.087249142763503 -2.442331059253402 1.3668917560939728 2.050055466436567 -0.519995485093592 1.13999864363301
4.99797797203 0.0732229547929865 0.087249142763503 -2.442331059253402 1.3668917560939728 2.050055466436567 -0.519995485093592 1.13999864363301
5.00795507431 0.0732229547929865 0.087249142763503 -2.442331059253402 1.3668917560939728 2.050055466436567 -0.519995485093592 1.13999864363301
5.00795507431 0.0732229547929865 0.087249142763503 -2.442331059253402 1.3668917560939728 2.050055466436567 -0.519995485093592 1.13999864363301
5.01780509949 0.0732229547929865 0.087249142763503 -2.442331059253402 1.3668917560939728 2.050055466436567 -0.519995485093592 1.13999864363301
5.01780509949 0.0732229547929865 0.087249142763503 -2.442331059253402 1.3668917560939728 2.050055466436567 -0.519995485093592 1.13999864363301
5.02792811394 0.0732229547929865 0.087249142763503 -2.442331059253402 1.3668917560939728 2.050055466436567 -0.519995485093592 1.13999864363301
5.02792811394 0.0732229547929865 0.087249142763503 -2.442331059253402 1.3668917560939728 2.050055466436567 -0.519995485093592 1.13999864363301
5.0378510952 0.0732229547929865 0.087249142763503 -2.442331059253402 1.3668917560939728 2.050055466436567 -0.519995485093592 1.13999864363301
5.0378510952 0.0732229547929865 0.087249142763503 -2.442331059253402 1.3668917560939728 2.050055466436567 -0.519995485093592 1.13999864363301
5.04796791077 0.0732229547929865 0.087249142763503 -2.442331059253402 1.3668917560939728 2.050055466436567 -0.519995485093592 1.13999864363301
5.04796791077 0.0732229547929865 0.087249142763503 -2.442331059253402 1.3668917560939728 2.050055466436567 -0.519995485093592 1.13999864363301
5.05796408653 0.0732229547929865 0.087249142763503 -2.442331059253402 1.3668917560939728 2.050055466436567 -0.519995485093592 1.13999864363301
5.05796408653 0.0732229547929865 0.087249142763503 -2.442331059253402 1.3668917560939728 2.050055466436567 -0.519995485093592 1.13999864363301
5.06792712212 0.0732229547929865 0.087249142763503 -2.442331059253402 1.3668917560939728 2.050055466436567 -0.519995485093592 1.13999864363301
5.06792712212 0.0732229547929865 0.087249142763503 -2.442331059253402 1.3668917560939728 2.050055466436567 -0.519995485093592 1.13999864363301
5.07796597481 0.0732229547929865 0.087249142763503 -2.442331059253402 1.3668917560939728 2.050055466436567 -0.519995485093592 1.13999864363301
5.07796597481 0.0732229547929865 0.087249142763503 -2.442331059253402 1.3668917560939728 2.050055466436567 -0.519995485093592 1.13999864363301
5.08796811104 0.0732229547929865 0.087249142763503 -2.442331059253402 1.3668917560939728 2.050055466436567 -0.519995485093592 1.13999864363301
5.08796811104 0.0732229547929865 0.087249142763503 -2.442331059253402 1.3668917560939728 2.050055466436567 -0.519995485093592 1.13999864363301
5.09787797928 0.0732229547929865 0.087249142763503 -2.442331059253402 1.3668917560939728 2.050055466436567 -0.519995485093592 1.13999864363301
5.09787797928 0.0732229547929865 0.087249142763503 -2.442331059253402 1.3668917560939728 2.050055466436567 -0.519995485093592 1.13999864363301
5.10785913467 0.0732229547929865 0.087249142763503 -2.442331059253402 1.3668917560939728 2.050055466436567 -0.519995485093592 1.13999864363301
5.10785913467 0.0732229547929865 0.087249142763503 -2.442331059253402 1.3668917560939728 2.050055466436567 -0.519995485093592 1.13999864363301
5.11785197258 0.0732229547929865 0.087249142763503 -2.442331059253402 1.3668917560939728 2.050055466436567 -0.519995485093592 1.13999864363301
5.11785197258 0.0732229547929865 0.087249142763503 -2.442331059253402 1.3668917560939728 2.050055466436567 -0.519995485093592 1.13999864363301
5.12796807289 0.0732229547929865 0.087249142763503 -2.442331059253402 1.3668917560939728 2.050055466436567 -0.519995485093592 1.13999864363301
5.12796807289 0.0732229547929865 0.087249142763503 -2.442331059253402 1.3668917560939728 2.050055466436567 -0.519995485093592 1.13999864363301
5.13792204857 0.0732229547929865 0.087249142763503 -2.442331059253402 1.3668917560939728 2.050055466436567 -0.519995485093592 1.13999864363301
5.13792204857 0.0732229547929865 0.087249142763503 -2.442331059253402 1.3668917560939728 2.050055466436567 -0.519995485093592 1.13999864363301
5.14793610573 0.0732229547929865 0.087249142763503 -2.442331059253402 1.3668917560939728 2.050055466436567 -0.519995485093592 1.13999864363301
5.14793610573 0.0732229547929865 0.087249142763503 -2.442331059253402 1.3668917560939728 2.050055466436567 -0.519995485093592 1.13999864363301
5.15781211853 0.0732229547929865 0.087249142763503 -2.442331059253402 1.3668917560939728 2.050055466436567 -0.519995485093592 1.13999864363301
5.15781211853 0.0732229547929865 0.087249142763503 -2.442331059253402 1.3668917560939728 2.050055466436567 -0.519995485093592 1.13999864363301
5.16798496246 0.0732229547929865 0.087249142763503 -2.442331059253402 1.3668917560939728 2.050055466436567 -0.519995485093592 1.13999864363301
5.16798496246 0.0732229547929865 0.087249142763503 -2.442331059253402 1.3668917560939728 2.050055466436567 -0.519995485093592 1.13999864363301
5.17799210548 0.0732229547929865 0.087249142763503 -2.442331059253402 1.3668917560939728 2.050055466436567 -0.519995485093592 1.13999864363301
5.17799210548 0.0732229547929865 0.087249142763503 -2.442331059253402 1.3668917560939728 2.050055466436567 -0.519995485093592 1.13999864363301
5.18781900406 0.0732229547929865 0.087249142763503 -2.442331059253402 1.3668917560939728 2.050055466436567 -0.519995485093592 1.13999864363301
5.18781900406 0.0732229547929865 0.087249142763503 -2.442331059253402 1.3668917560939728 2.050055466436567 -0.519995485093592 1.13999864363301
5.19801592827 0.0732229547929865 0.087249142763503 -2.442331059253402 1.3668917560939728 2.050055466436567 -0.519995485093592 1.13999864363301
5.19801592827 0.0732229547929865 0.087249142763503 -2.442331059253402 1.3668917560939728 2.050055466436567 -0.519995485093592 1.13999864363301
5.20796895027 0.0732229547929865 0.087249142763503 -2.442331059253402 1.3668917560939728 2.050055466436567 -0.519995485093592 1.13999864363301
5.20796895027 0.0732229547929865 0.087249142763503 -2.442331059253402 1.3668917560939728 2.050055466436567 -0.519995485093592 1.13999864363301
5.2177400589 0.0732229547929865 0.087249142763503 -2.442331059253402 1.3668917560939728 2.050055466436567 -0.519995485093592 1.13999864363301
5.2177400589 0.0732229547929865 0.087249142763503 -2.442331059253402 1.3668917560939728 2.050055466436567 -0.519995485093592 1.13999864363301
5.227891922 0.0732229547929865 0.087249142763503 -2.442331059253402 1.3668917560939728 2.050055466436567 -0.519995485093592 1.13999864363301
5.227891922 0.0732229547929865 0.087249142763503 -2.442331059253402 1.3668917560939728 2.050055466436567 -0.519995485093592 1.13999864363301
5.23792290688 0.0732229547929865 0.087249142763503 -2.442331059253402 1.3668917560939728 2.050055466436567 -0.519995485093592 1.13999864363301
5.23792290688 0.0732229547929865 0.087249142763503 -2.442331059253402 1.3668917560939728 2.050055466436567 -0.519995485093592 1.13999864363301
5.24801301956 0.0732229547929865 0.087249142763503 -2.442331059253402 1.3668917560939728 2.050055466436567 -0.519995485093592 1.13999864363301
5.24801301956 0.0732229547929865 0.087249142763503 -2.442331059253402 1.3668917560939728 2.050055466436567 -0.519995485093592 1.13999864363301
5.25795102119 0.0732229547929865 0.087249142763503 -2.442331059253402 1.3668917560939728 2.050055466436567 -0.519995485093592 1.13999864363301
5.25795102119 0.0732229547929865 0.087249142763503 -2.442331059253402 1.3668917560939728 2.050055466436567 -0.519995485093592 1.13999864363301
5.26787495613 0.0732229547929865 0.087249142763503 -2.442331059253402 1.3668917560939728 2.050055466436567 -0.519995485093592 1.13999864363301
5.26787495613 0.0732229547929865 0.087249142763503 -2.442331059253402 1.3668917560939728 2.050055466436567 -0.519995485093592 1.13999864363301
5.27802205086 0.0732229547929865 0.087249142763503 -2.442331059253402 1.3668917560939728 2.050055466436567 -0.519995485093592 1.13999864363301
5.27802205086 0.0732229547929865 0.087249142763503 -2.442331059253402 1.3668917560939728 2.050055466436567 -0.519995485093592 1.13999864363301
5.28789305687 0.0732229547929865 0.087249142763503 -2.442331059253402 1.3668917560939728 2.050055466436567 -0.519995485093592 1.13999864363301
5.28789305687 0.0732229547929865 0.087249142763503 -2.442331059253402 1.3668917560939728 2.050055466436567 -0.519995485093592 1.13999864363301
5.29779100418 0.0732229547929865 0.087249142763503 -2.442331059253402 1.3668917560939728 2.050055466436567 -0.519995485093592 1.13999864363301
5.29779100418 0.0732229547929865 0.087249142763503 -2.442331059253402 1.3668917560939728 2.050055466436567 -0.519995485093592 1.13999864363301
5.30773806572 0.0732229547929865 0.087249142763503 -2.442331059253402 1.3668917560939728 2.050055466436567 -0.519995485093592 1.13999864363301
5.30773806572 0.0732229547929865 0.087249142763503 -2.442331059253402 1.3668917560939728 2.050055466436567 -0.519995485093592 1.13999864363301
5.31783008575 0.0732229547929865 0.087249142763503 -2.442331059253402 1.3668917560939728 2.050055466436567 -0.519995485093592 1.13999864363301
5.31783008575 0.0732229547929865 0.087249142763503 -2.442331059253402 1.3668917560939728 2.050055466436567 -0.519995485093592 1.13999864363301
5.32788991928 0.0732229547929865 0.087249142763503 -2.442331059253402 1.3668917560939728 2.050055466436567 -0.519995485093592 1.13999864363301
5.32788991928 0.0732229547929865 0.087249142763503 -2.442331059253402 1.3668917560939728 2.050055466436567 -0.519995485093592 1.13999864363301
5.33792710304 0.0732229547929865 0.087249142763503 -2.442331059253402 1.3668917560939728 2.050055466436567 -0.519995485093592 1.13999864363301
5.33792710304 0.0732229547929865 0.087249142763503 -2.442331059253402 1.3668917560939728 2.050055466436567 -0.519995485093592 1.13999864363301
5.34775495529 0.0732229547929865 0.087249142763503 -2.442331059253402 1.3668917560939728 2.050055466436567 -0.519995485093592 1.13999864363301
5.34775495529 0.0732229547929865 0.087249142763503 -2.442331059253402 1.3668917560939728 2.050055466436567 -0.519995485093592 1.13999864363301
5.35790705681 0.0732229547929865 0.087249142763503 -2.442331059253402 1.3668917560939728 2.050055466436567 -0.519995485093592 1.13999864363301
5.35790705681 0.0732229547929865 0.087249142763503 -2.442331059253402 1.3668917560939728 2.050055466436567 -0.519995485093592 1.13999864363301
5.3678689003 0.0732229547929865 0.087249142763503 -2.442331059253402 1.3668917560939728 2.050055466436567 -0.519995485093592 1.13999864363301
5.3678689003 0.0732229547929865 0.087249142763503 -2.442331059253402 1.3668917560939728 2.050055466436567 -0.519995485093592 1.13999864363301
5.37780809402 0.0732229547929865 0.087249142763503 -2.442331059253402 1.3668917560939728 2.050055466436567 -0.519995485093592 1.13999864363301
5.37780809402 0.0732229547929865 0.087249142763503 -2.442331059253402 1.3668917560939728 2.050055466436567 -0.519995485093592 1.13999864363301
5.38785791397 0.0732229547929865 0.087249142763503 -2.442331059253402 1.3668917560939728 2.050055466436567 -0.519995485093592 1.13999864363301
5.38785791397 0.0732229547929865 0.087249142763503 -2.442331059253402 1.3668917560939728 2.050055466436567 -0.519995485093592 1.13999864363301
5.39795708656 0.0732229547929865 0.087249142763503 -2.442331059253402 1.3668917560939728 2.050055466436567 -0.519995485093592 1.13999864363301
5.39795708656 0.0732229547929865 0.087249142763503 -2.442331059253402 1.3668917560939728 2.050055466436567 -0.519995485093592 1.13999864363301
5.40794706345 0.0732229547929865 0.087249142763503 -2.442331059253402 1.3668917560939728 2.050055466436567 -0.519995485093592 1.13999864363301
5.40794706345 0.0732229547929865 0.087249142763503 -2.442331059253402 1.3668917560939728 2.050055466436567 -0.519995485093592 1.13999864363301
5.41800713539 0.0732229547929865 0.087249142763503 -2.442331059253402 1.3668917560939728 2.050055466436567 -0.519995485093592 1.13999864363301
5.41800713539 0.0732229547929865 0.087249142763503 -2.442331059253402 1.3668917560939728 2.050055466436567 -0.519995485093592 1.13999864363301
5.42785811424 0.0732229547929865 0.087249142763503 -2.442331059253402 1.3668917560939728 2.050055466436567 -0.519995485093592 1.13999864363301
5.42785811424 0.0732229547929865 0.087249142763503 -2.442331059253402 1.3668917560939728 2.050055466436567 -0.519995485093592 1.13999864363301
5.43800711632 0.0732229547929865 0.087249142763503 -2.442331059253402 1.3668917560939728 2.050055466436567 -0.519995485093592 1.13999864363301
5.43800711632 0.0732229547929865 0.087249142763503 -2.442331059253402 1.3668917560939728 2.050055466436567 -0.519995485093592 1.13999864363301
5.44803094864 0.0732229547929865 0.087249142763503 -2.442331059253402 1.3668917560939728 2.050055466436567 -0.519995485093592 1.13999864363301
5.44803094864 0.0732229547929865 0.087249142763503 -2.442331059253402 1.3668917560939728 2.050055466436567 -0.519995485093592 1.13999864363301
5.45797204971 0.0732229547929865 0.087249142763503 -2.442331059253402 1.3668917560939728 2.050055466436567 -0.519995485093592 1.13999864363301
5.45797204971 0.0732229547929865 0.087249142763503 -2.442331059253402 1.3668917560939728 2.050055466436567 -0.519995485093592 1.13999864363301
5.46800994873 0.0732229547929865 0.087249142763503 -2.442331059253402 1.3668917560939728 2.050055466436567 -0.519995485093592 1.13999864363301
5.46800994873 0.0732229547929865 0.087249142763503 -2.442331059253402 1.3668917560939728 2.050055466436567 -0.519995485093592 1.13999864363301
5.47793197632 0.0732229547929865 0.087249142763503 -2.442331059253402 1.3668917560939728 2.050055466436567 -0.519995485093592 1.13999864363301
5.47793197632 0.0732229547929865 0.087249142763503 -2.442331059253402 1.3668917560939728 2.050055466436567 -0.519995485093592 1.13999864363301
5.48785305023 0.0732229547929865 0.087249142763503 -2.442331059253402 1.3668917560939728 2.050055466436567 -0.519995485093592 1.13999864363301
5.48785305023 0.0732229547929865 0.087249142763503 -2.442331059253402 1.3668917560939728 2.050055466436567 -0.519995485093592 1.13999864363301
5.49786806107 0.0732229547929865 0.087249142763503 -2.442331059253402 1.3668917560939728 2.050055466436567 -0.519995485093592 1.13999864363301
5.49786806107 0.0732229547929865 0.087249142763503 -2.442331059253402 1.3668917560939728 2.050055466436567 -0.519995485093592 1.13999864363301
5.50776100159 0.0732229547929865 0.087249142763503 -2.442331059253402 1.3668917560939728 2.050055466436567 -0.519995485093592 1.13999864363301
5.50776100159 0.0732229547929865 0.087249142763503 -2.442331059253402 1.3668917560939728 2.050055466436567 -0.519995485093592 1.13999864363301
5.51795005798 0.0732229547929865 0.087249142763503 -2.442331059253402 1.3668917560939728 2.050055466436567 -0.519995485093592 1.13999864363301
5.51795005798 0.0732229547929865 0.087249142763503 -2.442331059253402 1.3668917560939728 2.050055466436567 -0.519995485093592 1.13999864363301
5.52789211273 0.0732229547929865 0.087249142763503 -2.442331059253402 1.3668917560939728 2.050055466436567 -0.519995485093592 1.13999864363301
5.52789211273 0.0732229547929865 0.087249142763503 -2.442331059253402 1.3668917560939728 2.050055466436567 -0.519995485093592 1.13999864363301
5.53795003891 0.0732229547929865 0.087249142763503 -2.442331059253402 1.3668917560939728 2.050055466436567 -0.519995485093592 1.13999864363301
5.53795003891 0.0732229547929865 0.087249142763503 -2.442331059253402 1.3668917560939728 2.050055466436567 -0.519995485093592 1.13999864363301
5.54797410965 0.0732229547929865 0.087249142763503 -2.442331059253402 1.3668917560939728 2.050055466436567 -0.519995485093592 1.13999864363301
5.54797410965 0.0732229547929865 0.087249142763503 -2.442331059253402 1.3668917560939728 2.050055466436567 -0.519995485093592 1.13999864363301
5.55794596672 0.0732229547929865 0.087249142763503 -2.442331059253402 1.3668917560939728 2.050055466436567 -0.519995485093592 1.13999864363301
5.55794596672 0.0732229547929865 0.087249142763503 -2.442331059253402 1.3668917560939728 2.050055466436567 -0.519995485093592 1.13999864363301
5.56780004501 0.0732229547929865 0.087249142763503 -2.442331059253402 1.3668917560939728 2.050055466436567 -0.519995485093592 1.13999864363301
5.56780004501 0.0732229547929865 0.087249142763503 -2.442331059253402 1.3668917560939728 2.050055466436567 -0.519995485093592 1.13999864363301
5.57794213295 0.0732229547929865 0.087249142763503 -2.442331059253402 1.3668917560939728 2.050055466436567 -0.519995485093592 1.13999864363301
5.57794213295 0.0732229547929865 0.087249142763503 -2.442331059253402 1.3668917560939728 2.050055466436567 -0.519995485093592 1.13999864363301
5.58796811104 0.0732229547929865 0.087249142763503 -2.442331059253402 1.3668917560939728 2.050055466436567 -0.519995485093592 1.13999864363301
5.58796811104 0.0732229547929865 0.087249142763503 -2.442331059253402 1.3668917560939728 2.050055466436567 -0.519995485093592 1.13999864363301
5.59780192375 0.0732229547929865 0.087249142763503 -2.442331059253402 1.3668917560939728 2.050055466436567 -0.519995485093592 1.13999864363301
5.59780192375 0.0732229547929865 0.087249142763503 -2.442331059253402 1.3668917560939728 2.050055466436567 -0.519995485093592 1.13999864363301
5.60792994499 0.0732229547929865 0.087249142763503 -2.442331059253402 1.3668917560939728 2.050055466436567 -0.519995485093592 1.13999864363301
5.60792994499 0.0732229547929865 0.087249142763503 -2.442331059253402 1.3668917560939728 2.050055466436567 -0.519995485093592 1.13999864363301
5.61774110794 0.0732229547929865 0.087249142763503 -2.442331059253402 1.3668917560939728 2.050055466436567 -0.519995485093592 1.13999864363301
5.61774110794 0.0732229547929865 0.087249142763503 -2.442331059253402 1.3668917560939728 2.050055466436567 -0.519995485093592 1.13999864363301
5.62777996063 0.0732229547929865 0.087249142763503 -2.442331059253402 1.3668917560939728 2.050055466436567 -0.519995485093592 1.13999864363301
5.62777996063 0.0732229547929865 0.087249142763503 -2.442331059253402 1.3668917560939728 2.050055466436567 -0.519995485093592 1.13999864363301
5.63792705536 0.0732229547929865 0.087249142763503 -2.442331059253402 1.3668917560939728 2.050055466436567 -0.519995485093592 1.13999864363301
5.63792705536 0.0732229547929865 0.087249142763503 -2.442331059253402 1.3668917560939728 2.050055466436567 -0.519995485093592 1.13999864363301
5.64794301987 0.0732229547929865 0.087249142763503 -2.442331059253402 1.3668917560939728 2.050055466436567 -0.519995485093592 1.13999864363301
5.64794301987 0.0732229547929865 0.087249142763503 -2.442331059253402 1.3668917560939728 2.050055466436567 -0.519995485093592 1.13999864363301
5.65798997879 0.0732229547929865 0.087249142763503 -2.442331059253402 1.3668917560939728 2.050055466436567 -0.519995485093592 1.13999864363301
5.65798997879 0.0732229547929865 0.087249142763503 -2.442331059253402 1.3668917560939728 2.050055466436567 -0.519995485093592 1.13999864363301
5.66796708107 0.0732229547929865 0.087249142763503 -2.442331059253402 1.3668917560939728 2.050055466436567 -0.519995485093592 1.13999864363301
5.66796708107 0.0732229547929865 0.087249142763503 -2.442331059253402 1.3668917560939728 2.050055466436567 -0.519995485093592 1.13999864363301
5.677973032 0.0732229547929865 0.087249142763503 -2.442331059253402 1.3668917560939728 2.050055466436567 -0.519995485093592 1.13999864363301
5.677973032 0.0732229547929865 0.087249142763503 -2.442331059253402 1.3668917560939728 2.050055466436567 -0.519995485093592 1.13999864363301
5.68786096573 0.0732229547929865 0.087249142763503 -2.442331059253402 1.3668917560939728 2.050055466436567 -0.519995485093592 1.13999864363301
5.68786096573 0.0732229547929865 0.087249142763503 -2.442331059253402 1.3668917560939728 2.050055466436567 -0.519995485093592 1.13999864363301
5.69797706604 0.0732229547929865 0.087249142763503 -2.442331059253402 1.3668917560939728 2.050055466436567 -0.519995485093592 1.13999864363301
5.69797706604 0.0732229547929865 0.087249142763503 -2.442331059253402 1.3668917560939728 2.050055466436567 -0.519995485093592 1.13999864363301
5.70798492432 0.0732229547929865 0.087249142763503 -2.442331059253402 1.3668917560939728 2.050055466436567 -0.519995485093592 1.13999864363301
5.70798492432 0.0732229547929865 0.087249142763503 -2.442331059253402 1.3668917560939728 2.050055466436567 -0.519995485093592 1.13999864363301
5.7178580761 0.0732229547929865 0.087249142763503 -2.442331059253402 1.3668917560939728 2.050055466436567 -0.519995485093592 1.13999864363301
5.7178580761 0.0732229547929865 0.087249142763503 -2.442331059253402 1.3668917560939728 2.050055466436567 -0.519995485093592 1.13999864363301
5.72796010971 0.0732229547929865 0.087249142763503 -2.442331059253402 1.3668917560939728 2.050055466436567 -0.519995485093592 1.13999864363301
5.72796010971 0.0732229547929865 0.087249142763503 -2.442331059253402 1.3668917560939728 2.050055466436567 -0.519995485093592 1.13999864363301
5.73795199394 0.0732229547929865 0.087249142763503 -2.442331059253402 1.3668917560939728 2.050055466436567 -0.519995485093592 1.13999864363301
5.73795199394 0.0732229547929865 0.087249142763503 -2.442331059253402 1.3668917560939728 2.050055466436567 -0.519995485093592 1.13999864363301
5.74797511101 0.0732229547929865 0.087249142763503 -2.442331059253402 1.3668917560939728 2.050055466436567 -0.519995485093592 1.13999864363301
5.74797511101 0.0732229547929865 0.087249142763503 -2.442331059253402 1.3668917560939728 2.050055466436567 -0.519995485093592 1.13999864363301
5.75796413422 0.0732229547929865 0.087249142763503 -2.442331059253402 1.3668917560939728 2.050055466436567 -0.519995485093592 1.13999864363301
5.75796413422 0.0732229547929865 0.087249142763503 -2.442331059253402 1.3668917560939728 2.050055466436567 -0.519995485093592 1.13999864363301
5.76795291901 0.0732229547929865 0.087249142763503 -2.442331059253402 1.3668917560939728 2.050055466436567 -0.519995485093592 1.13999864363301
5.76795291901 0.0732229547929865 0.087249142763503 -2.442331059253402 1.3668917560939728 2.050055466436567 -0.519995485093592 1.13999864363301
5.77794313431 0.0732229547929865 0.087249142763503 -2.442331059253402 1.3668917560939728 2.050055466436567 -0.519995485093592 1.13999864363301
5.77794313431 0.0732229547929865 0.087249142763503 -2.442331059253402 1.3668917560939728 2.050055466436567 -0.519995485093592 1.13999864363301
5.78788709641 0.0732229547929865 0.087249142763503 -2.442331059253402 1.3668917560939728 2.050055466436567 -0.519995485093592 1.13999864363301
5.78788709641 0.0732229547929865 0.087249142763503 -2.442331059253402 1.3668917560939728 2.050055466436567 -0.519995485093592 1.13999864363301
5.79799008369 0.0732229547929865 0.087249142763503 -2.442331059253402 1.3668917560939728 2.050055466436567 -0.519995485093592 1.13999864363301
5.79799008369 0.0732229547929865 0.087249142763503 -2.442331059253402 1.3668917560939728 2.050055466436567 -0.519995485093592 1.13999864363301
5.80788207054 0.0732229547929865 0.087249142763503 -2.442331059253402 1.3668917560939728 2.050055466436567 -0.519995485093592 1.13999864363301
5.80788207054 0.0732229547929865 0.087249142763503 -2.442331059253402 1.3668917560939728 2.050055466436567 -0.519995485093592 1.13999864363301
5.81785297394 0.0732229547929865 0.087249142763503 -2.442331059253402 1.3668917560939728 2.050055466436567 -0.519995485093592 1.13999864363301
5.81785297394 0.0732229547929865 0.087249142763503 -2.442331059253402 1.3668917560939728 2.050055466436567 -0.519995485093592 1.13999864363301
5.82772994041 0.0732229547929865 0.087249142763503 -2.442331059253402 1.3668917560939728 2.050055466436567 -0.519995485093592 1.13999864363301
5.82772994041 0.0732229547929865 0.087249142763503 -2.442331059253402 1.3668917560939728 2.050055466436567 -0.519995485093592 1.13999864363301
5.83781909943 0.0732229547929865 0.087249142763503 -2.442331059253402 1.3668917560939728 2.050055466436567 -0.519995485093592 1.13999864363301
5.83781909943 0.0732229547929865 0.087249142763503 -2.442331059253402 1.3668917560939728 2.050055466436567 -0.519995485093592 1.13999864363301
5.84783792496 0.0732229547929865 0.087249142763503 -2.442331059253402 1.3668917560939728 2.050055466436567 -0.519995485093592 1.13999864363301
5.84783792496 0.0732229547929865 0.087249142763503 -2.442331059253402 1.3668917560939728 2.050055466436567 -0.519995485093592 1.13999864363301
5.85793995857 0.0732229547929865 0.087249142763503 -2.442331059253402 1.3668917560939728 2.050055466436567 -0.519995485093592 1.13999864363301
5.85793995857 0.0732229547929865 0.087249142763503 -2.442331059253402 1.3668917560939728 2.050055466436567 -0.519995485093592 1.13999864363301
5.86796092987 0.0732229547929865 0.087249142763503 -2.442331059253402 1.3668917560939728 2.050055466436567 -0.519995485093592 1.13999864363301
5.86796092987 0.0732229547929865 0.087249142763503 -2.442331059253402 1.3668917560939728 2.050055466436567 -0.519995485093592 1.13999864363301
5.87798309326 0.0732229547929865 0.087249142763503 -2.442331059253402 1.3668917560939728 2.050055466436567 -0.519995485093592 1.13999864363301
5.87798309326 0.0732229547929865 0.087249142763503 -2.442331059253402 1.3668917560939728 2.050055466436567 -0.519995485093592 1.13999864363301
5.88763904572 0.0732382948043381 0.087249142763503 -2.276704956690086 1.3668917560939728 2.050055466436567 -0.520000050553151 1.1400032090925691
5.88763904572 0.0732382948043381 0.087249142763503 -2.276704956690086 1.3668917560939728 2.050055466436567 -0.520000050553151 1.1400032090925691
5.89750599861 0.0732382948043381 0.087249142763503 -2.276704956690086 1.3668917560939728 2.050055466436567 -0.520000050553151 1.1400032090925691
5.89750599861 0.0732382948043381 0.087249142763503 -2.276704956690086 1.3668917560939728 2.050055466436567 -0.520000050553151 1.1400032090925691
5.90760111809 0.0732382948043381 0.087249142763503 -2.276704956690086 1.3668917560939728 2.050055466436567 -0.520000050553151 1.1400032090925691
5.90760111809 0.0732382948043381 0.087249142763503 -2.276704956690086 1.3668917560939728 2.050055466436567 -0.520000050553151 1.1400032090925691
5.91756391525 0.0732382948043381 0.087249142763503 -2.276704956690086 1.3668917560939728 2.050055466436567 -0.520000050553151 1.1400032090925691
5.91756391525 0.0732382948043381 0.087249142763503 -2.276704956690086 1.3668917560939728 2.050055466436567 -0.520000050553151 1.1400032090925691
5.92773795128 0.0732382948043381 0.087249142763503 -2.276704956690086 1.3668917560939728 2.050055466436567 -0.520000050553151 1.1400032090925691
5.92773795128 0.0732382948043381 0.087249142763503 -2.276704956690086 1.3668917560939728 2.050055466436567 -0.520000050553151 1.1400032090925691
5.93846511841 0.0732382948043381 0.087249142763503 -2.276704956690086 1.3668917560939728 2.050055466436567 -0.520000050553151 1.1400032090925691
5.93846511841 0.0732382948043381 0.087249142763503 -2.276704956690086 1.3668917560939728 2.050055466436567 -0.520000050553151 1.1400032090925691
