riccardo-csl/Motion-Planning-for-TIAGo-Manipulator/T3_G_7/head_scan/head_scan/tiago_traiettorie_SG/1a-2b/place_2b_rep2.txt
time arm_1_joint arm_2_joint arm_3_joint arm_4_joint arm_5_joint arm_6_joint arm_7_joint
1.33586907387 0.7848460813941003 0.0872338027521514 -1.1478335213252235 2.0728083984722883 2.050055466436567 -0.520000050553151 1.1400032090925691
1.34574913979 0.783756940588136 0.0872338027521514 -1.1478335213252235 2.073237918790133 2.050055466436567 -0.520000050553151 1.1400032090925691
1.34574913979 0.783756940588136 0.0872338027521514 -1.1478335213252235 2.073237918790133 2.050055466436567 -0.520000050553151 1.1400032090925691
1.35567212105 0.783756940588136 0.0872338027521514 -1.1478335213252235 2.073237918790133 2.050055466436567 -0.520000050553151 1.1400032090925691
1.35567212105 0.783756940588136 0.0872338027521514 -1.1478335213252235 2.073237918790133 2.050055466436567 -0.520000050553151 1.1400032090925691
1.36567306519 0.783756940588136 0.0872338027521514 -1.1478335213252235 2.073237918790133 2.050055466436567 -0.520000050553151 1.1400032090925691
1.36567306519 0.783756940588136 0.0872338027521514 -1.1478335213252235 2.073237918790133 2.050055466436567 -0.520000050553151 1.1400032090925691
1.375852108 0.783756940588136 0.0872338027521514 -1.1478335213252235 2.073237918790133 2.050055466436567 -0.520000050553151 1.1400032090925691
1.375852108 0.783756940588136 0.0872338027521514 -1.1478335213252235 2.073237918790133 2.050055466436567 -0.520000050553151 1.1400032090925691
1.38572502136 0.7831586801454233 0.0872338027521514 -1.1481403215522556 2.0743117195847462 2.050055466436567 -0.520000050553151 1.1400032090925691
1.38572502136 0.7831586801454233 0.0872338027521514 -1.1481403215522556 2.0743117195847462 2.050055466436567 -0.520000050553151 1.1400032090925691
1.39587807655 0.7831586801454233 0.0872338027521514 -1.1481403215522556 2.0743117195847462 2.050055466436567 -0.520000050553151 1.1400032090925691
1.39587807655 0.7831586801454233 0.0872338027521514 -1.1481403215522556 2.0743117195847462 2.050055466436567 -0.520000050553151 1.1400032090925691
1.40575504303 0.7831586801454233 0.0872338027521514 -1.1481403215522556 2.0743117195847462 2.050055466436567 -0.520000050553151 1.1400032090925691
1.40575504303 0.7831586801454233 0.0872338027521514 -1.1481403215522556 2.0743117195847462 2.050055466436567 -0.520000050553151 1.1400032090925691
1.41587996483 0.7831586801454233 0.0872338027521514 -1.1481403215522556 2.0743117195847462 2.050055466436567 -0.520000050553151 1.1400032090925691
1.41587996483 0.7831586801454233 0.0872338027521514 -1.1481403215522556 2.0743117195847462 2.050055466436567 -0.520000050553151 1.1400032090925691
1.4259519577 0.7831586801454233 0.0872338027521514 -1.1481403215522556 2.0743117195847462 2.050055466436567 -0.520000050553151 1.1400032090925691
1.4259519577 0.7831586801454233 0.0872338027521514 -1.1481403215522556 2.0743117195847462 2.050055466436567 -0.520000050553151 1.1400032090925691
1.43568110466 0.7831586801454233 0.0872338027521514 -1.1486465419268588 2.0745264797436684 2.050055466436567 -0.520000050553151 1.1400032090925691
1.43568110466 0.7831586801454233 0.0872338027521514 -1.1486465419268588 2.0745264797436684 2.050055466436567 -0.520000050553151 1.1400032090925691
1.44542098045 0.7831586801454233 0.0872338027521514 -1.148799942040375 2.0745724997777235 2.050055466436567 -0.520000050553151 1.1400032090925691
1.44542098045 0.7831586801454233 0.0872338027521514 -1.148799942040375 2.0745724997777235 2.050055466436567 -0.520000050553151 1.1400032090925691
1.45543408394 0.7831586801454233 0.0872338027521514 -1.148799942040375 2.0745724997777235 2.050055466436567 -0.520000050553151 1.1400032090925691
1.45543408394 0.7831586801454233 0.0872338027521514 -1.148799942040375 2.0745724997777235 2.050055466436567 -0.520000050553151 1.1400032090925691
1.4655380249 0.7831586801454233 0.0872338027521514 -1.148799942040375 2.0745724997777235 2.050055466436567 -0.520000050553151 1.1400032090925691
1.4655380249 0.7831586801454233 0.0872338027521514 -1.148799942040375 2.0745724997777235 2.050055466436567 -0.520000050553151 1.1400032090925691
1.47544598579 0.7831586801454233 0.0872338027521514 -1.148799942040375 2.0745724997777235 2.050055466436567 -0.520000050553151 1.1400032090925691
1.47544598579 0.7831586801454233 0.0872338027521514 -1.148799942040375 2.0745724997777235 2.050055466436567 -0.520000050553151 1.1400032090925691
1.48542714119 0.7831586801454233 0.0872338027521514 -1.148799942040375 2.0746952198685364 2.050055466436567 -0.519995485093592 1.13999864363301
1.48542714119 0.7831586801454233 0.0872338027521514 -1.148799942040375 2.0746952198685364 2.050055466436567 -0.519995485093592 1.13999864363301
1.49542999268 0.7831586801454233 0.0872338027521514 -1.148799942040375 2.0746952198685364 2.050055466436567 -0.519995485093592 1.13999864363301
1.49542999268 0.7831586801454233 0.0872338027521514 -1.148799942040375 2.0746952198685364 2.050055466436567 -0.519995485093592 1.13999864363301
1.5053730011 0.7831586801454233 0.0872338027521514 -1.148799942040375 2.0746952198685364 2.050055466436567 -0.519995485093592 1.13999864363301
1.5053730011 0.7831586801454233 0.0872338027521514 -1.148799942040375 2.0746952198685364 2.050055466436567 -0.519995485093592 1.13999864363301
1.51545095444 0.7831586801454233 0.0872338027521514 -1.148799942040375 2.0746952198685364 2.050055466436567 -0.519995485093592 1.13999864363301
1.51545095444 0.7831586801454233 0.0872338027521514 -1.148799942040375 2.0746952198685364 2.050055466436567 -0.519995485093592 1.13999864363301
1.52542114258 0.783174020156775 0.0872338027521514 -1.148799942040375 2.075569600515578 2.050046335517449 -0.520000050553151 1.1400032090925691
1.52542114258 0.783174020156775 0.0872338027521514 -1.148799942040375 2.075569600515578 2.050046335517449 -0.520000050553151 1.1400032090925691
1.53544807434 0.783174020156775 0.0872338027521514 -1.148799942040375 2.07596844081072 2.050055466436567 -0.5200046160127102 1.1399986436330098
1.53544807434 0.783174020156775 0.0872338027521514 -1.148799942040375 2.07596844081072 2.050055466436567 -0.5200046160127102 1.1399986436330098
1.54547715187 0.783174020156775 0.0872338027521514 -1.148799942040375 2.07596844081072 2.050055466436567 -0.5200046160127102 1.1399986436330098
1.54547715187 0.783174020156775 0.0872338027521514 -1.148799942040375 2.07596844081072 2.050055466436567 -0.5200046160127102 1.1399986436330098
1.55538702011 0.783174020156775 0.0872338027521514 -1.148799942040375 2.07596844081072 2.050055466436567 -0.5200046160127102 1.1399986436330098
1.55538702011 0.783174020156775 0.0872338027521514 -1.148799942040375 2.07596844081072 2.050055466436567 -0.5200046160127102 1.1399986436330098
1.5654361248 0.783174020156775 0.0872338027521514 -1.148799942040375 2.0764439811626194 2.050055466436567 -0.520000050553151 1.1400032090925691
1.5654361248 0.783174020156775 0.0872338027521514 -1.148799942040375 2.0764439811626194 2.050055466436567 -0.520000050553151 1.1400032090925691
1.57539105415 0.783174020156775 0.0872338027521514 -1.148799942040375 2.0764439811626194 2.050055466436567 -0.520000050553151 1.1400032090925691
1.57539105415 0.783174020156775 0.0872338027521514 -1.148799942040375 2.0764439811626194 2.050055466436567 -0.520000050553151 1.1400032090925691
1.58538293839 0.783174020156775 0.0872338027521514 -1.148799942040375 2.0764439811626194 2.050055466436567 -0.520000050553151 1.1400032090925691
1.58538293839 0.783174020156775 0.0872338027521514 -1.148799942040375 2.0764439811626194 2.050055466436567 -0.520000050553151 1.1400032090925691
1.59544110298 0.783174020156775 0.0872338027521514 -1.148799942040375 2.0764439811626194 2.050055466436567 -0.520000050553151 1.1400032090925691
1.59544110298 0.783174020156775 0.0872338027521514 -1.148799942040375 2.0764439811626194 2.050055466436567 -0.520000050553151 1.1400032090925691
1.60556197166 0.783174020156775 0.0872338027521514 -1.148799942040375 2.0764439811626194 2.050055466436567 -0.520000050553151 1.1400032090925691
1.60556197166 0.783174020156775 0.0872338027521514 -1.148799942040375 2.0764439811626194 2.050055466436567 -0.520000050553151 1.1400032090925691
1.61547112465 0.783174020156775 0.0872338027521514 -1.148799942040375 2.0764439811626194 2.050055466436567 -0.520000050553151 1.1400032090925691
1.61547112465 0.783174020156775 0.0872338027521514 -1.148799942040375 2.0764439811626194 2.050055466436567 -0.520000050553151 1.1400032090925691
1.62542700768 0.783174020156775 0.0872338027521514 -1.148799942040375 2.0764439811626194 2.050055466436567 -0.520000050553151 1.1400032090925691
1.62542700768 0.783174020156775 0.0872338027521514 -1.148799942040375 2.0764439811626194 2.050055466436567 -0.520000050553151 1.1400032090925691
1.63537716866 0.783174020156775 0.0872338027521514 -1.148799942040375 2.0764439811626194 2.050055466436567 -0.520000050553151 1.1400032090925691
1.63537716866 0.783174020156775 0.0872338027521514 -1.148799942040375 2.0764439811626194 2.050055466436567 -0.520000050553151 1.1400032090925691
1.64544916153 0.783174020156775 0.0872338027521514 -1.148799942040375 2.0764439811626194 2.050055466436567 -0.520000050553151 1.1400032090925691
1.64544916153 0.783174020156775 0.0872338027521514 -1.148799942040375 2.0764439811626194 2.050055466436567 -0.520000050553151 1.1400032090925691
1.65543794632 0.783174020156775 0.0872338027521514 -1.148799942040375 2.0764439811626194 2.050055466436567 -0.520000050553151 1.1400032090925691
1.65543794632 0.783174020156775 0.0872338027521514 -1.148799942040375 2.0764439811626194 2.050055466436567 -0.520000050553151 1.1400032090925691
1.66544508934 0.783174020156775 0.0872338027521514 -1.148799942040375 2.0764439811626194 2.050055466436567 -0.520000050553151 1.1400032090925691
1.66544508934 0.783174020156775 0.0872338027521514 -1.148799942040375 2.0764439811626194 2.050055466436567 -0.520000050553151 1.1400032090925691
1.67537212372 0.783174020156775 0.0872338027521514 -1.148799942040375 2.0764439811626194 2.050055466436567 -0.520000050553151 1.1400032090925691
1.67537212372 0.783174020156775 0.0872338027521514 -1.148799942040375 2.0764439811626194 2.050055466436567 -0.520000050553151 1.1400032090925691
1.68538498878 0.783174020156775 0.0872338027521514 -1.148799942040375 2.0764439811626194 2.050055466436567 -0.520000050553151 1.1400032090925691
1.68538498878 0.783174020156775 0.0872338027521514 -1.148799942040375 2.0764439811626194 2.050055466436567 -0.520000050553151 1.1400032090925691
1.69544911385 0.7813638988172852 0.0873565228429642 -1.151729884208532 2.077962642286429 2.050055466436567 -0.520000050553151 1.1400032090925691
1.69544911385 0.7813638988172852 0.0873565228429642 -1.151729884208532 2.077962642286429 2.050055466436567 -0.520000050553151 1.1400032090925691
1.70543503761 0.7813638988172852 0.0873565228429642 -1.151729884208532 2.077962642286429 2.050055466436567 -0.520000050553151 1.1400032090925691
1.70543503761 0.7813638988172852 0.0873565228429642 -1.151729884208532 2.077962642286429 2.050055466436567 -0.520000050553151 1.1400032090925691
1.71542310715 0.7813638988172852 0.0873565228429642 -1.151729884208532 2.077962642286429 2.050055466436567 -0.520000050553151 1.1400032090925691
1.71542310715 0.7813638988172852 0.0873565228429642 -1.151729884208532 2.077962642286429 2.050055466436567 -0.520000050553151 1.1400032090925691
1.72544002533 0.7813638988172852 0.088307603546764 -1.1715798588975133 2.079450623387535 2.050055466436567 -0.520000050553151 1.1400032090925691
1.72544002533 0.7813638988172852 0.088307603546764 -1.1715798588975133 2.079450623387535 2.050055466436567 -0.520000050553151 1.1400032090925691
1.73539805412 0.7813638988172852 0.088307603546764 -1.1715798588975133 2.079450623387535 2.050055466436567 -0.520000050553151 1.1400032090925691
1.73539805412 0.7813638988172852 0.088307603546764 -1.1715798588975133 2.079450623387535 2.050055466436567 -0.520000050553151 1.1400032090925691
1.74542307854 0.781210498703769 0.0899643247727377 -1.182057086650662 2.0794659633988863 2.050055466436567 -0.520000050553151 1.1400032090925691
1.74542307854 0.781210498703769 0.0899643247727377 -1.182057086650662 2.0794659633988863 2.050055466436567 -0.520000050553151 1.1400032090925691
1.7555141449 0.781210498703769 0.0899643247727377 -1.182057086650662 2.0794659633988863 2.050055466436567 -0.520000050553151 1.1400032090925691
1.7555141449 0.781210498703769 0.0899643247727377 -1.182057086650662 2.0794659633988863 2.050055466436567 -0.520000050553151 1.1400032090925691
1.76545715332 0.781210498703769 0.0899643247727377 -1.182057086650662 2.0794659633988863 2.050055466436567 -0.520000050553151 1.1400032090925691
1.76545715332 0.781210498703769 0.0899643247727377 -1.182057086650662 2.0794659633988863 2.050055466436567 -0.520000050553151 1.1400032090925691
1.77534794807 0.781210498703769 0.0899643247727377 -1.182057086650662 2.0794659633988863 2.050055466436567 -0.520000050553151 1.1400032090925691
1.77534794807 0.781210498703769 0.0899643247727377 -1.182057086650662 2.0794659633988863 2.050055466436567 -0.520000050553151 1.1400032090925691
1.78543901443 0.7803667980794305 0.0934925273836076 -1.1984402187741796 2.079558003466996 2.050055466436567 -0.520000050553151 1.1400032090925691
1.78543901443 0.7803667980794305 0.0934925273836076 -1.1984402187741796 2.079558003466996 2.050055466436567 -0.520000050553151 1.1400032090925691
1.79559803009 0.7803667980794305 0.0934925273836076 -1.1984402187741796 2.079558003466996 2.050055466436567 -0.520000050553151 1.1400032090925691
1.79559803009 0.7803667980794305 0.0934925273836076 -1.1984402187741796 2.079558003466996 2.050055466436567 -0.520000050553151 1.1400032090925691
1.80545902252 0.7803667980794305 0.0934925273836076 -1.1984402187741796 2.079558003466996 2.050055466436567 -0.520000050553151 1.1400032090925691
1.80545902252 0.7803667980794305 0.0934925273836076 -1.1984402187741796 2.079558003466996 2.050055466436567 -0.520000050553151 1.1400032090925691
1.81543898582 0.7802594179999693 0.0944742881101105 -1.2036251426110232 2.079558003466996 2.050055466436567 -0.520000050553151 1.1400032090925691
1.81543898582 0.7802594179999693 0.0944742881101105 -1.2036251426110232 2.079558003466996 2.050055466436567 -0.520000050553151 1.1400032090925691
1.82541394234 0.7802594179999693 0.0944742881101105 -1.2036251426110232 2.079558003466996 2.050055466436567 -0.520000050553151 1.1400032090925691
1.82541394234 0.7802594179999693 0.0944742881101105 -1.2036251426110232 2.079558003466996 2.050055466436567 -0.520000050553151 1.1400032090925691
1.83542299271 0.7802594179999693 0.0944742881101105 -1.2036251426110232 2.079558003466996 2.050055466436567 -0.520000050553151 1.1400032090925691
1.83542299271 0.7802594179999693 0.0944742881101105 -1.2036251426110232 2.079558003466996 2.050055466436567 -0.520000050553151 1.1400032090925691
1.84553003311 0.7802594179999693 0.0944742881101105 -1.2036251426110232 2.079558003466996 2.050055466436567 -0.520000050553151 1.1400032090925691
1.84553003311 0.7802594179999693 0.0944742881101105 -1.2036251426110232 2.079558003466996 2.050055466436567 -0.520000050553151 1.1400032090925691
1.85541415215 0.7802594179999693 0.0944742881101105 -1.2036251426110232 2.079558003466996 2.050055466436567 -0.520000050553151 1.1400032090925691
1.85541415215 0.7802594179999693 0.0944742881101105 -1.2036251426110232 2.079558003466996 2.050055466436567 -0.520000050553151 1.1400032090925691
1.86544299126 0.7802594179999693 0.0944742881101105 -1.2036251426110232 2.079558003466996 2.050055466436567 -0.520000050553151 1.1400032090925691
1.86544299126 0.7802594179999693 0.0944742881101105 -1.2036251426110232 2.079558003466996 2.050055466436567 -0.520000050553151 1.1400032090925691
1.87545895576 0.7802440779886177 0.0952719687003942 -1.2085186062321864 2.079573343478348 2.050046335517449 -0.520000050553151 1.1400032090925691
1.87545895576 0.7802440779886177 0.0952719687003942 -1.2085186062321864 2.079573343478348 2.050046335517449 -0.520000050553151 1.1400032090925691
1.88539600372 0.7802440779886177 0.0952719687003942 -1.2085186062321864 2.079573343478348 2.050046335517449 -0.520000050553151 1.1400032090925691
1.88539600372 0.7802440779886177 0.0952719687003942 -1.2085186062321864 2.079573343478348 2.050046335517449 -0.520000050553151 1.1400032090925691
1.89545702934 0.7802440779886177 0.0952719687003942 -1.2085186062321864 2.079573343478348 2.050046335517449 -0.520000050553151 1.1400032090925691
1.89545702934 0.7802440779886177 0.0952719687003942 -1.2085186062321864 2.079573343478348 2.050046335517449 -0.520000050553151 1.1400032090925691
1.90542912483 0.7802440779886177 0.0952719687003942 -1.2085186062321864 2.079573343478348 2.050046335517449 -0.520000050553151 1.1400032090925691
1.90542912483 0.7802440779886177 0.0952719687003942 -1.2085186062321864 2.079573343478348 2.050046335517449 -0.520000050553151 1.1400032090925691
1.91543197632 0.7796304775345534 0.0967752898128518 -1.2222939364259306 2.079573343478348 2.050055466436567 -0.520000050553151 1.1400032090925691
1.91543197632 0.7796304775345534 0.0967752898128518 -1.2222939364259306 2.079573343478348 2.050055466436567 -0.520000050553151 1.1400032090925691
1.92538094521 0.7790475571031923 0.0968213098469066 -1.2269112798427648 2.079573343478348 2.050055466436567 -0.520000050553151 1.1400032090925691
1.92538094521 0.7790475571031923 0.0968213098469066 -1.2269112798427648 2.079573343478348 2.050055466436567 -0.520000050553151 1.1400032090925691
1.93546009064 0.7790475571031923 0.0968213098469066 -1.2269112798427648 2.079573343478348 2.050055466436567 -0.520000050553151 1.1400032090925691
1.93546009064 0.7790475571031923 0.0968213098469066 -1.2269112798427648 2.079573343478348 2.050055466436567 -0.520000050553151 1.1400032090925691
1.94573307037 0.7769306355366703 0.0968366498582582 -1.2355477062337203 2.079573343478348 2.050055466436567 -0.520000050553151 1.1400032090925691
1.94573307037 0.7769306355366703 0.0968366498582582 -1.2355477062337203 2.079573343478348 2.050055466436567 -0.520000050553151 1.1400032090925691
1.95548915863 0.7769306355366703 0.0968366498582582 -1.2355477062337203 2.079573343478348 2.050055466436567 -0.520000050553151 1.1400032090925691
1.95548915863 0.7769306355366703 0.0968366498582582 -1.2355477062337203 2.079573343478348 2.050055466436567 -0.520000050553151 1.1400032090925691
1.96543097496 0.7769306355366703 0.0968366498582582 -1.2355477062337203 2.079573343478348 2.050055466436567 -0.520000050553151 1.1400032090925691
1.96543097496 0.7769306355366703 0.0968366498582582 -1.2355477062337203 2.079573343478348 2.050055466436567 -0.520000050553151 1.1400032090925691
1.97537612915 0.7754579944469159 0.0968366498582582 -1.2390298888105356 2.079573343478348 2.050055466436567 -0.520000050553151 1.1400032090925691
1.97537612915 0.7754579944469159 0.0968366498582582 -1.2390298888105356 2.079573343478348 2.050055466436567 -0.520000050553151 1.1400032090925691
1.98539710045 0.7723746521652426 0.0968673298809615 -1.2457641537938915 2.079573343478348 2.050055466436567 -0.519995485093592 1.13999864363301
1.98539710045 0.7723746521652426 0.0968673298809615 -1.2457641537938915 2.079573343478348 2.050055466436567 -0.519995485093592 1.13999864363301
1.99552202225 0.7704111307122368 0.0968673298809615 -1.248648075927994 2.079573343478348 2.050055466436567 -0.520000050553151 1.1400032090925691
1.99552202225 0.7704111307122368 0.0968673298809615 -1.248648075927994 2.079573343478348 2.050055466436567 -0.520000050553151 1.1400032090925691
2.00548005104 0.7704111307122368 0.0968673298809615 -1.248648075927994 2.079573343478348 2.050055466436567 -0.520000050553151 1.1400032090925691
2.00548005104 0.7704111307122368 0.0968673298809615 -1.248648075927994 2.079573343478348 2.050055466436567 -0.520000050553151 1.1400032090925691
2.01546096802 0.7704111307122368 0.0968673298809615 -1.248648075927994 2.079573343478348 2.050055466436567 -0.520000050553151 1.1400032090925691
2.01546096802 0.7704111307122368 0.0968673298809615 -1.248648075927994 2.079573343478348 2.050055466436567 -0.520000050553151 1.1400032090925691
2.02543997765 0.7685396493273405 0.0968673298809615 -1.251700738186964 2.079573343478348 2.050046335517449 -0.519995485093592 1.13999864363301
2.02543997765 0.7685396493273405 0.0968673298809615 -1.251700738186964 2.079573343478348 2.050046335517449 -0.519995485093592 1.13999864363301
2.03543806076 0.7685396493273405 0.0968673298809615 -1.251700738186964 2.079573343478348 2.050046335517449 -0.519995485093592 1.13999864363301
2.03543806076 0.7685396493273405 0.0968673298809615 -1.251700738186964 2.079573343478348 2.050046335517449 -0.519995485093592 1.13999864363301
2.04544711113 0.7685396493273405 0.0968673298809615 -1.251700738186964 2.079573343478348 2.050046335517449 -0.519995485093592 1.13999864363301
2.04544711113 0.7685396493273405 0.0968673298809615 -1.251700738186964 2.079573343478348 2.050046335517449 -0.519995485093592 1.13999864363301
2.05542397499 0.7666528279310927 0.0968673298809615 -1.2545693203097148 2.079573343478348 2.050055466436567 -0.520000050553151 1.1400032090925691
2.05542397499 0.7666528279310927 0.0968673298809615 -1.2545693203097148 2.079573343478348 2.050055466436567 -0.520000050553151 1.1400032090925691
2.0653719902 0.7644438662964611 0.0968826698923131 -1.2573918823984107 2.079573343478348 2.050055466436567 -0.5200046160127102 1.1399986436330098
2.0653719902 0.7644438662964611 0.0968826698923131 -1.2573918823984107 2.079573343478348 2.050055466436567 -0.5200046160127102 1.1399986436330098
2.07534193993 0.7644438662964611 0.0968826698923131 -1.2573918823984107 2.079573343478348 2.050055466436567 -0.5200046160127102 1.1399986436330098
2.07534193993 0.7644438662964611 0.0968826698923131 -1.2573918823984107 2.079573343478348 2.050055466436567 -0.5200046160127102 1.1399986436330098
2.08542013168 0.7620661645369617 0.0968826698923131 -1.2604292046460293 2.079573343478348 2.050055466436567 -0.520000050553151 1.1400032090925691
2.08542013168 0.7620661645369617 0.0968826698923131 -1.2604292046460293 2.079573343478348 2.050055466436567 -0.520000050553151 1.1400032090925691
2.09534406662 0.7620661645369617 0.0968826698923131 -1.2604292046460293 2.079573343478348 2.050055466436567 -0.520000050553151 1.1400032090925691
2.09534406662 0.7620661645369617 0.0968826698923131 -1.2604292046460293 2.079573343478348 2.050055466436567 -0.520000050553151 1.1400032090925691
2.1054661274 0.7620661645369617 0.0968826698923131 -1.2604292046460293 2.079573343478348 2.050055466436567 -0.520000050553151 1.1400032090925691
2.1054661274 0.7620661645369617 0.0968826698923131 -1.2604292046460293 2.079573343478348 2.050055466436567 -0.520000050553151 1.1400032090925691
2.11535000801 0.7620661645369617 0.0968826698923131 -1.2604292046460293 2.079573343478348 2.050055466436567 -0.520000050553151 1.1400032090925691
2.11535000801 0.7620661645369617 0.0968826698923131 -1.2604292046460293 2.079573343478348 2.050055466436567 -0.520000050553151 1.1400032090925691
2.12542414665 0.7620661645369617 0.0968826698923131 -1.2604292046460293 2.079573343478348 2.050055466436567 -0.520000050553151 1.1400032090925691
2.12542414665 0.7620661645369617 0.0968826698923131 -1.2604292046460293 2.079573343478348 2.050055466436567 -0.520000050553151 1.1400032090925691
2.13545107841 0.7620661645369617 0.0968826698923131 -1.2604292046460293 2.079573343478348 2.050055466436567 -0.520000050553151 1.1400032090925691
2.13545107841 0.7620661645369617 0.0968826698923131 -1.2604292046460293 2.079573343478348 2.050055466436567 -0.520000050553151 1.1400032090925691
2.14545893669 0.7620661645369617 0.0968826698923131 -1.2604292046460293 2.079573343478348 2.050055466436567 -0.520000050553151 1.1400032090925691
2.14545893669 0.7620661645369617 0.0968826698923131 -1.2604292046460293 2.079573343478348 2.050055466436567 -0.520000050553151 1.1400032090925691
2.15543699265 0.7620661645369617 0.0968826698923131 -1.2604292046460293 2.079573343478348 2.050055466436567 -0.520000050553151 1.1400032090925691
2.15543699265 0.7620661645369617 0.0968826698923131 -1.2604292046460293 2.079573343478348 2.050055466436567 -0.520000050553151 1.1400032090925691
2.16545701027 0.7620661645369617 0.0968826698923131 -1.2604292046460293 2.079573343478348 2.050055466436567 -0.520000050553151 1.1400032090925691
2.16545701027 0.7620661645369617 0.0968826698923131 -1.2604292046460293 2.079573343478348 2.050055466436567 -0.520000050553151 1.1400032090925691
2.17546105385 0.7620661645369617 0.0968826698923131 -1.2604292046460293 2.079573343478348 2.050055466436567 -0.520000050553151 1.1400032090925691
2.17546105385 0.7620661645369617 0.0968826698923131 -1.2604292046460293 2.079573343478348 2.050055466436567 -0.520000050553151 1.1400032090925691
2.1854391098 0.7620661645369617 0.0968826698923131 -1.2604292046460293 2.079573343478348 2.050055466436567 -0.520000050553151 1.1400032090925691
2.1854391098 0.7620661645369617 0.0968826698923131 -1.2604292046460293 2.079573343478348 2.050055466436567 -0.520000050553151 1.1400032090925691
2.1954729557 0.7620661645369617 0.0968826698923131 -1.2604292046460293 2.079573343478348 2.050055466436567 -0.520000050553151 1.1400032090925691
2.1954729557 0.7620661645369617 0.0968826698923131 -1.2604292046460293 2.079573343478348 2.050055466436567 -0.520000050553151 1.1400032090925691
2.20539808273 0.7620661645369617 0.0968826698923131 -1.2604292046460293 2.079573343478348 2.050055466436567 -0.520000050553151 1.1400032090925691
2.20539808273 0.7620661645369617 0.0968826698923131 -1.2604292046460293 2.079573343478348 2.050055466436567 -0.520000050553151 1.1400032090925691
2.21545910835 0.7620661645369617 0.0968826698923131 -1.2604292046460293 2.079573343478348 2.050055466436567 -0.520000050553151 1.1400032090925691
2.21545910835 0.7620661645369617 0.0968826698923131 -1.2604292046460293 2.079573343478348 2.050055466436567 -0.520000050553151 1.1400032090925691
2.22543215752 0.7620661645369617 0.0968826698923131 -1.2604292046460293 2.079573343478348 2.050055466436567 -0.520000050553151 1.1400032090925691
2.22543215752 0.7620661645369617 0.0968826698923131 -1.2604292046460293 2.079573343478348 2.050055466436567 -0.520000050553151 1.1400032090925691
2.23574399948 0.7620661645369617 0.0968826698923131 -1.2604292046460293 2.079573343478348 2.050055466436567 -0.520000050553151 1.1400032090925691
2.23574399948 0.7620661645369617 0.0968826698923131 -1.2604292046460293 2.079573343478348 2.050055466436567 -0.520000050553151 1.1400032090925691
2.24578404427 0.7620661645369617 0.0968826698923131 -1.2604292046460293 2.079573343478348 2.050055466436567 -0.520000050553151 1.1400032090925691
2.24578404427 0.7620661645369617 0.0968826698923131 -1.2604292046460293 2.079573343478348 2.050055466436567 -0.520000050553151 1.1400032090925691
2.25605916977 0.7620661645369617 0.0968826698923131 -1.2604292046460293 2.079573343478348 2.050055466436567 -0.520000050553151 1.1400032090925691
2.25605916977 0.7620661645369617 0.0968826698923131 -1.2604292046460293 2.079573343478348 2.050055466436567 -0.520000050553151 1.1400032090925691
2.26559114456 0.7620661645369617 0.0968826698923131 -1.2604292046460293 2.079573343478348 2.050055466436567 -0.520000050553151 1.1400032090925691
2.26559114456 0.7620661645369617 0.0968826698923131 -1.2604292046460293 2.079573343478348 2.050055466436567 -0.520000050553151 1.1400032090925691
2.27584910393 0.7620661645369617 0.0968826698923131 -1.2604292046460293 2.079573343478348 2.050055466436567 -0.520000050553151 1.1400032090925691
2.27584910393 0.7620661645369617 0.0968826698923131 -1.2604292046460293 2.079573343478348 2.050055466436567 -0.520000050553151 1.1400032090925691
2.28588008881 0.7620661645369617 0.0968826698923131 -1.2604292046460293 2.079573343478348 2.050055466436567 -0.520000050553151 1.1400032090925691
2.28588008881 0.7620661645369617 0.0968826698923131 -1.2604292046460293 2.079573343478348 2.050055466436567 -0.520000050553151 1.1400032090925691
2.29621505737 0.748060734173 0.0968980099037 -1.28007975919 2.07957334348 2.05005546644 -0.520000050553 1.14000320909
2.29621505737 0.7458977925723665 0.0968980099036646 -1.283822721957232 2.079573343478348 2.050055466436567 -0.520000050553151 1.1400032090925691
2.30545306206 0.7406975287241713 0.0969133499150163 -1.291615447723849 2.079573343478348 2.050055466436567 -0.520000050553151 1.1400032090925691
2.30545306206 0.7406975287241713 0.0969133499150163 -1.291615447723849 2.079573343478348 2.050055466436567 -0.520000050553151 1.1400032090925691
2.31534004211 0.7406975287241713 0.0969133499150163 -1.291615447723849 2.079573343478348 2.050055466436567 -0.520000050553151 1.1400032090925691
2.31534004211 0.7406975287241713 0.0969133499150163 -1.291615447723849 2.079573343478348 2.050055466436567 -0.520000050553151 1.1400032090925691
2.32561397552 0.7406975287241713 0.0969133499150163 -1.291615447723849 2.079573343478348 2.050055466436567 -0.520000050553151 1.1400032090925691
2.32561397552 0.7406975287241713 0.0969133499150163 -1.291615447723849 2.079573343478348 2.050055466436567 -0.520000050553151 1.1400032090925691
2.33584904671 0.7406975287241713 0.0969133499150163 -1.291615447723849 2.079573343478348 2.050055466436567 -0.520000050553151 1.1400032090925691
2.33584904671 0.7406975287241713 0.0969133499150163 -1.291615447723849 2.079573343478348 2.050055466436567 -0.520000050553151 1.1400032090925691
2.34573101997 0.7301742809369679 0.0969286899263679 -1.3085968402900796 2.0795426634556446 2.050055466436567 -0.520000050553151 1.1400032090925691
2.34573101997 0.7301742809369679 0.0969286899263679 -1.3085968402900796 2.0795426634556446 2.050055466436567 -0.520000050553151 1.1400032090925691
2.35562896729 0.7301742809369679 0.0969286899263679 -1.3085968402900796 2.0795426634556446 2.050055466436567 -0.520000050553151 1.1400032090925691
2.35562896729 0.7301742809369679 0.0969286899263679 -1.3085968402900796 2.0795426634556446 2.050055466436567 -0.520000050553151 1.1400032090925691
2.36583995819 0.7301742809369679 0.0969286899263679 -1.3085968402900796 2.0795426634556446 2.050055466436567 -0.520000050553151 1.1400032090925691
2.36583995819 0.7301742809369679 0.0969286899263679 -1.3085968402900796 2.0795426634556446 2.050055466436567 -0.520000050553151 1.1400032090925691
2.37589097023 0.7270295786098881 0.0969286899263679 -1.3128767034571782 2.0795426634556446 2.050055466436567 -0.520000050553151 1.1400032090925691
2.37589097023 0.7270295786098881 0.0969286899263679 -1.3128767034571782 2.0795426634556446 2.050055466436567 -0.520000050553151 1.1400032090925691
2.38571095467 0.7270295786098881 0.0969286899263679 -1.3128767034571782 2.0795426634556446 2.050055466436567 -0.520000050553151 1.1400032090925691
2.38571095467 0.7270295786098881 0.0969286899263679 -1.3128767034571782 2.0795426634556446 2.050055466436567 -0.520000050553151 1.1400032090925691
2.39583110809 0.7270295786098881 0.0969286899263679 -1.3128767034571782 2.0795426634556446 2.050055466436567 -0.520000050553151 1.1400032090925691
2.39583110809 0.7270295786098881 0.0969286899263679 -1.3128767034571782 2.0795426634556446 2.050055466436567 -0.520000050553151 1.1400032090925691
2.40583610535 0.7270295786098881 0.0969286899263679 -1.3128767034571782 2.0795426634556446 2.050055466436567 -0.520000050553151 1.1400032090925691
2.40583610535 0.7270295786098881 0.0969286899263679 -1.3128767034571782 2.0795426634556446 2.050055466436567 -0.520000050553151 1.1400032090925691
2.41586995125 0.7270295786098881 0.0969286899263679 -1.3128767034571782 2.0795426634556446 2.050055466436567 -0.520000050553151 1.1400032090925691
2.41586995125 0.7270295786098881 0.0969286899263679 -1.3128767034571782 2.0795426634556446 2.050055466436567 -0.520000050553151 1.1400032090925691
2.42589497566 0.7270295786098881 0.0969286899263679 -1.3128767034571782 2.0795426634556446 2.050055466436567 -0.520000050553151 1.1400032090925691
2.42589497566 0.7270295786098881 0.0969286899263679 -1.3128767034571782 2.0795426634556446 2.050055466436567 -0.520000050553151 1.1400032090925691
2.43584609032 0.7270295786098881 0.0969286899263679 -1.3128767034571782 2.0795426634556446 2.050055466436567 -0.520000050553151 1.1400032090925691
2.43584609032 0.7270295786098881 0.0969286899263679 -1.3128767034571782 2.0795426634556446 2.050055466436567 -0.520000050553151 1.1400032090925691
2.44582295418 0.7270295786098881 0.0969286899263679 -1.3128767034571782 2.0795426634556446 2.050055466436567 -0.520000050553151 1.1400032090925691
2.44582295418 0.7270295786098881 0.0969286899263679 -1.3128767034571782 2.0795426634556446 2.050055466436567 -0.520000050553151 1.1400032090925691
2.45591616631 0.7270295786098881 0.0969286899263679 -1.3128767034571782 2.0795426634556446 2.050055466436567 -0.520000050553151 1.1400032090925691
2.45591616631 0.7270295786098881 0.0969286899263679 -1.3128767034571782 2.0795426634556446 2.050055466436567 -0.520000050553151 1.1400032090925691
2.46568608284 0.7270295786098881 0.0969286899263679 -1.3128767034571782 2.0795426634556446 2.050055466436567 -0.520000050553151 1.1400032090925691
2.46568608284 0.7270295786098881 0.0969286899263679 -1.3128767034571782 2.0795426634556446 2.050055466436567 -0.520000050553151 1.1400032090925691
2.47574400902 0.7270295786098881 0.0969286899263679 -1.3128767034571782 2.0795426634556446 2.050055466436567 -0.520000050553151 1.1400032090925691
2.47574400902 0.7270295786098881 0.0969286899263679 -1.3128767034571782 2.0795426634556446 2.050055466436567 -0.520000050553151 1.1400032090925691
2.48581814766 0.7270295786098881 0.0969286899263679 -1.3128767034571782 2.0795426634556446 2.050055466436567 -0.520000050553151 1.1400032090925691
2.48581814766 0.7270295786098881 0.0969286899263679 -1.3128767034571782 2.0795426634556446 2.050055466436567 -0.520000050553151 1.1400032090925691
2.49587416649 0.7270295786098881 0.0969286899263679 -1.3128767034571782 2.0795426634556446 2.050055466436567 -0.520000050553151 1.1400032090925691
2.49587416649 0.7270295786098881 0.0969286899263679 -1.3128767034571782 2.0795426634556446 2.050055466436567 -0.520000050553151 1.1400032090925691
2.50580000877 0.7270295786098881 0.0969286899263679 -1.3128767034571782 2.0795426634556446 2.050055466436567 -0.520000050553151 1.1400032090925691
2.50580000877 0.7270295786098881 0.0969286899263679 -1.3128767034571782 2.0795426634556446 2.050055466436567 -0.520000050553151 1.1400032090925691
2.51578903198 0.7270295786098881 0.0969286899263679 -1.3128767034571782 2.0795426634556446 2.050055466436567 -0.520000050553151 1.1400032090925691
2.51578903198 0.7270295786098881 0.0969286899263679 -1.3128767034571782 2.0795426634556446 2.050055466436567 -0.520000050553151 1.1400032090925691
2.52566599846 0.7270295786098881 0.0969286899263679 -1.3128767034571782 2.0795426634556446 2.050055466436567 -0.520000050553151 1.1400032090925691
2.52566599846 0.7270295786098881 0.0969286899263679 -1.3128767034571782 2.0795426634556446 2.050055466436567 -0.520000050553151 1.1400032090925691
2.53565311432 0.7270295786098881 0.0969286899263679 -1.3128767034571782 2.0795426634556446 2.050055466436567 -0.520000050553151 1.1400032090925691
2.53565311432 0.7270295786098881 0.0969286899263679 -1.3128767034571782 2.0795426634556446 2.050055466436567 -0.520000050553151 1.1400032090925691
2.545814991 0.7270295786098881 0.0969286899263679 -1.3128767034571782 2.0795426634556446 2.050055466436567 -0.520000050553151 1.1400032090925691
2.545814991 0.7270295786098881 0.0969286899263679 -1.3128767034571782 2.0795426634556446 2.050055466436567 -0.520000050553151 1.1400032090925691
2.55589199066 0.7270295786098881 0.0969286899263679 -1.3128767034571782 2.0795426634556446 2.050055466436567 -0.520000050553151 1.1400032090925691
2.55589199066 0.7270295786098881 0.0969286899263679 -1.3128767034571782 2.0795426634556446 2.050055466436567 -0.520000050553151 1.1400032090925691
2.56583809853 0.7206634738989707 0.0969286899263679 -1.3213290497119146 2.0794966434215896 2.050055466436567 -0.520000050553151 1.1400032090925691
2.56583809853 0.7206634738989707 0.0969286899263679 -1.3213290497119146 2.0794966434215896 2.050055466436567 -0.520000050553151 1.1400032090925691
2.57587003708 0.7206634738989707 0.0969286899263679 -1.3213290497119146 2.0794966434215896 2.050055466436567 -0.520000050553151 1.1400032090925691
2.57587003708 0.7206634738989707 0.0969286899263679 -1.3213290497119146 2.0794966434215896 2.050055466436567 -0.520000050553151 1.1400032090925691
2.58579516411 0.7173807114697265 0.0969286899263679 -1.3255322128222553 2.079435283376183 2.050055466436567 -0.520000050553151 1.1400032090925691
2.58579516411 0.7173807114697265 0.0969286899263679 -1.3255322128222553 2.079435283376183 2.050055466436567 -0.520000050553151 1.1400032090925691
2.59591317177 0.7173807114697265 0.0969286899263679 -1.3255322128222553 2.079435283376183 2.050055466436567 -0.520000050553151 1.1400032090925691
2.59591317177 0.7173807114697265 0.0969286899263679 -1.3255322128222553 2.079435283376183 2.050055466436567 -0.520000050553151 1.1400032090925691
2.60896396637 0.694953614873675 0.0969747099604227 -1.3489410701448097 2.079251203239964 2.050055466436567 -0.519995485093592 1.13999864363301
2.60896396637 0.694953614873675 0.0969747099604227 -1.3489410701448097 2.079251203239964 2.050055466436567 -0.519995485093592 1.13999864363301
2.61541604996 0.694953614873675 0.0969747099604227 -1.3489410701448097 2.079251203239964 2.050055466436567 -0.519995485093592 1.13999864363301
2.61541604996 0.694953614873675 0.0969747099604227 -1.3489410701448097 2.079251203239964 2.050055466436567 -0.519995485093592 1.13999864363301
2.6253490448 0.694953614873675 0.0969747099604227 -1.3489410701448097 2.079251203239964 2.050055466436567 -0.519995485093592 1.13999864363301
2.6253490448 0.694953614873675 0.0969747099604227 -1.3489410701448097 2.079251203239964 2.050055466436567 -0.519995485093592 1.13999864363301
2.63551497459 0.694953614873675 0.0969747099604227 -1.3489410701448097 2.079251203239964 2.050055466436567 -0.519995485093592 1.13999864363301
2.63551497459 0.694953614873675 0.0969747099604227 -1.3489410701448097 2.079251203239964 2.050055466436567 -0.519995485093592 1.13999864363301
2.64548110962 0.6822060654404885 0.0970053899831259 -1.359464317932013 2.079051783092393 2.050055466436567 -0.5200000505531511 1.139994078173451
2.64548110962 0.6822060654404885 0.0970053899831259 -1.359464317932013 2.079051783092393 2.050055466436567 -0.5200000505531511 1.139994078173451
2.65565299988 0.6822060654404885 0.0970053899831259 -1.359464317932013 2.079051783092393 2.050055466436567 -0.5200000505531511 1.139994078173451
2.65565299988 0.6822060654404885 0.0970053899831259 -1.359464317932013 2.079051783092393 2.050055466436567 -0.5200000505531511 1.139994078173451
2.66542816162 0.6822060654404885 0.0970053899831259 -1.359464317932013 2.079051783092393 2.050055466436567 -0.5200000505531511 1.139994078173451
2.66542816162 0.6822060654404885 0.0970053899831259 -1.359464317932013 2.079051783092393 2.050055466436567 -0.5200000505531511 1.139994078173451
2.67540407181 0.6822060654404885 0.0970053899831259 -1.359464317932013 2.079051783092393 2.050055466436567 -0.5200000505531511 1.139994078173451
2.67540407181 0.6822060654404885 0.0970053899831259 -1.359464317932013 2.079051783092393 2.050055466436567 -0.5200000505531511 1.139994078173451
2.68546199799 0.6822060654404885 0.0970053899831259 -1.359464317932013 2.079051783092393 2.050055466436567 -0.5200000505531511 1.139994078173451
2.68546199799 0.6822060654404885 0.0970053899831259 -1.359464317932013 2.079051783092393 2.050055466436567 -0.5200000505531511 1.139994078173451
2.6954600811 0.6822060654404885 0.0970053899831259 -1.359464317932013 2.079051783092393 2.050055466436567 -0.5200000505531511 1.139994078173451
2.6954600811 0.6822060654404885 0.0970053899831259 -1.359464317932013 2.079051783092393 2.050055466436567 -0.5200000505531511 1.139994078173451
2.70546793938 0.6822060654404885 0.0970053899831259 -1.359464317932013 2.079051783092393 2.050055466436567 -0.5200000505531511 1.139994078173451
2.70546793938 0.6822060654404885 0.0970053899831259 -1.359464317932013 2.079051783092393 2.050055466436567 -0.5200000505531511 1.139994078173451
2.71544194221 0.6822060654404885 0.0970053899831259 -1.359464317932013 2.079051783092393 2.050055466436567 -0.5200000505531511 1.139994078173451
2.71544194221 0.6822060654404885 0.0970053899831259 -1.359464317932013 2.079051783092393 2.050055466436567 -0.5200000505531511 1.139994078173451
2.72543001175 0.6822060654404885 0.0970053899831259 -1.359464317932013 2.079051783092393 2.050055466436567 -0.5200000505531511 1.139994078173451
2.72543001175 0.6822060654404885 0.0970053899831259 -1.359464317932013 2.079051783092393 2.050055466436567 -0.5200000505531511 1.139994078173451
2.73543596268 0.6822060654404885 0.0970053899831259 -1.359464317932013 2.079051783092393 2.050055466436567 -0.5200000505531511 1.139994078173451
2.73543596268 0.6822060654404885 0.0970053899831259 -1.359464317932013 2.079051783092393 2.050055466436567 -0.5200000505531511 1.139994078173451
2.74543499947 0.6822060654404885 0.0970053899831259 -1.359464317932013 2.079051783092393 2.050055466436567 -0.5200000505531511 1.139994078173451
2.74543499947 0.6822060654404885 0.0970053899831259 -1.359464317932013 2.079051783092393 2.050055466436567 -0.5200000505531511 1.139994078173451
2.7553999424 0.6822060654404885 0.0970053899831259 -1.359464317932013 2.079051783092393 2.050055466436567 -0.5200000505531511 1.139994078173451
2.7553999424 0.6822060654404885 0.0970053899831259 -1.359464317932013 2.079051783092393 2.050055466436567 -0.5200000505531511 1.139994078173451
2.76543712616 0.6822060654404885 0.0970053899831259 -1.359464317932013 2.079051783092393 2.050055466436567 -0.5200000505531511 1.139994078173451
2.76543712616 0.6822060654404885 0.0970053899831259 -1.359464317932013 2.079051783092393 2.050055466436567 -0.5200000505531511 1.139994078173451
2.77541613579 0.6822060654404885 0.0970053899831259 -1.359464317932013 2.079051783092393 2.050055466436567 -0.5200000505531511 1.139994078173451
2.77541613579 0.6822060654404885 0.0970053899831259 -1.359464317932013 2.079051783092393 2.050055466436567 -0.5200000505531511 1.139994078173451
2.78544402122 0.6822060654404885 0.0970053899831259 -1.359464317932013 2.079051783092393 2.050055466436567 -0.5200000505531511 1.139994078173451
2.78544402122 0.6822060654404885 0.0970053899831259 -1.359464317932013 2.079051783092393 2.050055466436567 -0.5200000505531511 1.139994078173451
2.79547595978 0.6822060654404885 0.0970053899831259 -1.359464317932013 2.079051783092393 2.050055466436567 -0.5200000505531511 1.139994078173451
2.79547595978 0.6822060654404885 0.0970053899831259 -1.359464317932013 2.079051783092393 2.050055466436567 -0.5200000505531511 1.139994078173451
2.80544900894 0.6822060654404885 0.0970053899831259 -1.359464317932013 2.079051783092393 2.050055466436567 -0.5200000505531511 1.139994078173451
2.80544900894 0.6822060654404885 0.0970053899831259 -1.359464317932013 2.079051783092393 2.050055466436567 -0.5200000505531511 1.139994078173451
2.81547904015 0.6822060654404885 0.0970053899831259 -1.359464317932013 2.079051783092393 2.050055466436567 -0.5200000505531511 1.139994078173451
2.81547904015 0.6822060654404885 0.0970053899831259 -1.359464317932013 2.079051783092393 2.050055466436567 -0.5200000505531511 1.139994078173451
2.82543802261 0.6822060654404885 0.0970053899831259 -1.359464317932013 2.079051783092393 2.050055466436567 -0.5200000505531511 1.139994078173451
2.82543802261 0.6822060654404885 0.0970053899831259 -1.359464317932013 2.079051783092393 2.050055466436567 -0.5200000505531511 1.139994078173451
2.83541297913 0.6822060654404885 0.0970053899831259 -1.359464317932013 2.079051783092393 2.050055466436567 -0.5200000505531511 1.139994078173451
2.83541297913 0.6822060654404885 0.0970053899831259 -1.359464317932013 2.079051783092393 2.050055466436567 -0.5200000505531511 1.139994078173451
2.84542393684 0.6822060654404885 0.0970053899831259 -1.359464317932013 2.079051783092393 2.050055466436567 -0.5200000505531511 1.139994078173451
2.84542393684 0.6822060654404885 0.0970053899831259 -1.359464317932013 2.079051783092393 2.050055466436567 -0.5200000505531511 1.139994078173451
2.85542607307 0.6822060654404885 0.0970053899831259 -1.359464317932013 2.079051783092393 2.050055466436567 -0.5200000505531511 1.139994078173451
2.85542607307 0.6822060654404885 0.0970053899831259 -1.359464317932013 2.079051783092393 2.050055466436567 -0.5200000505531511 1.139994078173451
2.86546111107 0.6822060654404885 0.0970053899831259 -1.359464317932013 2.079051783092393 2.050055466436567 -0.5200000505531511 1.139994078173451
2.86546111107 0.6822060654404885 0.0970053899831259 -1.359464317932013 2.079051783092393 2.050055466436567 -0.5200000505531511 1.139994078173451
2.87543201447 0.6822060654404885 0.0970053899831259 -1.359464317932013 2.079051783092393 2.050055466436567 -0.5200000505531511 1.139994078173451
2.87543201447 0.6822060654404885 0.0970053899831259 -1.359464317932013 2.079051783092393 2.050055466436567 -0.5200000505531511 1.139994078173451
2.88544416428 0.6822060654404885 0.0970053899831259 -1.359464317932013 2.079051783092393 2.050055466436567 -0.5200000505531511 1.139994078173451
2.88544416428 0.6822060654404885 0.0970053899831259 -1.359464317932013 2.079051783092393 2.050055466436567 -0.5200000505531511 1.139994078173451
2.89566516876 0.6822060654404885 0.0970053899831259 -1.359464317932013 2.079051783092393 2.050055466436567 -0.5200000505531511 1.139994078173451
2.89566516876 0.6822060654404885 0.0970053899831259 -1.359464317932013 2.079051783092393 2.050055466436567 -0.5200000505531511 1.139994078173451
2.90543913841 0.6822060654404885 0.0970053899831259 -1.359464317932013 2.079051783092393 2.050055466436567 -0.5200000505531511 1.139994078173451
2.90543913841 0.6822060654404885 0.0970053899831259 -1.359464317932013 2.079051783092393 2.050055466436567 -0.5200000505531511 1.139994078173451
2.91545009613 0.6822060654404885 0.0970053899831259 -1.359464317932013 2.079051783092393 2.050055466436567 -0.5200000505531511 1.139994078173451
2.91545009613 0.6822060654404885 0.0970053899831259 -1.359464317932013 2.079051783092393 2.050055466436567 -0.5200000505531511 1.139994078173451
2.92541408539 0.6822060654404885 0.0970053899831259 -1.359464317932013 2.079051783092393 2.050055466436567 -0.5200000505531511 1.139994078173451
2.92541408539 0.6822060654404885 0.0970053899831259 -1.359464317932013 2.079051783092393 2.050055466436567 -0.5200000505531511 1.139994078173451
2.93543505669 0.6822060654404885 0.0970053899831259 -1.359464317932013 2.079051783092393 2.050055466436567 -0.5200000505531511 1.139994078173451
2.93543505669 0.6822060654404885 0.0970053899831259 -1.359464317932013 2.079051783092393 2.050055466436567 -0.5200000505531511 1.139994078173451
2.94537806511 0.6822060654404885 0.0970053899831259 -1.359464317932013 2.079051783092393 2.050055466436567 -0.5200000505531511 1.139994078173451
2.94537806511 0.6822060654404885 0.0970053899831259 -1.359464317932013 2.079051783092393 2.050055466436567 -0.5200000505531511 1.139994078173451
2.95544910431 0.6822060654404885 0.0970053899831259 -1.359464317932013 2.079051783092393 2.050055466436567 -0.5200000505531511 1.139994078173451
2.95544910431 0.6822060654404885 0.0970053899831259 -1.359464317932013 2.079051783092393 2.050055466436567 -0.5200000505531511 1.139994078173451
2.96544098854 0.6822060654404885 0.0970053899831259 -1.359464317932013 2.079051783092393 2.050055466436567 -0.5200000505531511 1.139994078173451
2.96544098854 0.6822060654404885 0.0970053899831259 -1.359464317932013 2.079051783092393 2.050055466436567 -0.5200000505531511 1.139994078173451
2.97539305687 0.6822060654404885 0.0970053899831259 -1.359464317932013 2.079051783092393 2.050055466436567 -0.5200000505531511 1.139994078173451
2.97539305687 0.6822060654404885 0.0970053899831259 -1.359464317932013 2.079051783092393 2.050055466436567 -0.5200000505531511 1.139994078173451
2.98537516594 0.6822060654404885 0.0970053899831259 -1.359464317932013 2.079051783092393 2.050055466436567 -0.5200000505531511 1.139994078173451
2.98537516594 0.6822060654404885 0.0970053899831259 -1.359464317932013 2.079051783092393 2.050055466436567 -0.5200000505531511 1.139994078173451
2.99534416199 0.6822060654404885 0.0970053899831259 -1.359464317932013 2.079051783092393 2.050055466436567 -0.5200000505531511 1.139994078173451
2.99534416199 0.6822060654404885 0.0970053899831259 -1.359464317932013 2.079051783092393 2.050055466436567 -0.5200000505531511 1.139994078173451
3.00538301468 0.6822060654404885 0.0970053899831259 -1.359464317932013 2.079051783092393 2.050055466436567 -0.5200000505531511 1.139994078173451
3.00538301468 0.6822060654404885 0.0970053899831259 -1.359464317932013 2.079051783092393 2.050055466436567 -0.5200000505531511 1.139994078173451
3.01541304588 0.6822060654404885 0.0970053899831259 -1.359464317932013 2.079051783092393 2.050055466436567 -0.5200000505531511 1.139994078173451
3.01541304588 0.6822060654404885 0.0970053899831259 -1.359464317932013 2.079051783092393 2.050055466436567 -0.5200000505531511 1.139994078173451
3.02545714378 0.6822060654404885 0.0970053899831259 -1.359464317932013 2.079051783092393 2.050055466436567 -0.5200000505531511 1.139994078173451
3.02545714378 0.6822060654404885 0.0970053899831259 -1.359464317932013 2.079051783092393 2.050055466436567 -0.5200000505531511 1.139994078173451
3.03546714783 0.6822060654404885 0.0970053899831259 -1.359464317932013 2.079051783092393 2.050055466436567 -0.5200000505531511 1.139994078173451
3.03546714783 0.6822060654404885 0.0970053899831259 -1.359464317932013 2.079051783092393 2.050055466436567 -0.5200000505531511 1.139994078173451
3.0454390049 0.6373211922256823 0.1027425542286275 -1.391080081327678 2.078622262774548 2.050055466436567 -0.519995485093592 1.13999864363301
3.0454390049 0.6373211922256823 0.1027425542286275 -1.391080081327678 2.078622262774548 2.050055466436567 -0.519995485093592 1.13999864363301
3.0554420948 0.6373211922256823 0.1027425542286275 -1.391080081327678 2.078622262774548 2.050055466436567 -0.519995485093592 1.13999864363301
3.0554420948 0.6373211922256823 0.1027425542286275 -1.391080081327678 2.078622262774548 2.050055466436567 -0.519995485093592 1.13999864363301
3.06546711922 0.6373211922256823 0.1027425542286275 -1.391080081327678 2.078622262774548 2.050055466436567 -0.519995485093592 1.13999864363301
3.06546711922 0.6373211922256823 0.1027425542286275 -1.391080081327678 2.078622262774548 2.050055466436567 -0.519995485093592 1.13999864363301
3.07544207573 0.6373211922256823 0.1027425542286275 -1.391080081327678 2.078622262774548 2.050055466436567 -0.519995485093592 1.13999864363301
3.07544207573 0.6373211922256823 0.1027425542286275 -1.391080081327678 2.078622262774548 2.050055466436567 -0.519995485093592 1.13999864363301
3.08541607857 0.6373211922256823 0.1027425542286275 -1.391080081327678 2.078622262774548 2.050055466436567 -0.519995485093592 1.13999864363301
3.08541607857 0.6373211922256823 0.1027425542286275 -1.391080081327678 2.078622262774548 2.050055466436567 -0.519995485093592 1.13999864363301
3.09544110298 0.6373211922256823 0.1027425542286275 -1.391080081327678 2.078622262774548 2.050055466436567 -0.519995485093592 1.13999864363301
3.09544110298 0.6373211922256823 0.1027425542286275 -1.391080081327678 2.078622262774548 2.050055466436567 -0.519995485093592 1.13999864363301
3.10546708107 0.6373211922256823 0.1027425542286275 -1.391080081327678 2.078622262774548 2.050055466436567 -0.519995485093592 1.13999864363301
3.10546708107 0.6373211922256823 0.1027425542286275 -1.391080081327678 2.078622262774548 2.050055466436567 -0.519995485093592 1.13999864363301
3.11543512344 0.6373211922256823 0.1027425542286275 -1.391080081327678 2.078622262774548 2.050055466436567 -0.519995485093592 1.13999864363301
3.11543512344 0.6373211922256823 0.1027425542286275 -1.391080081327678 2.078622262774548 2.050055466436567 -0.519995485093592 1.13999864363301
3.12540602684 0.6373211922256823 0.1027425542286275 -1.391080081327678 2.078622262774548 2.050055466436567 -0.519995485093592 1.13999864363301
3.12540602684 0.6373211922256823 0.1027425542286275 -1.391080081327678 2.078622262774548 2.050055466436567 -0.519995485093592 1.13999864363301
3.13534212112 0.6373211922256823 0.1027425542286275 -1.391080081327678 2.078622262774548 2.050055466436567 -0.519995485093592 1.13999864363301
3.13534212112 0.6373211922256823 0.1027425542286275 -1.391080081327678 2.078622262774548 2.050055466436567 -0.519995485093592 1.13999864363301
3.14538216591 0.6373211922256823 0.1027425542286275 -1.391080081327678 2.078622262774548 2.050055466436567 -0.519995485093592 1.13999864363301
3.14538216591 0.6373211922256823 0.1027425542286275 -1.391080081327678 2.078622262774548 2.050055466436567 -0.519995485093592 1.13999864363301
3.15542411804 0.6373211922256823 0.1027425542286275 -1.391080081327678 2.078622262774548 2.050055466436567 -0.519995485093592 1.13999864363301
3.15542411804 0.6373211922256823 0.1027425542286275 -1.391080081327678 2.078622262774548 2.050055466436567 -0.519995485093592 1.13999864363301
3.16547703743 0.6373211922256823 0.1027425542286275 -1.391080081327678 2.078622262774548 2.050055466436567 -0.519995485093592 1.13999864363301
3.16547703743 0.6373211922256823 0.1027425542286275 -1.391080081327678 2.078622262774548 2.050055466436567 -0.519995485093592 1.13999864363301
3.17544293404 0.6373211922256823 0.1027425542286275 -1.391080081327678 2.078622262774548 2.050055466436567 -0.519995485093592 1.13999864363301
3.17544293404 0.6373211922256823 0.1027425542286275 -1.391080081327678 2.078622262774548 2.050055466436567 -0.519995485093592 1.13999864363301
3.18534207344 0.6373211922256823 0.1027425542286275 -1.391080081327678 2.078622262774548 2.050055466436567 -0.519995485093592 1.13999864363301
3.18534207344 0.6373211922256823 0.1027425542286275 -1.391080081327678 2.078622262774548 2.050055466436567 -0.519995485093592 1.13999864363301
3.19547796249 0.6373211922256823 0.1027425542286275 -1.391080081327678 2.078622262774548 2.050055466436567 -0.519995485093592 1.13999864363301
3.19547796249 0.6373211922256823 0.1027425542286275 -1.391080081327678 2.078622262774548 2.050055466436567 -0.519995485093592 1.13999864363301
3.20544815063 0.6373211922256823 0.1027425542286275 -1.391080081327678 2.078622262774548 2.050055466436567 -0.519995485093592 1.13999864363301
3.20544815063 0.6373211922256823 0.1027425542286275 -1.391080081327678 2.078622262774548 2.050055466436567 -0.519995485093592 1.13999864363301
3.21550011635 0.6373211922256823 0.1027425542286275 -1.391080081327678 2.078622262774548 2.050055466436567 -0.519995485093592 1.13999864363301
3.21550011635 0.6373211922256823 0.1027425542286275 -1.391080081327678 2.078622262774548 2.050055466436567 -0.519995485093592 1.13999864363301
3.22543406487 0.6373211922256823 0.1027425542286275 -1.391080081327678 2.078622262774548 2.050055466436567 -0.519995485093592 1.13999864363301
3.22543406487 0.6373211922256823 0.1027425542286275 -1.391080081327678 2.078622262774548 2.050055466436567 -0.519995485093592 1.13999864363301
3.23541903496 0.6373211922256823 0.1027425542286275 -1.391080081327678 2.078622262774548 2.050055466436567 -0.519995485093592 1.13999864363301
3.23541903496 0.6373211922256823 0.1027425542286275 -1.391080081327678 2.078622262774548 2.050055466436567 -0.519995485093592 1.13999864363301
3.24541807175 0.6373211922256823 0.1027425542286275 -1.391080081327678 2.078622262774548 2.050055466436567 -0.519995485093592 1.13999864363301
3.24541807175 0.6373211922256823 0.1027425542286275 -1.391080081327678 2.078622262774548 2.050055466436567 -0.519995485093592 1.13999864363301
3.25553107262 0.6373211922256823 0.1027425542286275 -1.391080081327678 2.078622262774548 2.050055466436567 -0.519995485093592 1.13999864363301
3.25553107262 0.6373211922256823 0.1027425542286275 -1.391080081327678 2.078622262774548 2.050055466436567 -0.519995485093592 1.13999864363301
3.26548814774 0.6056133887619077 0.1099830395865866 -1.4150718590815934 2.0784535226496805 2.050055466436567 -0.519995485093592 1.13999864363301
3.26548814774 0.6056133887619077 0.1099830395865866 -1.4150718590815934 2.0784535226496805 2.050055466436567 -0.519995485093592 1.13999864363301
3.27563309669 0.6056133887619077 0.1099830395865866 -1.4150718590815934 2.0784535226496805 2.050055466436567 -0.519995485093592 1.13999864363301
3.27563309669 0.6056133887619077 0.1099830395865866 -1.4150718590815934 2.0784535226496805 2.050055466436567 -0.519995485093592 1.13999864363301
3.28545594215 0.6056133887619077 0.1099830395865866 -1.4150718590815934 2.0784535226496805 2.050055466436567 -0.519995485093592 1.13999864363301
3.28545594215 0.6056133887619077 0.1099830395865866 -1.4150718590815934 2.0784535226496805 2.050055466436567 -0.519995485093592 1.13999864363301
3.29542899132 0.6056133887619077 0.1099830395865866 -1.4150718590815934 2.0784535226496805 2.050055466436567 -0.519995485093592 1.13999864363301
3.29542899132 0.6056133887619077 0.1099830395865866 -1.4150718590815934 2.0784535226496805 2.050055466436567 -0.519995485093592 1.13999864363301
3.30542898178 0.6056133887619077 0.1099830395865866 -1.4150718590815934 2.0784535226496805 2.050055466436567 -0.519995485093592 1.13999864363301
3.30542898178 0.6056133887619077 0.1099830395865866 -1.4150718590815934 2.0784535226496805 2.050055466436567 -0.519995485093592 1.13999864363301
3.31544494629 0.6056133887619077 0.1099830395865866 -1.4150718590815934 2.0784535226496805 2.050055466436567 -0.519995485093592 1.13999864363301
3.31544494629 0.6056133887619077 0.1099830395865866 -1.4150718590815934 2.0784535226496805 2.050055466436567 -0.519995485093592 1.13999864363301
3.32542610168 0.6056133887619077 0.1099830395865866 -1.4150718590815934 2.0784535226496805 2.050055466436567 -0.519995485093592 1.13999864363301
3.32542610168 0.6056133887619077 0.1099830395865866 -1.4150718590815934 2.0784535226496805 2.050055466436567 -0.519995485093592 1.13999864363301
3.33543300629 0.6056133887619077 0.1099830395865866 -1.4150718590815934 2.0784535226496805 2.050055466436567 -0.519995485093592 1.13999864363301
3.33543300629 0.6056133887619077 0.1099830395865866 -1.4150718590815934 2.0784535226496805 2.050055466436567 -0.519995485093592 1.13999864363301
3.34540009499 0.6056133887619077 0.1099830395865866 -1.4150718590815934 2.0784535226496805 2.050055466436567 -0.519995485093592 1.13999864363301
3.34540009499 0.6056133887619077 0.1099830395865866 -1.4150718590815934 2.0784535226496805 2.050055466436567 -0.519995485093592 1.13999864363301
3.35543704033 0.6056133887619077 0.1099830395865866 -1.4150718590815934 2.0784535226496805 2.050055466436567 -0.519995485093592 1.13999864363301
3.35543704033 0.6056133887619077 0.1099830395865866 -1.4150718590815934 2.0784535226496805 2.050055466436567 -0.519995485093592 1.13999864363301
3.36539196968 0.6056133887619077 0.1099830395865866 -1.4150718590815934 2.0784535226496805 2.050055466436567 -0.519995485093592 1.13999864363301
3.36539196968 0.6056133887619077 0.1099830395865866 -1.4150718590815934 2.0784535226496805 2.050055466436567 -0.519995485093592 1.13999864363301
3.37542915344 0.6056133887619077 0.1099830395865866 -1.4150718590815934 2.0784535226496805 2.050055466436567 -0.519995485093592 1.13999864363301
3.37542915344 0.6056133887619077 0.1099830395865866 -1.4150718590815934 2.0784535226496805 2.050055466436567 -0.519995485093592 1.13999864363301
3.3854739666 0.6056133887619077 0.1099830395865866 -1.4150718590815934 2.0784535226496805 2.050055466436567 -0.519995485093592 1.13999864363301
3.3854739666 0.6056133887619077 0.1099830395865866 -1.4150718590815934 2.0784535226496805 2.050055466436567 -0.519995485093592 1.13999864363301
3.39541602135 0.6056133887619077 0.1099830395865866 -1.4150718590815934 2.0784535226496805 2.050055466436567 -0.519995485093592 1.13999864363301
3.39541602135 0.6056133887619077 0.1099830395865866 -1.4150718590815934 2.0784535226496805 2.050055466436567 -0.519995485093592 1.13999864363301
3.40543007851 0.6056133887619077 0.1099830395865866 -1.4150718590815934 2.0784535226496805 2.050055466436567 -0.519995485093592 1.13999864363301
3.40543007851 0.6056133887619077 0.1099830395865866 -1.4150718590815934 2.0784535226496805 2.050055466436567 -0.519995485093592 1.13999864363301
3.4154779911 0.6056133887619077 0.1099830395865866 -1.4150718590815934 2.0784535226496805 2.050055466436567 -0.519995485093592 1.13999864363301
3.4154779911 0.6056133887619077 0.1099830395865866 -1.4150718590815934 2.0784535226496805 2.050055466436567 -0.519995485093592 1.13999864363301
3.42546701431 0.6056133887619077 0.1099830395865866 -1.4150718590815934 2.0784535226496805 2.050055466436567 -0.519995485093592 1.13999864363301
3.42546701431 0.6056133887619077 0.1099830395865866 -1.4150718590815934 2.0784535226496805 2.050055466436567 -0.519995485093592 1.13999864363301
3.43546295166 0.6056133887619077 0.1099830395865866 -1.4150718590815934 2.0784535226496805 2.050055466436567 -0.519995485093592 1.13999864363301
3.43546295166 0.6056133887619077 0.1099830395865866 -1.4150718590815934 2.0784535226496805 2.050055466436567 -0.519995485093592 1.13999864363301
3.44541311264 0.6056133887619077 0.1099830395865866 -1.4150718590815934 2.0784535226496805 2.050055466436567 -0.519995485093592 1.13999864363301
3.44541311264 0.6056133887619077 0.1099830395865866 -1.4150718590815934 2.0784535226496805 2.050055466436567 -0.519995485093592 1.13999864363301
3.45542216301 0.6056133887619077 0.1099830395865866 -1.4150718590815934 2.0784535226496805 2.050055466436567 -0.519995485093592 1.13999864363301
3.45542216301 0.6056133887619077 0.1099830395865866 -1.4150718590815934 2.0784535226496805 2.050055466436567 -0.519995485093592 1.13999864363301
3.46544098854 0.6056133887619077 0.1099830395865866 -1.4150718590815934 2.0784535226496805 2.050055466436567 -0.519995485093592 1.13999864363301
3.46544098854 0.6056133887619077 0.1099830395865866 -1.4150718590815934 2.0784535226496805 2.050055466436567 -0.519995485093592 1.13999864363301
3.47543001175 0.6056133887619077 0.1099830395865866 -1.4150718590815934 2.0784535226496805 2.050055466436567 -0.519995485093592 1.13999864363301
3.47543001175 0.6056133887619077 0.1099830395865866 -1.4150718590815934 2.0784535226496805 2.050055466436567 -0.519995485093592 1.13999864363301
3.48543310165 0.6056133887619077 0.1099830395865866 -1.4150718590815934 2.0784535226496805 2.050055466436567 -0.519995485093592 1.13999864363301
3.48543310165 0.6056133887619077 0.1099830395865866 -1.4150718590815934 2.0784535226496805 2.050055466436567 -0.519995485093592 1.13999864363301
3.49543213844 0.6056133887619077 0.1099830395865866 -1.4150718590815934 2.0784535226496805 2.050055466436567 -0.519995485093592 1.13999864363301
3.49543213844 0.6056133887619077 0.1099830395865866 -1.4150718590815934 2.0784535226496805 2.050055466436567 -0.519995485093592 1.13999864363301
3.50541996956 0.6056133887619077 0.1099830395865866 -1.4150718590815934 2.0784535226496805 2.050055466436567 -0.519995485093592 1.13999864363301
3.50541996956 0.6056133887619077 0.1099830395865866 -1.4150718590815934 2.0784535226496805 2.050055466436567 -0.519995485093592 1.13999864363301
3.51542615891 0.6056133887619077 0.1099830395865866 -1.4150718590815934 2.0784535226496805 2.050055466436567 -0.519995485093592 1.13999864363301
3.51542615891 0.6056133887619077 0.1099830395865866 -1.4150718590815934 2.0784535226496805 2.050055466436567 -0.519995485093592 1.13999864363301
3.52544116974 0.6056133887619077 0.1099830395865866 -1.4150718590815934 2.0784535226496805 2.050055466436567 -0.519995485093592 1.13999864363301
3.52544116974 0.6056133887619077 0.1099830395865866 -1.4150718590815934 2.0784535226496805 2.050055466436567 -0.519995485093592 1.13999864363301
3.53542709351 0.6056133887619077 0.1099830395865866 -1.4150718590815934 2.0784535226496805 2.050055466436567 -0.519995485093592 1.13999864363301
3.53542709351 0.6056133887619077 0.1099830395865866 -1.4150718590815934 2.0784535226496805 2.050055466436567 -0.519995485093592 1.13999864363301
3.54543209076 0.5275327309822209 0.1237890498030342 -1.458346031104481 2.0765206812193777 2.050055466436567 -0.519995485093592 1.13999864363301
3.54543209076 0.5275327309822209 0.1237890498030342 -1.458346031104481 2.0765206812193777 2.050055466436567 -0.519995485093592 1.13999864363301
3.55540299416 0.5275327309822209 0.1237890498030342 -1.458346031104481 2.0765206812193777 2.050055466436567 -0.519995485093592 1.13999864363301
3.55540299416 0.5275327309822209 0.1237890498030342 -1.458346031104481 2.0765206812193777 2.050055466436567 -0.519995485093592 1.13999864363301
3.56546211243 0.5275327309822209 0.1237890498030342 -1.458346031104481 2.0765206812193777 2.050055466436567 -0.519995485093592 1.13999864363301
3.56546211243 0.5275327309822209 0.1237890498030342 -1.458346031104481 2.0765206812193777 2.050055466436567 -0.519995485093592 1.13999864363301
3.57537913322 0.5163958827409532 0.1297563142188099 -1.4603402325801895 2.0763366010831583 2.050055466436567 -0.519995485093592 1.13999864363301
3.57537913322 0.5163958827409532 0.1297563142188099 -1.4603402325801895 2.0763366010831583 2.050055466436567 -0.519995485093592 1.13999864363301
3.58536100388 0.5163958827409532 0.1297563142188099 -1.4603402325801895 2.0763366010831583 2.050055466436567 -0.519995485093592 1.13999864363301
3.58536100388 0.5163958827409532 0.1297563142188099 -1.4603402325801895 2.0763366010831583 2.050055466436567 -0.519995485093592 1.13999864363301
3.59545111656 0.5163958827409532 0.1297563142188099 -1.4603402325801895 2.0763366010831583 2.050055466436567 -0.519995485093592 1.13999864363301
3.59545111656 0.5163958827409532 0.1297563142188099 -1.4603402325801895 2.0763366010831583 2.050055466436567 -0.519995485093592 1.13999864363301
3.60546994209 0.5163958827409532 0.1297563142188099 -1.4603402325801895 2.0763366010831583 2.050055466436567 -0.519995485093592 1.13999864363301
3.60546994209 0.5163958827409532 0.1297563142188099 -1.4603402325801895 2.0763366010831583 2.050055466436567 -0.519995485093592 1.13999864363301
3.61536097527 0.5163958827409532 0.1297563142188099 -1.4603402325801895 2.0763366010831583 2.050055466436567 -0.519995485093592 1.13999864363301
3.61536097527 0.5163958827409532 0.1297563142188099 -1.4603402325801895 2.0763366010831583 2.050055466436567 -0.519995485093592 1.13999864363301
3.62545013428 0.5163958827409532 0.1297563142188099 -1.4603402325801895 2.0763366010831583 2.050055466436567 -0.519995485093592 1.13999864363301
3.62545013428 0.5163958827409532 0.1297563142188099 -1.4603402325801895 2.0763366010831583 2.050055466436567 -0.519995485093592 1.13999864363301
3.635379076 0.5163958827409532 0.1297563142188099 -1.4603402325801895 2.0763366010831583 2.050055466436567 -0.519995485093592 1.13999864363301
3.635379076 0.5163958827409532 0.1297563142188099 -1.4603402325801895 2.0763366010831583 2.050055466436567 -0.519995485093592 1.13999864363301
3.64546513557 0.5163958827409532 0.1297563142188099 -1.4603402325801895 2.0763366010831583 2.050055466436567 -0.519995485093592 1.13999864363301
3.64546513557 0.5163958827409532 0.1297563142188099 -1.4603402325801895 2.0763366010831583 2.050055466436567 -0.519995485093592 1.13999864363301
3.65543913841 0.5163958827409532 0.1297563142188099 -1.4603402325801895 2.0763366010831583 2.050055466436567 -0.519995485093592 1.13999864363301
3.65543913841 0.5163958827409532 0.1297563142188099 -1.4603402325801895 2.0763366010831583 2.050055466436567 -0.519995485093592 1.13999864363301
3.66543698311 0.5163958827409532 0.1297563142188099 -1.4603402325801895 2.0763366010831583 2.050055466436567 -0.519995485093592 1.13999864363301
3.66543698311 0.5163958827409532 0.1297563142188099 -1.4603402325801895 2.0763366010831583 2.050055466436567 -0.519995485093592 1.13999864363301
3.6754360199 0.5163958827409532 0.1297563142188099 -1.4603402325801895 2.0763366010831583 2.050055466436567 -0.519995485093592 1.13999864363301
3.6754360199 0.5163958827409532 0.1297563142188099 -1.4603402325801895 2.0763366010831583 2.050055466436567 -0.519995485093592 1.13999864363301
3.68542003632 0.5163958827409532 0.1297563142188099 -1.4603402325801895 2.0763366010831583 2.050055466436567 -0.519995485093592 1.13999864363301
3.68542003632 0.5163958827409532 0.1297563142188099 -1.4603402325801895 2.0763366010831583 2.050055466436567 -0.519995485093592 1.13999864363301
3.69544005394 0.5163958827409532 0.1297563142188099 -1.4603402325801895 2.0763366010831583 2.050055466436567 -0.519995485093592 1.13999864363301
3.69544005394 0.5163958827409532 0.1297563142188099 -1.4603402325801895 2.0763366010831583 2.050055466436567 -0.519995485093592 1.13999864363301
3.70541906357 0.5163958827409532 0.1297563142188099 -1.4603402325801895 2.0763366010831583 2.050055466436567 -0.519995485093592 1.13999864363301
3.70541906357 0.5163958827409532 0.1297563142188099 -1.4603402325801895 2.0763366010831583 2.050055466436567 -0.519995485093592 1.13999864363301
3.71536517143 0.5163958827409532 0.1297563142188099 -1.4603402325801895 2.0763366010831583 2.050055466436567 -0.519995485093592 1.13999864363301
3.71536517143 0.5163958827409532 0.1297563142188099 -1.4603402325801895 2.0763366010831583 2.050055466436567 -0.519995485093592 1.13999864363301
3.72546505928 0.5163958827409532 0.1297563142188099 -1.4603402325801895 2.0763366010831583 2.050055466436567 -0.519995485093592 1.13999864363301
3.72546505928 0.5163958827409532 0.1297563142188099 -1.4603402325801895 2.0763366010831583 2.050055466436567 -0.519995485093592 1.13999864363301
3.73544406891 0.5163958827409532 0.1297563142188099 -1.4603402325801895 2.0763366010831583 2.050055466436567 -0.519995485093592 1.13999864363301
3.73544406891 0.5163958827409532 0.1297563142188099 -1.4603402325801895 2.0763366010831583 2.050055466436567 -0.519995485093592 1.13999864363301
3.74544000626 0.5163958827409532 0.1297563142188099 -1.4603402325801895 2.0763366010831583 2.050055466436567 -0.519995485093592 1.13999864363301
3.74544000626 0.5163958827409532 0.1297563142188099 -1.4603402325801895 2.0763366010831583 2.050055466436567 -0.519995485093592 1.13999864363301
3.75536704063 0.505949335010508 0.1360150388502661 -1.4628713344532052 2.0760911609015325 2.050055466436567 -0.519995485093592 1.13999864363301
3.75536704063 0.505949335010508 0.1360150388502661 -1.4628713344532052 2.0760911609015325 2.050055466436567 -0.519995485093592 1.13999864363301
3.76540017128 0.505949335010508 0.1360150388502661 -1.4628713344532052 2.0760911609015325 2.050055466436567 -0.519995485093592 1.13999864363301
3.76540017128 0.505949335010508 0.1360150388502661 -1.4628713344532052 2.0760911609015325 2.050055466436567 -0.519995485093592 1.13999864363301
3.77544116974 0.4951959870530304 0.1425038636519965 -1.4663228370073171 2.0755849405269298 2.050055466436567 -0.519995485093592 1.13999864363301
3.77544116974 0.4951959870530304 0.1425038636519965 -1.4663228370073171 2.0755849405269298 2.050055466436567 -0.519995485093592 1.13999864363301
3.78541398048 0.4951959870530304 0.1425038636519965 -1.4663228370073171 2.0755849405269298 2.050055466436567 -0.519995485093592 1.13999864363301
3.78541398048 0.4951959870530304 0.1425038636519965 -1.4663228370073171 2.0755849405269298 2.050055466436567 -0.519995485093592 1.13999864363301
3.79536795616 0.4951959870530304 0.1425038636519965 -1.4663228370073171 2.0755849405269298 2.050055466436567 -0.519995485093592 1.13999864363301
3.79536795616 0.4951959870530304 0.1425038636519965 -1.4663228370073171 2.0755849405269298 2.050055466436567 -0.519995485093592 1.13999864363301
3.80539107323 0.4692100078234058 0.1551900530397766 -1.47922378655402 2.073023158631211 2.050055466436567 -0.519995485093592 1.13999864363301
3.80539107323 0.4692100078234058 0.1551900530397766 -1.47922378655402 2.073023158631211 2.050055466436567 -0.519995485093592 1.13999864363301
3.81544613838 0.4536398963015233 0.1585648555371305 -1.487231272479559 2.070047196428999 2.050055466436567 -0.519995485093592 1.13999864363301
3.81544613838 0.4536398963015233 0.1585648555371305 -1.487231272479559 2.070047196428999 2.050055466436567 -0.519995485093592 1.13999864363301
3.82635402679 0.4270249766064826 0.1587335956619981 -1.495744978779702 2.063128851309424 2.050055466436567 -0.519995485093592 1.13999864363301
3.82635402679 0.4270249766064826 0.1587335956619981 -1.495744978779702 2.063128851309424 2.050055466436567 -0.519995485093592 1.13999864363301
3.83541417122 0.403462719170412 0.1587642756847014 -1.5005464023327555 2.0597233687893666 2.050055466436567 -0.519995485093592 1.13999864363301
3.83541417122 0.403462719170412 0.1587642756847014 -1.5005464023327555 2.0597233687893666 2.050055466436567 -0.519995485093592 1.13999864363301
3.84538006783 0.3648672506097654 0.158779615696053 -1.5062989065896086 2.059033068278544 2.050055466436567 -0.519995485093592 1.13999864363301
3.84538006783 0.3648672506097654 0.158779615696053 -1.5062989065896086 2.059033068278544 2.050055466436567 -0.519995485093592 1.13999864363301
3.85536813736 0.3648672506097654 0.158779615696053 -1.5062989065896086 2.059033068278544 2.050055466436567 -0.519995485093592 1.13999864363301
3.85536813736 0.3648672506097654 0.158779615696053 -1.5062989065896086 2.059033068278544 2.050055466436567 -0.519995485093592 1.13999864363301
3.86537003517 0.3585778459556059 0.158779615696053 -1.507142607213947 2.058756948074215 2.050055466436567 -0.519995485093592 1.13999864363301
3.86537003517 0.3585778459556059 0.158779615696053 -1.507142607213947 2.058756948074215 2.050055466436567 -0.519995485093592 1.13999864363301
3.87533903122 0.3521810612219853 0.158779615696053 -1.5079863078382856 2.0586649080061057 2.050055466436567 -0.519995485093592 1.13999864363301
3.87533903122 0.3521810612219853 0.158779615696053 -1.5079863078382856 2.0586649080061057 2.050055466436567 -0.519995485093592 1.13999864363301
3.88536906242 0.3521810612219853 0.158779615696053 -1.5079863078382856 2.0586649080061057 2.050055466436567 -0.519995485093592 1.13999864363301
3.88536906242 0.3521810612219853 0.158779615696053 -1.5079863078382856 2.0586649080061057 2.050055466436567 -0.519995485093592 1.13999864363301
3.89537596703 0.3521810612219853 0.158779615696053 -1.5079863078382856 2.0586649080061057 2.050055466436567 -0.519995485093592 1.13999864363301
3.89537596703 0.3521810612219853 0.158779615696053 -1.5079863078382856 2.0586649080061057 2.050055466436567 -0.519995485093592 1.13999864363301
3.90539503098 0.3521810612219853 0.158779615696053 -1.5079863078382856 2.0586649080061057 2.050055466436567 -0.519995485093592 1.13999864363301
3.90539503098 0.3521810612219853 0.158779615696053 -1.5079863078382856 2.0586649080061057 2.050055466436567 -0.519995485093592 1.13999864363301
3.91535997391 0.3458609765451225 0.1587949557074046 -1.508906708519382 2.058603547960699 2.050055466436567 -0.519995485093592 1.13999864363301
3.91535997391 0.3458609765451225 0.1587949557074046 -1.508906708519382 2.058603547960699 2.050055466436567 -0.519995485093592 1.13999864363301
3.92533016205 0.3392494316525793 0.1587949557074046 -1.509689049098314 2.0583887878017766 2.050055466436567 -0.519995485093592 1.13999864363301
3.92533016205 0.3392494316525793 0.1587949557074046 -1.509689049098314 2.0583887878017766 2.050055466436567 -0.519995485093592 1.13999864363301
3.93537807465 0.3392494316525793 0.1587949557074046 -1.509689049098314 2.0583887878017766 2.050055466436567 -0.519995485093592 1.13999864363301
3.93537807465 0.3392494316525793 0.1587949557074046 -1.509689049098314 2.0583887878017766 2.050055466436567 -0.519995485093592 1.13999864363301
3.94533014297 0.3392494316525793 0.1587949557074046 -1.509689049098314 2.0583887878017766 2.050055466436567 -0.519995485093592 1.13999864363301
3.94533014297 0.3392494316525793 0.1587949557074046 -1.509689049098314 2.0583887878017766 2.050055466436567 -0.519995485093592 1.13999864363301
3.95532798767 0.3257042016291091 0.1587949557074046 -1.5110696501199588 2.0581433476201507 2.050055466436567 -0.519995485093592 1.13999864363301
3.95532798767 0.3257042016291091 0.1587949557074046 -1.5110696501199588 2.0581433476201507 2.050055466436567 -0.519995485093592 1.13999864363301
3.96537899971 0.3257042016291091 0.1587949557074046 -1.5110696501199588 2.0581433476201507 2.050055466436567 -0.519995485093592 1.13999864363301
3.96537899971 0.3257042016291091 0.1587949557074046 -1.5110696501199588 2.0581433476201507 2.050055466436567 -0.519995485093592 1.13999864363301
3.97537398338 0.3257042016291091 0.1587949557074046 -1.5110696501199588 2.0581433476201507 2.050055466436567 -0.519995485093592 1.13999864363301
3.97537398338 0.3257042016291091 0.1587949557074046 -1.5110696501199588 2.0581433476201507 2.050055466436567 -0.519995485093592 1.13999864363301
3.98537802696 0.3257042016291091 0.1587949557074046 -1.5110696501199588 2.0581433476201507 2.050055466436567 -0.519995485093592 1.13999864363301
3.98537802696 0.3257042016291091 0.1587949557074046 -1.5110696501199588 2.0581433476201507 2.050055466436567 -0.519995485093592 1.13999864363301
3.99545812607 0.3257042016291091 0.1587949557074046 -1.5110696501199588 2.0581433476201507 2.050055466436567 -0.519995485093592 1.13999864363301
3.99545812607 0.3257042016291091 0.1587949557074046 -1.5110696501199588 2.0581433476201507 2.050055466436567 -0.519995485093592 1.13999864363301
4.00542712212 0.3197062571906303 0.1588102957187562 -1.5119286907556488 2.0581433476201507 2.050055466436567 -0.5200000505531511 1.139994078173451
4.00542712212 0.3197062571906303 0.1588102957187562 -1.5119286907556488 2.0581433476201507 2.050055466436567 -0.5200000505531511 1.139994078173451
4.01545906067 0.3197062571906303 0.1588102957187562 -1.5119286907556488 2.0581433476201507 2.050055466436567 -0.5200000505531511 1.139994078173451
4.01545906067 0.3197062571906303 0.1588102957187562 -1.5119286907556488 2.0581433476201507 2.050055466436567 -0.5200000505531511 1.139994078173451
4.02539396286 0.3197062571906303 0.1588102957187562 -1.5119286907556488 2.0581433476201507 2.050055466436567 -0.5200000505531511 1.139994078173451
4.02539396286 0.3197062571906303 0.1588102957187562 -1.5119286907556488 2.0581433476201507 2.050055466436567 -0.5200000505531511 1.139994078173451
4.03546404839 0.3197062571906303 0.1588102957187562 -1.5119286907556488 2.0581433476201507 2.050055466436567 -0.5200000505531511 1.139994078173451
4.03546404839 0.3197062571906303 0.1588102957187562 -1.5119286907556488 2.0581433476201507 2.050055466436567 -0.5200000505531511 1.139994078173451
4.04543805122 0.3133554924910643 0.1588102957187562 -1.512787731391339 2.058097327586096 2.050055466436567 -0.519995485093592 1.13999864363301
4.04543805122 0.3133554924910643 0.1588102957187562 -1.512787731391339 2.058097327586096 2.050055466436567 -0.519995485093592 1.13999864363301
4.0554189682 0.3133554924910643 0.1588102957187562 -1.512787731391339 2.058097327586096 2.050055466436567 -0.519995485093592 1.13999864363301
4.0554189682 0.3133554924910643 0.1588102957187562 -1.512787731391339 2.058097327586096 2.050055466436567 -0.519995485093592 1.13999864363301
4.06537508965 0.3001477427173295 0.1588102957187562 -1.514674552787587 2.0580819875747443 2.050055466436567 -0.519995485093592 1.13999864363301
4.06537508965 0.3001477427173295 0.1588102957187562 -1.514674552787587 2.0580819875747443 2.050055466436567 -0.519995485093592 1.13999864363301
4.07545900345 0.293505517802083 0.1588102957187562 -1.5156563135140897 2.0580819875747443 2.050055466436567 -0.519995485093592 1.13999864363301
4.07545900345 0.293505517802083 0.1588102957187562 -1.5156563135140897 2.0580819875747443 2.050055466436567 -0.519995485093592 1.13999864363301
4.08540296555 0.293505517802083 0.1588102957187562 -1.5156563135140897 2.0580819875747443 2.050055466436567 -0.519995485093592 1.13999864363301
4.08540296555 0.293505517802083 0.1588102957187562 -1.5156563135140897 2.0580819875747443 2.050055466436567 -0.519995485093592 1.13999864363301
4.0954220295 0.293505517802083 0.1588102957187562 -1.5156563135140897 2.0580819875747443 2.050055466436567 -0.519995485093592 1.13999864363301
4.0954220295 0.293505517802083 0.1588102957187562 -1.5156563135140897 2.0580819875747443 2.050055466436567 -0.519995485093592 1.13999864363301
4.10542798042 0.293505517802083 0.1588102957187562 -1.5156563135140897 2.0580819875747443 2.050055466436567 -0.519995485093592 1.13999864363301
4.10542798042 0.293505517802083 0.1588102957187562 -1.5156563135140897 2.0580819875747443 2.050055466436567 -0.519995485093592 1.13999864363301
4.11539316177 0.2872621331819784 0.1588102957187562 -1.516622734229241 2.0580819875747443 2.050055466436567 -0.519995485093592 1.13999864363301
4.11539316177 0.2872621331819784 0.1588102957187562 -1.516622734229241 2.0580819875747443 2.050055466436567 -0.519995485093592 1.13999864363301
4.12544894218 0.2872621331819784 0.1588102957187562 -1.516622734229241 2.0580819875747443 2.050055466436567 -0.519995485093592 1.13999864363301
4.12544894218 0.2872621331819784 0.1588102957187562 -1.516622734229241 2.0580819875747443 2.050055466436567 -0.519995485093592 1.13999864363301
4.13541698456 0.2872621331819784 0.1588102957187562 -1.516622734229241 2.0580819875747443 2.050055466436567 -0.519995485093592 1.13999864363301
4.13541698456 0.2872621331819784 0.1588102957187562 -1.516622734229241 2.0580819875747443 2.050055466436567 -0.519995485093592 1.13999864363301
4.14543104172 0.2872621331819784 0.1588102957187562 -1.516622734229241 2.0580819875747443 2.050055466436567 -0.519995485093592 1.13999864363301
4.14543104172 0.2872621331819784 0.1588102957187562 -1.516622734229241 2.0580819875747443 2.050055466436567 -0.519995485093592 1.13999864363301
4.15545296669 0.2740390433968921 0.1588256357301078 -1.5180646952962922 2.058051307552041 2.050055466436567 -0.519995485093592 1.13999864363301
4.15545296669 0.2740390433968921 0.1588256357301078 -1.5180646952962922 2.058051307552041 2.050055466436567 -0.519995485093592 1.13999864363301
4.16538500786 0.2740390433968921 0.1588256357301078 -1.5180646952962922 2.058051307552041 2.050055466436567 -0.519995485093592 1.13999864363301
4.16538500786 0.2740390433968921 0.1588256357301078 -1.5180646952962922 2.058051307552041 2.050055466436567 -0.519995485093592 1.13999864363301
4.17539715767 0.2740390433968921 0.1588256357301078 -1.5180646952962922 2.058051307552041 2.050055466436567 -0.519995485093592 1.13999864363301
4.17539715767 0.2740390433968921 0.1588256357301078 -1.5180646952962922 2.058051307552041 2.050055466436567 -0.519995485093592 1.13999864363301
4.18544316292 0.2600949730782799 0.1588409757414594 -1.5192305361590146 2.058020627529338 2.050055466436567 -0.519995485093592 1.13999864363301
4.18544316292 0.2600949730782799 0.1588409757414594 -1.5192305361590146 2.058020627529338 2.050055466436567 -0.519995485093592 1.13999864363301
4.19544506073 0.2600949730782799 0.1588409757414594 -1.5192305361590146 2.058020627529338 2.050055466436567 -0.519995485093592 1.13999864363301
4.19544506073 0.2600949730782799 0.1588409757414594 -1.5192305361590146 2.058020627529338 2.050055466436567 -0.519995485093592 1.13999864363301
4.20544195175 0.2600949730782799 0.1588409757414594 -1.5192305361590146 2.058020627529338 2.050055466436567 -0.519995485093592 1.13999864363301
4.20544195175 0.2600949730782799 0.1588409757414594 -1.5192305361590146 2.058020627529338 2.050055466436567 -0.519995485093592 1.13999864363301
4.21544909477 0.2538362484468239 0.1588409757414594 -1.5196447164655078 2.058020627529338 2.050055466436567 -0.519995485093592 1.13999864363301
4.21544909477 0.2538362484468239 0.1588409757414594 -1.5196447164655078 2.058020627529338 2.050055466436567 -0.519995485093592 1.13999864363301
4.22543001175 0.2538362484468239 0.1588409757414594 -1.5196447164655078 2.058020627529338 2.050055466436567 -0.519995485093592 1.13999864363301
4.22543001175 0.2538362484468239 0.1588409757414594 -1.5196447164655078 2.058020627529338 2.050055466436567 -0.519995485093592 1.13999864363301
4.23542809486 0.2538362484468239 0.1588409757414594 -1.5196447164655078 2.058020627529338 2.050055466436567 -0.519995485093592 1.13999864363301
4.23542809486 0.2538362484468239 0.1588409757414594 -1.5196447164655078 2.058020627529338 2.050055466436567 -0.519995485093592 1.13999864363301
4.24544715881 0.2405211185936277 0.158856315752811 -1.5201662768514626 2.057836547393119 2.050055466436567 -0.5200000505531511 1.139994078173451
4.24544715881 0.2405211185936277 0.158856315752811 -1.5201662768514626 2.057836547393119 2.050055466436567 -0.5200000505531511 1.139994078173451
4.25537204742 0.2335874334627007 0.158856315752811 -1.5201969568741658 2.0575297471660865 2.050055466436567 -0.519995485093592 1.13999864363301
4.25537204742 0.2335874334627007 0.158856315752811 -1.5201969568741658 2.0575297471660865 2.050055466436567 -0.519995485093592 1.13999864363301
4.26546001434 0.2335874334627007 0.158856315752811 -1.5201969568741658 2.0575297471660865 2.050055466436567 -0.519995485093592 1.13999864363301
4.26546001434 0.2335874334627007 0.158856315752811 -1.5201969568741658 2.0575297471660865 2.050055466436567 -0.519995485093592 1.13999864363301
4.27545499802 0.2335874334627007 0.158856315752811 -1.5201969568741658 2.0575297471660865 2.050055466436567 -0.519995485093592 1.13999864363301
4.27545499802 0.2335874334627007 0.158856315752811 -1.5201969568741658 2.0575297471660865 2.050055466436567 -0.519995485093592 1.13999864363301
4.28542900085 0.2335874334627007 0.158856315752811 -1.5201969568741658 2.0575297471660865 2.050055466436567 -0.519995485093592 1.13999864363301
4.28542900085 0.2335874334627007 0.158856315752811 -1.5201969568741658 2.0575297471660865 2.050055466436567 -0.519995485093592 1.13999864363301
4.29544401169 0.2335874334627007 0.158856315752811 -1.5201969568741658 2.0575297471660865 2.050055466436567 -0.519995485093592 1.13999864363301
4.29544401169 0.2335874334627007 0.158856315752811 -1.5201969568741658 2.0575297471660865 2.050055466436567 -0.519995485093592 1.13999864363301
4.30534911156 0.2335874334627007 0.158856315752811 -1.5201969568741658 2.0575297471660865 2.050055466436567 -0.519995485093592 1.13999864363301
4.30534911156 0.2335874334627007 0.158856315752811 -1.5201969568741658 2.0575297471660865 2.050055466436567 -0.519995485093592 1.13999864363301
4.31539511681 0.2211927042906011 0.158856315752811 -1.5201969568741658 2.057100226848241 2.050055466436567 -0.519995485093592 1.13999864363301
4.31539511681 0.2211927042906011 0.158856315752811 -1.5201969568741658 2.057100226848241 2.050055466436567 -0.519995485093592 1.13999864363301
4.32539510727 0.2087212750617434 0.158856315752811 -1.5201969568741658 2.0556889458038934 2.050055466436567 -0.519995485093592 1.13999864363301
4.32539510727 0.2087212750617434 0.158856315752811 -1.5201969568741658 2.0556889458038934 2.050055466436567 -0.519995485093592 1.13999864363301
4.3354511261 0.2087212750617434 0.158856315752811 -1.5201969568741658 2.0556889458038934 2.050055466436567 -0.519995485093592 1.13999864363301
4.3354511261 0.2087212750617434 0.158856315752811 -1.5201969568741658 2.0556889458038934 2.050055466436567 -0.519995485093592 1.13999864363301
4.34543609619 0.2087212750617434 0.158856315752811 -1.5201969568741658 2.0556889458038934 2.050055466436567 -0.519995485093592 1.13999864363301
4.34543609619 0.2087212750617434 0.158856315752811 -1.5201969568741658 2.0556889458038934 2.050055466436567 -0.519995485093592 1.13999864363301
4.35543513298 0.2087212750617434 0.158856315752811 -1.5201969568741658 2.0556889458038934 2.050055466436567 -0.519995485093592 1.13999864363301
4.35543513298 0.2087212750617434 0.158856315752811 -1.5201969568741658 2.0556889458038934 2.050055466436567 -0.519995485093592 1.13999864363301
4.36546206474 0.2087212750617434 0.158856315752811 -1.5201969568741658 2.0556889458038934 2.050055466436567 -0.519995485093592 1.13999864363301
4.36546206474 0.2087212750617434 0.158856315752811 -1.5201969568741658 2.0556889458038934 2.050055466436567 -0.519995485093592 1.13999864363301
4.37542915344 0.2023398303394745 0.158856315752811 -1.5202122968855174 2.0542009647027872 2.050055466436567 -0.519995485093592 1.13999864363301
4.37542915344 0.2023398303394745 0.158856315752811 -1.5202122968855174 2.0542009647027872 2.050055466436567 -0.519995485093592 1.13999864363301
4.38541603088 0.1918012425409194 0.158856315752811 -1.5202122968855174 2.049951781558392 2.050046335517449 -0.519995485093592 1.13999864363301
4.38541603088 0.1918012425409194 0.158856315752811 -1.5202122968855174 2.049951781558392 2.050046335517449 -0.519995485093592 1.13999864363301
4.39546108246 0.1918012425409194 0.158856315752811 -1.5202122968855174 2.049951781558392 2.050046335517449 -0.519995485093592 1.13999864363301
4.39546108246 0.1918012425409194 0.158856315752811 -1.5202122968855174 2.049951781558392 2.050046335517449 -0.519995485093592 1.13999864363301
4.40541815758 0.1918012425409194 0.158856315752811 -1.5202122968855174 2.049951781558392 2.050046335517449 -0.519995485093592 1.13999864363301
4.40541815758 0.1918012425409194 0.158856315752811 -1.5202122968855174 2.049951781558392 2.050046335517449 -0.519995485093592 1.13999864363301
4.41544699669 0.1865242786359661 0.158856315752811 -1.5202122968855174 2.047144559481048 2.050055466436567 -0.5200000505531511 1.139994078173451
4.41544699669 0.1865242786359661 0.158856315752811 -1.5202122968855174 2.047144559481048 2.050055466436567 -0.5200000505531511 1.139994078173451
4.4253950119 0.1865242786359661 0.158856315752811 -1.5202122968855174 2.047144559481048 2.050055466436567 -0.5200000505531511 1.139994078173451
4.4253950119 0.1865242786359661 0.158856315752811 -1.5202122968855174 2.047144559481048 2.050055466436567 -0.5200000505531511 1.139994078173451
4.43548107147 0.1865242786359661 0.158856315752811 -1.5202122968855174 2.047144559481048 2.050055466436567 -0.5200000505531511 1.139994078173451
4.43548107147 0.1865242786359661 0.158856315752811 -1.5202122968855174 2.047144559481048 2.050055466436567 -0.5200000505531511 1.139994078173451
4.44542694092 0.1813700348218256 0.158856315752811 -1.5202122968855174 2.043708396938287 2.050055466436567 -0.519995485093592 1.13999864363301
4.44542694092 0.1813700348218256 0.158856315752811 -1.5202122968855174 2.043708396938287 2.050055466436567 -0.519995485093592 1.13999864363301
4.4554541111 0.1764152111552563 0.158856315752811 -1.5202122968855174 2.0401648543160658 2.050055466436567 -0.519995485093592 1.13999864363301
4.4554541111 0.1764152111552563 0.158856315752811 -1.5202122968855174 2.0401648543160658 2.050055466436567 -0.519995485093592 1.13999864363301
4.46543216705 0.1764152111552563 0.158856315752811 -1.5202122968855174 2.0401648543160658 2.050055466436567 -0.519995485093592 1.13999864363301
4.46543216705 0.1764152111552563 0.158856315752811 -1.5202122968855174 2.0401648543160658 2.050055466436567 -0.519995485093592 1.13999864363301
4.47545194626 0.1764152111552563 0.158856315752811 -1.5202122968855174 2.0401648543160658 2.050055466436567 -0.519995485093592 1.13999864363301
4.47545194626 0.1764152111552563 0.158856315752811 -1.5202122968855174 2.0401648543160658 2.050055466436567 -0.519995485093592 1.13999864363301
4.48543596268 0.1764152111552563 0.158856315752811 -1.5202122968855174 2.0401648543160658 2.050055466436567 -0.519995485093592 1.13999864363301
4.48543596268 0.1764152111552563 0.158856315752811 -1.5202122968855174 2.0401648543160658 2.050055466436567 -0.519995485093592 1.13999864363301
4.49538397789 0.1764152111552563 0.158856315752811 -1.5202122968855174 2.0401648543160658 2.050055466436567 -0.519995485093592 1.13999864363301
4.49538397789 0.1764152111552563 0.158856315752811 -1.5202122968855174 2.0401648543160658 2.050055466436567 -0.519995485093592 1.13999864363301
4.50538396835 0.1676714046848395 0.158856315752811 -1.5202122968855174 2.0322187284359328 2.050055466436567 -0.519995485093592 1.13999864363301
4.50538396835 0.1676714046848395 0.158856315752811 -1.5202122968855174 2.0322187284359328 2.050055466436567 -0.519995485093592 1.13999864363301
4.51545906067 0.1676714046848395 0.158856315752811 -1.5202122968855174 2.0322187284359328 2.050055466436567 -0.519995485093592 1.13999864363301
4.51545906067 0.1676714046848395 0.158856315752811 -1.5202122968855174 2.0322187284359328 2.050055466436567 -0.519995485093592 1.13999864363301
4.52546310425 0.1676714046848395 0.158856315752811 -1.5202122968855174 2.0322187284359328 2.050055466436567 -0.519995485093592 1.13999864363301
4.52546310425 0.1676714046848395 0.158856315752811 -1.5202122968855174 2.0322187284359328 2.050055466436567 -0.519995485093592 1.13999864363301
4.53542304039 0.1676714046848395 0.158856315752811 -1.5202122968855174 2.0322187284359328 2.050055466436567 -0.519995485093592 1.13999864363301
4.53542304039 0.1676714046848395 0.158856315752811 -1.5202122968855174 2.0322187284359328 2.050055466436567 -0.519995485093592 1.13999864363301
4.54541802406 0.1676714046848395 0.158856315752811 -1.5202122968855174 2.0322187284359328 2.050055466436567 -0.519995485093592 1.13999864363301
4.54541802406 0.1676714046848395 0.158856315752811 -1.5202122968855174 2.0322187284359328 2.050055466436567 -0.519995485093592 1.13999864363301
4.55538010597 0.1591730383960483 0.158856315752811 -1.5202122968855174 2.0240425023855253 2.050055466436567 -0.519995485093592 1.13999864363301
4.55538010597 0.1591730383960483 0.158856315752811 -1.5202122968855174 2.0240425023855253 2.050055466436567 -0.519995485093592 1.13999864363301
4.56537699699 0.1591730383960483 0.158856315752811 -1.5202122968855174 2.0240425023855253 2.050055466436567 -0.519995485093592 1.13999864363301
4.56537699699 0.1591730383960483 0.158856315752811 -1.5202122968855174 2.0240425023855253 2.050055466436567 -0.519995485093592 1.13999864363301
4.57541108131 0.1591730383960483 0.158856315752811 -1.5202122968855174 2.0240425023855253 2.050055466436567 -0.519995485093592 1.13999864363301
4.57541108131 0.1591730383960483 0.158856315752811 -1.5202122968855174 2.0240425023855253 2.050055466436567 -0.519995485093592 1.13999864363301
4.58546304703 0.1591730383960483 0.158856315752811 -1.5202122968855174 2.0240425023855253 2.050055466436567 -0.519995485093592 1.13999864363301
4.58546304703 0.1591730383960483 0.158856315752811 -1.5202122968855174 2.0240425023855253 2.050055466436567 -0.519995485093592 1.13999864363301
4.5954451561 0.1591730383960483 0.158856315752811 -1.5202122968855174 2.0240425023855253 2.050055466436567 -0.519995485093592 1.13999864363301
4.5954451561 0.1591730383960483 0.158856315752811 -1.5202122968855174 2.0240425023855253 2.050055466436567 -0.519995485093592 1.13999864363301
4.60534596443 0.1547857951494883 0.158856315752811 -1.5202122968855174 2.01979331924113 2.050055466436567 -0.519995485093592 1.13999864363301
4.60534596443 0.1547857951494883 0.158856315752811 -1.5202122968855174 2.01979331924113 2.050055466436567 -0.519995485093592 1.13999864363301
4.615473032 0.1547857951494883 0.158856315752811 -1.5202122968855174 2.01979331924113 2.050055466436567 -0.519995485093592 1.13999864363301
4.615473032 0.1547857951494883 0.158856315752811 -1.5202122968855174 2.01979331924113 2.050055466436567 -0.519995485093592 1.13999864363301
4.62545704842 0.1547857951494883 0.158856315752811 -1.5202122968855174 2.01979331924113 2.050055466436567 -0.519995485093592 1.13999864363301
4.62545704842 0.1547857951494883 0.158856315752811 -1.5202122968855174 2.01979331924113 2.050055466436567 -0.519995485093592 1.13999864363301
4.63539099693 0.1547857951494883 0.158856315752811 -1.5202122968855174 2.01979331924113 2.050055466436567 -0.519995485093592 1.13999864363301
4.63539099693 0.1547857951494883 0.158856315752811 -1.5202122968855174 2.01979331924113 2.050055466436567 -0.519995485093592 1.13999864363301
4.64539909363 0.1506439920845541 0.158856315752811 -1.5202122968855174 2.0152986959151087 2.050055466436567 -0.519995485093592 1.13999864363301
4.64539909363 0.1506439920845541 0.158856315752811 -1.5202122968855174 2.0152986959151087 2.050055466436567 -0.519995485093592 1.13999864363301
4.65545105934 0.1506439920845541 0.158856315752811 -1.5202122968855174 2.0152986959151087 2.050055466436567 -0.519995485093592 1.13999864363301
4.65545105934 0.1506439920845541 0.158856315752811 -1.5202122968855174 2.0152986959151087 2.050055466436567 -0.519995485093592 1.13999864363301
4.66534900665 0.1506439920845541 0.158856315752811 -1.5202122968855174 2.0152986959151087 2.050055466436567 -0.519995485093592 1.13999864363301
4.66534900665 0.1506439920845541 0.158856315752811 -1.5202122968855174 2.0152986959151087 2.050055466436567 -0.519995485093592 1.13999864363301
4.67542099953 0.1506439920845541 0.158856315752811 -1.5202122968855174 2.0152986959151087 2.050055466436567 -0.519995485093592 1.13999864363301
4.67542099953 0.1506439920845541 0.158856315752811 -1.5202122968855174 2.0152986959151087 2.050055466436567 -0.519995485093592 1.13999864363301
4.68535709381 0.1395378238659896 0.158856315752811 -1.5202122968855174 2.0022903662889444 2.050055466436567 -0.519995485093592 1.13999864363301
4.68535709381 0.1395378238659896 0.158856315752811 -1.5202122968855174 2.0022903662889444 2.050055466436567 -0.519995485093592 1.13999864363301
4.69542002678 0.1395378238659896 0.158856315752811 -1.5202122968855174 2.0022903662889444 2.050055466436567 -0.519995485093592 1.13999864363301
4.69542002678 0.1395378238659896 0.158856315752811 -1.5202122968855174 2.0022903662889444 2.050055466436567 -0.519995485093592 1.13999864363301
4.70539307594 0.1395378238659896 0.158856315752811 -1.5202122968855174 2.0022903662889444 2.050055466436567 -0.519995485093592 1.13999864363301
4.70539307594 0.1395378238659896 0.158856315752811 -1.5202122968855174 2.0022903662889444 2.050055466436567 -0.519995485093592 1.13999864363301
4.71540594101 0.1395378238659896 0.158856315752811 -1.5202122968855174 2.0022903662889444 2.050055466436567 -0.519995485093592 1.13999864363301
4.71540594101 0.1395378238659896 0.158856315752811 -1.5202122968855174 2.0022903662889444 2.050055466436567 -0.519995485093592 1.13999864363301
4.72543311119 0.1395378238659896 0.158856315752811 -1.5202122968855174 2.0022903662889444 2.050055466436567 -0.519995485093592 1.13999864363301
4.72543311119 0.1395378238659896 0.158856315752811 -1.5202122968855174 2.0022903662889444 2.050055466436567 -0.519995485093592 1.13999864363301
4.73536300659 0.1395378238659896 0.158856315752811 -1.5202122968855174 2.0022903662889444 2.050055466436567 -0.519995485093592 1.13999864363301
4.73536300659 0.1395378238659896 0.158856315752811 -1.5202122968855174 2.0022903662889444 2.050055466436567 -0.519995485093592 1.13999864363301
4.74546408653 0.1395378238659896 0.158856315752811 -1.5202122968855174 2.0022903662889444 2.050055466436567 -0.519995485093592 1.13999864363301
4.74546408653 0.1395378238659896 0.158856315752811 -1.5202122968855174 2.0022903662889444 2.050055466436567 -0.519995485093592 1.13999864363301
4.75541806221 0.1395378238659896 0.158856315752811 -1.5202122968855174 2.0022903662889444 2.050055466436567 -0.519995485093592 1.13999864363301
4.75541806221 0.1395378238659896 0.158856315752811 -1.5202122968855174 2.0022903662889444 2.050055466436567 -0.519995485093592 1.13999864363301
