riccardo-csl/Motion-Planning-for-TIAGo-Manipulator/T3_G_7/head_scan/head_scan/tiago_traiettorie_SG/1a-2b/place_2b_rep1.txt
time arm_1_joint arm_2_joint arm_3_joint arm_4_joint arm_5_joint arm_6_joint arm_7_joint
0.867276906967 0.8193611069352191 0.0987388112658577 -1.11413151638574 2.049875081501634 2.050055466436567 -0.5199772232553552 1.1399803817947731
0.868124008179 0.8193611069352191 0.0987388112658577 -1.11413151638574 2.049875081501634 2.050055466436567 -0.5199772232553552 1.1399803817947731
0.868124008179 0.8193611069352191 0.0987388112658577 -1.11413151638574 2.049875081501634 2.050055466436567 -0.5199772232553552 1.1399803817947731
0.878108978271 0.8193611069352191 0.0987388112658577 -1.11413151638574 2.049875081501634 2.050055466436567 -0.5199772232553552 1.1399803817947731
0.878108978271 0.8193611069352191 0.0987388112658577 -1.11413151638574 2.049875081501634 2.050055466436567 -0.5199772232553552 1.1399803817947731
0.888365983963 0.8193611069352191 0.0987388112658577 -1.11413151638574 2.049875081501634 2.050055466436567 -0.5199772232553552 1.1399803817947731
0.888365983963 0.8193611069352191 0.0987388112658577 -1.11413151638574 2.049875081501634 2.050055466436567 -0.5199772232553552 1.1399803817947731
0.898306846619 0.8193611069352191 0.0987388112658577 -1.11413151638574 2.049875081501634 2.050055466436567 -0.5199772232553552 1.1399803817947731
0.898306846619 0.8193611069352191 0.0987388112658577 -1.11413151638574 2.049875081501634 2.050055466436567 -0.5199772232553552 1.1399803817947731
0.908368825912 0.8193611069352191 0.0987388112658577 -1.11413151638574 2.049875081501634 2.050055466436567 -0.5199772232553552 1.1399803817947731
0.908368825912 0.8193611069352191 0.0987388112658577 -1.11413151638574 2.049875081501634 2.050055466436567 -0.5199772232553552 1.1399803817947731
0.918231010437 0.8193611069352191 0.0987388112658577 -1.11413151638574 2.049875081501634 2.050055466436567 -0.5199772232553552 1.1399803817947731
0.918231010437 0.8193611069352191 0.0987388112658577 -1.11413151638574 2.049875081501634 2.050055466436567 -0.5199772232553552 1.1399803817947731
0.928421020508 0.8193611069352191 0.0987388112658577 -1.11413151638574 2.049875081501634 2.050055466436567 -0.5199772232553552 1.1399803817947731
0.928421020508 0.8193611069352191 0.0987388112658577 -1.11413151638574 2.049875081501634 2.050055466436567 -0.5199772232553552 1.1399803817947731
0.938455820084 0.8193611069352191 0.0987388112658577 -1.11413151638574 2.049875081501634 2.050055466436567 -0.5199772232553552 1.1399803817947731
0.938455820084 0.8193611069352191 0.0987388112658577 -1.11413151638574 2.049875081501634 2.050055466436567 -0.5199772232553552 1.1399803817947731
0.948395967484 0.8193611069352191 0.0987388112658577 -1.11413151638574 2.049875081501634 2.050055466436567 -0.5199772232553552 1.1399803817947731
0.948395967484 0.8193611069352191 0.0987388112658577 -1.11413151638574 2.049875081501634 2.050055466436567 -0.5199772232553552 1.1399803817947731
0.958463907242 0.8193611069352191 0.0987388112658577 -1.11413151638574 2.049875081501634 2.050055466436567 -0.5199772232553552 1.1399803817947731
0.958463907242 0.8193611069352191 0.0987388112658577 -1.11413151638574 2.049875081501634 2.050055466436567 -0.5199772232553552 1.1399803817947731
0.968329906464 0.8193611069352191 0.0987388112658577 -1.11413151638574 2.049875081501634 2.050055466436567 -0.5199772232553552 1.1399803817947731
0.968329906464 0.8193611069352191 0.0987388112658577 -1.11413151638574 2.049875081501634 2.050055466436567 -0.5199772232553552 1.1399803817947731
0.978382825851 0.8193611069352191 0.0987388112658577 -1.11413151638574 2.049875081501634 2.050055466436567 -0.5199772232553552 1.1399803817947731
0.978382825851 0.8193611069352191 0.0987388112658577 -1.11413151638574 2.049875081501634 2.050055466436567 -0.5199772232553552 1.1399803817947731
0.988426923752 0.8193611069352191 0.0987388112658577 -1.11413151638574 2.049875081501634 2.050055466436567 -0.5199772232553552 1.1399803817947731
0.988426923752 0.8193611069352191 0.0987388112658577 -1.11413151638574 2.049875081501634 2.050055466436567 -0.5199772232553552 1.1399803817947731
0.998624801636 0.8193611069352191 0.0987388112658577 -1.11413151638574 2.049875081501634 2.050055466436567 -0.5199772232553552 1.1399803817947731
0.998624801636 0.8193611069352191 0.0987388112658577 -1.11413151638574 2.049875081501634 2.050055466436567 -0.5199772232553552 1.1399803817947731
1.00838589668 0.8193611069352191 0.0987388112658577 -1.11413151638574 2.049875081501634 2.050055466436567 -0.5199772232553552 1.1399803817947731
1.00838589668 0.8193611069352191 0.0987388112658577 -1.11413151638574 2.049875081501634 2.050055466436567 -0.5199772232553552 1.1399803817947731
1.01852202415 0.8193611069352191 0.0987388112658577 -1.11413151638574 2.049875081501634 2.050055466436567 -0.5199772232553552 1.1399803817947731
1.01852202415 0.8193611069352191 0.0987388112658577 -1.11413151638574 2.049875081501634 2.050055466436567 -0.5199772232553552 1.1399803817947731
1.02838897705 0.8193611069352191 0.0987388112658577 -1.11413151638574 2.049875081501634 2.050055466436567 -0.5199772232553552 1.1399803817947731
1.02838897705 0.8193611069352191 0.0987388112658577 -1.11413151638574 2.049875081501634 2.050055466436567 -0.5199772232553552 1.1399803817947731
1.03847980499 0.8193611069352191 0.0987388112658577 -1.11413151638574 2.049875081501634 2.050055466436567 -0.5199772232553552 1.1399803817947731
1.03847980499 0.8193611069352191 0.0987388112658577 -1.11413151638574 2.049875081501634 2.050055466436567 -0.5199772232553552 1.1399803817947731
1.0483789444 0.8193611069352191 0.0987388112658577 -1.11413151638574 2.049875081501634 2.050055466436567 -0.5199772232553552 1.1399803817947731
1.0483789444 0.8193611069352191 0.0987388112658577 -1.11413151638574 2.049875081501634 2.050055466436567 -0.5199772232553552 1.1399803817947731
1.05810189247 0.8193611069352191 0.0987388112658577 -1.11413151638574 2.049875081501634 2.050055466436567 -0.5199772232553552 1.1399803817947731
1.05810189247 0.8193611069352191 0.0987388112658577 -1.11413151638574 2.049875081501634 2.050055466436567 -0.5199772232553552 1.1399803817947731
1.06819987297 0.8193611069352191 0.0987388112658577 -1.11413151638574 2.049875081501634 2.050055466436567 -0.5199772232553552 1.1399803817947731
1.06819987297 0.8193611069352191 0.0987388112658577 -1.11413151638574 2.049875081501634 2.050055466436567 -0.5199772232553552 1.1399803817947731
1.07845401764 0.8193611069352191 0.0987388112658577 -1.11413151638574 2.049875081501634 2.050055466436567 -0.5199772232553552 1.1399803817947731
1.07845401764 0.8193611069352191 0.0987388112658577 -1.11413151638574 2.049875081501634 2.050055466436567 -0.5199772232553552 1.1399803817947731
1.08831691742 0.8193611069352191 0.0987388112658577 -1.11413151638574 2.049875081501634 2.050055466436567 -0.5199772232553552 1.1399803817947731
1.08831691742 0.8193611069352191 0.0987388112658577 -1.11413151638574 2.049875081501634 2.050055466436567 -0.5199772232553552 1.1399803817947731
1.09835100174 0.8193611069352191 0.0987388112658577 -1.11413151638574 2.049875081501634 2.050055466436567 -0.5199772232553552 1.1399803817947731
1.09835100174 0.8193611069352191 0.0987388112658577 -1.11413151638574 2.049875081501634 2.050055466436567 -0.5199772232553552 1.1399803817947731
1.10837602615 0.8193611069352191 0.0987388112658577 -1.11413151638574 2.049875081501634 2.050055466436567 -0.5199772232553552 1.1399803817947731
1.10837602615 0.8193611069352191 0.0987388112658577 -1.11413151638574 2.049875081501634 2.050055466436567 -0.5199772232553552 1.1399803817947731
1.11841201782 0.8193611069352191 0.0987388112658577 -1.11413151638574 2.049875081501634 2.050055466436567 -0.5199772232553552 1.1399803817947731
1.11841201782 0.8193611069352191 0.0987388112658577 -1.11413151638574 2.049875081501634 2.050055466436567 -0.5199772232553552 1.1399803817947731
1.13031983376 0.8193611069352191 0.0987388112658577 -1.11413151638574 2.049875081501634 2.050055466436567 -0.5199772232553552 1.1399803817947731
1.13031983376 0.8193611069352191 0.0987388112658577 -1.11413151638574 2.049875081501634 2.050055466436567 -0.5199772232553552 1.1399803817947731
1.13820791245 0.8193611069352191 0.0987388112658577 -1.11413151638574 2.049875081501634 2.050055466436567 -0.5199772232553552 1.1399803817947731
1.13820791245 0.8193611069352191 0.0987388112658577 -1.11413151638574 2.049875081501634 2.050055466436567 -0.5199772232553552 1.1399803817947731
1.14846801758 0.8193611069352191 0.0987388112658577 -1.11413151638574 2.049875081501634 2.050055466436567 -0.5199772232553552 1.1399803817947731
1.14846801758 0.8193611069352191 0.0987388112658577 -1.11413151638574 2.049875081501634 2.050055466436567 -0.5199772232553552 1.1399803817947731
1.15845394135 0.8193611069352191 0.0987388112658577 -1.11413151638574 2.049875081501634 2.050055466436567 -0.5199772232553552 1.1399803817947731
1.15845394135 0.8193611069352191 0.0987388112658577 -1.11413151638574 2.049875081501634 2.050055466436567 -0.5199772232553552 1.1399803817947731
1.16838097572 0.8193611069352191 0.0987388112658577 -1.11413151638574 2.049875081501634 2.050055466436567 -0.5199772232553552 1.1399803817947731
1.16838097572 0.8193611069352191 0.0987388112658577 -1.11413151638574 2.049875081501634 2.050055466436567 -0.5199772232553552 1.1399803817947731
1.17852687836 0.8193611069352191 0.0987388112658577 -1.11413151638574 2.049875081501634 2.050055466436567 -0.5199772232553552 1.1399803817947731
1.17852687836 0.8193611069352191 0.0987388112658577 -1.11413151638574 2.049875081501634 2.050055466436567 -0.5199772232553552 1.1399803817947731
1.18831396103 0.8193611069352191 0.0987388112658577 -1.11413151638574 2.049875081501634 2.050055466436567 -0.5199772232553552 1.1399803817947731
1.18831396103 0.8193611069352191 0.0987388112658577 -1.11413151638574 2.049875081501634 2.050055466436567 -0.5199772232553552 1.1399803817947731
1.19828391075 0.8193611069352191 0.0987388112658577 -1.11413151638574 2.049875081501634 2.050055466436567 -0.5199772232553552 1.1399803817947731
1.19828391075 0.8193611069352191 0.0987388112658577 -1.11413151638574 2.049875081501634 2.050055466436567 -0.5199772232553552 1.1399803817947731
1.20834994316 0.8193611069352191 0.0987388112658577 -1.11413151638574 2.049875081501634 2.050055466436567 -0.5199772232553552 1.1399803817947731
1.20834994316 0.8193611069352191 0.0987388112658577 -1.11413151638574 2.049875081501634 2.050055466436567 -0.5199772232553552 1.1399803817947731
1.21842098236 0.8193611069352191 0.0987388112658577 -1.11413151638574 2.049875081501634 2.050055466436567 -0.5199772232553552 1.1399803817947731
1.21842098236 0.8193611069352191 0.0987388112658577 -1.11413151638574 2.049875081501634 2.050055466436567 -0.5199772232553552 1.1399803817947731
1.22837090492 0.8193611069352191 0.0987388112658577 -1.11413151638574 2.049875081501634 2.050055466436567 -0.5199772232553552 1.1399803817947731
1.22837090492 0.8193611069352191 0.0987388112658577 -1.11413151638574 2.049875081501634 2.050055466436567 -0.5199772232553552 1.1399803817947731
1.23853993416 0.8193611069352191 0.0987388112658577 -1.11413151638574 2.049875081501634 2.050055466436567 -0.5199772232553552 1.1399803817947731
1.23853993416 0.8193611069352191 0.0987388112658577 -1.11413151638574 2.049875081501634 2.050055466436567 -0.5199772232553552 1.1399803817947731
1.2482919693 0.8193611069352191 0.0987388112658577 -1.11413151638574 2.049875081501634 2.050055466436567 -0.5199772232553552 1.1399803817947731
1.2482919693 0.8193611069352191 0.0987388112658577 -1.11413151638574 2.049875081501634 2.050055466436567 -0.5199772232553552 1.1399803817947731
1.2585170269 0.8193611069352191 0.0987388112658577 -1.11413151638574 2.049875081501634 2.050055466436567 -0.5199772232553552 1.1399803817947731
1.2585170269 0.8193611069352191 0.0987388112658577 -1.11413151638574 2.049875081501634 2.050055466436567 -0.5199772232553552 1.1399803817947731
1.26863694191 0.8193611069352191 0.0987388112658577 -1.11413151638574 2.049875081501634 2.050055466436567 -0.5199772232553552 1.1399803817947731
1.26863694191 0.8193611069352191 0.0987388112658577 -1.11413151638574 2.049875081501634 2.050055466436567 -0.5199772232553552 1.1399803817947731
1.27846384048 0.8193611069352191 0.0987388112658577 -1.11413151638574 2.049875081501634 2.050055466436567 -0.5199772232553552 1.1399803817947731
1.27846384048 0.8193611069352191 0.0987388112658577 -1.11413151638574 2.049875081501634 2.050055466436567 -0.5199772232553552 1.1399803817947731
1.28840684891 0.8193611069352191 0.0987388112658577 -1.11413151638574 2.049875081501634 2.050055466436567 -0.5199772232553552 1.1399803817947731
1.28840684891 0.8193611069352191 0.0987388112658577 -1.11413151638574 2.049875081501634 2.050055466436567 -0.5199772232553552 1.1399803817947731
1.29833602905 0.8193611069352191 0.0987388112658577 -1.11413151638574 2.049875081501634 2.050055466436567 -0.5199772232553552 1.1399803817947731
1.29833602905 0.8193611069352191 0.0987388112658577 -1.11413151638574 2.049875081501634 2.050055466436567 -0.5199772232553552 1.1399803817947731
1.30825901031 0.8193611069352191 0.0987388112658577 -1.11413151638574 2.049875081501634 2.050055466436567 -0.5199772232553552 1.1399803817947731
1.30825901031 0.8193611069352191 0.0987388112658577 -1.11413151638574 2.049875081501634 2.050055466436567 -0.5199772232553552 1.1399803817947731
1.31832480431 0.8193611069352191 0.0987388112658577 -1.11413151638574 2.049875081501634 2.050055466436567 -0.5199772232553552 1.1399803817947731
1.31832480431 0.8193611069352191 0.0987388112658577 -1.11413151638574 2.049875081501634 2.050055466436567 -0.5199772232553552 1.1399803817947731
1.32829499245 0.8193611069352191 0.0987388112658577 -1.11413151638574 2.049875081501634 2.050055466436567 -0.5199772232553552 1.1399803817947731
1.32829499245 0.8193611069352191 0.0987388112658577 -1.11413151638574 2.049875081501634 2.050055466436567 -0.5199772232553552 1.1399803817947731
1.33816289902 0.8193611069352191 0.0987388112658577 -1.11413151638574 2.049875081501634 2.050055466436567 -0.5199772232553552 1.1399803817947731
1.33816289902 0.8193611069352191 0.0987388112658577 -1.11413151638574 2.049875081501634 2.050055466436567 -0.5199772232553552 1.1399803817947731
1.34835791588 0.8193611069352191 0.0987388112658577 -1.11413151638574 2.049875081501634 2.050055466436567 -0.5199772232553552 1.1399803817947731
1.34835791588 0.8193611069352191 0.0987388112658577 -1.11413151638574 2.049875081501634 2.050055466436567 -0.5199772232553552 1.1399803817947731
1.35849690437 0.8193611069352191 0.0987388112658577 -1.11413151638574 2.049875081501634 2.050055466436567 -0.5199772232553552 1.1399803817947731
1.35849690437 0.8193611069352191 0.0987388112658577 -1.11413151638574 2.049875081501634 2.050055466436567 -0.5199772232553552 1.1399803817947731
1.36830496788 0.8193611069352191 0.0987388112658577 -1.11413151638574 2.049875081501634 2.050055466436567 -0.5199772232553552 1.1399803817947731
1.36830496788 0.8193611069352191 0.0987388112658577 -1.11413151638574 2.049875081501634 2.050055466436567 -0.5199772232553552 1.1399803817947731
1.37845897675 0.8193611069352191 0.0987388112658577 -1.11413151638574 2.049875081501634 2.050055466436567 -0.5199772232553552 1.1399803817947731
1.37845897675 0.8193611069352191 0.0987388112658577 -1.11413151638574 2.049875081501634 2.050055466436567 -0.5199772232553552 1.1399803817947731
1.38843584061 0.8193611069352191 0.0987388112658577 -1.11413151638574 2.049875081501634 2.050055466436567 -0.5199772232553552 1.1399803817947731
1.38843584061 0.8193611069352191 0.0987388112658577 -1.11413151638574 2.049875081501634 2.050055466436567 -0.5199772232553552 1.1399803817947731
1.39837098122 0.8193611069352191 0.0987388112658577 -1.11413151638574 2.049875081501634 2.050055466436567 -0.5199772232553552 1.1399803817947731
1.39837098122 0.8193611069352191 0.0987388112658577 -1.11413151638574 2.049875081501634 2.050055466436567 -0.5199772232553552 1.1399803817947731
1.40814685822 0.8193611069352191 0.0987388112658577 -1.11413151638574 2.049875081501634 2.050055466436567 -0.5199772232553552 1.1399803817947731
1.40814685822 0.8193611069352191 0.0987388112658577 -1.11413151638574 2.049875081501634 2.050055466436567 -0.5199772232553552 1.1399803817947731
1.41842699051 0.8193611069352191 0.0987388112658577 -1.11413151638574 2.049875081501634 2.050055466436567 -0.5199772232553552 1.1399803817947731
1.41842699051 0.8193611069352191 0.0987388112658577 -1.11413151638574 2.049875081501634 2.050055466436567 -0.5199772232553552 1.1399803817947731
1.42839789391 0.8193611069352191 0.0987388112658577 -1.11413151638574 2.049875081501634 2.050055466436567 -0.5199772232553552 1.1399803817947731
1.42839789391 0.8193611069352191 0.0987388112658577 -1.11413151638574 2.049875081501634 2.050055466436567 -0.5199772232553552 1.1399803817947731
1.43852186203 0.8193611069352191 0.0987388112658577 -1.11413151638574 2.049875081501634 2.050055466436567 -0.5199772232553552 1.1399803817947731
1.43852186203 0.8193611069352191 0.0987388112658577 -1.11413151638574 2.049875081501634 2.050055466436567 -0.5199772232553552 1.1399803817947731
1.44845080376 0.8193611069352191 0.0987388112658577 -1.11413151638574 2.049875081501634 2.050055466436567 -0.5199772232553552 1.1399803817947731
1.44845080376 0.8193611069352191 0.0987388112658577 -1.11413151638574 2.049875081501634 2.050055466436567 -0.5199772232553552 1.1399803817947731
1.45847392082 0.8193611069352191 0.0987388112658577 -1.11413151638574 2.049875081501634 2.050055466436567 -0.5199772232553552 1.1399803817947731
1.45847392082 0.8193611069352191 0.0987388112658577 -1.11413151638574 2.049875081501634 2.050055466436567 -0.5199772232553552 1.1399803817947731
1.46841883659 0.8193611069352191 0.0987388112658577 -1.11413151638574 2.049875081501634 2.050055466436567 -0.5199772232553552 1.1399803817947731
1.46841883659 0.8193611069352191 0.0987388112658577 -1.11413151638574 2.049875081501634 2.050055466436567 -0.5199772232553552 1.1399803817947731
1.47849082947 0.8193611069352191 0.0987388112658577 -1.11413151638574 2.049875081501634 2.050055466436567 -0.5199772232553552 1.1399803817947731
1.47849082947 0.8193611069352191 0.0987388112658577 -1.11413151638574 2.049875081501634 2.050055466436567 -0.5199772232553552 1.1399803817947731
1.48834991455 0.8193611069352191 0.0987388112658577 -1.11413151638574 2.049875081501634 2.050055466436567 -0.5199772232553552 1.1399803817947731
1.48834991455 0.8193611069352191 0.0987388112658577 -1.11413151638574 2.049875081501634 2.050055466436567 -0.5199772232553552 1.1399803817947731
1.49849581718 0.8193611069352191 0.0987388112658577 -1.11413151638574 2.049875081501634 2.050055466436567 -0.5199772232553552 1.1399803817947731
1.49849581718 0.8193611069352191 0.0987388112658577 -1.11413151638574 2.049875081501634 2.050055466436567 -0.5199772232553552 1.1399803817947731
1.50845885277 0.8193611069352191 0.0987388112658577 -1.11413151638574 2.049875081501634 2.050055466436567 -0.5199772232553552 1.1399803817947731
1.50845885277 0.8193611069352191 0.0987388112658577 -1.11413151638574 2.049875081501634 2.050055466436567 -0.5199772232553552 1.1399803817947731
1.51817202568 0.8193611069352191 0.0987388112658577 -1.11413151638574 2.049875081501634 2.050055466436567 -0.5199772232553552 1.1399803817947731
1.51817202568 0.8193611069352191 0.0987388112658577 -1.11413151638574 2.049875081501634 2.050055466436567 -0.5199772232553552 1.1399803817947731
1.52833390236 0.8193611069352191 0.0987388112658577 -1.11413151638574 2.049875081501634 2.050055466436567 -0.5199772232553552 1.1399803817947731
1.52833390236 0.8193611069352191 0.0987388112658577 -1.11413151638574 2.049875081501634 2.050055466436567 -0.5199772232553552 1.1399803817947731
1.53854298592 0.8193611069352191 0.0987388112658577 -1.11413151638574 2.049875081501634 2.050055466436567 -0.5199772232553552 1.1399803817947731
1.53854298592 0.8193611069352191 0.0987388112658577 -1.11413151638574 2.049875081501634 2.050055466436567 -0.5199772232553552 1.1399803817947731
1.54844594002 0.8193611069352191 0.0987388112658577 -1.11413151638574 2.049875081501634 2.050055466436567 -0.5199772232553552 1.1399803817947731
1.54844594002 0.8193611069352191 0.0987388112658577 -1.11413151638574 2.049875081501634 2.050055466436567 -0.5199772232553552 1.1399803817947731
1.55854892731 0.8193611069352191 0.0987388112658577 -1.11413151638574 2.049875081501634 2.050055466436567 -0.5199772232553552 1.1399803817947731
1.55854892731 0.8193611069352191 0.0987388112658577 -1.11413151638574 2.049875081501634 2.050055466436567 -0.5199772232553552 1.1399803817947731
1.5683619976 0.8193611069352191 0.0987388112658577 -1.11413151638574 2.049875081501634 2.050055466436567 -0.5199772232553552 1.1399803817947731
1.5683619976 0.8193611069352191 0.0987388112658577 -1.11413151638574 2.049875081501634 2.050055466436567 -0.5199772232553552 1.1399803817947731
1.57837080956 0.8193611069352191 0.0987388112658577 -1.11413151638574 2.049875081501634 2.050055466436567 -0.5199772232553552 1.1399803817947731
1.57837080956 0.8193611069352191 0.0987388112658577 -1.11413151638574 2.049875081501634 2.050055466436567 -0.5199772232553552 1.1399803817947731
1.58829283714 0.8193611069352191 0.0987388112658577 -1.11413151638574 2.049875081501634 2.050055466436567 -0.5199772232553552 1.1399803817947731
1.58829283714 0.8193611069352191 0.0987388112658577 -1.11413151638574 2.049875081501634 2.050055466436567 -0.5199772232553552 1.1399803817947731
1.59850382805 0.8193611069352191 0.0987388112658577 -1.11413151638574 2.049875081501634 2.050055466436567 -0.5199772232553552 1.1399803817947731
1.59850382805 0.8193611069352191 0.0987388112658577 -1.11413151638574 2.049875081501634 2.050055466436567 -0.5199772232553552 1.1399803817947731
1.60912299156 0.8193611069352191 0.0987388112658577 -1.11413151638574 2.049875081501634 2.050055466436567 -0.5199772232553552 1.1399803817947731
1.60912299156 0.8193611069352191 0.0987388112658577 -1.11413151638574 2.049875081501634 2.050055466436567 -0.5199772232553552 1.1399803817947731
1.61804485321 0.8193611069352191 0.0987388112658577 -1.11413151638574 2.049875081501634 2.050055466436567 -0.5199772232553552 1.1399803817947731
1.61804485321 0.8193611069352191 0.0987388112658577 -1.11413151638574 2.049875081501634 2.050055466436567 -0.5199772232553552 1.1399803817947731
1.62800502777 0.8193611069352191 0.0987388112658577 -1.11413151638574 2.049875081501634 2.050055466436567 -0.5199772232553552 1.1399803817947731
1.62800502777 0.8193611069352191 0.0987388112658577 -1.11413151638574 2.049875081501634 2.050055466436567 -0.5199772232553552 1.1399803817947731
1.63825583458 0.8193611069352191 0.0987388112658577 -1.11413151638574 2.049875081501634 2.050055466436567 -0.5199772232553552 1.1399803817947731
1.63825583458 0.8193611069352191 0.0987388112658577 -1.11413151638574 2.049875081501634 2.050055466436567 -0.5199772232553552 1.1399803817947731
1.6482667923 0.8193611069352191 0.0987388112658577 -1.11413151638574 2.049875081501634 2.050055466436567 -0.5199772232553552 1.1399803817947731
1.6482667923 0.8193611069352191 0.0987388112658577 -1.11413151638574 2.049875081501634 2.050055466436567 -0.5199772232553552 1.1399803817947731
1.6584649086 0.8193611069352191 0.0987388112658577 -1.11413151638574 2.049875081501634 2.050055466436567 -0.5199772232553552 1.1399803817947731
1.6584649086 0.8193611069352191 0.0987388112658577 -1.11413151638574 2.049875081501634 2.050055466436567 -0.5199772232553552 1.1399803817947731
1.66840386391 0.8193611069352191 0.0987388112658577 -1.11413151638574 2.049875081501634 2.050055466436567 -0.5199772232553552 1.1399803817947731
1.66840386391 0.8193611069352191 0.0987388112658577 -1.11413151638574 2.049875081501634 2.050055466436567 -0.5199772232553552 1.1399803817947731
1.67847180367 0.8193611069352191 0.0987388112658577 -1.11413151638574 2.049875081501634 2.050055466436567 -0.5199772232553552 1.1399803817947731
1.67847180367 0.8193611069352191 0.0987388112658577 -1.11413151638574 2.049875081501634 2.050055466436567 -0.5199772232553552 1.1399803817947731
1.6883687973 0.8193611069352191 0.0987388112658577 -1.11413151638574 2.049875081501634 2.050055466436567 -0.5199772232553552 1.1399803817947731
1.6883687973 0.8193611069352191 0.0987388112658577 -1.11413151638574 2.049875081501634 2.050055466436567 -0.5199772232553552 1.1399803817947731
1.69848394394 0.8193611069352191 0.0987388112658577 -1.11413151638574 2.049875081501634 2.050055466436567 -0.5199772232553552 1.1399803817947731
1.69848394394 0.8193611069352191 0.0987388112658577 -1.11413151638574 2.049875081501634 2.050055466436567 -0.5199772232553552 1.1399803817947731
1.70829987526 0.8193611069352191 0.0987388112658577 -1.11413151638574 2.049875081501634 2.050055466436567 -0.5199772232553552 1.1399803817947731
1.70829987526 0.8193611069352191 0.0987388112658577 -1.11413151638574 2.049875081501634 2.050055466436567 -0.5199772232553552 1.1399803817947731
1.71847581863 0.8193611069352191 0.0987388112658577 -1.11413151638574 2.049875081501634 2.050055466436567 -0.5199772232553552 1.1399803817947731
1.71847581863 0.8193611069352191 0.0987388112658577 -1.11413151638574 2.049875081501634 2.050055466436567 -0.5199772232553552 1.1399803817947731
1.72823095322 0.8193611069352191 0.0987388112658577 -1.11413151638574 2.049875081501634 2.050055466436567 -0.5199772232553552 1.1399803817947731
1.72823095322 0.8193611069352191 0.0987388112658577 -1.11413151638574 2.049875081501634 2.050055466436567 -0.5199772232553552 1.1399803817947731
1.73842692375 0.8193611069352191 0.0987388112658577 -1.11413151638574 2.049875081501634 2.050055466436567 -0.5199772232553552 1.1399803817947731
1.73842692375 0.8193611069352191 0.0987388112658577 -1.11413151638574 2.049875081501634 2.050055466436567 -0.5199772232553552 1.1399803817947731
1.74826383591 0.8193611069352191 0.0987388112658577 -1.11413151638574 2.049875081501634 2.050055466436567 -0.5199772232553552 1.1399803817947731
1.74826383591 0.8193611069352191 0.0987388112658577 -1.11413151638574 2.049875081501634 2.050055466436567 -0.5199772232553552 1.1399803817947731
1.75843596458 0.8193611069352191 0.0987388112658577 -1.11413151638574 2.049875081501634 2.050055466436567 -0.5199772232553552 1.1399803817947731
1.75843596458 0.8193611069352191 0.0987388112658577 -1.11413151638574 2.049875081501634 2.050055466436567 -0.5199772232553552 1.1399803817947731
1.76845002174 0.8193611069352191 0.0987388112658577 -1.11413151638574 2.049875081501634 2.050055466436567 -0.5199772232553552 1.1399803817947731
1.76845002174 0.8193611069352191 0.0987388112658577 -1.11413151638574 2.049875081501634 2.050055466436567 -0.5199772232553552 1.1399803817947731
1.77836489677 0.8193611069352191 0.0987388112658577 -1.11413151638574 2.049875081501634 2.050055466436567 -0.5199772232553552 1.1399803817947731
1.77836489677 0.8193611069352191 0.0987388112658577 -1.11413151638574 2.049875081501634 2.050055466436567 -0.5199772232553552 1.1399803817947731
1.78826498985 0.8193611069352191 0.0987388112658577 -1.11413151638574 2.049875081501634 2.050055466436567 -0.5199772232553552 1.1399803817947731
1.78826498985 0.8193611069352191 0.0987388112658577 -1.11413151638574 2.049875081501634 2.050055466436567 -0.5199772232553552 1.1399803817947731
1.79840898514 0.8193611069352191 0.0987388112658577 -1.11413151638574 2.049875081501634 2.050055466436567 -0.5199772232553552 1.1399803817947731
1.79840898514 0.8193611069352191 0.0987388112658577 -1.11413151638574 2.049875081501634 2.050055466436567 -0.5199772232553552 1.1399803817947731
1.80836987495 0.8193611069352191 0.0987388112658577 -1.11413151638574 2.049875081501634 2.050055466436567 -0.5199772232553552 1.1399803817947731
1.80836987495 0.8193611069352191 0.0987388112658577 -1.11413151638574 2.049875081501634 2.050055466436567 -0.5199772232553552 1.1399803817947731
1.81851100922 0.8193611069352191 0.0987388112658577 -1.11413151638574 2.049875081501634 2.050055466436567 -0.5199772232553552 1.1399803817947731
1.81851100922 0.8193611069352191 0.0987388112658577 -1.11413151638574 2.049875081501634 2.050055466436567 -0.5199772232553552 1.1399803817947731
1.82853889465 0.8193611069352191 0.0987388112658577 -1.11413151638574 2.049875081501634 2.050055466436567 -0.5199772232553552 1.1399803817947731
1.82853889465 0.8193611069352191 0.0987388112658577 -1.11413151638574 2.049875081501634 2.050055466436567 -0.5199772232553552 1.1399803817947731
1.83832502365 0.8193611069352191 0.0987388112658577 -1.11413151638574 2.049875081501634 2.050055466436567 -0.5199772232553552 1.1399803817947731
1.83832502365 0.8193611069352191 0.0987388112658577 -1.11413151638574 2.049875081501634 2.050055466436567 -0.5199772232553552 1.1399803817947731
1.84837579727 0.8193611069352191 0.0987388112658577 -1.11413151638574 2.049875081501634 2.050055466436567 -0.5199772232553552 1.1399803817947731
1.84837579727 0.8193611069352191 0.0987388112658577 -1.11413151638574 2.049875081501634 2.050055466436567 -0.5199772232553552 1.1399803817947731
1.85847091675 0.8193611069352191 0.0987388112658577 -1.11413151638574 2.049875081501634 2.050055466436567 -0.5199772232553552 1.1399803817947731
1.85847091675 0.8193611069352191 0.0987388112658577 -1.11413151638574 2.049875081501634 2.050055466436567 -0.5199772232553552 1.1399803817947731
1.8682718277 0.8193611069352191 0.0987388112658577 -1.11413151638574 2.049875081501634 2.050055466436567 -0.5199772232553552 1.1399803817947731
1.8682718277 0.8193611069352191 0.0987388112658577 -1.11413151638574 2.049875081501634 2.050055466436567 -0.5199772232553552 1.1399803817947731
1.87844586372 0.8193611069352191 0.0987388112658577 -1.11413151638574 2.049875081501634 2.050055466436567 -0.5199772232553552 1.1399803817947731
1.87844586372 0.8193611069352191 0.0987388112658577 -1.11413151638574 2.049875081501634 2.050055466436567 -0.5199772232553552 1.1399803817947731
1.88849902153 0.8193611069352191 0.0987388112658577 -1.11413151638574 2.049875081501634 2.050055466436567 -0.5199772232553552 1.1399803817947731
1.88849902153 0.8193611069352191 0.0987388112658577 -1.11413151638574 2.049875081501634 2.050055466436567 -0.5199772232553552 1.1399803817947731
1.89831900597 0.8193611069352191 0.0987388112658577 -1.11413151638574 2.049875081501634 2.050055466436567 -0.5199772232553552 1.1399803817947731
1.89831900597 0.8193611069352191 0.0987388112658577 -1.11413151638574 2.049875081501634 2.050055466436567 -0.5199772232553552 1.1399803817947731
1.90840792656 0.8193611069352191 0.0987388112658577 -1.11413151638574 2.049875081501634 2.050055466436567 -0.5199772232553552 1.1399803817947731
1.90840792656 0.8193611069352191 0.0987388112658577 -1.11413151638574 2.049875081501634 2.050055466436567 -0.5199772232553552 1.1399803817947731
1.91849589348 0.8193611069352191 0.0987388112658577 -1.11413151638574 2.049875081501634 2.050055466436567 -0.5199772232553552 1.1399803817947731
1.91849589348 0.8193611069352191 0.0987388112658577 -1.11413151638574 2.049875081501634 2.050055466436567 -0.5199772232553552 1.1399803817947731
1.92828202248 0.8193611069352191 0.0987388112658577 -1.11413151638574 2.049875081501634 2.050055466436567 -0.5199772232553552 1.1399803817947731
1.92828202248 0.8193611069352191 0.0987388112658577 -1.11413151638574 2.049875081501634 2.050055466436567 -0.5199772232553552 1.1399803817947731
1.9385638237 0.8193611069352191 0.0987388112658577 -1.11413151638574 2.049875081501634 2.050055466436567 -0.5199772232553552 1.1399803817947731
1.9385638237 0.8193611069352191 0.0987388112658577 -1.11413151638574 2.049875081501634 2.050055466436567 -0.5199772232553552 1.1399803817947731
1.94824099541 0.8193611069352191 0.0987388112658577 -1.11413151638574 2.049875081501634 2.050055466436567 -0.5199772232553552 1.1399803817947731
1.94824099541 0.8193611069352191 0.0987388112658577 -1.11413151638574 2.049875081501634 2.050055466436567 -0.5199772232553552 1.1399803817947731
1.95847201347 0.8193611069352191 0.0987388112658577 -1.11413151638574 2.049875081501634 2.050055466436567 -0.5199772232553552 1.1399803817947731
1.95847201347 0.8193611069352191 0.0987388112658577 -1.11413151638574 2.049875081501634 2.050055466436567 -0.5199772232553552 1.1399803817947731
1.96827602386 0.8193611069352191 0.0987388112658577 -1.11413151638574 2.049875081501634 2.050055466436567 -0.5199772232553552 1.1399803817947731
1.96827602386 0.8193611069352191 0.0987388112658577 -1.11413151638574 2.049875081501634 2.050055466436567 -0.5199772232553552 1.1399803817947731
1.9781999588 0.8193611069352191 0.0987388112658577 -1.11413151638574 2.049875081501634 2.050055466436567 -0.5199772232553552 1.1399803817947731
1.9781999588 0.8193611069352191 0.0987388112658577 -1.11413151638574 2.049875081501634 2.050055466436567 -0.5199772232553552 1.1399803817947731
1.98831391335 0.8193611069352191 0.0987388112658577 -1.11413151638574 2.049875081501634 2.050046335517449 -0.5199772232553552 1.1399803817947731
1.98831391335 0.8193611069352191 0.0987388112658577 -1.11413151638574 2.049875081501634 2.050046335517449 -0.5199772232553552 1.1399803817947731
1.99847483635 0.8193611069352191 0.0987388112658577 -1.11413151638574 2.049875081501634 2.050046335517449 -0.5199772232553552 1.1399803817947731
1.99847483635 0.8193611069352191 0.0987388112658577 -1.11413151638574 2.049875081501634 2.050046335517449 -0.5199772232553552 1.1399803817947731
2.00822281837 0.8193611069352191 0.0987388112658577 -1.11413151638574 2.049875081501634 2.050046335517449 -0.5199772232553552 1.1399803817947731
2.00822281837 0.8193611069352191 0.0987388112658577 -1.11413151638574 2.049875081501634 2.050046335517449 -0.5199772232553552 1.1399803817947731
2.01824688911 0.8193611069352191 0.0987388112658577 -1.11413151638574 2.049875081501634 2.050055466436567 -0.5199772232553552 1.1399803817947731
2.01824688911 0.8193611069352191 0.0987388112658577 -1.11413151638574 2.049875081501634 2.050055466436567 -0.5199772232553552 1.1399803817947731
2.02838087082 0.8193611069352191 0.0987388112658577 -1.11413151638574 2.049875081501634 2.050055466436567 -0.5199772232553552 1.1399803817947731
2.02838087082 0.8193611069352191 0.0987388112658577 -1.11413151638574 2.049875081501634 2.050055466436567 -0.5199772232553552 1.1399803817947731
2.03848981857 0.8193611069352191 0.0987388112658577 -1.11413151638574 2.049875081501634 2.050055466436567 -0.5199772232553552 1.1399803817947731
2.03848981857 0.8193611069352191 0.0987388112658577 -1.11413151638574 2.049875081501634 2.050055466436567 -0.5199772232553552 1.1399803817947731
2.04843902588 0.8193611069352191 0.0987388112658577 -1.11413151638574 2.049875081501634 2.050055466436567 -0.5199772232553552 1.1399803817947731
2.04843902588 0.8193611069352191 0.0987388112658577 -1.11413151638574 2.049875081501634 2.050055466436567 -0.5199772232553552 1.1399803817947731
2.0583178997 0.8193611069352191 0.0987388112658577 -1.11413151638574 2.049875081501634 2.050055466436567 -0.5199772232553552 1.1399803817947731
2.0583178997 0.8193611069352191 0.0987388112658577 -1.11413151638574 2.049875081501634 2.050055466436567 -0.5199772232553552 1.1399803817947731
2.06842899323 0.8193611069352191 0.0987388112658577 -1.11413151638574 2.049875081501634 2.050055466436567 -0.5199772232553552 1.1399803817947731
2.06842899323 0.8193611069352191 0.0987388112658577 -1.11413151638574 2.049875081501634 2.050055466436567 -0.5199772232553552 1.1399803817947731
2.07854890823 0.8193611069352191 0.0987388112658577 -1.11413151638574 2.049875081501634 2.050055466436567 -0.5199772232553552 1.1399803817947731
2.07854890823 0.8193611069352191 0.0987388112658577 -1.11413151638574 2.049875081501634 2.050055466436567 -0.5199772232553552 1.1399803817947731
2.0887157917 0.8193611069352191 0.0987388112658577 -1.11413151638574 2.049875081501634 2.050055466436567 -0.5199772232553552 1.1399803817947731
2.0887157917 0.8193611069352191 0.0987388112658577 -1.11413151638574 2.049875081501634 2.050055466436567 -0.5199772232553552 1.1399803817947731
2.09829592705 0.8193611069352191 0.0987388112658577 -1.11413151638574 2.049875081501634 2.050055466436567 -0.5199772232553552 1.1399803817947731
2.09829592705 0.8193611069352191 0.0987388112658577 -1.11413151638574 2.049875081501634 2.050055466436567 -0.5199772232553552 1.1399803817947731
2.10833382607 0.8193611069352191 0.0987388112658577 -1.11413151638574 2.049875081501634 2.050055466436567 -0.5199772232553552 1.1399803817947731
2.10833382607 0.8193611069352191 0.0987388112658577 -1.11413151638574 2.049875081501634 2.050055466436567 -0.5199772232553552 1.1399803817947731
2.11843800545 0.8193611069352191 0.0987388112658577 -1.11413151638574 2.049875081501634 2.050055466436567 -0.5199772232553552 1.1399803817947731
2.11843800545 0.8193611069352191 0.0987388112658577 -1.11413151638574 2.049875081501634 2.050055466436567 -0.5199772232553552 1.1399803817947731
2.12837290764 0.8193457669238675 0.0987388112658577 -1.11413151638574 2.049875081501634 2.050055466436567 -0.5199772232553552 1.1399803817947731
2.12837290764 0.8193457669238675 0.0987388112658577 -1.11413151638574 2.049875081501634 2.050055466436567 -0.5199772232553552 1.1399803817947731
2.13830900192 0.8193457669238675 0.0987388112658577 -1.11413151638574 2.049875081501634 2.050055466436567 -0.5199772232553552 1.1399803817947731
2.13830900192 0.8193457669238675 0.0987388112658577 -1.11413151638574 2.049875081501634 2.050055466436567 -0.5199772232553552 1.1399803817947731
2.14828300476 0.8193304269125159 0.0987388112658577 -1.11413151638574 2.049875081501634 2.050055466436567 -0.5199772232553552 1.1399803817947731
2.14828300476 0.8193304269125159 0.0987388112658577 -1.11413151638574 2.049875081501634 2.050055466436567 -0.5199772232553552 1.1399803817947731
2.15845584869 0.8193304269125159 0.0987388112658577 -1.11413151638574 2.049875081501634 2.050055466436567 -0.5199772232553552 1.1399803817947731
2.15845584869 0.8193304269125159 0.0987388112658577 -1.11413151638574 2.049875081501634 2.050055466436567 -0.5199772232553552 1.1399803817947731
2.16806793213 0.8193304269125159 0.0987388112658577 -1.11413151638574 2.049875081501634 2.050055466436567 -0.5199772232553552 1.1399803817947731
2.16806793213 0.8193304269125159 0.0987388112658577 -1.11413151638574 2.049875081501634 2.050055466436567 -0.5199772232553552 1.1399803817947731
2.17814588547 0.8192690668671095 0.0987388112658577 -1.11413151638574 2.049875081501634 2.050055466436567 -0.5199772232553552 1.1399803817947731
2.17814588547 0.8192690668671095 0.0987388112658577 -1.11413151638574 2.049875081501634 2.050055466436567 -0.5199772232553552 1.1399803817947731
2.18820881844 0.8192690668671095 0.0987388112658577 -1.11413151638574 2.049875081501634 2.050055466436567 -0.5199772232553552 1.1399803817947731
2.18820881844 0.8192690668671095 0.0987388112658577 -1.11413151638574 2.049875081501634 2.050055466436567 -0.5199772232553552 1.1399803817947731
2.19832992554 0.8192537268557579 0.0987388112658577 -1.11413151638574 2.049875081501634 2.050055466436567 -0.5199772232553552 1.1399803817947731
2.19832992554 0.8192537268557579 0.0987388112658577 -1.11413151638574 2.049875081501634 2.050055466436567 -0.5199772232553552 1.1399803817947731
2.20826888084 0.8192537268557579 0.0987388112658577 -1.11413151638574 2.049875081501634 2.050055466436567 -0.5199772232553552 1.1399803817947731
2.20826888084 0.8192537268557579 0.0987388112658577 -1.11413151638574 2.049875081501634 2.050055466436567 -0.5199772232553552 1.1399803817947731
2.21843099594 0.8192537268557579 0.0987388112658577 -1.11413151638574 2.049875081501634 2.050055466436567 -0.5199772232553552 1.1399803817947731
2.21843099594 0.8192537268557579 0.0987388112658577 -1.11413151638574 2.049875081501634 2.050055466436567 -0.5199772232553552 1.1399803817947731
2.22832989693 0.8192077068217031 0.0987388112658577 -1.11413151638574 2.049875081501634 2.050055466436567 -0.5199772232553552 1.1399803817947731
2.22832989693 0.8192077068217031 0.0987388112658577 -1.11413151638574 2.049875081501634 2.050055466436567 -0.5199772232553552 1.1399803817947731
2.23845887184 0.8192077068217031 0.0987388112658577 -1.11413151638574 2.049875081501634 2.050055466436567 -0.5199772232553552 1.1399803817947731
2.23845887184 0.8192077068217031 0.0987388112658577 -1.11413151638574 2.049875081501634 2.050055466436567 -0.5199772232553552 1.1399803817947731
2.24840593338 0.8192077068217031 0.0987388112658577 -1.11413151638574 2.049875081501634 2.050055466436567 -0.5199772232553552 1.1399803817947731
2.24840593338 0.8192077068217031 0.0987388112658577 -1.11413151638574 2.049875081501634 2.050055466436567 -0.5199772232553552 1.1399803817947731
2.25844502449 0.8191463467762966 0.0987388112658577 -1.11413151638574 2.049875081501634 2.050055466436567 -0.5199772232553552 1.1399803817947731
2.25844502449 0.8191463467762966 0.0987388112658577 -1.11413151638574 2.049875081501634 2.050055466436567 -0.5199772232553552 1.1399803817947731
2.26836395264 0.8191463467762966 0.0987388112658577 -1.11413151638574 2.049875081501634 2.050055466436567 -0.5199772232553552 1.1399803817947731
2.26836395264 0.8191463467762966 0.0987388112658577 -1.11413151638574 2.049875081501634 2.050055466436567 -0.5199772232553552 1.1399803817947731
2.27828788757 0.8191003267422418 0.0987388112658577 -1.11413151638574 2.049875081501634 2.050055466436567 -0.5199772232553552 1.1399803817947731
2.27828788757 0.8191003267422418 0.0987388112658577 -1.11413151638574 2.049875081501634 2.050055466436567 -0.5199772232553552 1.1399803817947731
2.28836989403 0.8190236266854838 0.0987388112658577 -1.11413151638574 2.049875081501634 2.050055466436567 -0.5199772232553552 1.1399803817947731
2.28836989403 0.8190236266854838 0.0987388112658577 -1.11413151638574 2.049875081501634 2.050055466436567 -0.5199772232553552 1.1399803817947731
2.2984919548 0.8189315866173741 0.0987388112658577 -1.11413151638574 2.049875081501634 2.050055466436567 -0.5199772232553552 1.1399803817947731
2.2984919548 0.8189315866173741 0.0987388112658577 -1.11413151638574 2.049875081501634 2.050055466436567 -0.5199772232553552 1.1399803817947731
2.30837583542 0.8189315866173741 0.0987388112658577 -1.11413151638574 2.049875081501634 2.050055466436567 -0.5199772232553552 1.1399803817947731
2.30837583542 0.8189315866173741 0.0987388112658577 -1.11413151638574 2.049875081501634 2.050055466436567 -0.5199772232553552 1.1399803817947731
2.31844782829 0.8189315866173741 0.0987388112658577 -1.11413151638574 2.049875081501634 2.050055466436567 -0.5199772232553552 1.1399803817947731
2.31844782829 0.8189315866173741 0.0987388112658577 -1.11413151638574 2.049875081501634 2.050055466436567 -0.5199772232553552 1.1399803817947731
2.32826781273 0.8189315866173741 0.0987388112658577 -1.11413151638574 2.049875081501634 2.050055466436567 -0.5199772232553552 1.1399803817947731
2.32826781273 0.8189315866173741 0.0987388112658577 -1.11413151638574 2.049875081501634 2.050055466436567 -0.5199772232553552 1.1399803817947731
2.3384540081 0.8189315866173741 0.0987388112658577 -1.11413151638574 2.049875081501634 2.050055466436567 -0.5199772232553552 1.1399803817947731
2.3384540081 0.8189315866173741 0.0987388112658577 -1.11413151638574 2.049875081501634 2.050055466436567 -0.5199772232553552 1.1399803817947731
2.34841799736 0.8189315866173741 0.0987388112658577 -1.11413151638574 2.049875081501634 2.050055466436567 -0.5199772232553552 1.1399803817947731
2.34841799736 0.8189315866173741 0.0987388112658577 -1.11413151638574 2.049875081501634 2.050055466436567 -0.5199772232553552 1.1399803817947731
2.35851287842 0.8189315866173741 0.0987388112658577 -1.11413151638574 2.049875081501634 2.050055466436567 -0.5199772232553552 1.1399803817947731
2.35851287842 0.8189315866173741 0.0987388112658577 -1.11413151638574 2.049875081501634 2.050055466436567 -0.5199772232553552 1.1399803817947731
2.3680999279 0.8187168264584516 0.0987388112658577 -1.11413151638574 2.049875081501634 2.050046335517449 -0.5199772232553552 1.1399803817947731
2.3680999279 0.8187168264584516 0.0987388112658577 -1.11413151638574 2.049875081501634 2.050046335517449 -0.5199772232553552 1.1399803817947731
2.37802481651 0.8186094463789904 0.0987388112658577 -1.11413151638574 2.049875081501634 2.050055466436567 -0.5199772232553552 1.1399803817947731
2.37802481651 0.8186094463789904 0.0987388112658577 -1.11413151638574 2.049875081501634 2.050055466436567 -0.5199772232553552 1.1399803817947731
2.38831591606 0.8186094463789904 0.0987388112658577 -1.11413151638574 2.049875081501634 2.050055466436567 -0.5199772232553552 1.1399803817947731
2.38831591606 0.8186094463789904 0.0987388112658577 -1.11413151638574 2.049875081501634 2.050055466436567 -0.5199772232553552 1.1399803817947731
2.39823389053 0.818502066299529 0.0987388112658577 -1.11413151638574 2.049875081501634 2.050055466436567 -0.5199772232553552 1.1399803817947731
2.39823389053 0.818502066299529 0.0987388112658577 -1.11413151638574 2.049875081501634 2.050055466436567 -0.5199772232553552 1.1399803817947731
2.40829491615 0.818502066299529 0.0987388112658577 -1.11413151638574 2.049875081501634 2.050055466436567 -0.5199772232553552 1.1399803817947731
2.40829491615 0.818502066299529 0.0987388112658577 -1.11413151638574 2.049875081501634 2.050055466436567 -0.5199772232553552 1.1399803817947731
2.4184319973 0.8183946862200678 0.0987388112658577 -1.11413151638574 2.049875081501634 2.050055466436567 -0.5199772232553552 1.1399803817947731
2.4184319973 0.8183946862200678 0.0987388112658577 -1.11413151638574 2.049875081501634 2.050055466436567 -0.5199772232553552 1.1399803817947731
2.42825984955 0.8183026461519581 0.0987388112658577 -1.11413151638574 2.049875081501634 2.050055466436567 -0.5199772232553552 1.1399803817947731
2.42825984955 0.8183026461519581 0.0987388112658577 -1.11413151638574 2.049875081501634 2.050055466436567 -0.5199772232553552 1.1399803817947731
2.43838095665 0.8182106060838485 0.0987388112658577 -1.11413151638574 2.049875081501634 2.050055466436567 -0.5199772232553552 1.1399803817947731
2.43838095665 0.8182106060838485 0.0987388112658577 -1.11413151638574 2.049875081501634 2.050055466436567 -0.5199772232553552 1.1399803817947731
2.44837594032 0.8182106060838485 0.0987388112658577 -1.11413151638574 2.049875081501634 2.050055466436567 -0.5199772232553552 1.1399803817947731
2.44837594032 0.8182106060838485 0.0987388112658577 -1.11413151638574 2.049875081501634 2.050055466436567 -0.5199772232553552 1.1399803817947731
2.45814800262 0.8181185660157388 0.0987388112658577 -1.11413151638574 2.049875081501634 2.050055466436567 -0.5199772232553552 1.1399803817947731
2.45814800262 0.8181185660157388 0.0987388112658577 -1.11413151638574 2.049875081501634 2.050055466436567 -0.5199772232553552 1.1399803817947731
2.46834492683 0.8181185660157388 0.0987388112658577 -1.11413151638574 2.049875081501634 2.050055466436567 -0.5199772232553552 1.1399803817947731
2.46834492683 0.8181185660157388 0.0987388112658577 -1.11413151638574 2.049875081501634 2.050055466436567 -0.5199772232553552 1.1399803817947731
2.47890686989 0.8181185660157388 0.0987388112658577 -1.11413151638574 2.049875081501634 2.050055466436567 -0.5199772232553552 1.1399803817947731
2.47890686989 0.8181185660157388 0.0987388112658577 -1.11413151638574 2.049875081501634 2.050055466436567 -0.5199772232553552 1.1399803817947731
2.48828601837 0.8181185660157388 0.0987388112658577 -1.11413151638574 2.049875081501634 2.050055466436567 -0.5199772232553552 1.1399803817947731
2.48828601837 0.8181185660157388 0.0987388112658577 -1.11413151638574 2.049875081501634 2.050055466436567 -0.5199772232553552 1.1399803817947731
2.49845480919 0.817995845924926 0.0987388112658577 -1.11413151638574 2.049875081501634 2.050055466436567 -0.5199772232553552 1.1399803817947731
2.49845480919 0.817995845924926 0.0987388112658577 -1.11413151638574 2.049875081501634 2.050055466436567 -0.5199772232553552 1.1399803817947731
2.50841999054 0.817995845924926 0.0987388112658577 -1.11413151638574 2.049875081501634 2.050055466436567 -0.5199772232553552 1.1399803817947731
2.50841999054 0.817995845924926 0.0987388112658577 -1.11413151638574 2.049875081501634 2.050055466436567 -0.5199772232553552 1.1399803817947731
2.51847982407 0.8175970056297842 0.0987388112658577 -1.11413151638574 2.049875081501634 2.050055466436567 -0.5199772232553552 1.1399803817947731
2.51847982407 0.8175970056297842 0.0987388112658577 -1.11413151638574 2.049875081501634 2.050055466436567 -0.5199772232553552 1.1399803817947731
2.52840590477 0.8175970056297842 0.0987388112658577 -1.11413151638574 2.049875081501634 2.050055466436567 -0.5199772232553552 1.1399803817947731
2.52840590477 0.8175970056297842 0.0987388112658577 -1.11413151638574 2.049875081501634 2.050055466436567 -0.5199772232553552 1.1399803817947731
2.53848695755 0.8175970056297842 0.0987388112658577 -1.11413151638574 2.049875081501634 2.050055466436567 -0.5199772232553552 1.1399803817947731
2.53848695755 0.8175970056297842 0.0987388112658577 -1.11413151638574 2.049875081501634 2.050055466436567 -0.5199772232553552 1.1399803817947731
2.54831790924 0.8170601052324779 0.0987388112658577 -1.1141468563970915 2.049875081501634 2.050055466436567 -0.5199772232553552 1.1399803817947731
2.54831790924 0.8170601052324779 0.0987388112658577 -1.1141468563970915 2.049875081501634 2.050055466436567 -0.5199772232553552 1.1399803817947731
2.5585269928 0.8170601052324779 0.0987388112658577 -1.1141468563970915 2.049875081501634 2.050055466436567 -0.5199772232553552 1.1399803817947731
2.5585269928 0.8170601052324779 0.0987388112658577 -1.1141468563970915 2.049875081501634 2.050055466436567 -0.5199772232553552 1.1399803817947731
2.56844496727 0.8170601052324779 0.0987388112658577 -1.1141468563970915 2.049875081501634 2.050055466436567 -0.5199772232553552 1.1399803817947731
2.56844496727 0.8170601052324779 0.0987388112658577 -1.1141468563970915 2.049875081501634 2.050055466436567 -0.5199772232553552 1.1399803817947731
2.57830786705 0.8170601052324779 0.0987388112658577 -1.1141468563970915 2.049875081501634 2.050055466436567 -0.5199772232553552 1.1399803817947731
2.57830786705 0.8170601052324779 0.0987388112658577 -1.1141468563970915 2.049875081501634 2.050055466436567 -0.5199772232553552 1.1399803817947731
2.58840799332 0.8170601052324779 0.0987388112658577 -1.1141468563970915 2.049875081501634 2.050055466436567 -0.5199772232553552 1.1399803817947731
2.58840799332 0.8170601052324779 0.0987388112658577 -1.1141468563970915 2.049875081501634 2.050055466436567 -0.5199772232553552 1.1399803817947731
2.59812402725 0.8170601052324779 0.0987388112658577 -1.1141468563970915 2.049875081501634 2.050055466436567 -0.5199772232553552 1.1399803817947731
2.59812402725 0.8170601052324779 0.0987388112658577 -1.1141468563970915 2.049875081501634 2.050055466436567 -0.5199772232553552 1.1399803817947731
2.60799598694 0.8170601052324779 0.0987388112658577 -1.1141468563970915 2.049875081501634 2.050055466436567 -0.5199772232553552 1.1399803817947731
2.60799598694 0.8170601052324779 0.0987388112658577 -1.1141468563970915 2.049875081501634 2.050055466436567 -0.5199772232553552 1.1399803817947731
2.6180999279 0.8170601052324779 0.0987388112658577 -1.1141468563970915 2.049875081501634 2.050055466436567 -0.5199772232553552 1.1399803817947731
2.6180999279 0.8170601052324779 0.0987388112658577 -1.1141468563970915 2.049875081501634 2.050055466436567 -0.5199772232553552 1.1399803817947731
2.62834191322 0.8170601052324779 0.0987388112658577 -1.1141468563970915 2.049875081501634 2.050055466436567 -0.5199772232553552 1.1399803817947731
2.62834191322 0.8170601052324779 0.0987388112658577 -1.1141468563970915 2.049875081501634 2.050055466436567 -0.5199772232553552 1.1399803817947731
2.63846683502 0.8170601052324779 0.0987388112658577 -1.1141468563970915 2.049875081501634 2.050055466436567 -0.5199772232553552 1.1399803817947731
2.63846683502 0.8170601052324779 0.0987388112658577 -1.1141468563970915 2.049875081501634 2.050055466436567 -0.5199772232553552 1.1399803817947731
2.64826989174 0.8170601052324779 0.0987388112658577 -1.1141468563970915 2.049875081501634 2.050055466436567 -0.5199772232553552 1.1399803817947731
2.64826989174 0.8170601052324779 0.0987388112658577 -1.1141468563970915 2.049875081501634 2.050055466436567 -0.5199772232553552 1.1399803817947731
2.65846991539 0.8170601052324779 0.0987388112658577 -1.1141468563970915 2.049875081501634 2.050055466436567 -0.5199772232553552 1.1399803817947731
2.65846991539 0.8170601052324779 0.0987388112658577 -1.1141468563970915 2.049875081501634 2.050055466436567 -0.5199772232553552 1.1399803817947731
2.66832089424 0.8170601052324779 0.0987388112658577 -1.1141468563970915 2.049875081501634 2.050055466436567 -0.5199772232553552 1.1399803817947731
2.66832089424 0.8170601052324779 0.0987388112658577 -1.1141468563970915 2.049875081501634 2.050055466436567 -0.5199772232553552 1.1399803817947731
2.67845702171 0.8170601052324779 0.0987388112658577 -1.1141468563970915 2.049875081501634 2.050055466436567 -0.5199772232553552 1.1399803817947731
2.67845702171 0.8170601052324779 0.0987388112658577 -1.1141468563970915 2.049875081501634 2.050055466436567 -0.5199772232553552 1.1399803817947731
2.6884188652 0.8170601052324779 0.0987388112658577 -1.1141468563970915 2.049875081501634 2.050055466436567 -0.5199772232553552 1.1399803817947731
2.6884188652 0.8170601052324779 0.0987388112658577 -1.1141468563970915 2.049875081501634 2.050055466436567 -0.5199772232553552 1.1399803817947731
2.69856595993 0.8170601052324779 0.0987388112658577 -1.1141468563970915 2.049875081501634 2.050055466436567 -0.5199772232553552 1.1399803817947731
2.69856595993 0.8170601052324779 0.0987388112658577 -1.1141468563970915 2.049875081501634 2.050055466436567 -0.5199772232553552 1.1399803817947731
2.70829391479 0.8170601052324779 0.0987388112658577 -1.1141468563970915 2.049875081501634 2.050055466436567 -0.5199772232553552 1.1399803817947731
2.70829391479 0.8170601052324779 0.0987388112658577 -1.1141468563970915 2.049875081501634 2.050055466436567 -0.5199772232553552 1.1399803817947731
2.71849298477 0.8170601052324779 0.0987388112658577 -1.1141468563970915 2.049875081501634 2.050055466436567 -0.5199772232553552 1.1399803817947731
2.71849298477 0.8170601052324779 0.0987388112658577 -1.1141468563970915 2.049875081501634 2.050055466436567 -0.5199772232553552 1.1399803817947731
2.72826695442 0.8170601052324779 0.0987388112658577 -1.1141468563970915 2.049875081501634 2.050055466436567 -0.5199772232553552 1.1399803817947731
2.72826695442 0.8170601052324779 0.0987388112658577 -1.1141468563970915 2.049875081501634 2.050055466436567 -0.5199772232553552 1.1399803817947731
2.73846101761 0.8170601052324779 0.0987388112658577 -1.1141468563970915 2.049875081501634 2.050055466436567 -0.5199772232553552 1.1399803817947731
2.73846101761 0.8170601052324779 0.0987388112658577 -1.1141468563970915 2.049875081501634 2.050055466436567 -0.5199772232553552 1.1399803817947731
2.74841094017 0.8170601052324779 0.0987388112658577 -1.1141468563970915 2.049875081501634 2.050055466436567 -0.5199772232553552 1.1399803817947731
2.74841094017 0.8170601052324779 0.0987388112658577 -1.1141468563970915 2.049875081501634 2.050055466436567 -0.5199772232553552 1.1399803817947731
2.75860095024 0.8170601052324779 0.0987388112658577 -1.1141468563970915 2.049875081501634 2.050055466436567 -0.5199772232553552 1.1399803817947731
2.75860095024 0.8170601052324779 0.0987388112658577 -1.1141468563970915 2.049875081501634 2.050055466436567 -0.5199772232553552 1.1399803817947731
2.76840090752 0.8170601052324779 0.0987388112658577 -1.1141468563970915 2.049875081501634 2.050055466436567 -0.5199772232553552 1.1399803817947731
2.76840090752 0.8170601052324779 0.0987388112658577 -1.1141468563970915 2.049875081501634 2.050055466436567 -0.5199772232553552 1.1399803817947731
2.7785089016 0.8170601052324779 0.0987388112658577 -1.1141468563970915 2.049875081501634 2.050055466436567 -0.5199772232553552 1.1399803817947731
2.7785089016 0.8170601052324779 0.0987388112658577 -1.1141468563970915 2.049875081501634 2.050055466436567 -0.5199772232553552 1.1399803817947731
2.78838896751 0.8170601052324779 0.0987388112658577 -1.1141468563970915 2.049875081501634 2.050055466436567 -0.5199772232553552 1.1399803817947731
2.78838896751 0.8170601052324779 0.0987388112658577 -1.1141468563970915 2.049875081501634 2.050055466436567 -0.5199772232553552 1.1399803817947731
2.79850697517 0.8170601052324779 0.0987388112658577 -1.1141468563970915 2.049875081501634 2.050055466436567 -0.5199772232553552 1.1399803817947731
2.79850697517 0.8170601052324779 0.0987388112658577 -1.1141468563970915 2.049875081501634 2.050055466436567 -0.5199772232553552 1.1399803817947731
2.80848383904 0.8170601052324779 0.0987388112658577 -1.1141468563970915 2.049875081501634 2.050055466436567 -0.5199772232553552 1.1399803817947731
2.80848383904 0.8170601052324779 0.0987388112658577 -1.1141468563970915 2.049875081501634 2.050055466436567 -0.5199772232553552 1.1399803817947731
2.81813097 0.8170601052324779 0.0987388112658577 -1.1141468563970915 2.049875081501634 2.050055466436567 -0.5199772232553552 1.1399803817947731
2.81813097 0.8170601052324779 0.0987388112658577 -1.1141468563970915 2.049875081501634 2.050055466436567 -0.5199772232553552 1.1399803817947731
2.82830190659 0.8159863044378654 0.0987388112658577 -1.1143309365333107 2.049875081501634 2.050055466436567 -0.5199772232553552 1.1399803817947731
2.82830190659 0.8159863044378654 0.0987388112658577 -1.1143309365333107 2.049875081501634 2.050055466436567 -0.5199772232553552 1.1399803817947731
2.83801293373 0.8147591035297367 0.0987388112658577 -1.1147757968625074 2.049875081501634 2.050055466436567 -0.5199772232553552 1.1399803817947731
2.83801293373 0.8147591035297367 0.0987388112658577 -1.1147757968625074 2.049875081501634 2.050055466436567 -0.5199772232553552 1.1399803817947731
2.84799790382 0.8147591035297367 0.0987388112658577 -1.1147757968625074 2.049875081501634 2.050055466436567 -0.5199772232553552 1.1399803817947731
2.84799790382 0.8147591035297367 0.0987388112658577 -1.1147757968625074 2.049875081501634 2.050055466436567 -0.5199772232553552 1.1399803817947731
2.85827493668 0.8147591035297367 0.0987388112658577 -1.1147757968625074 2.049875081501634 2.050055466436567 -0.5199772232553552 1.1399803817947731
2.85827493668 0.8147591035297367 0.0987388112658577 -1.1147757968625074 2.049875081501634 2.050055466436567 -0.5199772232553552 1.1399803817947731
2.86837482452 0.8147591035297367 0.0987388112658577 -1.1147757968625074 2.049875081501634 2.050055466436567 -0.5199772232553552 1.1399803817947731
2.86837482452 0.8147591035297367 0.0987388112658577 -1.1147757968625074 2.049875081501634 2.050055466436567 -0.5199772232553552 1.1399803817947731
2.87842392921 0.8147591035297367 0.0987388112658577 -1.1147757968625074 2.049875081501634 2.050055466436567 -0.5199772232553552 1.1399803817947731
2.87842392921 0.8147591035297367 0.0987388112658577 -1.1147757968625074 2.049875081501634 2.050055466436567 -0.5199772232553552 1.1399803817947731
2.88826298714 0.8147591035297367 0.0987388112658577 -1.1147757968625074 2.049875081501634 2.050055466436567 -0.5199772232553552 1.1399803817947731
2.88826298714 0.8147591035297367 0.0987388112658577 -1.1147757968625074 2.049875081501634 2.050055466436567 -0.5199772232553552 1.1399803817947731
2.89843797684 0.8136239426897176 0.0987388112658577 -1.1150212370441333 2.049875081501634 2.050055466436567 -0.5199772232553552 1.1399803817947731
2.89843797684 0.8136239426897176 0.0987388112658577 -1.1150212370441333 2.049875081501634 2.050055466436567 -0.5199772232553552 1.1399803817947731
2.90842795372 0.8136239426897176 0.0987388112658577 -1.1150212370441333 2.049875081501634 2.050055466436567 -0.5199772232553552 1.1399803817947731
2.90842795372 0.8136239426897176 0.0987388112658577 -1.1150212370441333 2.049875081501634 2.050055466436567 -0.5199772232553552 1.1399803817947731
2.91839385033 0.8136239426897176 0.0987388112658577 -1.1150212370441333 2.049875081501634 2.050055466436567 -0.5199772232553552 1.1399803817947731
2.91839385033 0.8136239426897176 0.0987388112658577 -1.1150212370441333 2.049875081501634 2.050055466436567 -0.5199772232553552 1.1399803817947731
2.9280769825 0.8122740216907761 0.0987388112658577 -1.1150365770554846 2.049875081501634 2.050055466436567 -0.5199772232553552 1.1399803817947731
2.9280769825 0.8122740216907761 0.0987388112658577 -1.1150365770554846 2.049875081501634 2.050055466436567 -0.5199772232553552 1.1399803817947731
2.93826293945 0.8122740216907761 0.0987388112658577 -1.1150365770554846 2.049875081501634 2.050055466436567 -0.5199772232553552 1.1399803817947731
2.93826293945 0.8122740216907761 0.0987388112658577 -1.1150365770554846 2.049875081501634 2.050055466436567 -0.5199772232553552 1.1399803817947731
2.94827198982 0.8122740216907761 0.0987388112658577 -1.1150365770554846 2.049875081501634 2.050055466436567 -0.5199772232553552 1.1399803817947731
2.94827198982 0.8122740216907761 0.0987388112658577 -1.1150365770554846 2.049875081501634 2.050055466436567 -0.5199772232553552 1.1399803817947731
2.95843482018 0.8122740216907761 0.0987388112658577 -1.1150365770554846 2.049875081501634 2.050055466436567 -0.5199772232553552 1.1399803817947731
2.95843482018 0.8122740216907761 0.0987388112658577 -1.1150365770554846 2.049875081501634 2.050055466436567 -0.5199772232553552 1.1399803817947731
2.96838283539 0.8122740216907761 0.0987388112658577 -1.1150365770554846 2.049875081501634 2.050055466436567 -0.5199772232553552 1.1399803817947731
2.96838283539 0.8122740216907761 0.0987388112658577 -1.1150365770554846 2.049875081501634 2.050055466436567 -0.5199772232553552 1.1399803817947731
2.97828602791 0.8122740216907761 0.0987388112658577 -1.1150365770554846 2.049875081501634 2.050055466436567 -0.5199772232553552 1.1399803817947731
2.97828602791 0.8122740216907761 0.0987388112658577 -1.1150365770554846 2.049875081501634 2.050055466436567 -0.5199772232553552 1.1399803817947731
2.98837685585 0.8122740216907761 0.0987388112658577 -1.1150365770554846 2.049875081501634 2.050055466436567 -0.5199772232553552 1.1399803817947731
2.98837685585 0.8122740216907761 0.0987388112658577 -1.1150365770554846 2.049875081501634 2.050055466436567 -0.5199772232553552 1.1399803817947731
2.99849700928 0.8122740216907761 0.0987388112658577 -1.1150365770554846 2.049875081501634 2.050055466436567 -0.5199772232553552 1.1399803817947731
2.99849700928 0.8122740216907761 0.0987388112658577 -1.1150365770554846 2.049875081501634 2.050055466436567 -0.5199772232553552 1.1399803817947731
3.00838088989 0.8122740216907761 0.0987388112658577 -1.1150365770554846 2.049875081501634 2.050055466436567 -0.5199772232553552 1.1399803817947731
3.00838088989 0.8122740216907761 0.0987388112658577 -1.1150365770554846 2.049875081501634 2.050055466436567 -0.5199772232553552 1.1399803817947731
3.01848387718 0.8122740216907761 0.0987388112658577 -1.1150365770554846 2.049875081501634 2.050055466436567 -0.5199772232553552 1.1399803817947731
3.01848387718 0.8122740216907761 0.0987388112658577 -1.1150365770554846 2.049875081501634 2.050055466436567 -0.5199772232553552 1.1399803817947731
3.02806091309 0.7971794505207934 0.0987388112658577 -1.122936682901563 2.049875081501634 2.050055466436567 -0.5199772232553552 1.1399803817947731
3.02806091309 0.7971794505207934 0.0987388112658577 -1.122936682901563 2.049875081501634 2.050055466436567 -0.5199772232553552 1.1399803817947731
3.03807091713 0.7971794505207934 0.0987388112658577 -1.122936682901563 2.049875081501634 2.050055466436567 -0.5199772232553552 1.1399803817947731
3.03807091713 0.7971794505207934 0.0987388112658577 -1.122936682901563 2.049875081501634 2.050055466436567 -0.5199772232553552 1.1399803817947731
3.04803490639 0.7971794505207934 0.0987388112658577 -1.122936682901563 2.049875081501634 2.050055466436567 -0.5199772232553552 1.1399803817947731
3.04803490639 0.7971794505207934 0.0987388112658577 -1.122936682901563 2.049875081501634 2.050055466436567 -0.5199772232553552 1.1399803817947731
3.05840992928 0.789632164935802 0.0987388112658577 -1.1255751648540395 2.049875081501634 2.050055466436567 -0.5199772232553552 1.1399803817947731
3.05840992928 0.789632164935802 0.0987388112658577 -1.1255751648540395 2.049875081501634 2.050055466436567 -0.5199772232553552 1.1399803817947731
3.06839489937 0.789632164935802 0.0987388112658577 -1.1255751648540395 2.049875081501634 2.050055466436567 -0.5199772232553552 1.1399803817947731
3.06839489937 0.789632164935802 0.0987388112658577 -1.1255751648540395 2.049875081501634 2.050055466436567 -0.5199772232553552 1.1399803817947731
3.07852983475 0.789632164935802 0.0987388112658577 -1.1255751648540395 2.049875081501634 2.050055466436567 -0.5199772232553552 1.1399803817947731
3.07852983475 0.789632164935802 0.0987388112658577 -1.1255751648540395 2.049875081501634 2.050055466436567 -0.5199772232553552 1.1399803817947731
3.08838486671 0.789632164935802 0.0987388112658577 -1.1255751648540395 2.049875081501634 2.050055466436567 -0.5199772232553552 1.1399803817947731
3.08838486671 0.789632164935802 0.0987388112658577 -1.1255751648540395 2.049875081501634 2.050055466436567 -0.5199772232553552 1.1399803817947731
3.09851193428 0.789632164935802 0.0987388112658577 -1.1255751648540395 2.049875081501634 2.050055466436567 -0.5199772232553552 1.1399803817947731
3.09851193428 0.789632164935802 0.0987388112658577 -1.1255751648540395 2.049875081501634 2.050055466436567 -0.5199772232553552 1.1399803817947731
3.10840582848 0.789632164935802 0.0987388112658577 -1.1255751648540395 2.049875081501634 2.050055466436567 -0.5199772232553552 1.1399803817947731
3.10840582848 0.789632164935802 0.0987388112658577 -1.1255751648540395 2.049875081501634 2.050055466436567 -0.5199772232553552 1.1399803817947731
3.11850190163 0.789632164935802 0.0987388112658577 -1.1255751648540395 2.049875081501634 2.050055466436567 -0.5199772232553552 1.1399803817947731
3.11850190163 0.789632164935802 0.0987388112658577 -1.1255751648540395 2.049875081501634 2.050055466436567 -0.5199772232553552 1.1399803817947731
3.12851786613 0.789632164935802 0.0987388112658577 -1.1255751648540395 2.049875081501634 2.050055466436567 -0.5199772232553552 1.1399803817947731
3.12851786613 0.789632164935802 0.0987388112658577 -1.1255751648540395 2.049875081501634 2.050055466436567 -0.5199772232553552 1.1399803817947731
3.13826394081 0.789632164935802 0.0987388112658577 -1.1255751648540395 2.049875081501634 2.050055466436567 -0.5199772232553552 1.1399803817947731
3.13826394081 0.789632164935802 0.0987388112658577 -1.1255751648540395 2.049875081501634 2.050055466436567 -0.5199772232553552 1.1399803817947731
3.14837193489 0.789632164935802 0.0987388112658577 -1.1255751648540395 2.049875081501634 2.050055466436567 -0.5199772232553552 1.1399803817947731
3.14837193489 0.789632164935802 0.0987388112658577 -1.1255751648540395 2.049875081501634 2.050055466436567 -0.5199772232553552 1.1399803817947731
3.15852284431 0.789632164935802 0.0987388112658577 -1.1255751648540395 2.049875081501634 2.050055466436567 -0.5199772232553552 1.1399803817947731
3.15852284431 0.789632164935802 0.0987388112658577 -1.1255751648540395 2.049875081501634 2.050055466436567 -0.5199772232553552 1.1399803817947731
3.16825985909 0.789632164935802 0.0987388112658577 -1.1255751648540395 2.049875081501634 2.050055466436567 -0.5199772232553552 1.1399803817947731
3.16825985909 0.789632164935802 0.0987388112658577 -1.1255751648540395 2.049875081501634 2.050055466436567 -0.5199772232553552 1.1399803817947731
3.17846798897 0.789632164935802 0.0987388112658577 -1.1255751648540395 2.049875081501634 2.050055466436567 -0.5199772232553552 1.1399803817947731
3.17846798897 0.789632164935802 0.0987388112658577 -1.1255751648540395 2.049875081501634 2.050055466436567 -0.5199772232553552 1.1399803817947731
3.18856287003 0.789632164935802 0.0987388112658577 -1.1255751648540395 2.049875081501634 2.050055466436567 -0.5199772232553552 1.1399803817947731
3.18856287003 0.789632164935802 0.0987388112658577 -1.1255751648540395 2.049875081501634 2.050055466436567 -0.5199772232553552 1.1399803817947731
3.19847798347 0.789632164935802 0.0987388112658577 -1.1255751648540395 2.049875081501634 2.050055466436567 -0.5199772232553552 1.1399803817947731
3.19847798347 0.789632164935802 0.0987388112658577 -1.1255751648540395 2.049875081501634 2.050055466436567 -0.5199772232553552 1.1399803817947731
3.20842289925 0.789632164935802 0.0987388112658577 -1.1255751648540395 2.049875081501634 2.050055466436567 -0.5199772232553552 1.1399803817947731
3.20842289925 0.789632164935802 0.0987388112658577 -1.1255751648540395 2.049875081501634 2.050055466436567 -0.5199772232553552 1.1399803817947731
3.21851396561 0.789632164935802 0.0987388112658577 -1.1255751648540395 2.049875081501634 2.050055466436567 -0.5199772232553552 1.1399803817947731
3.21851396561 0.789632164935802 0.0987388112658577 -1.1255751648540395 2.049875081501634 2.050055466436567 -0.5199772232553552 1.1399803817947731
3.22839784622 0.789632164935802 0.0987388112658577 -1.1255751648540395 2.049875081501634 2.050055466436567 -0.5199772232553552 1.1399803817947731
3.22839784622 0.789632164935802 0.0987388112658577 -1.1255751648540395 2.049875081501634 2.050055466436567 -0.5199772232553552 1.1399803817947731
3.23845887184 0.789632164935802 0.0987388112658577 -1.1255751648540395 2.049875081501634 2.050055466436567 -0.5199772232553552 1.1399803817947731
3.23845887184 0.789632164935802 0.0987388112658577 -1.1255751648540395 2.049875081501634 2.050055466436567 -0.5199772232553552 1.1399803817947731
3.2484228611 0.789632164935802 0.0987388112658577 -1.1255751648540395 2.049875081501634 2.050055466436567 -0.5199772232553552 1.1399803817947731
3.2484228611 0.789632164935802 0.0987388112658577 -1.1255751648540395 2.049875081501634 2.050055466436567 -0.5199772232553552 1.1399803817947731
3.25834584236 0.789632164935802 0.0987388112658577 -1.1255751648540395 2.049875081501634 2.050055466436567 -0.5199772232553552 1.1399803817947731
3.25834584236 0.789632164935802 0.0987388112658577 -1.1255751648540395 2.049875081501634 2.050055466436567 -0.5199772232553552 1.1399803817947731
3.26839089394 0.789632164935802 0.0987388112658577 -1.1255751648540395 2.049875081501634 2.050055466436567 -0.5199772232553552 1.1399803817947731
3.26839089394 0.789632164935802 0.0987388112658577 -1.1255751648540395 2.049875081501634 2.050055466436567 -0.5199772232553552 1.1399803817947731
3.2785320282 0.789632164935802 0.0987388112658577 -1.1255751648540395 2.049875081501634 2.050055466436567 -0.5199772232553552 1.1399803817947731
3.2785320282 0.789632164935802 0.0987388112658577 -1.1255751648540395 2.049875081501634 2.050055466436567 -0.5199772232553552 1.1399803817947731
3.28848695755 0.789632164935802 0.0987388112658577 -1.1255751648540395 2.049875081501634 2.050055466436567 -0.5199772232553552 1.1399803817947731
3.28848695755 0.789632164935802 0.0987388112658577 -1.1255751648540395 2.049875081501634 2.050055466436567 -0.5199772232553552 1.1399803817947731
3.29847288132 0.789632164935802 0.0987388112658577 -1.1255751648540395 2.049875081501634 2.050055466436567 -0.5199772232553552 1.1399803817947731
3.29847288132 0.789632164935802 0.0987388112658577 -1.1255751648540395 2.049875081501634 2.050055466436567 -0.5199772232553552 1.1399803817947731
3.30841302872 0.789632164935802 0.0987388112658577 -1.1255751648540395 2.049875081501634 2.050055466436567 -0.5199772232553552 1.1399803817947731
3.30841302872 0.789632164935802 0.0987388112658577 -1.1255751648540395 2.049875081501634 2.050055466436567 -0.5199772232553552 1.1399803817947731
3.31831097603 0.789632164935802 0.0987388112658577 -1.1255751648540395 2.049875081501634 2.050055466436567 -0.5199772232553552 1.1399803817947731
3.31831097603 0.789632164935802 0.0987388112658577 -1.1255751648540395 2.049875081501634 2.050055466436567 -0.5199772232553552 1.1399803817947731
3.32837986946 0.789632164935802 0.0987388112658577 -1.1255751648540395 2.049875081501634 2.050055466436567 -0.5199772232553552 1.1399803817947731
3.32837986946 0.789632164935802 0.0987388112658577 -1.1255751648540395 2.049875081501634 2.050055466436567 -0.5199772232553552 1.1399803817947731
3.33849692345 0.789632164935802 0.0987388112658577 -1.1255751648540395 2.049875081501634 2.050055466436567 -0.5199772232553552 1.1399803817947731
3.33849692345 0.789632164935802 0.0987388112658577 -1.1255751648540395 2.049875081501634 2.050055466436567 -0.5199772232553552 1.1399803817947731
3.34832501411 0.789632164935802 0.0987388112658577 -1.1255751648540395 2.049875081501634 2.050055466436567 -0.5199772232553552 1.1399803817947731
3.34832501411 0.789632164935802 0.0987388112658577 -1.1255751648540395 2.049875081501634 2.050055466436567 -0.5199772232553552 1.1399803817947731
3.35845398903 0.789632164935802 0.0987388112658577 -1.1255751648540395 2.049875081501634 2.050055466436567 -0.5199772232553552 1.1399803817947731
3.35845398903 0.789632164935802 0.0987388112658577 -1.1255751648540395 2.049875081501634 2.050055466436567 -0.5199772232553552 1.1399803817947731
3.36839199066 0.789632164935802 0.0987388112658577 -1.1255751648540395 2.049875081501634 2.050055466436567 -0.5199772232553552 1.1399803817947731
3.36839199066 0.789632164935802 0.0987388112658577 -1.1255751648540395 2.049875081501634 2.050055466436567 -0.5199772232553552 1.1399803817947731
3.37830400467 0.789632164935802 0.0987388112658577 -1.1255751648540395 2.049875081501634 2.050055466436567 -0.5199772232553552 1.1399803817947731
3.37830400467 0.789632164935802 0.0987388112658577 -1.1255751648540395 2.049875081501634 2.050055466436567 -0.5199772232553552 1.1399803817947731
3.3883600235 0.789632164935802 0.0987388112658577 -1.1255751648540395 2.049875081501634 2.050055466436567 -0.5199772232553552 1.1399803817947731
3.3883600235 0.789632164935802 0.0987388112658577 -1.1255751648540395 2.049875081501634 2.050055466436567 -0.5199772232553552 1.1399803817947731
3.39838600159 0.7695827700992499 0.0987388112658577 -1.1259740051491816 2.049875081501634 2.050055466436567 -0.5199772232553552 1.1399803817947731
3.39838600159 0.7695827700992499 0.0987388112658577 -1.1259740051491816 2.049875081501634 2.050055466436567 -0.5199772232553552 1.1399803817947731
3.40836000443 0.7695827700992499 0.0987388112658577 -1.1259740051491816 2.049875081501634 2.050055466436567 -0.5199772232553552 1.1399803817947731
3.40836000443 0.7695827700992499 0.0987388112658577 -1.1259740051491816 2.049875081501634 2.050055466436567 -0.5199772232553552 1.1399803817947731
3.41848492622 0.7695827700992499 0.0987388112658577 -1.1259740051491816 2.049875081501634 2.050055466436567 -0.5199772232553552 1.1399803817947731
3.41848492622 0.7695827700992499 0.0987388112658577 -1.1259740051491816 2.049875081501634 2.050055466436567 -0.5199772232553552 1.1399803817947731
3.42839884758 0.7695827700992499 0.0987388112658577 -1.1259740051491816 2.049875081501634 2.050055466436567 -0.5199772232553552 1.1399803817947731
3.42839884758 0.7695827700992499 0.0987388112658577 -1.1259740051491816 2.049875081501634 2.050055466436567 -0.5199772232553552 1.1399803817947731
3.43813896179 0.7328127628894445 0.0987848312999125 -1.1260046851718848 2.049875081501634 2.050055466436567 -0.5199772232553552 1.1399803817947731
3.43813896179 0.7328127628894445 0.0987848312999125 -1.1260046851718848 2.049875081501634 2.050055466436567 -0.5199772232553552 1.1399803817947731
3.44808101654 0.7179943119237908 0.0988001713112641 -1.127369946182178 2.049875081501634 2.050055466436567 -0.5199772232553552 1.1399803817947731
3.44808101654 0.7179943119237908 0.0988001713112641 -1.127369946182178 2.049875081501634 2.050055466436567 -0.5199772232553552 1.1399803817947731
3.45800900459 0.7097413858166255 0.0988155113226157 -1.129379487669239 2.049875081501634 2.050055466436567 -0.5199772232553552 1.1399803817947731
3.45800900459 0.7097413858166255 0.0988155113226157 -1.129379487669239 2.049875081501634 2.050055466436567 -0.5199772232553552 1.1399803817947731
3.4682238102 0.7097413858166255 0.0988155113226157 -1.129379487669239 2.049875081501634 2.050055466436567 -0.5199772232553552 1.1399803817947731
3.4682238102 0.7097413858166255 0.0988155113226157 -1.129379487669239 2.049875081501634 2.050055466436567 -0.5199772232553552 1.1399803817947731
3.47838282585 0.7097413858166255 0.0988155113226157 -1.129379487669239 2.049875081501634 2.050055466436567 -0.5199772232553552 1.1399803817947731
3.47838282585 0.7097413858166255 0.0988155113226157 -1.129379487669239 2.049875081501634 2.050055466436567 -0.5199772232553552 1.1399803817947731
3.48838281631 0.7097413858166255 0.0988155113226157 -1.129379487669239 2.049875081501634 2.050055466436567 -0.5199772232553552 1.1399803817947731
3.48838281631 0.7097413858166255 0.0988155113226157 -1.129379487669239 2.049875081501634 2.050055466436567 -0.5199772232553552 1.1399803817947731
3.49848198891 0.7097413858166255 0.0988155113226157 -1.129379487669239 2.049875081501634 2.050055466436567 -0.5199772232553552 1.1399803817947731
3.49848198891 0.7097413858166255 0.0988155113226157 -1.129379487669239 2.049875081501634 2.050055466436567 -0.5199772232553552 1.1399803817947731
3.50827884674 0.7097413858166255 0.0988155113226157 -1.129379487669239 2.049875081501634 2.050055466436567 -0.5199772232553552 1.1399803817947731
3.50827884674 0.7097413858166255 0.0988155113226157 -1.129379487669239 2.049875081501634 2.050055466436567 -0.5199772232553552 1.1399803817947731
3.51843094826 0.7097413858166255 0.0988155113226157 -1.129379487669239 2.049875081501634 2.050055466436567 -0.5199772232553552 1.1399803817947731
3.51843094826 0.7097413858166255 0.0988155113226157 -1.129379487669239 2.049875081501634 2.050055466436567 -0.5199772232553552 1.1399803817947731
3.52936887741 0.6954598352482781 0.0988922113793738 -1.1336133308022824 2.049875081501634 2.050055466436567 -0.5199772232553552 1.1399803817947731
3.52936887741 0.6954598352482781 0.0988922113793738 -1.1336133308022824 2.049875081501634 2.050055466436567 -0.5199772232553552 1.1399803817947731
3.53836989403 0.6850899875745908 0.0991990116064059 -1.1370188133223396 2.049859741490282 2.050055466436567 -0.5199772232553552 1.1399803817947731
3.53836989403 0.6850899875745908 0.0991990116064059 -1.1370188133223396 2.049859741490282 2.050055466436567 -0.5199772232553552 1.1399803817947731
3.5484828949 0.6850899875745908 0.0991990116064059 -1.1370188133223396 2.049859741490282 2.050055466436567 -0.5199772232553552 1.1399803817947731
3.5484828949 0.6850899875745908 0.0991990116064059 -1.1370188133223396 2.049859741490282 2.050055466436567 -0.5199772232553552 1.1399803817947731
3.55840086937 0.6850899875745908 0.0991990116064059 -1.1370188133223396 2.049859741490282 2.050055466436567 -0.5199772232553552 1.1399803817947731
3.55840086937 0.6850899875745908 0.0991990116064059 -1.1370188133223396 2.049859741490282 2.050055466436567 -0.5199772232553552 1.1399803817947731
3.56821990013 0.679951083771802 0.0994751318107349 -1.1385834944802036 2.0498444014789308 2.050055466436567 -0.5199772232553552 1.1399803817947731
3.56821990013 0.679951083771802 0.0994751318107349 -1.1385834944802036 2.0498444014789308 2.050055466436567 -0.5199772232553552 1.1399803817947731
3.57843279839 0.679951083771802 0.0994751318107349 -1.1385834944802036 2.0498444014789308 2.050055466436567 -0.5199772232553552 1.1399803817947731
3.57843279839 0.679951083771802 0.0994751318107349 -1.1385834944802036 2.0498444014789308 2.050055466436567 -0.5199772232553552 1.1399803817947731
3.58836483955 0.679951083771802 0.0994751318107349 -1.1385834944802036 2.0498444014789308 2.050055466436567 -0.5199772232553552 1.1399803817947731
3.58836483955 0.679951083771802 0.0994751318107349 -1.1385834944802036 2.0498444014789308 2.050055466436567 -0.5199772232553552 1.1399803817947731
3.5983338356 0.679951083771802 0.0994751318107349 -1.1385834944802036 2.0498444014789308 2.050055466436567 -0.5199772232553552 1.1399803817947731
3.5983338356 0.679951083771802 0.0994751318107349 -1.1385834944802036 2.0498444014789308 2.050055466436567 -0.5199772232553552 1.1399803817947731
3.60837197304 0.679951083771802 0.0994751318107349 -1.1385834944802036 2.0498444014789308 2.050055466436567 -0.5199772232553552 1.1399803817947731
3.60837197304 0.679951083771802 0.0994751318107349 -1.1385834944802036 2.0498444014789308 2.050055466436567 -0.5199772232553552 1.1399803817947731
3.61849188805 0.679951083771802 0.0994751318107349 -1.1385834944802036 2.0498444014789308 2.050055466436567 -0.5199772232553552 1.1399803817947731
3.61849188805 0.679951083771802 0.0994751318107349 -1.1385834944802036 2.0498444014789308 2.050055466436567 -0.5199772232553552 1.1399803817947731
3.62828397751 0.679951083771802 0.0994751318107349 -1.1385834944802036 2.0498444014789308 2.050055466436567 -0.5199772232553552 1.1399803817947731
3.62828397751 0.679951083771802 0.0994751318107349 -1.1385834944802036 2.0498444014789308 2.050055466436567 -0.5199772232553552 1.1399803817947731
3.63847994804 0.679951083771802 0.0994751318107349 -1.1385834944802036 2.0498444014789308 2.050055466436567 -0.5199772232553552 1.1399803817947731
3.63847994804 0.679951083771802 0.0994751318107349 -1.1385834944802036 2.0498444014789308 2.050055466436567 -0.5199772232553552 1.1399803817947731
3.64846801758 0.679951083771802 0.0994751318107349 -1.1385834944802036 2.0498444014789308 2.050055466436567 -0.5199772232553552 1.1399803817947731
3.64846801758 0.679951083771802 0.0994751318107349 -1.1385834944802036 2.0498444014789308 2.050055466436567 -0.5199772232553552 1.1399803817947731
3.65830683708 0.679951083771802 0.0994751318107349 -1.1385834944802036 2.0498444014789308 2.050055466436567 -0.5199772232553552 1.1399803817947731
3.65830683708 0.679951083771802 0.0994751318107349 -1.1385834944802036 2.0498444014789308 2.050055466436567 -0.5199772232553552 1.1399803817947731
3.66839289665 0.679951083771802 0.0994751318107349 -1.1385834944802036 2.0498444014789308 2.050055466436567 -0.5199772232553552 1.1399803817947731
3.66839289665 0.679951083771802 0.0994751318107349 -1.1385834944802036 2.0498444014789308 2.050055466436567 -0.5199772232553552 1.1399803817947731
3.67811489105 0.679951083771802 0.0994751318107349 -1.1385834944802036 2.0498444014789308 2.050055466436567 -0.5199772232553552 1.1399803817947731
3.67811489105 0.679951083771802 0.0994751318107349 -1.1385834944802036 2.0498444014789308 2.050055466436567 -0.5199772232553552 1.1399803817947731
3.68805098534 0.679951083771802 0.0994751318107349 -1.1385834944802036 2.0498444014789308 2.050055466436567 -0.5199772232553552 1.1399803817947731
3.68805098534 0.679951083771802 0.0994751318107349 -1.1385834944802036 2.0498444014789308 2.050055466436567 -0.5199772232553552 1.1399803817947731
3.69827985764 0.679951083771802 0.0994751318107349 -1.1385834944802036 2.0498444014789308 2.050055466436567 -0.5199772232553552 1.1399803817947731
3.69827985764 0.679951083771802 0.0994751318107349 -1.1385834944802036 2.0498444014789308 2.050055466436567 -0.5199772232553552 1.1399803817947731
3.70834183693 0.679951083771802 0.0994751318107349 -1.1385834944802036 2.0498444014789308 2.050055466436567 -0.5199772232553552 1.1399803817947731
3.70834183693 0.679951083771802 0.0994751318107349 -1.1385834944802036 2.0498444014789308 2.050055466436567 -0.5199772232553552 1.1399803817947731
3.71846389771 0.679951083771802 0.0994751318107349 -1.1385834944802036 2.0498444014789308 2.050055466436567 -0.5199772232553552 1.1399803817947731
3.71846389771 0.679951083771802 0.0994751318107349 -1.1385834944802036 2.0498444014789308 2.050055466436567 -0.5199772232553552 1.1399803817947731
3.72827386856 0.679951083771802 0.0994751318107349 -1.1385834944802036 2.0498444014789308 2.050055466436567 -0.5199772232553552 1.1399803817947731
3.72827386856 0.679951083771802 0.0994751318107349 -1.1385834944802036 2.0498444014789308 2.050055466436567 -0.5199772232553552 1.1399803817947731
3.73845887184 0.679951083771802 0.0994751318107349 -1.1385834944802036 2.0498444014789308 2.050055466436567 -0.5199772232553552 1.1399803817947731
3.73845887184 0.679951083771802 0.0994751318107349 -1.1385834944802036 2.0498444014789308 2.050055466436567 -0.5199772232553552 1.1399803817947731
3.74833393097 0.679951083771802 0.0994751318107349 -1.1385834944802036 2.0498444014789308 2.050055466436567 -0.5199772232553552 1.1399803817947731
3.74833393097 0.679951083771802 0.0994751318107349 -1.1385834944802036 2.0498444014789308 2.050055466436567 -0.5199772232553552 1.1399803817947731
3.75843095779 0.679951083771802 0.0994751318107349 -1.1385834944802036 2.0498444014789308 2.050055466436567 -0.5199772232553552 1.1399803817947731
3.75843095779 0.679951083771802 0.0994751318107349 -1.1385834944802036 2.0498444014789308 2.050055466436567 -0.5199772232553552 1.1399803817947731
3.76837682724 0.679951083771802 0.0994751318107349 -1.1385834944802036 2.0498444014789308 2.050055466436567 -0.5199772232553552 1.1399803817947731
3.76837682724 0.679951083771802 0.0994751318107349 -1.1385834944802036 2.0498444014789308 2.050055466436567 -0.5199772232553552 1.1399803817947731
3.77836680412 0.679951083771802 0.0994751318107349 -1.1385834944802036 2.0498444014789308 2.050055466436567 -0.5199772232553552 1.1399803817947731
3.77836680412 0.679951083771802 0.0994751318107349 -1.1385834944802036 2.0498444014789308 2.050055466436567 -0.5199772232553552 1.1399803817947731
3.78838682175 0.679951083771802 0.0994751318107349 -1.1385834944802036 2.0498444014789308 2.050055466436567 -0.5199772232553552 1.1399803817947731
3.78838682175 0.679951083771802 0.0994751318107349 -1.1385834944802036 2.0498444014789308 2.050055466436567 -0.5199772232553552 1.1399803817947731
3.79847002029 0.679951083771802 0.0994751318107349 -1.1385834944802036 2.0498444014789308 2.050055466436567 -0.5199772232553552 1.1399803817947731
3.79847002029 0.679951083771802 0.0994751318107349 -1.1385834944802036 2.0498444014789308 2.050055466436567 -0.5199772232553552 1.1399803817947731
3.80851984024 0.679951083771802 0.0994751318107349 -1.1385834944802036 2.0498444014789308 2.050055466436567 -0.5199772232553552 1.1399803817947731
3.80851984024 0.679951083771802 0.0994751318107349 -1.1385834944802036 2.0498444014789308 2.050055466436567 -0.5199772232553552 1.1399803817947731
3.81831288338 0.679951083771802 0.0994751318107349 -1.1385834944802036 2.0498444014789308 2.050055466436567 -0.5199772232553552 1.1399803817947731
3.81831288338 0.679951083771802 0.0994751318107349 -1.1385834944802036 2.0498444014789308 2.050055466436567 -0.5199772232553552 1.1399803817947731
3.82837796211 0.679951083771802 0.0994751318107349 -1.1385834944802036 2.0498444014789308 2.050055466436567 -0.5199772232553552 1.1399803817947731
3.82837796211 0.679951083771802 0.0994751318107349 -1.1385834944802036 2.0498444014789308 2.050055466436567 -0.5199772232553552 1.1399803817947731
3.83850502968 0.679951083771802 0.0994751318107349 -1.1385834944802036 2.0498444014789308 2.050055466436567 -0.5199772232553552 1.1399803817947731
3.83850502968 0.679951083771802 0.0994751318107349 -1.1385834944802036 2.0498444014789308 2.050055466436567 -0.5199772232553552 1.1399803817947731
3.8483710289 0.679951083771802 0.0994751318107349 -1.1385834944802036 2.0498444014789308 2.050055466436567 -0.5199772232553552 1.1399803817947731
3.8483710289 0.679951083771802 0.0994751318107349 -1.1385834944802036 2.0498444014789308 2.050055466436567 -0.5199772232553552 1.1399803817947731
3.85845685005 0.679951083771802 0.0994751318107349 -1.1385834944802036 2.0498444014789308 2.050055466436567 -0.5199772232553552 1.1399803817947731
3.85845685005 0.679951083771802 0.0994751318107349 -1.1385834944802036 2.0498444014789308 2.050055466436567 -0.5199772232553552 1.1399803817947731
3.86835694313 0.679951083771802 0.0994751318107349 -1.1385834944802036 2.0498444014789308 2.050055466436567 -0.5199772232553552 1.1399803817947731
3.86835694313 0.679951083771802 0.0994751318107349 -1.1385834944802036 2.0498444014789308 2.050055466436567 -0.5199772232553552 1.1399803817947731
3.87846779823 0.679951083771802 0.0994751318107349 -1.1385834944802036 2.0498444014789308 2.050055466436567 -0.5199772232553552 1.1399803817947731
3.87846779823 0.679951083771802 0.0994751318107349 -1.1385834944802036 2.0498444014789308 2.050055466436567 -0.5199772232553552 1.1399803817947731
3.88839793205 0.679951083771802 0.0994751318107349 -1.1385834944802036 2.0498444014789308 2.050055466436567 -0.5199772232553552 1.1399803817947731
3.88839793205 0.679951083771802 0.0994751318107349 -1.1385834944802036 2.0498444014789308 2.050055466436567 -0.5199772232553552 1.1399803817947731
3.89826083183 0.679951083771802 0.0994751318107349 -1.1385834944802036 2.0498444014789308 2.050055466436567 -0.5199772232553552 1.1399803817947731
3.89826083183 0.679951083771802 0.0994751318107349 -1.1385834944802036 2.0498444014789308 2.050055466436567 -0.5199772232553552 1.1399803817947731
3.9084789753 0.679951083771802 0.0994751318107349 -1.1385834944802036 2.0498444014789308 2.050055466436567 -0.5199772232553552 1.1399803817947731
3.9084789753 0.679951083771802 0.0994751318107349 -1.1385834944802036 2.0498444014789308 2.050055466436567 -0.5199772232553552 1.1399803817947731
3.91845798492 0.679951083771802 0.0994751318107349 -1.1385834944802036 2.0498444014789308 2.050055466436567 -0.5199772232553552 1.1399803817947731
3.91845798492 0.679951083771802 0.0994751318107349 -1.1385834944802036 2.0498444014789308 2.050055466436567 -0.5199772232553552 1.1399803817947731
3.92841982841 0.679951083771802 0.0994751318107349 -1.1385834944802036 2.0498444014789308 2.050055466436567 -0.5199772232553552 1.1399803817947731
3.92841982841 0.679951083771802 0.0994751318107349 -1.1385834944802036 2.0498444014789308 2.050055466436567 -0.5199772232553552 1.1399803817947731
3.93848085403 0.679951083771802 0.0994751318107349 -1.1385834944802036 2.0498444014789308 2.050055466436567 -0.5199772232553552 1.1399803817947731
3.93848085403 0.679951083771802 0.0994751318107349 -1.1385834944802036 2.0498444014789308 2.050055466436567 -0.5199772232553552 1.1399803817947731
3.94837999344 0.679951083771802 0.0994751318107349 -1.1385834944802036 2.0498444014789308 2.050055466436567 -0.5199772232553552 1.1399803817947731
3.94837999344 0.679951083771802 0.0994751318107349 -1.1385834944802036 2.0498444014789308 2.050055466436567 -0.5199772232553552 1.1399803817947731
3.95846581459 0.679951083771802 0.0994751318107349 -1.1385834944802036 2.0498444014789308 2.050055466436567 -0.5199772232553552 1.1399803817947731
3.95846581459 0.679951083771802 0.0994751318107349 -1.1385834944802036 2.0498444014789308 2.050055466436567 -0.5199772232553552 1.1399803817947731
3.96830487251 0.679951083771802 0.0994751318107349 -1.1385834944802036 2.0498444014789308 2.050055466436567 -0.5199772232553552 1.1399803817947731
3.96830487251 0.679951083771802 0.0994751318107349 -1.1385834944802036 2.0498444014789308 2.050055466436567 -0.5199772232553552 1.1399803817947731
3.97849392891 0.679951083771802 0.0994751318107349 -1.1385834944802036 2.0498444014789308 2.050055466436567 -0.5199772232553552 1.1399803817947731
3.97849392891 0.679951083771802 0.0994751318107349 -1.1385834944802036 2.0498444014789308 2.050055466436567 -0.5199772232553552 1.1399803817947731
3.98842692375 0.679951083771802 0.0994751318107349 -1.1385834944802036 2.0498444014789308 2.050055466436567 -0.5199772232553552 1.1399803817947731
3.98842692375 0.679951083771802 0.0994751318107349 -1.1385834944802036 2.0498444014789308 2.050055466436567 -0.5199772232553552 1.1399803817947731
3.99842190742 0.679951083771802 0.0994751318107349 -1.1385834944802036 2.0498444014789308 2.050055466436567 -0.5199772232553552 1.1399803817947731
3.99842190742 0.679951083771802 0.0994751318107349 -1.1385834944802036 2.0498444014789308 2.050055466436567 -0.5199772232553552 1.1399803817947731
4.0084438324 0.679951083771802 0.0994751318107349 -1.1385834944802036 2.0498444014789308 2.050055466436567 -0.5199772232553552 1.1399803817947731
4.0084438324 0.679951083771802 0.0994751318107349 -1.1385834944802036 2.0498444014789308 2.050055466436567 -0.5199772232553552 1.1399803817947731
4.01850199699 0.679951083771802 0.0994751318107349 -1.1385834944802036 2.0498444014789308 2.050055466436567 -0.5199772232553552 1.1399803817947731
4.01850199699 0.679951083771802 0.0994751318107349 -1.1385834944802036 2.0498444014789308 2.050055466436567 -0.5199772232553552 1.1399803817947731
4.0285320282 0.679951083771802 0.0994751318107349 -1.1385834944802036 2.0498444014789308 2.050055466436567 -0.5199772232553552 1.1399803817947731
4.0285320282 0.679951083771802 0.0994751318107349 -1.1385834944802036 2.0498444014789308 2.050055466436567 -0.5199772232553552 1.1399803817947731
4.0384888649 0.679951083771802 0.0994751318107349 -1.1385834944802036 2.0498444014789308 2.050055466436567 -0.5199772232553552 1.1399803817947731
4.0384888649 0.679951083771802 0.0994751318107349 -1.1385834944802036 2.0498444014789308 2.050055466436567 -0.5199772232553552 1.1399803817947731
4.04838299751 0.679951083771802 0.0994751318107349 -1.1385834944802036 2.0498444014789308 2.050055466436567 -0.5199772232553552 1.1399803817947731
4.04838299751 0.679951083771802 0.0994751318107349 -1.1385834944802036 2.0498444014789308 2.050055466436567 -0.5199772232553552 1.1399803817947731
4.05836486816 0.679951083771802 0.0994751318107349 -1.1385834944802036 2.0498444014789308 2.050055466436567 -0.5199772232553552 1.1399803817947731
4.05836486816 0.679951083771802 0.0994751318107349 -1.1385834944802036 2.0498444014789308 2.050055466436567 -0.5199772232553552 1.1399803817947731
4.06839299202 0.679951083771802 0.0994751318107349 -1.1385834944802036 2.0498444014789308 2.050055466436567 -0.5199772232553552 1.1399803817947731
4.06839299202 0.679951083771802 0.0994751318107349 -1.1385834944802036 2.0498444014789308 2.050055466436567 -0.5199772232553552 1.1399803817947731
4.07848882675 0.679951083771802 0.0994751318107349 -1.1385834944802036 2.0498444014789308 2.050055466436567 -0.5199772232553552 1.1399803817947731
4.07848882675 0.679951083771802 0.0994751318107349 -1.1385834944802036 2.0498444014789308 2.050055466436567 -0.5199772232553552 1.1399803817947731
4.08851599693 0.679951083771802 0.0994751318107349 -1.1385834944802036 2.0498444014789308 2.050055466436567 -0.5199772232553552 1.1399803817947731
4.08851599693 0.679951083771802 0.0994751318107349 -1.1385834944802036 2.0498444014789308 2.050055466436567 -0.5199772232553552 1.1399803817947731
4.09842300415 0.679951083771802 0.0994751318107349 -1.1385834944802036 2.0498444014789308 2.050055466436567 -0.5199772232553552 1.1399803817947731
4.09842300415 0.679951083771802 0.0994751318107349 -1.1385834944802036 2.0498444014789308 2.050055466436567 -0.5199772232553552 1.1399803817947731
4.10825181007 0.679951083771802 0.0994751318107349 -1.1385834944802036 2.0498444014789308 2.050055466436567 -0.5199772232553552 1.1399803817947731
4.10825181007 0.679951083771802 0.0994751318107349 -1.1385834944802036 2.0498444014789308 2.050055466436567 -0.5199772232553552 1.1399803817947731
4.11843299866 0.679951083771802 0.0994751318107349 -1.1385834944802036 2.0498444014789308 2.050055466436567 -0.5199772232553552 1.1399803817947731
4.11843299866 0.679951083771802 0.0994751318107349 -1.1385834944802036 2.0498444014789308 2.050055466436567 -0.5199772232553552 1.1399803817947731
4.12824082375 0.679951083771802 0.0994751318107349 -1.1385834944802036 2.0498444014789308 2.050055466436567 -0.5199772232553552 1.1399803817947731
4.12824082375 0.679951083771802 0.0994751318107349 -1.1385834944802036 2.0498444014789308 2.050055466436567 -0.5199772232553552 1.1399803817947731
4.13845396042 0.679951083771802 0.0994751318107349 -1.1385834944802036 2.0498444014789308 2.050055466436567 -0.5199772232553552 1.1399803817947731
4.13845396042 0.679951083771802 0.0994751318107349 -1.1385834944802036 2.0498444014789308 2.050055466436567 -0.5199772232553552 1.1399803817947731
4.1483809948 0.679951083771802 0.0994751318107349 -1.1385834944802036 2.0498444014789308 2.050055466436567 -0.5199772232553552 1.1399803817947731
4.1483809948 0.679951083771802 0.0994751318107349 -1.1385834944802036 2.0498444014789308 2.050055466436567 -0.5199772232553552 1.1399803817947731
4.15843892097 0.679951083771802 0.0994751318107349 -1.1385834944802036 2.0498444014789308 2.050055466436567 -0.5199772232553552 1.1399803817947731
4.15843892097 0.679951083771802 0.0994751318107349 -1.1385834944802036 2.0498444014789308 2.050055466436567 -0.5199772232553552 1.1399803817947731
4.16839694977 0.679951083771802 0.0994751318107349 -1.1385834944802036 2.0498444014789308 2.050055466436567 -0.5199772232553552 1.1399803817947731
4.16839694977 0.679951083771802 0.0994751318107349 -1.1385834944802036 2.0498444014789308 2.050055466436567 -0.5199772232553552 1.1399803817947731
4.17835402489 0.679951083771802 0.0994751318107349 -1.1385834944802036 2.0498444014789308 2.050055466436567 -0.5199772232553552 1.1399803817947731
4.17835402489 0.679951083771802 0.0994751318107349 -1.1385834944802036 2.0498444014789308 2.050055466436567 -0.5199772232553552 1.1399803817947731
4.18833398819 0.679951083771802 0.0994751318107349 -1.1385834944802036 2.0498444014789308 2.050055466436567 -0.5199772232553552 1.1399803817947731
4.18833398819 0.679951083771802 0.0994751318107349 -1.1385834944802036 2.0498444014789308 2.050055466436567 -0.5199772232553552 1.1399803817947731
4.19851493835 0.679951083771802 0.0994751318107349 -1.1385834944802036 2.0498444014789308 2.050055466436567 -0.5199772232553552 1.1399803817947731
4.19851493835 0.679951083771802 0.0994751318107349 -1.1385834944802036 2.0498444014789308 2.050055466436567 -0.5199772232553552 1.1399803817947731
4.2085878849 0.679951083771802 0.0994751318107349 -1.1385834944802036 2.0498444014789308 2.050055466436567 -0.5199772232553552 1.1399803817947731
4.2085878849 0.679951083771802 0.0994751318107349 -1.1385834944802036 2.0498444014789308 2.050055466436567 -0.5199772232553552 1.1399803817947731
4.21840190887 0.679951083771802 0.0994751318107349 -1.1385834944802036 2.0498444014789308 2.050055466436567 -0.5199772232553552 1.1399803817947731
4.21840190887 0.679951083771802 0.0994751318107349 -1.1385834944802036 2.0498444014789308 2.050055466436567 -0.5199772232553552 1.1399803817947731
4.22840189934 0.679951083771802 0.0994751318107349 -1.1385834944802036 2.0498444014789308 2.050055466436567 -0.5199772232553552 1.1399803817947731
4.22840189934 0.679951083771802 0.0994751318107349 -1.1385834944802036 2.0498444014789308 2.050055466436567 -0.5199772232553552 1.1399803817947731
4.23846888542 0.679951083771802 0.0994751318107349 -1.1385834944802036 2.0498444014789308 2.050055466436567 -0.5199772232553552 1.1399803817947731
4.23846888542 0.679951083771802 0.0994751318107349 -1.1385834944802036 2.0498444014789308 2.050055466436567 -0.5199772232553552 1.1399803817947731
4.24833679199 0.679951083771802 0.0994751318107349 -1.1385834944802036 2.0498444014789308 2.050055466436567 -0.5199772232553552 1.1399803817947731
4.24833679199 0.679951083771802 0.0994751318107349 -1.1385834944802036 2.0498444014789308 2.050055466436567 -0.5199772232553552 1.1399803817947731
4.25850391388 0.679951083771802 0.0994751318107349 -1.1385834944802036 2.0498444014789308 2.050055466436567 -0.5199772232553552 1.1399803817947731
